(Created with grbl post processor 2023/09/24 10:09)
G21
(G-code generated with BlenderCAM and NC library)
G17G90
(Tool: D = 3.0 mm  type END flutes 2)
S12000M03
G00 Z2.0

G0X0Y0Z2
X-4.863Y-4.864
G1Z-2F200
X-4.893Y-4.84F400
X-4.926Y-4.822
X-4.962Y-4.811
X-4.999Y-4.807
X-5.037Y-4.811
X-5.073Y-4.822
X-5.106Y-4.84
X-5.135Y-4.863
X-5.159Y-4.893
X-5.177Y-4.926
X-5.188Y-4.962
X-5.192Y-4.999
X-5.188Y-5.037
X-5.177Y-5.073
X-5.159Y-5.106
X-5.136Y-5.135
X-5.106Y-5.159
X-5.073Y-5.177
X-5.037Y-5.188
X-5Y-5.192
X-4.962Y-5.188
X-4.926Y-5.177
X-4.893Y-5.159
X-4.864Y-5.136
X-4.84Y-5.106
X-4.822Y-5.073
X-4.811Y-5.037
X-4.807Y-5
X-4.811Y-4.962
X-4.822Y-4.926
X-4.84Y-4.893
X-4.863Y-4.864
X-4.65Y-4.65
X-4.725Y-4.589
X-4.811Y-4.543
X-4.903Y-4.515
X-4.999Y-4.506
X-5.096Y-4.515
X-5.188Y-4.543
X-5.274Y-4.589
X-5.349Y-4.65
X-5.41Y-4.725
X-5.456Y-4.811
X-5.484Y-4.903
X-5.493Y-4.999
X-5.484Y-5.096
X-5.456Y-5.188
X-5.41Y-5.274
X-5.349Y-5.349
X-5.274Y-5.41
X-5.188Y-5.456
X-5.096Y-5.484
X-5Y-5.493
X-4.903Y-5.484
X-4.811Y-5.456
X-4.725Y-5.41
X-4.65Y-5.349
X-4.589Y-5.274
X-4.543Y-5.188
X-4.515Y-5.096
X-4.506Y-5
X-4.515Y-4.903
X-4.543Y-4.811
X-4.589Y-4.725
X-4.65Y-4.65
G0Z2
X-5Y94.407
G1Z-2F200
X-4.962Y94.411F400
X-4.926Y94.422
X-4.893Y94.44
X-4.864Y94.463
X-4.84Y94.493
X-4.822Y94.526
X-4.811Y94.562
X-4.807Y94.599
X-4.811Y94.637
X-4.822Y94.673
X-4.84Y94.706
X-4.863Y94.735
X-4.893Y94.759
X-4.926Y94.777
X-4.962Y94.788
X-4.999Y94.792
X-5.037Y94.788
X-5.073Y94.777
X-5.106Y94.759
X-5.135Y94.736
X-5.159Y94.706
X-5.177Y94.673
X-5.188Y94.637
X-5.192Y94.6
X-5.188Y94.562
X-5.177Y94.526
X-5.159Y94.493
X-5.135Y94.463
X-5.106Y94.44
X-5.073Y94.422
X-5.037Y94.411
X-5Y94.407
X-5Y94.106
X-4.903Y94.115
X-4.811Y94.143
X-4.725Y94.189
X-4.65Y94.25
X-4.589Y94.325
X-4.543Y94.411
X-4.515Y94.503
X-4.506Y94.599
X-4.515Y94.696
X-4.543Y94.788
X-4.589Y94.874
X-4.65Y94.949
X-4.725Y95.01
X-4.811Y95.056
X-4.903Y95.084
X-4.999Y95.093
X-5.096Y95.084
X-5.188Y95.056
X-5.274Y95.01
X-5.349Y94.949
X-5.41Y94.874
X-5.456Y94.788
X-5.484Y94.696
X-5.493Y94.6
X-5.484Y94.503
X-5.456Y94.411
X-5.41Y94.325
X-5.349Y94.25
X-5.274Y94.189
X-5.188Y94.143
X-5.096Y94.115
X-5Y94.106
G0Z2
X154.807Y94.6
G1Z-2F200
X154.811Y94.562F400
X154.822Y94.526
X154.84Y94.493
X154.864Y94.463
X154.893Y94.44
X154.926Y94.422
X154.962Y94.411
X154.999Y94.407
X155.037Y94.411
X155.073Y94.422
X155.106Y94.44
X155.135Y94.463
X155.159Y94.493
X155.177Y94.526
X155.188Y94.562
X155.192Y94.599
X155.188Y94.637
X155.177Y94.673
X155.159Y94.706
X155.136Y94.735
X155.106Y94.759
X155.073Y94.777
X155.037Y94.788
X155Y94.792
X154.962Y94.788
X154.926Y94.777
X154.893Y94.759
X154.864Y94.736
X154.84Y94.706
X154.822Y94.673
X154.811Y94.637
X154.807Y94.6
X154.506Y94.6
X154.515Y94.503
X154.543Y94.411
X154.589Y94.325
X154.65Y94.25
X154.725Y94.189
X154.811Y94.143
X154.903Y94.115
X154.999Y94.106
X155.096Y94.115
X155.188Y94.143
X155.274Y94.189
X155.349Y94.25
X155.41Y94.325
X155.456Y94.411
X155.484Y94.503
X155.493Y94.599
X155.484Y94.696
X155.456Y94.788
X155.41Y94.874
X155.349Y94.949
X155.274Y95.01
X155.188Y95.056
X155.096Y95.084
X155Y95.093
X154.903Y95.084
X154.811Y95.056
X154.725Y95.01
X154.65Y94.949
X154.589Y94.874
X154.543Y94.788
X154.515Y94.696
X154.506Y94.6
G0Z2
X155Y-4.807
G1Z-2F200
X154.962Y-4.811F400
X154.926Y-4.822
X154.893Y-4.84
X154.864Y-4.863
X154.84Y-4.893
X154.822Y-4.926
X154.811Y-4.962
X154.807Y-4.999
X154.811Y-5.037
X154.822Y-5.073
X154.84Y-5.106
X154.863Y-5.135
X154.893Y-5.159
X154.926Y-5.177
X154.962Y-5.188
X154.999Y-5.192
X155.037Y-5.188
X155.073Y-5.177
X155.106Y-5.159
X155.135Y-5.136
X155.159Y-5.106
X155.177Y-5.073
X155.188Y-5.037
X155.192Y-5
X155.188Y-4.962
X155.177Y-4.926
X155.159Y-4.893
X155.136Y-4.864
X155.106Y-4.84
X155.073Y-4.822
X155.037Y-4.811
X155Y-4.807
X155Y-4.506
X154.903Y-4.515
X154.811Y-4.543
X154.725Y-4.589
X154.65Y-4.65
X154.589Y-4.725
X154.543Y-4.811
X154.515Y-4.903
X154.506Y-4.999
X154.515Y-5.096
X154.543Y-5.188
X154.589Y-5.274
X154.65Y-5.349
X154.725Y-5.41
X154.811Y-5.456
X154.903Y-5.484
X154.999Y-5.493
X155.096Y-5.484
X155.188Y-5.456
X155.274Y-5.41
X155.349Y-5.349
X155.41Y-5.274
X155.456Y-5.188
X155.484Y-5.096
X155.493Y-5
X155.484Y-4.903
X155.456Y-4.811
X155.41Y-4.725
X155.349Y-4.65
X155.274Y-4.589
X155.188Y-4.543
X155.096Y-4.515
X155Y-4.506
G0Z2
X-4.863Y-4.864
G1Z-4F200
X-4.893Y-4.84F400
X-4.926Y-4.822
X-4.962Y-4.811
X-4.999Y-4.807
X-5.037Y-4.811
X-5.073Y-4.822
X-5.106Y-4.84
X-5.135Y-4.863
X-5.159Y-4.893
X-5.177Y-4.926
X-5.188Y-4.962
X-5.192Y-4.999
X-5.188Y-5.037
X-5.177Y-5.073
X-5.159Y-5.106
X-5.136Y-5.135
X-5.106Y-5.159
X-5.073Y-5.177
X-5.037Y-5.188
X-5Y-5.192
X-4.962Y-5.188
X-4.926Y-5.177
X-4.893Y-5.159
X-4.864Y-5.136
X-4.84Y-5.106
X-4.822Y-5.073
X-4.811Y-5.037
X-4.807Y-5
X-4.811Y-4.962
X-4.822Y-4.926
X-4.84Y-4.893
X-4.863Y-4.864
X-4.65Y-4.65
X-4.725Y-4.589
X-4.811Y-4.543
X-4.903Y-4.515
X-4.999Y-4.506
X-5.096Y-4.515
X-5.188Y-4.543
X-5.274Y-4.589
X-5.349Y-4.65
X-5.41Y-4.725
X-5.456Y-4.811
X-5.484Y-4.903
X-5.493Y-4.999
X-5.484Y-5.096
X-5.456Y-5.188
X-5.41Y-5.274
X-5.349Y-5.349
X-5.274Y-5.41
X-5.188Y-5.456
X-5.096Y-5.484
X-5Y-5.493
X-4.903Y-5.484
X-4.811Y-5.456
X-4.725Y-5.41
X-4.65Y-5.349
X-4.589Y-5.274
X-4.543Y-5.188
X-4.515Y-5.096
X-4.506Y-5
X-4.515Y-4.903
X-4.543Y-4.811
X-4.589Y-4.725
X-4.65Y-4.65
G0Z2
X-5Y94.407
G1Z-4F200
X-4.962Y94.411F400
X-4.926Y94.422
X-4.893Y94.44
X-4.864Y94.463
X-4.84Y94.493
X-4.822Y94.526
X-4.811Y94.562
X-4.807Y94.599
X-4.811Y94.637
X-4.822Y94.673
X-4.84Y94.706
X-4.863Y94.735
X-4.893Y94.759
X-4.926Y94.777
X-4.962Y94.788
X-4.999Y94.792
X-5.037Y94.788
X-5.073Y94.777
X-5.106Y94.759
X-5.135Y94.736
X-5.159Y94.706
X-5.177Y94.673
X-5.188Y94.637
X-5.192Y94.6
X-5.188Y94.562
X-5.177Y94.526
X-5.159Y94.493
X-5.135Y94.463
X-5.106Y94.44
X-5.073Y94.422
X-5.037Y94.411
X-5Y94.407
X-5Y94.106
X-4.903Y94.115
X-4.811Y94.143
X-4.725Y94.189
X-4.65Y94.25
X-4.589Y94.325
X-4.543Y94.411
X-4.515Y94.503
X-4.506Y94.599
X-4.515Y94.696
X-4.543Y94.788
X-4.589Y94.874
X-4.65Y94.949
X-4.725Y95.01
X-4.811Y95.056
X-4.903Y95.084
X-4.999Y95.093
X-5.096Y95.084
X-5.188Y95.056
X-5.274Y95.01
X-5.349Y94.949
X-5.41Y94.874
X-5.456Y94.788
X-5.484Y94.696
X-5.493Y94.6
X-5.484Y94.503
X-5.456Y94.411
X-5.41Y94.325
X-5.349Y94.25
X-5.274Y94.189
X-5.188Y94.143
X-5.096Y94.115
X-5Y94.106
G0Z2
X154.807Y94.6
G1Z-4F200
X154.811Y94.562F400
X154.822Y94.526
X154.84Y94.493
X154.864Y94.463
X154.893Y94.44
X154.926Y94.422
X154.962Y94.411
X154.999Y94.407
X155.037Y94.411
X155.073Y94.422
X155.106Y94.44
X155.135Y94.463
X155.159Y94.493
X155.177Y94.526
X155.188Y94.562
X155.192Y94.599
X155.188Y94.637
X155.177Y94.673
X155.159Y94.706
X155.136Y94.735
X155.106Y94.759
X155.073Y94.777
X155.037Y94.788
X155Y94.792
X154.962Y94.788
X154.926Y94.777
X154.893Y94.759
X154.864Y94.736
X154.84Y94.706
X154.822Y94.673
X154.811Y94.637
X154.807Y94.6
X154.506Y94.6
X154.515Y94.503
X154.543Y94.411
X154.589Y94.325
X154.65Y94.25
X154.725Y94.189
X154.811Y94.143
X154.903Y94.115
X154.999Y94.106
X155.096Y94.115
X155.188Y94.143
X155.274Y94.189
X155.349Y94.25
X155.41Y94.325
X155.456Y94.411
X155.484Y94.503
X155.493Y94.599
X155.484Y94.696
X155.456Y94.788
X155.41Y94.874
X155.349Y94.949
X155.274Y95.01
X155.188Y95.056
X155.096Y95.084
X155Y95.093
X154.903Y95.084
X154.811Y95.056
X154.725Y95.01
X154.65Y94.949
X154.589Y94.874
X154.543Y94.788
X154.515Y94.696
X154.506Y94.6
G0Z2
X155Y-4.807
G1Z-4F200
X154.962Y-4.811F400
X154.926Y-4.822
X154.893Y-4.84
X154.864Y-4.863
X154.84Y-4.893
X154.822Y-4.926
X154.811Y-4.962
X154.807Y-4.999
X154.811Y-5.037
X154.822Y-5.073
X154.84Y-5.106
X154.863Y-5.135
X154.893Y-5.159
X154.926Y-5.177
X154.962Y-5.188
X154.999Y-5.192
X155.037Y-5.188
X155.073Y-5.177
X155.106Y-5.159
X155.135Y-5.136
X155.159Y-5.106
X155.177Y-5.073
X155.188Y-5.037
X155.192Y-5
X155.188Y-4.962
X155.177Y-4.926
X155.159Y-4.893
X155.136Y-4.864
X155.106Y-4.84
X155.073Y-4.822
X155.037Y-4.811
X155Y-4.807
X155Y-4.506
X154.903Y-4.515
X154.811Y-4.543
X154.725Y-4.589
X154.65Y-4.65
X154.589Y-4.725
X154.543Y-4.811
X154.515Y-4.903
X154.506Y-4.999
X154.515Y-5.096
X154.543Y-5.188
X154.589Y-5.274
X154.65Y-5.349
X154.725Y-5.41
X154.811Y-5.456
X154.903Y-5.484
X154.999Y-5.493
X155.096Y-5.484
X155.188Y-5.456
X155.274Y-5.41
X155.349Y-5.349
X155.41Y-5.274
X155.456Y-5.188
X155.484Y-5.096
X155.493Y-5
X155.484Y-4.903
X155.456Y-4.811
X155.41Y-4.725
X155.349Y-4.65
X155.274Y-4.589
X155.188Y-4.543
X155.096Y-4.515
X155Y-4.506
G0Z2
X-4.863Y-4.864
G1Z-6F200
X-4.893Y-4.84F400
X-4.926Y-4.822
X-4.962Y-4.811
X-4.999Y-4.807
X-5.037Y-4.811
X-5.073Y-4.822
X-5.106Y-4.84
X-5.135Y-4.863
X-5.159Y-4.893
X-5.177Y-4.926
X-5.188Y-4.962
X-5.192Y-4.999
X-5.188Y-5.037
X-5.177Y-5.073
X-5.159Y-5.106
X-5.136Y-5.135
X-5.106Y-5.159
X-5.073Y-5.177
X-5.037Y-5.188
X-5Y-5.192
X-4.962Y-5.188
X-4.926Y-5.177
X-4.893Y-5.159
X-4.864Y-5.136
X-4.84Y-5.106
X-4.822Y-5.073
X-4.811Y-5.037
X-4.807Y-5
X-4.811Y-4.962
X-4.822Y-4.926
X-4.84Y-4.893
X-4.863Y-4.864
X-4.65Y-4.65
X-4.725Y-4.589
X-4.811Y-4.543
X-4.903Y-4.515
X-4.999Y-4.506
X-5.096Y-4.515
X-5.188Y-4.543
X-5.274Y-4.589
X-5.349Y-4.65
X-5.41Y-4.725
X-5.456Y-4.811
X-5.484Y-4.903
X-5.493Y-4.999
X-5.484Y-5.096
X-5.456Y-5.188
X-5.41Y-5.274
X-5.349Y-5.349
X-5.274Y-5.41
X-5.188Y-5.456
X-5.096Y-5.484
X-5Y-5.493
X-4.903Y-5.484
X-4.811Y-5.456
X-4.725Y-5.41
X-4.65Y-5.349
X-4.589Y-5.274
X-4.543Y-5.188
X-4.515Y-5.096
X-4.506Y-5
X-4.515Y-4.903
X-4.543Y-4.811
X-4.589Y-4.725
X-4.65Y-4.65
G0Z2
X-5Y94.407
G1Z-6F200
X-4.962Y94.411F400
X-4.926Y94.422
X-4.893Y94.44
X-4.864Y94.463
X-4.84Y94.493
X-4.822Y94.526
X-4.811Y94.562
X-4.807Y94.599
X-4.811Y94.637
X-4.822Y94.673
X-4.84Y94.706
X-4.863Y94.735
X-4.893Y94.759
X-4.926Y94.777
X-4.962Y94.788
X-4.999Y94.792
X-5.037Y94.788
X-5.073Y94.777
X-5.106Y94.759
X-5.135Y94.736
X-5.159Y94.706
X-5.177Y94.673
X-5.188Y94.637
X-5.192Y94.6
X-5.188Y94.562
X-5.177Y94.526
X-5.159Y94.493
X-5.135Y94.463
X-5.106Y94.44
X-5.073Y94.422
X-5.037Y94.411
X-5Y94.407
X-5Y94.106
X-4.903Y94.115
X-4.811Y94.143
X-4.725Y94.189
X-4.65Y94.25
X-4.589Y94.325
X-4.543Y94.411
X-4.515Y94.503
X-4.506Y94.599
X-4.515Y94.696
X-4.543Y94.788
X-4.589Y94.874
X-4.65Y94.949
X-4.725Y95.01
X-4.811Y95.056
X-4.903Y95.084
X-4.999Y95.093
X-5.096Y95.084
X-5.188Y95.056
X-5.274Y95.01
X-5.349Y94.949
X-5.41Y94.874
X-5.456Y94.788
X-5.484Y94.696
X-5.493Y94.6
X-5.484Y94.503
X-5.456Y94.411
X-5.41Y94.325
X-5.349Y94.25
X-5.274Y94.189
X-5.188Y94.143
X-5.096Y94.115
X-5Y94.106
G0Z2
X154.807Y94.6
G1Z-6F200
X154.811Y94.562F400
X154.822Y94.526
X154.84Y94.493
X154.864Y94.463
X154.893Y94.44
X154.926Y94.422
X154.962Y94.411
X154.999Y94.407
X155.037Y94.411
X155.073Y94.422
X155.106Y94.44
X155.135Y94.463
X155.159Y94.493
X155.177Y94.526
X155.188Y94.562
X155.192Y94.599
X155.188Y94.637
X155.177Y94.673
X155.159Y94.706
X155.136Y94.735
X155.106Y94.759
X155.073Y94.777
X155.037Y94.788
X155Y94.792
X154.962Y94.788
X154.926Y94.777
X154.893Y94.759
X154.864Y94.736
X154.84Y94.706
X154.822Y94.673
X154.811Y94.637
X154.807Y94.6
X154.506Y94.6
X154.515Y94.503
X154.543Y94.411
X154.589Y94.325
X154.65Y94.25
X154.725Y94.189
X154.811Y94.143
X154.903Y94.115
X154.999Y94.106
X155.096Y94.115
X155.188Y94.143
X155.274Y94.189
X155.349Y94.25
X155.41Y94.325
X155.456Y94.411
X155.484Y94.503
X155.493Y94.599
X155.484Y94.696
X155.456Y94.788
X155.41Y94.874
X155.349Y94.949
X155.274Y95.01
X155.188Y95.056
X155.096Y95.084
X155Y95.093
X154.903Y95.084
X154.811Y95.056
X154.725Y95.01
X154.65Y94.949
X154.589Y94.874
X154.543Y94.788
X154.515Y94.696
X154.506Y94.6
G0Z2
X155Y-4.807
G1Z-6F200
X154.962Y-4.811F400
X154.926Y-4.822
X154.893Y-4.84
X154.864Y-4.863
X154.84Y-4.893
X154.822Y-4.926
X154.811Y-4.962
X154.807Y-4.999
X154.811Y-5.037
X154.822Y-5.073
X154.84Y-5.106
X154.863Y-5.135
X154.893Y-5.159
X154.926Y-5.177
X154.962Y-5.188
X154.999Y-5.192
X155.037Y-5.188
X155.073Y-5.177
X155.106Y-5.159
X155.135Y-5.136
X155.159Y-5.106
X155.177Y-5.073
X155.188Y-5.037
X155.192Y-5
X155.188Y-4.962
X155.177Y-4.926
X155.159Y-4.893
X155.136Y-4.864
X155.106Y-4.84
X155.073Y-4.822
X155.037Y-4.811
X155Y-4.807
X155Y-4.506
X154.903Y-4.515
X154.811Y-4.543
X154.725Y-4.589
X154.65Y-4.65
X154.589Y-4.725
X154.543Y-4.811
X154.515Y-4.903
X154.506Y-4.999
X154.515Y-5.096
X154.543Y-5.188
X154.589Y-5.274
X154.65Y-5.349
X154.725Y-5.41
X154.811Y-5.456
X154.903Y-5.484
X154.999Y-5.493
X155.096Y-5.484
X155.188Y-5.456
X155.274Y-5.41
X155.349Y-5.349
X155.41Y-5.274
X155.456Y-5.188
X155.484Y-5.096
X155.493Y-5
X155.484Y-4.903
X155.456Y-4.811
X155.41Y-4.725
X155.349Y-4.65
X155.274Y-4.589
X155.188Y-4.543
X155.096Y-4.515
X155Y-4.506
G0Z2
X-4.863Y-4.864
G1Z-8F200
X-4.893Y-4.84F400
X-4.926Y-4.822
X-4.962Y-4.811
X-4.999Y-4.807
X-5.037Y-4.811
X-5.073Y-4.822
X-5.106Y-4.84
X-5.135Y-4.863
X-5.159Y-4.893
X-5.177Y-4.926
X-5.188Y-4.962
X-5.192Y-4.999
X-5.188Y-5.037
X-5.177Y-5.073
X-5.159Y-5.106
X-5.136Y-5.135
X-5.106Y-5.159
X-5.073Y-5.177
X-5.037Y-5.188
X-5Y-5.192
X-4.962Y-5.188
X-4.926Y-5.177
X-4.893Y-5.159
X-4.864Y-5.136
X-4.84Y-5.106
X-4.822Y-5.073
X-4.811Y-5.037
X-4.807Y-5
X-4.811Y-4.962
X-4.822Y-4.926
X-4.84Y-4.893
X-4.863Y-4.864
X-4.65Y-4.65
X-4.725Y-4.589
X-4.811Y-4.543
X-4.903Y-4.515
X-4.999Y-4.506
X-5.096Y-4.515
X-5.188Y-4.543
X-5.274Y-4.589
X-5.349Y-4.65
X-5.41Y-4.725
X-5.456Y-4.811
X-5.484Y-4.903
X-5.493Y-4.999
X-5.484Y-5.096
X-5.456Y-5.188
X-5.41Y-5.274
X-5.349Y-5.349
X-5.274Y-5.41
X-5.188Y-5.456
X-5.096Y-5.484
X-5Y-5.493
X-4.903Y-5.484
X-4.811Y-5.456
X-4.725Y-5.41
X-4.65Y-5.349
X-4.589Y-5.274
X-4.543Y-5.188
X-4.515Y-5.096
X-4.506Y-5
X-4.515Y-4.903
X-4.543Y-4.811
X-4.589Y-4.725
X-4.65Y-4.65
G0Z2
X-5Y94.407
G1Z-8F200
X-4.962Y94.411F400
X-4.926Y94.422
X-4.893Y94.44
X-4.864Y94.463
X-4.84Y94.493
X-4.822Y94.526
X-4.811Y94.562
X-4.807Y94.599
X-4.811Y94.637
X-4.822Y94.673
X-4.84Y94.706
X-4.863Y94.735
X-4.893Y94.759
X-4.926Y94.777
X-4.962Y94.788
X-4.999Y94.792
X-5.037Y94.788
X-5.073Y94.777
X-5.106Y94.759
X-5.135Y94.736
X-5.159Y94.706
X-5.177Y94.673
X-5.188Y94.637
X-5.192Y94.6
X-5.188Y94.562
X-5.177Y94.526
X-5.159Y94.493
X-5.135Y94.463
X-5.106Y94.44
X-5.073Y94.422
X-5.037Y94.411
X-5Y94.407
X-5Y94.106
X-4.903Y94.115
X-4.811Y94.143
X-4.725Y94.189
X-4.65Y94.25
X-4.589Y94.325
X-4.543Y94.411
X-4.515Y94.503
X-4.506Y94.599
X-4.515Y94.696
X-4.543Y94.788
X-4.589Y94.874
X-4.65Y94.949
X-4.725Y95.01
X-4.811Y95.056
X-4.903Y95.084
X-4.999Y95.093
X-5.096Y95.084
X-5.188Y95.056
X-5.274Y95.01
X-5.349Y94.949
X-5.41Y94.874
X-5.456Y94.788
X-5.484Y94.696
X-5.493Y94.6
X-5.484Y94.503
X-5.456Y94.411
X-5.41Y94.325
X-5.349Y94.25
X-5.274Y94.189
X-5.188Y94.143
X-5.096Y94.115
X-5Y94.106
G0Z2
X154.807Y94.6
G1Z-8F200
X154.811Y94.562F400
X154.822Y94.526
X154.84Y94.493
X154.864Y94.463
X154.893Y94.44
X154.926Y94.422
X154.962Y94.411
X154.999Y94.407
X155.037Y94.411
X155.073Y94.422
X155.106Y94.44
X155.135Y94.463
X155.159Y94.493
X155.177Y94.526
X155.188Y94.562
X155.192Y94.599
X155.188Y94.637
X155.177Y94.673
X155.159Y94.706
X155.136Y94.735
X155.106Y94.759
X155.073Y94.777
X155.037Y94.788
X155Y94.792
X154.962Y94.788
X154.926Y94.777
X154.893Y94.759
X154.864Y94.736
X154.84Y94.706
X154.822Y94.673
X154.811Y94.637
X154.807Y94.6
X154.506Y94.6
X154.515Y94.503
X154.543Y94.411
X154.589Y94.325
X154.65Y94.25
X154.725Y94.189
X154.811Y94.143
X154.903Y94.115
X154.999Y94.106
X155.096Y94.115
X155.188Y94.143
X155.274Y94.189
X155.349Y94.25
X155.41Y94.325
X155.456Y94.411
X155.484Y94.503
X155.493Y94.599
X155.484Y94.696
X155.456Y94.788
X155.41Y94.874
X155.349Y94.949
X155.274Y95.01
X155.188Y95.056
X155.096Y95.084
X155Y95.093
X154.903Y95.084
X154.811Y95.056
X154.725Y95.01
X154.65Y94.949
X154.589Y94.874
X154.543Y94.788
X154.515Y94.696
X154.506Y94.6
G0Z2
X155Y-4.807
G1Z-8F200
X154.962Y-4.811F400
X154.926Y-4.822
X154.893Y-4.84
X154.864Y-4.863
X154.84Y-4.893
X154.822Y-4.926
X154.811Y-4.962
X154.807Y-4.999
X154.811Y-5.037
X154.822Y-5.073
X154.84Y-5.106
X154.863Y-5.135
X154.893Y-5.159
X154.926Y-5.177
X154.962Y-5.188
X154.999Y-5.192
X155.037Y-5.188
X155.073Y-5.177
X155.106Y-5.159
X155.135Y-5.136
X155.159Y-5.106
X155.177Y-5.073
X155.188Y-5.037
X155.192Y-5
X155.188Y-4.962
X155.177Y-4.926
X155.159Y-4.893
X155.136Y-4.864
X155.106Y-4.84
X155.073Y-4.822
X155.037Y-4.811
X155Y-4.807
X155Y-4.506
X154.903Y-4.515
X154.811Y-4.543
X154.725Y-4.589
X154.65Y-4.65
X154.589Y-4.725
X154.543Y-4.811
X154.515Y-4.903
X154.506Y-4.999
X154.515Y-5.096
X154.543Y-5.188
X154.589Y-5.274
X154.65Y-5.349
X154.725Y-5.41
X154.811Y-5.456
X154.903Y-5.484
X154.999Y-5.493
X155.096Y-5.484
X155.188Y-5.456
X155.274Y-5.41
X155.349Y-5.349
X155.41Y-5.274
X155.456Y-5.188
X155.484Y-5.096
X155.493Y-5
X155.484Y-4.903
X155.456Y-4.811
X155.41Y-4.725
X155.349Y-4.65
X155.274Y-4.589
X155.188Y-4.543
X155.096Y-4.515
X155Y-4.506
G0Z2
X-4.863Y-4.864
G1Z-10F200
X-4.893Y-4.84F400
X-4.926Y-4.822
X-4.962Y-4.811
X-4.999Y-4.807
X-5.037Y-4.811
X-5.073Y-4.822
X-5.106Y-4.84
X-5.135Y-4.863
X-5.159Y-4.893
X-5.177Y-4.926
X-5.188Y-4.962
X-5.192Y-4.999
X-5.188Y-5.037
X-5.177Y-5.073
X-5.159Y-5.106
X-5.136Y-5.135
X-5.106Y-5.159
X-5.073Y-5.177
X-5.037Y-5.188
X-5Y-5.192
X-4.962Y-5.188
X-4.926Y-5.177
X-4.893Y-5.159
X-4.864Y-5.136
X-4.84Y-5.106
X-4.822Y-5.073
X-4.811Y-5.037
X-4.807Y-5
X-4.811Y-4.962
X-4.822Y-4.926
X-4.84Y-4.893
X-4.863Y-4.864
X-4.65Y-4.65
X-4.725Y-4.589
X-4.811Y-4.543
X-4.903Y-4.515
X-4.999Y-4.506
X-5.096Y-4.515
X-5.188Y-4.543
X-5.274Y-4.589
X-5.349Y-4.65
X-5.41Y-4.725
X-5.456Y-4.811
X-5.484Y-4.903
X-5.493Y-4.999
X-5.484Y-5.096
X-5.456Y-5.188
X-5.41Y-5.274
X-5.349Y-5.349
X-5.274Y-5.41
X-5.188Y-5.456
X-5.096Y-5.484
X-5Y-5.493
X-4.903Y-5.484
X-4.811Y-5.456
X-4.725Y-5.41
X-4.65Y-5.349
X-4.589Y-5.274
X-4.543Y-5.188
X-4.515Y-5.096
X-4.506Y-5
X-4.515Y-4.903
X-4.543Y-4.811
X-4.589Y-4.725
X-4.65Y-4.65
G0Z2
X-5Y94.407
G1Z-10F200
X-4.962Y94.411F400
X-4.926Y94.422
X-4.893Y94.44
X-4.864Y94.463
X-4.84Y94.493
X-4.822Y94.526
X-4.811Y94.562
X-4.807Y94.599
X-4.811Y94.637
X-4.822Y94.673
X-4.84Y94.706
X-4.863Y94.735
X-4.893Y94.759
X-4.926Y94.777
X-4.962Y94.788
X-4.999Y94.792
X-5.037Y94.788
X-5.073Y94.777
X-5.106Y94.759
X-5.135Y94.736
X-5.159Y94.706
X-5.177Y94.673
X-5.188Y94.637
X-5.192Y94.6
X-5.188Y94.562
X-5.177Y94.526
X-5.159Y94.493
X-5.135Y94.463
X-5.106Y94.44
X-5.073Y94.422
X-5.037Y94.411
X-5Y94.407
X-5Y94.106
X-4.903Y94.115
X-4.811Y94.143
X-4.725Y94.189
X-4.65Y94.25
X-4.589Y94.325
X-4.543Y94.411
X-4.515Y94.503
X-4.506Y94.599
X-4.515Y94.696
X-4.543Y94.788
X-4.589Y94.874
X-4.65Y94.949
X-4.725Y95.01
X-4.811Y95.056
X-4.903Y95.084
X-4.999Y95.093
X-5.096Y95.084
X-5.188Y95.056
X-5.274Y95.01
X-5.349Y94.949
X-5.41Y94.874
X-5.456Y94.788
X-5.484Y94.696
X-5.493Y94.6
X-5.484Y94.503
X-5.456Y94.411
X-5.41Y94.325
X-5.349Y94.25
X-5.274Y94.189
X-5.188Y94.143
X-5.096Y94.115
X-5Y94.106
G0Z2
X154.807Y94.6
G1Z-10F200
X154.811Y94.562F400
X154.822Y94.526
X154.84Y94.493
X154.864Y94.463
X154.893Y94.44
X154.926Y94.422
X154.962Y94.411
X154.999Y94.407
X155.037Y94.411
X155.073Y94.422
X155.106Y94.44
X155.135Y94.463
X155.159Y94.493
X155.177Y94.526
X155.188Y94.562
X155.192Y94.599
X155.188Y94.637
X155.177Y94.673
X155.159Y94.706
X155.136Y94.735
X155.106Y94.759
X155.073Y94.777
X155.037Y94.788
X155Y94.792
X154.962Y94.788
X154.926Y94.777
X154.893Y94.759
X154.864Y94.736
X154.84Y94.706
X154.822Y94.673
X154.811Y94.637
X154.807Y94.6
X154.506Y94.6
X154.515Y94.503
X154.543Y94.411
X154.589Y94.325
X154.65Y94.25
X154.725Y94.189
X154.811Y94.143
X154.903Y94.115
X154.999Y94.106
X155.096Y94.115
X155.188Y94.143
X155.274Y94.189
X155.349Y94.25
X155.41Y94.325
X155.456Y94.411
X155.484Y94.503
X155.493Y94.599
X155.484Y94.696
X155.456Y94.788
X155.41Y94.874
X155.349Y94.949
X155.274Y95.01
X155.188Y95.056
X155.096Y95.084
X155Y95.093
X154.903Y95.084
X154.811Y95.056
X154.725Y95.01
X154.65Y94.949
X154.589Y94.874
X154.543Y94.788
X154.515Y94.696
X154.506Y94.6
G0Z2
X155Y-4.807
G1Z-10F200
X154.962Y-4.811F400
X154.926Y-4.822
X154.893Y-4.84
X154.864Y-4.863
X154.84Y-4.893
X154.822Y-4.926
X154.811Y-4.962
X154.807Y-4.999
X154.811Y-5.037
X154.822Y-5.073
X154.84Y-5.106
X154.863Y-5.135
X154.893Y-5.159
X154.926Y-5.177
X154.962Y-5.188
X154.999Y-5.192
X155.037Y-5.188
X155.073Y-5.177
X155.106Y-5.159
X155.135Y-5.136
X155.159Y-5.106
X155.177Y-5.073
X155.188Y-5.037
X155.192Y-5
X155.188Y-4.962
X155.177Y-4.926
X155.159Y-4.893
X155.136Y-4.864
X155.106Y-4.84
X155.073Y-4.822
X155.037Y-4.811
X155Y-4.807
X155Y-4.506
X154.903Y-4.515
X154.811Y-4.543
X154.725Y-4.589
X154.65Y-4.65
X154.589Y-4.725
X154.543Y-4.811
X154.515Y-4.903
X154.506Y-4.999
X154.515Y-5.096
X154.543Y-5.188
X154.589Y-5.274
X154.65Y-5.349
X154.725Y-5.41
X154.811Y-5.456
X154.903Y-5.484
X154.999Y-5.493
X155.096Y-5.484
X155.188Y-5.456
X155.274Y-5.41
X155.349Y-5.349
X155.41Y-5.274
X155.456Y-5.188
X155.484Y-5.096
X155.493Y-5
X155.484Y-4.903
X155.456Y-4.811
X155.41Y-4.725
X155.349Y-4.65
X155.274Y-4.589
X155.188Y-4.543
X155.096Y-4.515
X155Y-4.506
G0Z2
X-4.863Y-4.864
G1Z-12F200
X-4.893Y-4.84F400
X-4.926Y-4.822
X-4.962Y-4.811
X-4.999Y-4.807
X-5.037Y-4.811
X-5.073Y-4.822
X-5.106Y-4.84
X-5.135Y-4.863
X-5.159Y-4.893
X-5.177Y-4.926
X-5.188Y-4.962
X-5.192Y-4.999
X-5.188Y-5.037
X-5.177Y-5.073
X-5.159Y-5.106
X-5.136Y-5.135
X-5.106Y-5.159
X-5.073Y-5.177
X-5.037Y-5.188
X-5Y-5.192
X-4.962Y-5.188
X-4.926Y-5.177
X-4.893Y-5.159
X-4.864Y-5.136
X-4.84Y-5.106
X-4.822Y-5.073
X-4.811Y-5.037
X-4.807Y-5
X-4.811Y-4.962
X-4.822Y-4.926
X-4.84Y-4.893
X-4.863Y-4.864
X-4.65Y-4.65
X-4.725Y-4.589
X-4.811Y-4.543
X-4.903Y-4.515
X-4.999Y-4.506
X-5.096Y-4.515
X-5.188Y-4.543
X-5.274Y-4.589
X-5.349Y-4.65
X-5.41Y-4.725
X-5.456Y-4.811
X-5.484Y-4.903
X-5.493Y-4.999
X-5.484Y-5.096
X-5.456Y-5.188
X-5.41Y-5.274
X-5.349Y-5.349
X-5.274Y-5.41
X-5.188Y-5.456
X-5.096Y-5.484
X-5Y-5.493
X-4.903Y-5.484
X-4.811Y-5.456
X-4.725Y-5.41
X-4.65Y-5.349
X-4.589Y-5.274
X-4.543Y-5.188
X-4.515Y-5.096
X-4.506Y-5
X-4.515Y-4.903
X-4.543Y-4.811
X-4.589Y-4.725
X-4.65Y-4.65
G0Z2
X-5Y94.407
G1Z-12F200
X-4.962Y94.411F400
X-4.926Y94.422
X-4.893Y94.44
X-4.864Y94.463
X-4.84Y94.493
X-4.822Y94.526
X-4.811Y94.562
X-4.807Y94.599
X-4.811Y94.637
X-4.822Y94.673
X-4.84Y94.706
X-4.863Y94.735
X-4.893Y94.759
X-4.926Y94.777
X-4.962Y94.788
X-4.999Y94.792
X-5.037Y94.788
X-5.073Y94.777
X-5.106Y94.759
X-5.135Y94.736
X-5.159Y94.706
X-5.177Y94.673
X-5.188Y94.637
X-5.192Y94.6
X-5.188Y94.562
X-5.177Y94.526
X-5.159Y94.493
X-5.135Y94.463
X-5.106Y94.44
X-5.073Y94.422
X-5.037Y94.411
X-5Y94.407
X-5Y94.106
X-4.903Y94.115
X-4.811Y94.143
X-4.725Y94.189
X-4.65Y94.25
X-4.589Y94.325
X-4.543Y94.411
X-4.515Y94.503
X-4.506Y94.599
X-4.515Y94.696
X-4.543Y94.788
X-4.589Y94.874
X-4.65Y94.949
X-4.725Y95.01
X-4.811Y95.056
X-4.903Y95.084
X-4.999Y95.093
X-5.096Y95.084
X-5.188Y95.056
X-5.274Y95.01
X-5.349Y94.949
X-5.41Y94.874
X-5.456Y94.788
X-5.484Y94.696
X-5.493Y94.6
X-5.484Y94.503
X-5.456Y94.411
X-5.41Y94.325
X-5.349Y94.25
X-5.274Y94.189
X-5.188Y94.143
X-5.096Y94.115
X-5Y94.106
G0Z2
X154.807Y94.6
G1Z-12F200
X154.811Y94.562F400
X154.822Y94.526
X154.84Y94.493
X154.864Y94.463
X154.893Y94.44
X154.926Y94.422
X154.962Y94.411
X154.999Y94.407
X155.037Y94.411
X155.073Y94.422
X155.106Y94.44
X155.135Y94.463
X155.159Y94.493
X155.177Y94.526
X155.188Y94.562
X155.192Y94.599
X155.188Y94.637
X155.177Y94.673
X155.159Y94.706
X155.136Y94.735
X155.106Y94.759
X155.073Y94.777
X155.037Y94.788
X155Y94.792
X154.962Y94.788
X154.926Y94.777
X154.893Y94.759
X154.864Y94.736
X154.84Y94.706
X154.822Y94.673
X154.811Y94.637
X154.807Y94.6
X154.506Y94.6
X154.515Y94.503
X154.543Y94.411
X154.589Y94.325
X154.65Y94.25
X154.725Y94.189
X154.811Y94.143
X154.903Y94.115
X154.999Y94.106
X155.096Y94.115
X155.188Y94.143
X155.274Y94.189
X155.349Y94.25
X155.41Y94.325
X155.456Y94.411
X155.484Y94.503
X155.493Y94.599
X155.484Y94.696
X155.456Y94.788
X155.41Y94.874
X155.349Y94.949
X155.274Y95.01
X155.188Y95.056
X155.096Y95.084
X155Y95.093
X154.903Y95.084
X154.811Y95.056
X154.725Y95.01
X154.65Y94.949
X154.589Y94.874
X154.543Y94.788
X154.515Y94.696
X154.506Y94.6
G0Z2
X155Y-4.807
G1Z-12F200
X154.962Y-4.811F400
X154.926Y-4.822
X154.893Y-4.84
X154.864Y-4.863
X154.84Y-4.893
X154.822Y-4.926
X154.811Y-4.962
X154.807Y-4.999
X154.811Y-5.037
X154.822Y-5.073
X154.84Y-5.106
X154.863Y-5.135
X154.893Y-5.159
X154.926Y-5.177
X154.962Y-5.188
X154.999Y-5.192
X155.037Y-5.188
X155.073Y-5.177
X155.106Y-5.159
X155.135Y-5.136
X155.159Y-5.106
X155.177Y-5.073
X155.188Y-5.037
X155.192Y-5
X155.188Y-4.962
X155.177Y-4.926
X155.159Y-4.893
X155.136Y-4.864
X155.106Y-4.84
X155.073Y-4.822
X155.037Y-4.811
X155Y-4.807
X155Y-4.506
X154.903Y-4.515
X154.811Y-4.543
X154.725Y-4.589
X154.65Y-4.65
X154.589Y-4.725
X154.543Y-4.811
X154.515Y-4.903
X154.506Y-4.999
X154.515Y-5.096
X154.543Y-5.188
X154.589Y-5.274
X154.65Y-5.349
X154.725Y-5.41
X154.811Y-5.456
X154.903Y-5.484
X154.999Y-5.493
X155.096Y-5.484
X155.188Y-5.456
X155.274Y-5.41
X155.349Y-5.349
X155.41Y-5.274
X155.456Y-5.188
X155.484Y-5.096
X155.493Y-5
X155.484Y-4.903
X155.456Y-4.811
X155.41Y-4.725
X155.349Y-4.65
X155.274Y-4.589
X155.188Y-4.543
X155.096Y-4.515
X155Y-4.506
G0Z2
X-4.863Y-4.864
G1Z-14F200
X-4.893Y-4.84F400
X-4.926Y-4.822
X-4.962Y-4.811
X-4.999Y-4.807
X-5.037Y-4.811
X-5.073Y-4.822
X-5.106Y-4.84
X-5.135Y-4.863
X-5.159Y-4.893
X-5.177Y-4.926
X-5.188Y-4.962
X-5.192Y-4.999
X-5.188Y-5.037
X-5.177Y-5.073
X-5.159Y-5.106
X-5.136Y-5.135
X-5.106Y-5.159
X-5.073Y-5.177
X-5.037Y-5.188
X-5Y-5.192
X-4.962Y-5.188
X-4.926Y-5.177
X-4.893Y-5.159
X-4.864Y-5.136
X-4.84Y-5.106
X-4.822Y-5.073
X-4.811Y-5.037
X-4.807Y-5
X-4.811Y-4.962
X-4.822Y-4.926
X-4.84Y-4.893
X-4.863Y-4.864
X-4.65Y-4.65
X-4.725Y-4.589
X-4.811Y-4.543
X-4.903Y-4.515
X-4.999Y-4.506
X-5.096Y-4.515
X-5.188Y-4.543
X-5.274Y-4.589
X-5.349Y-4.65
X-5.41Y-4.725
X-5.456Y-4.811
X-5.484Y-4.903
X-5.493Y-4.999
X-5.484Y-5.096
X-5.456Y-5.188
X-5.41Y-5.274
X-5.349Y-5.349
X-5.274Y-5.41
X-5.188Y-5.456
X-5.096Y-5.484
X-5Y-5.493
X-4.903Y-5.484
X-4.811Y-5.456
X-4.725Y-5.41
X-4.65Y-5.349
X-4.589Y-5.274
X-4.543Y-5.188
X-4.515Y-5.096
X-4.506Y-5
X-4.515Y-4.903
X-4.543Y-4.811
X-4.589Y-4.725
X-4.65Y-4.65
G0Z2
X-5Y94.407
G1Z-14F200
X-4.962Y94.411F400
X-4.926Y94.422
X-4.893Y94.44
X-4.864Y94.463
X-4.84Y94.493
X-4.822Y94.526
X-4.811Y94.562
X-4.807Y94.599
X-4.811Y94.637
X-4.822Y94.673
X-4.84Y94.706
X-4.863Y94.735
X-4.893Y94.759
X-4.926Y94.777
X-4.962Y94.788
X-4.999Y94.792
X-5.037Y94.788
X-5.073Y94.777
X-5.106Y94.759
X-5.135Y94.736
X-5.159Y94.706
X-5.177Y94.673
X-5.188Y94.637
X-5.192Y94.6
X-5.188Y94.562
X-5.177Y94.526
X-5.159Y94.493
X-5.135Y94.463
X-5.106Y94.44
X-5.073Y94.422
X-5.037Y94.411
X-5Y94.407
X-5Y94.106
X-4.903Y94.115
X-4.811Y94.143
X-4.725Y94.189
X-4.65Y94.25
X-4.589Y94.325
X-4.543Y94.411
X-4.515Y94.503
X-4.506Y94.599
X-4.515Y94.696
X-4.543Y94.788
X-4.589Y94.874
X-4.65Y94.949
X-4.725Y95.01
X-4.811Y95.056
X-4.903Y95.084
X-4.999Y95.093
X-5.096Y95.084
X-5.188Y95.056
X-5.274Y95.01
X-5.349Y94.949
X-5.41Y94.874
X-5.456Y94.788
X-5.484Y94.696
X-5.493Y94.6
X-5.484Y94.503
X-5.456Y94.411
X-5.41Y94.325
X-5.349Y94.25
X-5.274Y94.189
X-5.188Y94.143
X-5.096Y94.115
X-5Y94.106
G0Z2
X154.807Y94.6
G1Z-14F200
X154.811Y94.562F400
X154.822Y94.526
X154.84Y94.493
X154.864Y94.463
X154.893Y94.44
X154.926Y94.422
X154.962Y94.411
X154.999Y94.407
X155.037Y94.411
X155.073Y94.422
X155.106Y94.44
X155.135Y94.463
X155.159Y94.493
X155.177Y94.526
X155.188Y94.562
X155.192Y94.599
X155.188Y94.637
X155.177Y94.673
X155.159Y94.706
X155.136Y94.735
X155.106Y94.759
X155.073Y94.777
X155.037Y94.788
X155Y94.792
X154.962Y94.788
X154.926Y94.777
X154.893Y94.759
X154.864Y94.736
X154.84Y94.706
X154.822Y94.673
X154.811Y94.637
X154.807Y94.6
X154.506Y94.6
X154.515Y94.503
X154.543Y94.411
X154.589Y94.325
X154.65Y94.25
X154.725Y94.189
X154.811Y94.143
X154.903Y94.115
X154.999Y94.106
X155.096Y94.115
X155.188Y94.143
X155.274Y94.189
X155.349Y94.25
X155.41Y94.325
X155.456Y94.411
X155.484Y94.503
X155.493Y94.599
X155.484Y94.696
X155.456Y94.788
X155.41Y94.874
X155.349Y94.949
X155.274Y95.01
X155.188Y95.056
X155.096Y95.084
X155Y95.093
X154.903Y95.084
X154.811Y95.056
X154.725Y95.01
X154.65Y94.949
X154.589Y94.874
X154.543Y94.788
X154.515Y94.696
X154.506Y94.6
G0Z2
X155Y-4.807
G1Z-14F200
X154.962Y-4.811F400
X154.926Y-4.822
X154.893Y-4.84
X154.864Y-4.863
X154.84Y-4.893
X154.822Y-4.926
X154.811Y-4.962
X154.807Y-4.999
X154.811Y-5.037
X154.822Y-5.073
X154.84Y-5.106
X154.863Y-5.135
X154.893Y-5.159
X154.926Y-5.177
X154.962Y-5.188
X154.999Y-5.192
X155.037Y-5.188
X155.073Y-5.177
X155.106Y-5.159
X155.135Y-5.136
X155.159Y-5.106
X155.177Y-5.073
X155.188Y-5.037
X155.192Y-5
X155.188Y-4.962
X155.177Y-4.926
X155.159Y-4.893
X155.136Y-4.864
X155.106Y-4.84
X155.073Y-4.822
X155.037Y-4.811
X155Y-4.807
X155Y-4.506
X154.903Y-4.515
X154.811Y-4.543
X154.725Y-4.589
X154.65Y-4.65
X154.589Y-4.725
X154.543Y-4.811
X154.515Y-4.903
X154.506Y-4.999
X154.515Y-5.096
X154.543Y-5.188
X154.589Y-5.274
X154.65Y-5.349
X154.725Y-5.41
X154.811Y-5.456
X154.903Y-5.484
X154.999Y-5.493
X155.096Y-5.484
X155.188Y-5.456
X155.274Y-5.41
X155.349Y-5.349
X155.41Y-5.274
X155.456Y-5.188
X155.484Y-5.096
X155.493Y-5
X155.484Y-4.903
X155.456Y-4.811
X155.41Y-4.725
X155.349Y-4.65
X155.274Y-4.589
X155.188Y-4.543
X155.096Y-4.515
X155Y-4.506
G0Z2
X-4.863Y-4.864
G1Z-16F200
X-4.893Y-4.84F400
X-4.926Y-4.822
X-4.962Y-4.811
X-4.999Y-4.807
X-5.037Y-4.811
X-5.073Y-4.822
X-5.106Y-4.84
X-5.135Y-4.863
X-5.159Y-4.893
X-5.177Y-4.926
X-5.188Y-4.962
X-5.192Y-4.999
X-5.188Y-5.037
X-5.177Y-5.073
X-5.159Y-5.106
X-5.136Y-5.135
X-5.106Y-5.159
X-5.073Y-5.177
X-5.037Y-5.188
X-5Y-5.192
X-4.962Y-5.188
X-4.926Y-5.177
X-4.893Y-5.159
X-4.864Y-5.136
X-4.84Y-5.106
X-4.822Y-5.073
X-4.811Y-5.037
X-4.807Y-5
X-4.811Y-4.962
X-4.822Y-4.926
X-4.84Y-4.893
X-4.863Y-4.864
X-4.65Y-4.65
X-4.725Y-4.589
X-4.811Y-4.543
X-4.903Y-4.515
X-4.999Y-4.506
X-5.096Y-4.515
X-5.188Y-4.543
X-5.274Y-4.589
X-5.349Y-4.65
X-5.41Y-4.725
X-5.456Y-4.811
X-5.484Y-4.903
X-5.493Y-4.999
X-5.484Y-5.096
X-5.456Y-5.188
X-5.41Y-5.274
X-5.349Y-5.349
X-5.274Y-5.41
X-5.188Y-5.456
X-5.096Y-5.484
X-5Y-5.493
X-4.903Y-5.484
X-4.811Y-5.456
X-4.725Y-5.41
X-4.65Y-5.349
X-4.589Y-5.274
X-4.543Y-5.188
X-4.515Y-5.096
X-4.506Y-5
X-4.515Y-4.903
X-4.543Y-4.811
X-4.589Y-4.725
X-4.65Y-4.65
G0Z2
X-5Y94.407
G1Z-16F200
X-4.962Y94.411F400
X-4.926Y94.422
X-4.893Y94.44
X-4.864Y94.463
X-4.84Y94.493
X-4.822Y94.526
X-4.811Y94.562
X-4.807Y94.599
X-4.811Y94.637
X-4.822Y94.673
X-4.84Y94.706
X-4.863Y94.735
X-4.893Y94.759
X-4.926Y94.777
X-4.962Y94.788
X-4.999Y94.792
X-5.037Y94.788
X-5.073Y94.777
X-5.106Y94.759
X-5.135Y94.736
X-5.159Y94.706
X-5.177Y94.673
X-5.188Y94.637
X-5.192Y94.6
X-5.188Y94.562
X-5.177Y94.526
X-5.159Y94.493
X-5.135Y94.463
X-5.106Y94.44
X-5.073Y94.422
X-5.037Y94.411
X-5Y94.407
X-5Y94.106
X-4.903Y94.115
X-4.811Y94.143
X-4.725Y94.189
X-4.65Y94.25
X-4.589Y94.325
X-4.543Y94.411
X-4.515Y94.503
X-4.506Y94.599
X-4.515Y94.696
X-4.543Y94.788
X-4.589Y94.874
X-4.65Y94.949
X-4.725Y95.01
X-4.811Y95.056
X-4.903Y95.084
X-4.999Y95.093
X-5.096Y95.084
X-5.188Y95.056
X-5.274Y95.01
X-5.349Y94.949
X-5.41Y94.874
X-5.456Y94.788
X-5.484Y94.696
X-5.493Y94.6
X-5.484Y94.503
X-5.456Y94.411
X-5.41Y94.325
X-5.349Y94.25
X-5.274Y94.189
X-5.188Y94.143
X-5.096Y94.115
X-5Y94.106
G0Z2
X154.807Y94.6
G1Z-16F200
X154.811Y94.562F400
X154.822Y94.526
X154.84Y94.493
X154.864Y94.463
X154.893Y94.44
X154.926Y94.422
X154.962Y94.411
X154.999Y94.407
X155.037Y94.411
X155.073Y94.422
X155.106Y94.44
X155.135Y94.463
X155.159Y94.493
X155.177Y94.526
X155.188Y94.562
X155.192Y94.599
X155.188Y94.637
X155.177Y94.673
X155.159Y94.706
X155.136Y94.735
X155.106Y94.759
X155.073Y94.777
X155.037Y94.788
X155Y94.792
X154.962Y94.788
X154.926Y94.777
X154.893Y94.759
X154.864Y94.736
X154.84Y94.706
X154.822Y94.673
X154.811Y94.637
X154.807Y94.6
X154.506Y94.6
X154.515Y94.503
X154.543Y94.411
X154.589Y94.325
X154.65Y94.25
X154.725Y94.189
X154.811Y94.143
X154.903Y94.115
X154.999Y94.106
X155.096Y94.115
X155.188Y94.143
X155.274Y94.189
X155.349Y94.25
X155.41Y94.325
X155.456Y94.411
X155.484Y94.503
X155.493Y94.599
X155.484Y94.696
X155.456Y94.788
X155.41Y94.874
X155.349Y94.949
X155.274Y95.01
X155.188Y95.056
X155.096Y95.084
X155Y95.093
X154.903Y95.084
X154.811Y95.056
X154.725Y95.01
X154.65Y94.949
X154.589Y94.874
X154.543Y94.788
X154.515Y94.696
X154.506Y94.6
G0Z2
X155Y-4.807
G1Z-16F200
X154.962Y-4.811F400
X154.926Y-4.822
X154.893Y-4.84
X154.864Y-4.863
X154.84Y-4.893
X154.822Y-4.926
X154.811Y-4.962
X154.807Y-4.999
X154.811Y-5.037
X154.822Y-5.073
X154.84Y-5.106
X154.863Y-5.135
X154.893Y-5.159
X154.926Y-5.177
X154.962Y-5.188
X154.999Y-5.192
X155.037Y-5.188
X155.073Y-5.177
X155.106Y-5.159
X155.135Y-5.136
X155.159Y-5.106
X155.177Y-5.073
X155.188Y-5.037
X155.192Y-5
X155.188Y-4.962
X155.177Y-4.926
X155.159Y-4.893
X155.136Y-4.864
X155.106Y-4.84
X155.073Y-4.822
X155.037Y-4.811
X155Y-4.807
X155Y-4.506
X154.903Y-4.515
X154.811Y-4.543
X154.725Y-4.589
X154.65Y-4.65
X154.589Y-4.725
X154.543Y-4.811
X154.515Y-4.903
X154.506Y-4.999
X154.515Y-5.096
X154.543Y-5.188
X154.589Y-5.274
X154.65Y-5.349
X154.725Y-5.41
X154.811Y-5.456
X154.903Y-5.484
X154.999Y-5.493
X155.096Y-5.484
X155.188Y-5.456
X155.274Y-5.41
X155.349Y-5.349
X155.41Y-5.274
X155.456Y-5.188
X155.484Y-5.096
X155.493Y-5
X155.484Y-4.903
X155.456Y-4.811
X155.41Y-4.725
X155.349Y-4.65
X155.274Y-4.589
X155.188Y-4.543
X155.096Y-4.515
X155Y-4.506
G0Z2
X-4.863Y-4.864
G1Z-17.999F200
X-4.893Y-4.84F400
X-4.926Y-4.822
X-4.962Y-4.811
X-4.999Y-4.807
X-5.037Y-4.811
X-5.073Y-4.822
X-5.106Y-4.84
X-5.135Y-4.863
X-5.159Y-4.893
X-5.177Y-4.926
X-5.188Y-4.962
X-5.192Y-4.999
X-5.188Y-5.037
X-5.177Y-5.073
X-5.159Y-5.106
X-5.136Y-5.135
X-5.106Y-5.159
X-5.073Y-5.177
X-5.037Y-5.188
X-5Y-5.192
X-4.962Y-5.188
X-4.926Y-5.177
X-4.893Y-5.159
X-4.864Y-5.136
X-4.84Y-5.106
X-4.822Y-5.073
X-4.811Y-5.037
X-4.807Y-5
X-4.811Y-4.962
X-4.822Y-4.926
X-4.84Y-4.893
X-4.863Y-4.864
X-4.65Y-4.65
X-4.725Y-4.589
X-4.811Y-4.543
X-4.903Y-4.515
X-4.999Y-4.506
X-5.096Y-4.515
X-5.188Y-4.543
X-5.274Y-4.589
X-5.349Y-4.65
X-5.41Y-4.725
X-5.456Y-4.811
X-5.484Y-4.903
X-5.493Y-4.999
X-5.484Y-5.096
X-5.456Y-5.188
X-5.41Y-5.274
X-5.349Y-5.349
X-5.274Y-5.41
X-5.188Y-5.456
X-5.096Y-5.484
X-5Y-5.493
X-4.903Y-5.484
X-4.811Y-5.456
X-4.725Y-5.41
X-4.65Y-5.349
X-4.589Y-5.274
X-4.543Y-5.188
X-4.515Y-5.096
X-4.506Y-5
X-4.515Y-4.903
X-4.543Y-4.811
X-4.589Y-4.725
X-4.65Y-4.65
G0Z2
X-5Y94.407
G1Z-17.999F200
X-4.962Y94.411F400
X-4.926Y94.422
X-4.893Y94.44
X-4.864Y94.463
X-4.84Y94.493
X-4.822Y94.526
X-4.811Y94.562
X-4.807Y94.599
X-4.811Y94.637
X-4.822Y94.673
X-4.84Y94.706
X-4.863Y94.735
X-4.893Y94.759
X-4.926Y94.777
X-4.962Y94.788
X-4.999Y94.792
X-5.037Y94.788
X-5.073Y94.777
X-5.106Y94.759
X-5.135Y94.736
X-5.159Y94.706
X-5.177Y94.673
X-5.188Y94.637
X-5.192Y94.6
X-5.188Y94.562
X-5.177Y94.526
X-5.159Y94.493
X-5.135Y94.463
X-5.106Y94.44
X-5.073Y94.422
X-5.037Y94.411
X-5Y94.407
X-5Y94.106
X-4.903Y94.115
X-4.811Y94.143
X-4.725Y94.189
X-4.65Y94.25
X-4.589Y94.325
X-4.543Y94.411
X-4.515Y94.503
X-4.506Y94.599
X-4.515Y94.696
X-4.543Y94.788
X-4.589Y94.874
X-4.65Y94.949
X-4.725Y95.01
X-4.811Y95.056
X-4.903Y95.084
X-4.999Y95.093
X-5.096Y95.084
X-5.188Y95.056
X-5.274Y95.01
X-5.349Y94.949
X-5.41Y94.874
X-5.456Y94.788
X-5.484Y94.696
X-5.493Y94.6
X-5.484Y94.503
X-5.456Y94.411
X-5.41Y94.325
X-5.349Y94.25
X-5.274Y94.189
X-5.188Y94.143
X-5.096Y94.115
X-5Y94.106
G0Z2
X154.807Y94.6
G1Z-17.999F200
X154.811Y94.562F400
X154.822Y94.526
X154.84Y94.493
X154.864Y94.463
X154.893Y94.44
X154.926Y94.422
X154.962Y94.411
X154.999Y94.407
X155.037Y94.411
X155.073Y94.422
X155.106Y94.44
X155.135Y94.463
X155.159Y94.493
X155.177Y94.526
X155.188Y94.562
X155.192Y94.599
X155.188Y94.637
X155.177Y94.673
X155.159Y94.706
X155.136Y94.735
X155.106Y94.759
X155.073Y94.777
X155.037Y94.788
X155Y94.792
X154.962Y94.788
X154.926Y94.777
X154.893Y94.759
X154.864Y94.736
X154.84Y94.706
X154.822Y94.673
X154.811Y94.637
X154.807Y94.6
X154.506Y94.6
X154.515Y94.503
X154.543Y94.411
X154.589Y94.325
X154.65Y94.25
X154.725Y94.189
X154.811Y94.143
X154.903Y94.115
X154.999Y94.106
X155.096Y94.115
X155.188Y94.143
X155.274Y94.189
X155.349Y94.25
X155.41Y94.325
X155.456Y94.411
X155.484Y94.503
X155.493Y94.599
X155.484Y94.696
X155.456Y94.788
X155.41Y94.874
X155.349Y94.949
X155.274Y95.01
X155.188Y95.056
X155.096Y95.084
X155Y95.093
X154.903Y95.084
X154.811Y95.056
X154.725Y95.01
X154.65Y94.949
X154.589Y94.874
X154.543Y94.788
X154.515Y94.696
X154.506Y94.6
G0Z2
X155Y-4.807
G1Z-17.999F200
X154.962Y-4.811F400
X154.926Y-4.822
X154.893Y-4.84
X154.864Y-4.863
X154.84Y-4.893
X154.822Y-4.926
X154.811Y-4.962
X154.807Y-4.999
X154.811Y-5.037
X154.822Y-5.073
X154.84Y-5.106
X154.863Y-5.135
X154.893Y-5.159
X154.926Y-5.177
X154.962Y-5.188
X154.999Y-5.192
X155.037Y-5.188
X155.073Y-5.177
X155.106Y-5.159
X155.135Y-5.136
X155.159Y-5.106
X155.177Y-5.073
X155.188Y-5.037
X155.192Y-5
X155.188Y-4.962
X155.177Y-4.926
X155.159Y-4.893
X155.136Y-4.864
X155.106Y-4.84
X155.073Y-4.822
X155.037Y-4.811
X155Y-4.807
X155Y-4.506
X154.903Y-4.515
X154.811Y-4.543
X154.725Y-4.589
X154.65Y-4.65
X154.589Y-4.725
X154.543Y-4.811
X154.515Y-4.903
X154.506Y-4.999
X154.515Y-5.096
X154.543Y-5.188
X154.589Y-5.274
X154.65Y-5.349
X154.725Y-5.41
X154.811Y-5.456
X154.903Y-5.484
X154.999Y-5.493
X155.096Y-5.484
X155.188Y-5.456
X155.274Y-5.41
X155.349Y-5.349
X155.41Y-5.274
X155.456Y-5.188
X155.484Y-5.096
X155.493Y-5
X155.484Y-4.903
X155.456Y-4.811
X155.41Y-4.725
X155.349Y-4.65
X155.274Y-4.589
X155.188Y-4.543
X155.096Y-4.515
X155Y-4.506
G0Z2
X-4.863Y-4.864
G1Z-20F200
X-4.893Y-4.84F400
X-4.926Y-4.822
X-4.962Y-4.811
X-4.999Y-4.807
X-5.037Y-4.811
X-5.073Y-4.822
X-5.106Y-4.84
X-5.135Y-4.863
X-5.159Y-4.893
X-5.177Y-4.926
X-5.188Y-4.962
X-5.192Y-4.999
X-5.188Y-5.037
X-5.177Y-5.073
X-5.159Y-5.106
X-5.136Y-5.135
X-5.106Y-5.159
X-5.073Y-5.177
X-5.037Y-5.188
X-5Y-5.192
X-4.962Y-5.188
X-4.926Y-5.177
X-4.893Y-5.159
X-4.864Y-5.136
X-4.84Y-5.106
X-4.822Y-5.073
X-4.811Y-5.037
X-4.807Y-5
X-4.811Y-4.962
X-4.822Y-4.926
X-4.84Y-4.893
X-4.863Y-4.864
X-4.65Y-4.65
X-4.725Y-4.589
X-4.811Y-4.543
X-4.903Y-4.515
X-4.999Y-4.506
X-5.096Y-4.515
X-5.188Y-4.543
X-5.274Y-4.589
X-5.349Y-4.65
X-5.41Y-4.725
X-5.456Y-4.811
X-5.484Y-4.903
X-5.493Y-4.999
X-5.484Y-5.096
X-5.456Y-5.188
X-5.41Y-5.274
X-5.349Y-5.349
X-5.274Y-5.41
X-5.188Y-5.456
X-5.096Y-5.484
X-5Y-5.493
X-4.903Y-5.484
X-4.811Y-5.456
X-4.725Y-5.41
X-4.65Y-5.349
X-4.589Y-5.274
X-4.543Y-5.188
X-4.515Y-5.096
X-4.506Y-5
X-4.515Y-4.903
X-4.543Y-4.811
X-4.589Y-4.725
X-4.65Y-4.65
G0Z2
X-5Y94.407
G1Z-20F200
X-4.962Y94.411F400
X-4.926Y94.422
X-4.893Y94.44
X-4.864Y94.463
X-4.84Y94.493
X-4.822Y94.526
X-4.811Y94.562
X-4.807Y94.599
X-4.811Y94.637
X-4.822Y94.673
X-4.84Y94.706
X-4.863Y94.735
X-4.893Y94.759
X-4.926Y94.777
X-4.962Y94.788
X-4.999Y94.792
X-5.037Y94.788
X-5.073Y94.777
X-5.106Y94.759
X-5.135Y94.736
X-5.159Y94.706
X-5.177Y94.673
X-5.188Y94.637
X-5.192Y94.6
X-5.188Y94.562
X-5.177Y94.526
X-5.159Y94.493
X-5.135Y94.463
X-5.106Y94.44
X-5.073Y94.422
X-5.037Y94.411
X-5Y94.407
X-5Y94.106
X-4.903Y94.115
X-4.811Y94.143
X-4.725Y94.189
X-4.65Y94.25
X-4.589Y94.325
X-4.543Y94.411
X-4.515Y94.503
X-4.506Y94.599
X-4.515Y94.696
X-4.543Y94.788
X-4.589Y94.874
X-4.65Y94.949
X-4.725Y95.01
X-4.811Y95.056
X-4.903Y95.084
X-4.999Y95.093
X-5.096Y95.084
X-5.188Y95.056
X-5.274Y95.01
X-5.349Y94.949
X-5.41Y94.874
X-5.456Y94.788
X-5.484Y94.696
X-5.493Y94.6
X-5.484Y94.503
X-5.456Y94.411
X-5.41Y94.325
X-5.349Y94.25
X-5.274Y94.189
X-5.188Y94.143
X-5.096Y94.115
X-5Y94.106
G0Z2
X154.807Y94.6
G1Z-20F200
X154.811Y94.562F400
X154.822Y94.526
X154.84Y94.493
X154.864Y94.463
X154.893Y94.44
X154.926Y94.422
X154.962Y94.411
X154.999Y94.407
X155.037Y94.411
X155.073Y94.422
X155.106Y94.44
X155.135Y94.463
X155.159Y94.493
X155.177Y94.526
X155.188Y94.562
X155.192Y94.599
X155.188Y94.637
X155.177Y94.673
X155.159Y94.706
X155.136Y94.735
X155.106Y94.759
X155.073Y94.777
X155.037Y94.788
X155Y94.792
X154.962Y94.788
X154.926Y94.777
X154.893Y94.759
X154.864Y94.736
X154.84Y94.706
X154.822Y94.673
X154.811Y94.637
X154.807Y94.6
X154.506Y94.6
X154.515Y94.503
X154.543Y94.411
X154.589Y94.325
X154.65Y94.25
X154.725Y94.189
X154.811Y94.143
X154.903Y94.115
X154.999Y94.106
X155.096Y94.115
X155.188Y94.143
X155.274Y94.189
X155.349Y94.25
X155.41Y94.325
X155.456Y94.411
X155.484Y94.503
X155.493Y94.599
X155.484Y94.696
X155.456Y94.788
X155.41Y94.874
X155.349Y94.949
X155.274Y95.01
X155.188Y95.056
X155.096Y95.084
X155Y95.093
X154.903Y95.084
X154.811Y95.056
X154.725Y95.01
X154.65Y94.949
X154.589Y94.874
X154.543Y94.788
X154.515Y94.696
X154.506Y94.6
G0Z2
X155Y-4.807
G1Z-20F200
X154.962Y-4.811F400
X154.926Y-4.822
X154.893Y-4.84
X154.864Y-4.863
X154.84Y-4.893
X154.822Y-4.926
X154.811Y-4.962
X154.807Y-4.999
X154.811Y-5.037
X154.822Y-5.073
X154.84Y-5.106
X154.863Y-5.135
X154.893Y-5.159
X154.926Y-5.177
X154.962Y-5.188
X154.999Y-5.192
X155.037Y-5.188
X155.073Y-5.177
X155.106Y-5.159
X155.135Y-5.136
X155.159Y-5.106
X155.177Y-5.073
X155.188Y-5.037
X155.192Y-5
X155.188Y-4.962
X155.177Y-4.926
X155.159Y-4.893
X155.136Y-4.864
X155.106Y-4.84
X155.073Y-4.822
X155.037Y-4.811
X155Y-4.807
X155Y-4.506
X154.903Y-4.515
X154.811Y-4.543
X154.725Y-4.589
X154.65Y-4.65
X154.589Y-4.725
X154.543Y-4.811
X154.515Y-4.903
X154.506Y-4.999
X154.515Y-5.096
X154.543Y-5.188
X154.589Y-5.274
X154.65Y-5.349
X154.725Y-5.41
X154.811Y-5.456
X154.903Y-5.484
X154.999Y-5.493
X155.096Y-5.484
X155.188Y-5.456
X155.274Y-5.41
X155.349Y-5.349
X155.41Y-5.274
X155.456Y-5.188
X155.484Y-5.096
X155.493Y-5
X155.484Y-4.903
X155.456Y-4.811
X155.41Y-4.725
X155.349Y-4.65
X155.274Y-4.589
X155.188Y-4.543
X155.096Y-4.515
X155Y-4.506
G0Z2
 
