(Created with grbl post processor 2023/10/19 00:16)
G21
(G-code generated with BlenderCAM and NC library)
G17G90
(Tool: D = 3.0 mm  type END flutes 2)
S12000M03
G00 Z2.0

G0X0Y0Z2
X129.62Y7.132
G1Z-1.5F200
X131.313Y7.132F400
X131.313Y9.249
X129.62Y9.249
Y7.132
X128.62Y6.132
X132.313Y6.132
X132.313Y10.249
X128.62Y10.249
Y6.132
X127.62Y5.132
X133.313Y5.132
X133.313Y11.249
X127.62Y11.249
Y5.132
X126.62Y4.132
X134.313Y4.132
X134.312Y12.249
X126.62Y12.249
Y4.132
G0Z2
X129.621Y80.764
G1Z-1.5F200
X131.313F400
X131.313Y81.588
X129.621Y81.588
X129.621Y80.764
X128.621Y79.764
X132.313
X132.313Y82.588
X128.62Y82.588
X128.621Y79.764
X127.621Y78.764
X133.313
X133.313Y83.588
X127.62Y83.588
X127.621Y78.764
X126.621Y77.764
X134.313
X134.312Y84.588
X126.62Y84.588
X126.621Y77.764
G0Z2
(Tool: D = 3.0 mm  type END flutes 2)
S12000M03
G00 Z2.0

X43.998Y44.114
G1Z-2F200
X53.899Y44.16F400
X54.283Y44.435
X54.705Y44.73
X54.807Y44.8
X54.384Y45.094
X53.966Y45.392
X53.691Y45.592
X43.998
X43.998Y44.114
X42.998Y43.109
X54.228Y43.161
X54.528Y43.381
X54.949Y43.681
X55.361Y43.967
X55.789Y44.257
X56.208Y44.534
X56.622Y44.8
X56.232Y45.051
X55.8Y45.335
X55.384Y45.616
X54.96Y45.911
X54.552Y46.202
X54.135Y46.507
X54.021Y46.592
X42.999
X42.998Y45.963
X42.998Y43.109
X41.999Y42.105
X54.561Y42.163
X54.924Y42.432
X55.332Y42.727
X55.733Y43.009
X56.148Y43.294
X56.556Y43.567
X56.978Y43.841
X57.393Y44.104
X57.821Y44.368
X58.242Y44.62
X58.55Y44.8
X58.126Y45.049
X57.706Y45.303
X57.278Y45.568
X56.864Y45.832
X56.443Y46.108
X56.036Y46.382
X55.622Y46.668
X55.222Y46.952
X54.815Y47.248
X54.422Y47.542
X54.355Y47.592
X41.999Y47.592
X41.998Y46.125
X41.998Y45.963
X41.999Y42.105
X40.999Y41.1
X54.898Y41.164
X55.314Y41.477
X55.699Y41.759
X56.1Y42.045
X56.492Y42.318
X56.899Y42.594
X57.298Y42.857
X57.712Y43.123
X58.117Y43.376
X58.537Y43.632
X58.948Y43.875
X59.375Y44.12
X59.792Y44.353
X60.231Y44.591
X60.621Y44.8
X59.908Y45.183
X59.477Y45.422
X59.061Y45.659
X58.638Y45.908
X58.228Y46.155
X57.811Y46.414
X57.408Y46.672
X56.997Y46.941
X56.6Y47.208
X56.196Y47.487
X55.806Y47.764
X55.409Y48.053
X55.025Y48.339
X54.694Y48.592
X40.999
X40.998Y46.132
X40.998Y45.963
X40.999Y41.1
X39.999Y40.095
X55.24Y40.166
X55.526Y40.386
X55.91Y40.674
X56.285Y40.949
X56.675Y41.228
X57.057Y41.493
X57.455Y41.762
X57.843Y42.019
X58.247Y42.278
X58.641Y42.524
X59.051Y42.774
X59.451Y43.011
X59.867Y43.25
X60.274Y43.477
X60.702Y43.709
X61.371Y44.065
X61.799Y44.285
X62.216Y44.494
X62.647Y44.702
X62.854Y44.8
X62.421Y45.006
X61.991Y45.218
X61.575Y45.429
X61.143Y45.655
X60.5Y45.999
X60.076Y46.233
X59.67Y46.463
X59.257Y46.704
X58.857Y46.943
X58.449Y47.194
X58.055Y47.444
X57.654Y47.705
X57.266Y47.964
X56.872Y48.235
X56.49Y48.503
X56.103Y48.784
X55.728Y49.062
X55.347Y49.351
X55.038Y49.592
X39.999Y49.592
X39.998Y46.138
X39.998Y46.097
X39.999Y40.095
X38.999Y39.4
X38.999Y39.091
X55.586Y39.167
X55.959Y39.458
X56.331Y39.74
X56.695Y40.011
X57.073Y40.284
X57.445Y40.545
X57.829Y40.809
X58.207Y41.061
X58.598Y41.316
X58.981Y41.559
X59.378Y41.803
X59.768Y42.037
X60.171Y42.271
X60.566Y42.495
X60.98Y42.723
X61.174Y42.828
X61.834Y43.179
X62.251Y43.393
X62.657Y43.596
X63.077Y43.799
X63.488Y43.992
X63.912Y44.185
X64.328Y44.367
X64.757Y44.55
X65.177Y44.722
X65.372Y44.8
X64.952Y44.969
X64.533Y45.145
X64.105Y45.33
X63.69Y45.515
X63.267Y45.711
X62.857Y45.906
X62.439Y46.112
X62.034Y46.317
X61.612Y46.538
X60.868Y46.937
X60.459Y47.165
X60.064Y47.39
X59.662Y47.626
X59.273Y47.86
X58.877Y48.106
X58.494Y48.351
X58.104Y48.606
X57.728Y48.86
X57.344Y49.125
X56.974Y49.387
X56.597Y49.662
X56.233Y49.933
X55.863Y50.217
X55.506Y50.497
X55.387Y50.592
X38.999
X38.998Y46.145
X38.998Y46.101
X38.999Y39.4
X37.999Y39.4
X37.999Y38.086
X55.936Y38.166
X56.313Y38.466
X56.662Y38.737
X57.025Y39.011
X57.38Y39.273
X57.749Y39.537
X58.111Y39.791
X58.487Y40.046
X58.855Y40.291
X59.236Y40.537
X59.61Y40.772
X59.997Y41.009
X60.377Y41.235
X60.77Y41.462
X61.155Y41.679
X61.562Y41.901
X62.297Y42.292
X62.702Y42.501
X63.098Y42.698
X63.506Y42.896
X63.906Y43.084
X64.32Y43.272
X64.724Y43.449
X65.142Y43.627
X65.551Y43.795
X65.973Y43.962
X66.386Y44.119
X66.812Y44.276
X67.228Y44.424
X67.658Y44.57
X68.078Y44.707
X68.372Y44.8
X67.854Y44.965
X67.435Y45.105
X67.006Y45.254
X66.59Y45.404
X66.165Y45.564
X65.753Y45.724
X65.332Y45.894
X64.925Y46.065
X64.508Y46.245
X64.105Y46.425
X63.693Y46.616
X63.294Y46.806
X62.886Y47.006
X62.492Y47.206
X62.081Y47.421
X61.349Y47.814
X60.949Y48.036
X60.566Y48.255
X60.174Y48.485
X59.796Y48.713
X59.41Y48.952
X59.038Y49.19
X58.658Y49.439
X58.291Y49.685
X57.918Y49.944
X57.558Y50.199
X57.19Y50.466
X56.836Y50.731
X56.476Y51.007
X56.129Y51.28
X55.767Y51.571
X55.741Y51.592
X37.999Y51.592
X37.998Y46.152
X37.998Y46.105
X37.999Y39.4
X36.999Y39.4
X36.999Y37.082
X56.293Y37.168
X56.656Y37.461
X57.003Y37.736
X57.342Y37.998
X57.696Y38.264
X58.042Y38.517
X58.402Y38.774
X58.754Y39.019
X59.121Y39.268
X59.478Y39.504
X59.851Y39.743
X60.214Y39.97
X60.593Y40.2
X60.961Y40.418
X61.345Y40.639
X61.72Y40.848
X62.116Y41.064
X62.759Y41.405
X63.154Y41.609
X63.62Y41.841
X64.019Y42.033
X64.408Y42.214
X64.811Y42.396
X65.204Y42.567
X65.612Y42.739
X66.009Y42.901
X66.421Y43.063
X66.822Y43.215
X67.238Y43.367
X67.642Y43.509
X68.061Y43.65
X68.469Y43.782
X68.901Y43.916
X69.598Y44.126
X70.025Y44.249
X70.439Y44.362
X70.866Y44.473
X71.283Y44.576
X71.714Y44.677
X72.133Y44.769
X72.276Y44.8
X71.82Y44.899
X71.402Y44.995
X70.972Y45.1
X70.557Y45.207
X70.13Y45.322
X69.717Y45.439
X69.284Y45.567
X68.588Y45.78
X68.165Y45.915
X67.758Y46.051
X67.34Y46.197
X66.851Y46.374
X66.437Y46.531
X66.038Y46.687
X65.628Y46.854
X65.233Y47.02
X64.827Y47.197
X64.436Y47.373
X64.035Y47.56
X63.648Y47.745
X63.252Y47.942
X62.87Y48.137
X62.47Y48.347
X61.829Y48.692
X61.44Y48.907
X61.067Y49.12
X60.686Y49.344
X60.319Y49.566
X59.943Y49.799
X59.581Y50.03
X59.212Y50.272
X58.855Y50.511
X58.492Y50.762
X58.067Y51.064
X57.71Y51.326
X57.367Y51.583
X57.017Y51.853
X56.68Y52.119
X56.329Y52.403
X56.099Y52.592
X36.999
X36.998Y46.158
X36.998Y46.109
X36.999Y39.4
G0Z2
X101.43Y44.8
G1Z-2F200
X101.854Y44.551F400
X102.274Y44.297
X102.482Y44.169
X102.6Y44.584
X102.743Y45.068
X102.888Y45.535
X102.948Y45.724
X102.476Y45.427
X102.047Y45.165
X101.625Y44.914
X101.43Y44.8
X100.919Y43.941
X101.342Y43.692
X101.752Y43.445
X102.169Y43.186
X102.572Y42.928
X102.983Y42.659
X103.102Y42.58
X103.183Y42.909
X103.302Y43.371
X103.43Y43.846
X103.56Y44.305
X103.7Y44.777
X103.841Y45.233
X103.992Y45.701
X104.145Y46.154
X104.307Y46.618
X104.471Y47.067
X104.645Y47.527
X104.684Y47.629
X104.188Y47.613
X103.956Y47.608
X103.572Y47.339
X103.166Y47.063
X102.767Y46.798
X102.355Y46.532
X101.95Y46.277
X101.531Y46.021
X101.12Y45.776
X100.695Y45.531
X100.278Y45.296
X99.838Y45.056
X99.359Y44.8
X100.072Y44.417
X100.503Y44.178
X100.919Y43.941
X100.417Y43.075
X100.83Y42.833
X101.229Y42.592
X101.636Y42.34
X102.029Y42.089
X102.429Y41.827
X102.816Y41.566
X103.21Y41.294
X103.608Y41.012
X103.778Y41.014
X103.886Y41.527
X103.989Y41.982
X104.099Y42.448
X104.212Y42.9
X104.334Y43.363
X104.459Y43.812
X104.592Y44.272
X104.728Y44.718
X104.872Y45.175
X105.018Y45.617
X105.174Y46.07
X105.331Y46.509
X105.498Y46.958
X105.666Y47.393
X105.844Y47.837
X106.022Y48.268
X106.21Y48.706
X106.194Y48.717
X105.686Y48.681
X105.208Y48.653
X104.742Y48.631
X104.264Y48.615
X103.797Y48.605
X103.629Y48.603
X103.305Y48.372
X102.923Y48.107
X102.525Y47.837
X102.137Y47.581
X101.734Y47.322
X101.339Y47.075
X100.929Y46.826
X100.529Y46.589
X100.113Y46.35
X99.707Y46.123
X99.278Y45.89
X98.609Y45.535
X98.181Y45.315
X97.764Y45.106
X97.333Y44.898
X97.126Y44.8
X97.559Y44.594
X97.988Y44.382
X98.404Y44.171
X98.837Y43.945
X99.592Y43.54
X100.012Y43.307
X100.417Y43.075
X99.916Y42.21
X100.318Y41.974
X100.706Y41.739
X101.103Y41.494
X101.486Y41.249
X101.876Y40.994
X102.252Y40.74
X102.636Y40.475
X103.006Y40.213
X103.289Y40.008
X104.604Y40.014
X104.701Y40.531
X104.791Y40.976
X104.889Y41.431
X104.99Y41.874
X105.099Y42.328
X105.211Y42.768
X105.331Y43.218
X105.454Y43.655
X105.585Y44.103
X105.718Y44.537
X105.861Y44.981
X106.005Y45.412
X106.158Y45.852
X106.312Y46.279
X106.476Y46.716
X106.641Y47.139
X106.815Y47.571
X106.99Y47.99
X107.175Y48.418
X107.361Y48.833
X107.458Y49.045
X107.071Y49.317
X106.693Y49.591
X106.485Y49.744
X105.978Y49.703
X105.526Y49.673
X105.059Y49.647
X104.607Y49.627
X104.139Y49.612
X103.686Y49.604
X103.37Y49.601
X103.3Y49.6
X102.907Y49.316
X102.535Y49.055
X102.151Y48.791
X101.773Y48.538
X101.383Y48.284
X100.999Y48.041
X100.602Y47.797
X100.212Y47.563
X99.81Y47.328
X99.414Y47.105
X99Y46.877
X98.807Y46.772
X98.146Y46.421
X97.73Y46.207
X97.323Y46.004
X96.904Y45.801
X96.493Y45.608
X96.068Y45.415
X95.652Y45.233
X95.223Y45.05
X94.803Y44.878
X94.608Y44.8
X95.028Y44.631
X95.447Y44.455
X95.875Y44.27
X96.289Y44.085
X96.713Y43.889
X97.122Y43.694
X97.541Y43.488
X97.946Y43.283
X98.368Y43.062
X99.111Y42.663
X99.521Y42.435
X99.916Y42.21
X99.414Y41.345
X99.806Y41.115
X100.184Y40.887
X100.57Y40.647
X100.942Y40.41
X101.322Y40.161
X101.689Y39.914
X102.062Y39.656
X102.422Y39.401
X102.79Y39.134
X102.961Y39.006
X105.449Y39.018
X105.521Y39.457
X105.598Y39.892
X105.682Y40.338
X105.77Y40.771
X105.865Y41.215
X105.964Y41.645
X106.07Y42.087
X106.179Y42.515
X106.296Y42.954
X106.415Y43.379
X106.543Y43.815
X106.672Y44.237
X106.811Y44.67
X106.951Y45.089
X107.1Y45.517
X107.25Y45.933
X107.41Y46.358
X107.57Y46.77
X107.74Y47.191
X107.91Y47.598
X108.091Y48.015
X108.271Y48.418
X108.461Y48.831
X108.652Y49.229
X108.73Y49.391
X108.291Y49.686
X107.918Y49.944
X107.557Y50.199
X107.19Y50.467
X106.836Y50.731
X106.777Y50.776
X106.358Y50.737
X105.904Y50.701
X105.465Y50.671
X105.01Y50.645
X104.57Y50.626
X104.115Y50.612
X103.674Y50.604
X103.36Y50.601
X102.963Y50.595
X102.6Y50.327
X102.231Y50.062
X101.869Y49.809
X101.494Y49.553
X101.125Y49.309
X100.744Y49.063
X100.37Y48.828
X99.983Y48.591
X99.603Y48.365
X99.21Y48.137
X98.825Y47.921
X98.418Y47.699
X97.684Y47.308
X97.278Y47.099
X96.883Y46.902
X96.474Y46.704
X96.074Y46.516
X95.661Y46.328
X95.256Y46.151
X94.838Y45.973
X94.43Y45.805
X94.007Y45.638
X93.595Y45.481
X93.169Y45.324
X92.752Y45.176
X92.322Y45.03
X91.902Y44.893
X91.608Y44.8
X92.126Y44.635
X92.545Y44.495
X92.974Y44.346
X93.389Y44.196
X93.815Y44.036
X94.226Y43.876
X94.647Y43.706
X95.055Y43.535
X95.472Y43.355
X95.875Y43.175
X96.287Y42.984
X96.686Y42.794
X97.093Y42.594
X97.487Y42.394
X97.898Y42.179
X98.631Y41.785
X99.03Y41.564
X99.414Y41.345
X98.913Y40.48
X99.294Y40.256
X99.739Y39.986
X100.115Y39.752
X100.475Y39.521
X100.845Y39.277
X101.2Y39.037
X101.564Y38.784
X101.913Y38.535
X102.27Y38.274
X102.629Y38.005
X106.313Y38.014
X106.384Y38.519
X106.449Y38.942
X106.522Y39.379
X106.598Y39.801
X106.681Y40.235
X106.767Y40.655
X106.862Y41.088
X106.958Y41.505
X107.063Y41.936
X107.169Y42.351
X107.285Y42.778
X107.401Y43.191
X107.527Y43.615
X107.654Y44.024
X107.79Y44.446
X107.927Y44.852
X108.073Y45.27
X108.22Y45.672
X108.377Y46.086
X108.533Y46.485
X108.7Y46.895
X108.866Y47.29
X109.043Y47.696
X109.219Y48.087
X109.406Y48.489
X109.591Y48.875
X109.788Y49.272
X109.983Y49.653
X110.03Y49.744
X109.677Y49.968
X109.307Y50.209
X108.949Y50.448
X108.585Y50.698
X108.234Y50.945
X107.876Y51.204
X107.44Y51.528
X107.07Y51.811
X106.699Y51.773
X106.272Y51.733
X105.831Y51.698
X105.404Y51.669
X104.962Y51.644
X104.533Y51.626
X104.091Y51.612
X103.662Y51.604
X103.35Y51.601
X102.622Y51.59
X102.284Y51.336
X101.938Y51.083
X101.578Y50.825
X101.226Y50.581
X100.859Y50.332
X100.502Y50.096
X100.129Y49.857
X99.766Y49.63
X99.388Y49.4
X99.019Y49.182
X98.635Y48.961
X98.261Y48.752
X97.864Y48.536
X97.221Y48.194
X96.826Y47.991
X96.36Y47.759
X95.961Y47.567
X95.572Y47.386
X95.169Y47.204
X94.776Y47.033
X94.368Y46.861
X93.971Y46.699
X93.559Y46.537
X93.159Y46.385
X92.743Y46.233
X92.338Y46.091
X91.919Y45.95
X91.511Y45.818
X91.08Y45.684
X90.383Y45.474
X89.956Y45.351
X89.541Y45.238
X89.114Y45.127
X88.608Y45.003
X88.177Y44.903
X87.758Y44.811
X87.704Y44.8
X88.16Y44.701
X88.577Y44.604
X89.007Y44.5
X89.423Y44.393
X89.85Y44.278
X90.263Y44.161
X90.695Y44.033
X91.392Y43.82
X91.815Y43.685
X92.308Y43.519
X92.726Y43.372
X93.129Y43.226
X93.543Y43.069
X93.942Y42.913
X94.352Y42.746
X94.747Y42.579
X95.153Y42.403
X95.544Y42.227
X95.945Y42.04
X96.332Y41.855
X96.728Y41.658
X97.11Y41.463
X97.51Y41.253
X98.151Y40.908
X98.54Y40.693
X98.913Y40.48
X98.411Y39.615
X98.858Y39.351
X99.214Y39.135
X99.579Y38.907
X99.93Y38.683
X100.289Y38.446
X100.634Y38.212
X100.988Y37.967
X101.327Y37.725
X101.674Y37.471
X102.007Y37.221
X102.29Y37.004
X107.2Y37.015
X107.248Y37.444
X107.313Y37.945
X107.373Y38.372
X107.437Y38.783
X107.507Y39.208
X107.581Y39.617
X107.662Y40.04
X107.746Y40.448
X107.837Y40.868
X107.931Y41.274
X108.033Y41.692
X108.136Y42.096
X108.248Y42.511
X108.362Y42.912
X108.484Y43.324
X108.607Y43.722
X108.739Y44.132
X108.872Y44.526
X109.015Y44.932
X109.157Y45.324
X109.31Y45.726
X109.462Y46.114
X109.624Y46.512
X109.785Y46.896
X109.957Y47.291
X110.128Y47.67
X110.31Y48.061
X110.49Y48.436
X110.681Y48.822
X110.87Y49.193
X111.071Y49.573
X111.269Y49.94
X111.361Y50.106
X110.936Y50.361
X110.477Y50.645
X110.05Y50.917
X109.691Y51.154
X109.346Y51.387
X108.992Y51.633
X108.653Y51.875
X108.306Y52.129
X107.973Y52.379
X107.632Y52.642
X107.365Y52.852
X107.029Y52.813
X106.601Y52.768
X106.187Y52.73
X105.758Y52.695
X105.342Y52.667
X104.913Y52.643
X104.497Y52.625
X104.067Y52.612
X103.65Y52.604
X103.341Y52.601
X102.276Y52.585
X102.032Y52.398
X101.688Y52.139
X101.352Y51.893
X101.002Y51.643
X100.66Y51.405
X100.304Y51.164
X99.957Y50.935
X99.594Y50.702
X99.241Y50.481
X98.874Y50.258
X98.515Y50.046
X98.142Y49.831
X97.779Y49.628
X97.393Y49.418
X96.758Y49.081
X96.294Y48.843
X95.921Y48.658
X95.534Y48.471
X95.156Y48.296
X94.764Y48.119
X94.382Y47.952
X93.986Y47.785
X93.6Y47.628
X93.2Y47.47
X92.81Y47.323
X92.406Y47.175
X92.013Y47.037
X91.605Y46.899
X91.209Y46.771
X90.79Y46.641
X90.102Y46.434
X89.6Y46.291
X89.198Y46.182
X88.782Y46.075
X88.377Y45.976
X87.958Y45.879
X87.551Y45.79
X87.13Y45.703
X86.721Y45.624
X86.297Y45.548
X85.886Y45.479
X85.461Y45.413
X85.049Y45.354
X84.622Y45.299
X84.208Y45.25
X83.771Y45.204
X83.057Y45.136
X82.537Y45.093
X82.121Y45.065
X81.692Y45.041
X81.276Y45.023
X80.846Y45.01
X80.429Y45.002
X79.999Y44.999
X79.583Y45.001
X79.152Y45.009
X78.736Y45.022
X78.306Y45.04
X77.89Y45.063
X77.461Y45.092
X77.046Y45.125
X76.608Y45.165
X75.894Y45.237
X75.376Y45.297
X74.963Y45.35
X74.536Y45.411
X74.125Y45.474
X73.7Y45.545
X73.291Y45.618
X72.868Y45.7
X72.46Y45.783
X72.039Y45.875
X71.634Y45.968
X71.216Y46.07
X70.812Y46.174
X70.397Y46.286
X69.996Y46.399
X69.575Y46.524
X68.888Y46.734
X68.391Y46.894
X67.997Y47.027
X67.591Y47.169
X67.199Y47.311
X66.797Y47.464
X66.409Y47.616
X66.011Y47.778
X65.627Y47.94
X65.232Y48.111
X64.853Y48.282
X64.462Y48.464
X64.087Y48.644
X63.701Y48.835
X63.33Y49.024
X62.942Y49.229
X62.309Y49.569
X61.931Y49.778
X61.492Y50.03
X61.122Y50.249
X60.766Y50.465
X60.401Y50.693
X60.05Y50.917
X59.691Y51.154
X59.346Y51.387
X58.992Y51.633
X58.653Y51.875
X58.306Y52.129
X57.973Y52.379
X57.632Y52.641
X57.305Y52.899
X56.964Y53.176
X56.458Y53.592
X35.999Y53.592
X35.998Y46.165
X35.998Y46.113
X35.999Y39.4
X35.999Y36.077
X56.651Y36.168
X57.209Y36.624
X57.618Y36.948
X57.948Y37.202
X58.292Y37.46
X58.628Y37.707
X58.978Y37.957
X59.32Y38.194
X59.676Y38.436
X60.024Y38.665
X60.386Y38.898
X60.739Y39.119
X61.106Y39.342
X61.465Y39.554
X61.838Y39.769
X62.202Y39.972
X62.588Y40.182
X63.222Y40.519
X63.686Y40.757
X64.059Y40.942
X64.447Y41.129
X64.824Y41.304
X65.216Y41.481
X65.598Y41.648
X65.995Y41.815
X66.38Y41.972
X66.781Y42.13
X67.17Y42.277
X67.574Y42.425
X67.967Y42.563
X68.375Y42.701
X68.771Y42.829
X69.191Y42.959
X69.878Y43.166
X70.38Y43.309
X70.782Y43.418
X71.199Y43.525
X71.603Y43.624
X72.022Y43.721
X72.429Y43.81
X72.851Y43.897
X73.259Y43.976
X73.683Y44.052
X74.093Y44.121
X74.519Y44.187
X74.931Y44.245
X75.358Y44.301
X75.771Y44.349
X76.208Y44.395
X76.923Y44.464
X77.443Y44.507
X77.858Y44.535
X78.288Y44.559
X78.704Y44.577
X79.134Y44.59
X79.551Y44.598
X79.981Y44.601
X80.398Y44.598
X80.828Y44.591
X81.244Y44.578
X81.674Y44.56
X82.09Y44.537
X82.519Y44.508
X82.935Y44.475
X83.372Y44.435
X84.087Y44.363
X84.605Y44.303
X85.018Y44.25
X85.444Y44.189
X85.855Y44.126
X86.28Y44.055
X86.69Y43.981
X87.112Y43.9
X87.52Y43.817
X87.94Y43.725
X88.346Y43.631
X88.764Y43.53
X89.168Y43.426
X89.583Y43.314
X89.984Y43.201
X90.405Y43.076
X91.092Y42.866
X91.588Y42.706
X91.983Y42.573
X92.389Y42.431
X92.78Y42.288
X93.183Y42.136
X93.57Y41.984
X93.969Y41.822
X94.353Y41.66
X94.747Y41.489
X95.127Y41.318
X95.517Y41.136
X95.893Y40.956
X96.278Y40.765
X96.649Y40.576
X97.038Y40.371
X97.671Y40.031
X98.127Y39.778
X98.411Y39.615
X97.91Y38.75
X98.344Y38.494
X98.69Y38.284
X99.044Y38.063
X99.384Y37.844
X99.734Y37.614
X100.068Y37.388
X100.412Y37.149
X100.741Y36.915
X101.078Y36.668
X101.401Y36.425
X101.733Y36.17
X101.945Y36.003
X108.053Y36.017
X108.114Y36.066
X108.153Y36.506
X108.203Y36.995
X108.252Y37.41
X108.304Y37.811
X108.362Y38.225
X108.424Y38.624
X108.493Y39.036
X108.564Y39.434
X108.643Y39.845
X108.724Y40.241
X108.813Y40.649
X108.904Y41.043
X109.003Y41.449
X109.103Y41.841
X109.212Y42.244
X109.322Y42.633
X109.441Y43.034
X109.56Y43.42
X109.689Y43.818
X109.818Y44.201
X109.956Y44.595
X110.095Y44.975
X110.242Y45.366
X110.39Y45.742
X110.548Y46.13
X110.704Y46.502
X110.871Y46.885
X111.037Y47.254
X111.213Y47.633
X111.388Y47.997
X111.574Y48.372
X111.758Y48.732
X111.952Y49.102
X112.145Y49.457
X112.349Y49.822
X112.452Y50.003
X112.444Y50.637
X112.071Y50.85
X111.636Y51.106
X111.291Y51.316
X110.936Y51.537
X110.596Y51.755
X110.246Y51.985
X109.912Y52.212
X109.568Y52.45
X109.239Y52.685
X108.902Y52.932
X108.578Y53.175
X108.247Y53.43
X107.93Y53.681
X107.661Y53.898
X107.321Y53.854
X106.919Y53.807
X106.504Y53.763
X106.101Y53.726
X105.685Y53.692
X105.281Y53.665
X104.864Y53.642
X104.46Y53.624
X104.042Y53.611
X103.638Y53.604
X103.331Y53.601
X101.924Y53.58
X101.58Y53.311
X101.163Y52.995
X100.767Y52.704
X100.427Y52.461
X100.095Y52.23
X99.749Y51.996
X99.411Y51.773
X99.06Y51.547
X98.717Y51.333
X98.36Y51.115
X98.012Y50.91
X97.65Y50.701
X97.297Y50.504
X96.921Y50.3
X96.296Y49.968
X95.845Y49.736
X95.483Y49.557
X95.106Y49.375
X94.74Y49.205
X94.359Y49.033
X93.988Y48.871
X93.603Y48.709
X93.229Y48.556
X92.84Y48.403
X92.462Y48.26
X92.069Y48.117
X91.688Y47.983
X91.292Y47.849
X90.907Y47.724
X90.499Y47.598
X89.821Y47.393
X89.334Y47.254
X88.944Y47.149
X88.539Y47.045
X88.146Y46.949
X87.739Y46.854
X87.344Y46.768
X86.935Y46.684
X86.538Y46.607
X86.126Y46.533
X85.728Y46.466
X85.315Y46.402
X84.914Y46.345
X84.5Y46.291
X84.098Y46.244
X83.673Y46.2
X82.968Y46.132
X82.463Y46.09
X82.06Y46.063
X81.643Y46.04
X81.239Y46.022
X80.821Y46.009
X80.417Y46.002
X79.999Y45.999
X79.595Y46.001
X79.177Y46.009
X78.773Y46.021
X78.355Y46.039
X77.952Y46.061
X77.535Y46.089
X77.132Y46.121
X76.706Y46.16
X76.001Y46.231
X75.498Y46.289
X75.097Y46.341
X74.683Y46.4
X74.284Y46.461
X73.872Y46.53
X73.474Y46.601
X73.063Y46.68
X72.667Y46.761
X72.259Y46.85
X71.865Y46.941
X71.459Y47.04
X71.067Y47.141
X70.664Y47.25
X70.275Y47.36
X69.865Y47.481
X69.188Y47.688
X68.705Y47.843
X68.322Y47.972
X67.928Y48.11
X67.548Y48.249
X67.157Y48.397
X66.781Y48.544
X66.394Y48.702
X66.021Y48.859
X65.638Y49.025
X65.269Y49.191
X64.89Y49.368
X64.526Y49.543
X64.151Y49.728
X63.791Y49.912
X63.413Y50.111
X62.789Y50.446
X62.346Y50.692
X61.996Y50.894
X61.636Y51.106
X61.29Y51.316
X60.936Y51.537
X60.596Y51.755
X60.246Y51.985
X59.912Y52.212
X59.568Y52.45
X59.239Y52.685
X58.902Y52.932
X58.579Y53.174
X58.247Y53.429
X57.93Y53.68
X57.598Y53.949
X57.052Y54.399
X56.823Y54.592
X34.999
X34.998Y46.171
X34.998Y46.116
X34.999Y39.4
X34.999Y35.073
X57.013Y35.168
X57.288Y35.396
X57.836Y35.844
X58.233Y36.159
X58.553Y36.406
X58.887Y36.657
X59.213Y36.896
X59.553Y37.139
X59.885Y37.37
X60.231Y37.604
X60.569Y37.827
X60.92Y38.053
X61.263Y38.267
X61.62Y38.484
X61.968Y38.69
X62.331Y38.899
X62.684Y39.096
X63.059Y39.3
X63.684Y39.632
X64.135Y39.864
X64.497Y40.043
X64.874Y40.225
X65.24Y40.395
X65.621Y40.567
X65.992Y40.729
X66.377Y40.891
X66.751Y41.044
X67.14Y41.197
X67.518Y41.34
X67.911Y41.483
X68.292Y41.617
X68.688Y41.751
X69.073Y41.876
X69.481Y42.002
X70.159Y42.207
X70.646Y42.346
X71.036Y42.451
X71.441Y42.555
X71.834Y42.651
X72.241Y42.745
X72.636Y42.832
X73.045Y42.916
X73.442Y42.992
X73.854Y43.067
X74.252Y43.133
X74.665Y43.197
X75.065Y43.254
X75.48Y43.308
X75.881Y43.355
X76.306Y43.4
X77.011Y43.468
X77.516Y43.509
X77.92Y43.537
X78.337Y43.56
X78.741Y43.578
X79.159Y43.591
X79.563Y43.598
X79.981Y43.601
X80.385Y43.598
X80.803Y43.591
X81.207Y43.579
X81.625Y43.561
X82.028Y43.539
X82.446Y43.511
X82.849Y43.479
X83.274Y43.44
X83.979Y43.369
X84.482Y43.311
X84.883Y43.259
X85.297Y43.2
X85.696Y43.139
X86.109Y43.07
X86.506Y42.998
X86.917Y42.919
X87.313Y42.838
X87.721Y42.749
X88.115Y42.659
X88.521Y42.56
X88.912Y42.459
X89.316Y42.35
X89.705Y42.24
X90.115Y42.119
X90.792Y41.912
X91.274Y41.757
X91.657Y41.628
X92.052Y41.49
X92.432Y41.351
X92.823Y41.203
X93.199Y41.056
X93.586Y40.898
X93.959Y40.741
X94.342Y40.574
X94.711Y40.409
X95.09Y40.232
X95.454Y40.057
X95.829Y39.872
X96.189Y39.688
X96.567Y39.489
X97.191Y39.154
X97.634Y38.908
X97.91Y38.75
X97.408Y37.884
X97.83Y37.636
X98.165Y37.433
X98.509Y37.218
X98.839Y37.006
X99.178Y36.783
X99.502Y36.563
X99.836Y36.332
X100.155Y36.104
X100.482Y35.865
X100.796Y35.63
X101.117Y35.382
X101.425Y35.139
X101.595Y35.002
X108.4Y35.014
X108.782Y35.319
X109.078Y35.548
X109.112Y36.007
X109.157Y36.494
X109.197Y36.884
X109.244Y37.287
X109.294Y37.676
X109.351Y38.078
X109.411Y38.465
X109.478Y38.865
X109.547Y39.251
X109.624Y39.649
X109.702Y40.033
X109.789Y40.43
X109.877Y40.812
X109.973Y41.206
X110.07Y41.586
X110.176Y41.977
X110.282Y42.354
X110.398Y42.743
X110.514Y43.118
X110.638Y43.504
X110.763Y43.875
X110.898Y44.258
X111.032Y44.626
X111.175Y45.006
X111.319Y45.371
X111.471Y45.747
X111.623Y46.108
X111.785Y46.48
X111.946Y46.837
X112.117Y47.205
X112.287Y47.559
X112.467Y47.922
X112.645Y48.271
X112.834Y48.63
X113.021Y48.975
X113.219Y49.329
X113.414Y49.669
X113.455Y49.74
X113.436Y51.233
X113.194Y51.364
X112.84Y51.562
X112.5Y51.757
X112.15Y51.964
X111.815Y52.167
X111.471Y52.382
X111.141Y52.593
X110.802Y52.817
X110.478Y53.036
X110.144Y53.268
X109.825Y53.496
X109.497Y53.735
X109.184Y53.97
X108.862Y54.218
X108.555Y54.461
X108.232Y54.722
X107.956Y54.949
X107.601Y54.899
X107.199Y54.847
X106.809Y54.801
X106.406Y54.758
X106.016Y54.722
X105.611Y54.69
X105.22Y54.663
X104.815Y54.641
X104.424Y54.624
X104.018Y54.611
X103.626Y54.604
X103.322Y54.601
X101.567Y54.575
X101.198Y54.281
X100.822Y53.99
X100.497Y53.746
X100.181Y53.514
X99.851Y53.279
X99.529Y53.055
X99.193Y52.827
X98.866Y52.611
X98.525Y52.392
X98.192Y52.184
X97.846Y51.973
X97.509Y51.774
X97.157Y51.571
X96.815Y51.38
X96.45Y51.182
X95.833Y50.854
X95.396Y50.63
X95.045Y50.455
X94.679Y50.28
X94.324Y50.114
X93.954Y49.947
X93.595Y49.79
X93.221Y49.633
X92.858Y49.485
X92.48Y49.336
X92.114Y49.197
X91.733Y49.058
X91.363Y48.928
X90.979Y48.798
X90.606Y48.678
X90.209Y48.554
X89.54Y48.353
X89.067Y48.218
X88.689Y48.116
X88.296Y48.015
X87.915Y47.922
X87.52Y47.83
X87.137Y47.746
X86.74Y47.665
X86.355Y47.59
X85.956Y47.518
X85.569Y47.454
X85.168Y47.392
X84.78Y47.336
X84.378Y47.284
X83.988Y47.238
X83.575Y47.195
X82.88Y47.128
X82.39Y47.088
X81.999Y47.061
X81.594Y47.039
X81.202Y47.022
X80.797Y47.009
X80.405Y47.002
X79.999Y46.999
X79.607Y47.001
X79.202Y47.009
X78.81Y47.02
X78.405Y47.038
X78.013Y47.059
X77.608Y47.086
X77.218Y47.117
X76.804Y47.155
X76.109Y47.225
X75.621Y47.282
X75.232Y47.332
X74.83Y47.389
X74.443Y47.449
X74.043Y47.515
X73.657Y47.585
X73.259Y47.661
X72.875Y47.74
X72.478Y47.826
X72.096Y47.914
X71.702Y48.01
X71.322Y48.108
X70.931Y48.213
X70.553Y48.32
X70.155Y48.438
X69.487Y48.642
X69.019Y48.793
X68.648Y48.918
X68.265Y49.052
X67.897Y49.186
X67.517Y49.33
X67.152Y49.473
X66.776Y49.626
X66.415Y49.778
X66.043Y49.94
X65.686Y50.1
X65.318Y50.272
X64.965Y50.441
X64.601Y50.621
X64.252Y50.8
X63.884Y50.993
X63.269Y51.323
X62.839Y51.562
X62.5Y51.757
X62.15Y51.964
X61.815Y52.167
X61.471Y52.382
X61.141Y52.594
X60.802Y52.817
X60.478Y53.036
X60.144Y53.268
X59.825Y53.495
X59.498Y53.735
X59.184Y53.97
X58.863Y54.218
X58.555Y54.461
X58.232Y54.722
X57.694Y55.166
X57.319Y55.484
X57.195Y55.592
X33.999Y55.592
X33.998Y46.178
X33.998Y46.12
X33.999Y39.4
X33.999Y34.068
X57.382Y34.17
X57.603Y34.358
X57.922Y34.623
X58.463Y35.065
X58.848Y35.371
X59.158Y35.61
X59.483Y35.854
X59.799Y36.085
X60.129Y36.321
X60.451Y36.545
X60.787Y36.773
X61.114Y36.989
X61.455Y37.208
X61.788Y37.416
X62.134Y37.627
X62.472Y37.826
X62.823Y38.028
X63.166Y38.22
X63.53Y38.418
X64.147Y38.746
X64.585Y38.97
X64.936Y39.145
X65.301Y39.32
X65.657Y39.486
X66.026Y39.653
X66.386Y39.81
X66.759Y39.967
X67.122Y40.115
X67.5Y40.264
X67.866Y40.403
X68.248Y40.542
X68.617Y40.672
X69.002Y40.802
X69.375Y40.922
X69.771Y41.045
X70.44Y41.247
X70.913Y41.382
X71.291Y41.484
X71.684Y41.585
X72.065Y41.678
X72.46Y41.77
X72.843Y41.853
X73.24Y41.935
X73.625Y42.009
X74.024Y42.081
X74.411Y42.146
X74.812Y42.208
X75.2Y42.264
X75.602Y42.316
X75.991Y42.362
X76.404Y42.405
X77.1Y42.472
X77.59Y42.512
X77.981Y42.539
X78.386Y42.561
X78.777Y42.578
X79.183Y42.591
X79.575Y42.598
X79.981Y42.601
X80.373Y42.599
X80.778Y42.591
X81.17Y42.579
X81.576Y42.562
X81.967Y42.541
X82.372Y42.513
X82.763Y42.482
X83.176Y42.444
X83.871Y42.374
X84.359Y42.318
X84.748Y42.268
X85.15Y42.211
X85.537Y42.151
X85.937Y42.085
X86.323Y42.015
X86.721Y41.939
X87.105Y41.86
X87.502Y41.774
X87.884Y41.686
X88.278Y41.59
X88.657Y41.492
X89.049Y41.387
X89.426Y41.28
X89.824Y41.162
X90.492Y40.958
X90.96Y40.807
X91.332Y40.682
X91.715Y40.548
X92.083Y40.414
X92.463Y40.27
X92.827Y40.127
X93.203Y39.974
X93.565Y39.822
X93.937Y39.66
X94.294Y39.499
X94.662Y39.328
X95.015Y39.159
X95.379Y38.979
X95.728Y38.8
X96.095Y38.607
X96.711Y38.277
X97.14Y38.038
X97.408Y37.884
X96.907Y37.019
X97.315Y36.779
X97.64Y36.581
X97.974Y36.373
X98.293Y36.168
X98.622Y35.952
X98.937Y35.739
X99.26Y35.515
X99.569Y35.294
X99.886Y35.062
X100.19Y34.834
X100.502Y34.594
X100.8Y34.358
X101.113Y34.105
X101.239Y34.001
X108.757Y34.015
X109.155Y34.338
X109.463Y34.582
X109.764Y34.814
X110.047Y35.028
X110.08Y35.544
X110.116Y36.004
X110.152Y36.396
X110.191Y36.774
X110.237Y37.165
X110.285Y37.541
X110.341Y37.931
X110.398Y38.306
X110.463Y38.694
X110.53Y39.068
X110.604Y39.454
X110.681Y39.826
X110.764Y40.21
X110.85Y40.58
X110.943Y40.963
X111.037Y41.331
X111.139Y41.71
X111.243Y42.076
X111.355Y42.453
X111.467Y42.816
X111.588Y43.19
X111.709Y43.55
X111.839Y43.921
X111.969Y44.278
X112.108Y44.646
X112.247Y44.999
X112.395Y45.364
X112.542Y45.714
X112.699Y46.074
X112.855Y46.421
X113.021Y46.777
X113.186Y47.12
X113.36Y47.472
X113.533Y47.81
X113.716Y48.159
X113.897Y48.492
X114.089Y48.836
X114.278Y49.165
X114.459Y49.472
X114.437Y51.832
X113.75Y52.2
X113.333Y52.432
X113.004Y52.621
X112.665Y52.821
X112.34Y53.018
X112.006Y53.227
X111.687Y53.432
X111.358Y53.648
X111.043Y53.861
X110.72Y54.085
X110.411Y54.306
X110.093Y54.538
X109.79Y54.766
X109.478Y55.006
X109.18Y55.242
X108.866Y55.495
X108.335Y55.933
X108.248Y56.006
X107.843Y55.943
X107.467Y55.89
X107.076Y55.839
X106.699Y55.795
X106.308Y55.754
X105.93Y55.719
X105.538Y55.687
X105.159Y55.661
X104.766Y55.639
X104.387Y55.623
X103.994Y55.611
X103.614Y55.604
X103.312Y55.601
X101.204Y55.569
X100.825Y55.262
X100.517Y55.018
X100.216Y54.786
X99.902Y54.549
X99.595Y54.325
X99.275Y54.096
X98.964Y53.879
X98.638Y53.659
X98.321Y53.45
X97.99Y53.237
X97.668Y53.036
X97.332Y52.831
X97.005Y52.638
X96.664Y52.442
X96.333Y52.256
X95.978Y52.064
X95.37Y51.741
X94.946Y51.523
X94.606Y51.354
X94.252Y51.184
X93.907Y51.023
X93.549Y50.861
X93.201Y50.71
X92.838Y50.557
X92.487Y50.413
X92.121Y50.269
X91.766Y50.135
X91.396Y50
X91.038Y49.874
X90.665Y49.748
X90.304Y49.631
X89.919Y49.511
X89.259Y49.313
X88.801Y49.182
X88.434Y49.083
X88.053Y48.985
X87.685Y48.895
X87.301Y48.806
X86.93Y48.725
X86.545Y48.646
X86.172Y48.574
X85.785Y48.504
X85.41Y48.441
X85.022Y48.381
X84.646Y48.327
X84.256Y48.276
X83.878Y48.232
X83.477Y48.19
X82.792Y48.124
X82.317Y48.085
X81.938Y48.059
X81.545Y48.037
X81.166Y48.021
X80.773Y48.009
X80.393Y48.002
X80Y47.999
X79.62Y48.001
X79.227Y48.008
X78.847Y48.02
X78.454Y48.036
X78.075Y48.057
X77.682Y48.084
X77.304Y48.114
X76.902Y48.151
X76.217Y48.219
X75.743Y48.274
X75.367Y48.323
X74.977Y48.378
X74.602Y48.436
X74.214Y48.501
X73.84Y48.568
X73.454Y48.642
X73.082Y48.718
X72.697Y48.802
X72.327Y48.887
X71.945Y48.98
X71.577Y49.075
X71.198Y49.177
X70.832Y49.28
X70.446Y49.395
X69.787Y49.596
X69.333Y49.742
X68.973Y49.863
X68.602Y49.993
X68.245Y50.123
X67.877Y50.262
X67.524Y50.401
X67.159Y50.549
X66.809Y50.697
X66.449Y50.854
X66.102Y51.01
X65.746Y51.175
X65.403Y51.34
X65.051Y51.514
X64.712Y51.687
X64.356Y51.875
X63.749Y52.2
X63.332Y52.432
X63.003Y52.621
X62.664Y52.821
X62.34Y53.018
X62.006Y53.227
X61.687Y53.432
X61.358Y53.648
X61.043Y53.861
X60.72Y54.085
X60.411Y54.306
X60.094Y54.538
X59.79Y54.766
X59.478Y55.006
X59.18Y55.241
X58.867Y55.495
X58.336Y55.933
X57.972Y56.241
X57.686Y56.491
X57.572Y56.592
X32.999Y56.592
X32.998Y46.184
X32.998Y46.124
X32.999Y39.4
X32.999Y33.064
X57.755Y33.169
X58.108Y33.475
X58.493Y33.798
X59.09Y34.286
X59.463Y34.582
X59.764Y34.814
X60.078Y35.05
X60.385Y35.275
X60.705Y35.504
X61.016Y35.72
X61.342Y35.941
X61.659Y36.15
X61.99Y36.363
X62.312Y36.564
X62.648Y36.769
X62.975Y36.962
X63.316Y37.158
X63.648Y37.344
X64.002Y37.536
X64.61Y37.859
X65.034Y38.077
X65.374Y38.246
X65.729Y38.416
X66.073Y38.577
X66.431Y38.739
X66.779Y38.89
X67.142Y39.043
X67.494Y39.187
X67.86Y39.331
X68.215Y39.465
X68.584Y39.6
X68.943Y39.726
X69.315Y39.852
X69.677Y39.969
X70.062Y40.089
X70.721Y40.287
X71.179Y40.418
X71.546Y40.517
X71.927Y40.615
X72.296Y40.705
X72.679Y40.794
X73.05Y40.875
X73.435Y40.954
X73.808Y41.026
X74.195Y41.096
X74.57Y41.159
X74.958Y41.219
X75.334Y41.273
X75.724Y41.323
X76.102Y41.368
X76.502Y41.41
X77.188Y41.476
X77.663Y41.515
X78.042Y41.541
X78.435Y41.562
X78.814Y41.579
X79.207Y41.591
X79.587Y41.598
X79.98Y41.601
X80.36Y41.599
X80.754Y41.592
X81.133Y41.58
X81.526Y41.563
X81.905Y41.543
X82.298Y41.516
X82.677Y41.486
X83.078Y41.449
X83.763Y41.38
X84.237Y41.326
X84.613Y41.277
X85.003Y41.222
X85.378Y41.164
X85.766Y41.099
X86.14Y41.032
X86.526Y40.958
X86.898Y40.882
X87.282Y40.798
X87.652Y40.713
X88.035Y40.62
X88.402Y40.525
X88.782Y40.423
X89.148Y40.32
X89.534Y40.205
X90.193Y40.004
X90.647Y39.858
X91.006Y39.737
X91.378Y39.607
X91.735Y39.477
X92.103Y39.337
X92.456Y39.199
X92.82Y39.051
X93.17Y38.903
X93.531Y38.746
X93.877Y38.59
X94.234Y38.425
X94.576Y38.26
X94.929Y38.086
X95.267Y37.913
X95.624Y37.725
X96.231Y37.399
X96.647Y37.168
X96.907Y37.019
X96.405Y36.154
X96.801Y35.921
X97.115Y35.73
X97.439Y35.528
X97.748Y35.33
X98.066Y35.12
X98.371Y34.914
X98.684Y34.697
X98.983Y34.484
X99.291Y34.259
X99.584Y34.038
X99.886Y33.806
X100.175Y33.578
X100.479Y33.332
X100.882Y33.001
X109.114Y33.014
X109.717Y33.507
X110.078Y33.794
X110.369Y34.018
X110.674Y34.247
X110.97Y34.464
X111.024Y34.503
X111.037Y34.805
X111.057Y35.172
X111.083Y35.552
X111.112Y35.918
X111.147Y36.298
X111.185Y36.663
X111.229Y37.042
X111.276Y37.406
X111.33Y37.784
X111.386Y38.147
X111.448Y38.523
X111.513Y38.885
X111.585Y39.259
X111.659Y39.619
X111.74Y39.991
X111.823Y40.349
X111.913Y40.72
X112.004Y41.075
X112.103Y41.443
X112.203Y41.797
X112.311Y42.162
X112.42Y42.513
X112.537Y42.876
X112.655Y43.224
X112.781Y43.584
X112.906Y43.929
X113.041Y44.286
X113.175Y44.628
X113.319Y44.981
X113.462Y45.32
X113.614Y45.669
X113.764Y46.004
X113.925Y46.35
X114.084Y46.681
X114.253Y47.023
X114.42Y47.35
X114.598Y47.687
X114.773Y48.01
X114.958Y48.343
X115.141Y48.662
X115.335Y48.99
X115.461Y49.198
X115.431Y52.443
X115.174Y52.574
X114.828Y52.756
X114.23Y53.077
X113.826Y53.302
X113.507Y53.485
X113.179Y53.679
X112.865Y53.87
X112.541Y54.071
X112.232Y54.27
X111.914Y54.479
X111.609Y54.685
X111.296Y54.903
X110.997Y55.116
X110.689Y55.341
X110.395Y55.562
X110.093Y55.794
X109.805Y56.022
X109.501Y56.268
X108.977Y56.7
X108.625Y56.999
X108.542Y57.07
X108.073Y56.991
X107.696Y56.933
X107.332Y56.881
X106.954Y56.832
X106.589Y56.789
X106.21Y56.749
X105.844Y56.715
X105.465Y56.684
X105.098Y56.659
X104.717Y56.638
X104.35Y56.622
X103.969Y56.61
X103.602Y56.604
X103.303Y56.601
X100.839Y56.564
X100.264Y56.093
X99.902Y55.806
X99.611Y55.582
X99.306Y55.353
X99.01Y55.135
X98.7Y54.914
X98.398Y54.704
X98.083Y54.49
X97.776Y54.288
X97.455Y54.082
X97.144Y53.887
X96.818Y53.689
X96.502Y53.502
X96.171Y53.312
X95.851Y53.133
X95.507Y52.946
X94.908Y52.627
X94.497Y52.416
X94.168Y52.253
X93.824Y52.088
X93.491Y51.932
X93.144Y51.776
X92.807Y51.629
X92.456Y51.481
X92.116Y51.342
X91.761Y51.202
X91.417Y51.072
X91.059Y50.941
X90.713Y50.82
X90.352Y50.698
X90.002Y50.584
X89.629Y50.468
X88.979Y50.273
X88.534Y50.146
X88.18Y50.05
X87.811Y49.955
X87.454Y49.868
X87.082Y49.782
X86.723Y49.703
X86.35Y49.626
X85.989Y49.557
X85.614Y49.489
X85.252Y49.428
X84.875Y49.37
X84.511Y49.318
X84.133Y49.269
X83.768Y49.226
X83.379Y49.185
X82.704Y49.12
X82.243Y49.082
X81.877Y49.057
X81.496Y49.036
X81.129Y49.02
X80.748Y49.008
X80.381Y49.002
X80Y48.999
X79.632Y49.001
X79.251Y49.008
X78.884Y49.019
X78.503Y49.035
X78.136Y49.055
X77.756Y49.081
X77.39Y49.11
X77Y49.146
X76.325Y49.214
X75.866Y49.267
X75.502Y49.314
X75.124Y49.367
X74.761Y49.423
X74.385Y49.486
X74.023Y49.551
X73.649Y49.623
X73.289Y49.696
X72.917Y49.777
X72.559Y49.86
X72.188Y49.95
X71.832Y50.041
X71.464Y50.141
X71.111Y50.241
X70.736Y50.352
X70.087Y50.55
X69.647Y50.691
X69.299Y50.809
X68.939Y50.935
X68.594Y51.061
X68.237Y51.195
X67.895Y51.33
X67.542Y51.473
X67.204Y51.616
X66.854Y51.768
X66.519Y51.919
X66.173Y52.079
X65.842Y52.238
X65.501Y52.407
X65.173Y52.575
X64.827Y52.757
X64.229Y53.078
X63.826Y53.302
X63.507Y53.485
X63.179Y53.679
X62.865Y53.87
X62.541Y54.071
X62.232Y54.27
X61.914Y54.479
X61.609Y54.685
X61.296Y54.903
X60.997Y55.116
X60.69Y55.341
X60.396Y55.562
X60.094Y55.794
X59.805Y56.022
X59.501Y56.268
X58.978Y56.7
X58.625Y56.998
X58.348Y57.24
X58.064Y57.494
X57.957Y57.592
X31.999Y57.592
X31.998Y45.962
X31.999Y39.4
X31.999Y32.06
X58.137Y32.171
X58.324Y32.338
X58.61Y32.588
X58.89Y32.827
X59.191Y33.077
X59.716Y33.507
X60.078Y33.794
X60.369Y34.018
X60.674Y34.247
X60.97Y34.464
X61.28Y34.686
X61.582Y34.896
X61.898Y35.11
X62.204Y35.312
X62.525Y35.518
X62.836Y35.713
X63.162Y35.911
X63.478Y36.098
X63.809Y36.288
X64.13Y36.467
X64.473Y36.654
X65.072Y36.973
X65.483Y37.184
X65.813Y37.347
X66.156Y37.512
X66.489Y37.667
X66.836Y37.824
X67.173Y37.971
X67.524Y38.119
X67.865Y38.258
X68.219Y38.398
X68.563Y38.528
X68.921Y38.659
X69.268Y38.78
X69.629Y38.902
X69.979Y39.016
X70.352Y39.132
X71.002Y39.327
X71.446Y39.454
X71.801Y39.55
X72.17Y39.645
X72.527Y39.732
X72.898Y39.818
X73.257Y39.897
X73.63Y39.973
X73.991Y40.043
X74.366Y40.111
X74.728Y40.171
X75.105Y40.23
X75.469Y40.282
X75.846Y40.331
X76.212Y40.374
X76.6Y40.415
X77.276Y40.48
X77.736Y40.517
X78.103Y40.542
X78.484Y40.564
X78.851Y40.58
X79.232Y40.591
X79.599Y40.598
X79.98Y40.601
X80.348Y40.599
X80.729Y40.592
X81.096Y40.581
X81.477Y40.565
X81.844Y40.544
X82.224Y40.519
X82.591Y40.49
X82.98Y40.454
X83.655Y40.386
X84.114Y40.333
X84.479Y40.286
X84.856Y40.233
X85.219Y40.177
X85.595Y40.114
X85.957Y40.049
X86.331Y39.977
X86.691Y39.903
X87.063Y39.822
X87.421Y39.74
X87.791Y39.65
X88.147Y39.558
X88.515Y39.459
X88.869Y39.359
X89.244Y39.248
X89.893Y39.05
X90.333Y38.908
X90.681Y38.791
X91.041Y38.665
X91.386Y38.539
X91.742Y38.405
X92.085Y38.27
X92.438Y38.127
X92.776Y37.984
X93.126Y37.832
X93.461Y37.681
X93.806Y37.521
X94.138Y37.362
X94.479Y37.193
X94.807Y37.025
X95.153Y36.843
X95.751Y36.522
X96.154Y36.298
X96.405Y36.154
X95.904Y35.289
X96.287Y35.063
X96.591Y34.879
X96.903Y34.684
X97.203Y34.492
X97.511Y34.289
X97.805Y34.09
X98.108Y33.88
X98.397Y33.673
X98.695Y33.456
X98.979Y33.242
X99.271Y33.017
X99.55Y32.797
X99.844Y32.559
X100.361Y32.134
X100.519Y32
X109.478Y32.015
X109.825Y32.304
X110.343Y32.728
X110.694Y33.005
X110.975Y33.222
X111.27Y33.444
X111.556Y33.654
X111.856Y33.868
X112.008Y33.975
X112.02Y34.387
X112.036Y34.756
X112.056Y35.11
X112.08Y35.478
X112.108Y35.832
X112.142Y36.2
X112.179Y36.553
X112.222Y36.919
X112.267Y37.272
X112.319Y37.637
X112.373Y37.988
X112.434Y38.352
X112.496Y38.701
X112.566Y39.063
X112.637Y39.412
X112.716Y39.772
X112.795Y40.118
X112.883Y40.476
X112.971Y40.82
X113.067Y41.177
X113.164Y41.518
X113.268Y41.872
X113.373Y42.211
X113.487Y42.562
X113.6Y42.899
X113.722Y43.247
X113.844Y43.581
X113.974Y43.926
X114.104Y44.256
X114.243Y44.598
X114.381Y44.925
X114.528Y45.264
X114.674Y45.588
X114.829Y45.922
X114.983Y46.242
X115.146Y46.573
X115.308Y46.889
X115.48Y47.215
X115.649Y47.528
X115.828Y47.85
X116.005Y48.158
X116.193Y48.476
X116.377Y48.779
X116.464Y48.919
X116.425Y53.067
X116.019Y53.266
X115.635Y53.462
X115.299Y53.638
X114.71Y53.955
X114.319Y54.172
X114.011Y54.349
X113.693Y54.536
X113.39Y54.721
X113.077Y54.916
X112.778Y55.108
X112.469Y55.311
X112.175Y55.51
X111.872Y55.72
X111.583Y55.927
X111.285Y56.144
X111.001Y56.358
X110.709Y56.583
X110.43Y56.803
X110.135Y57.041
X109.619Y57.467
X109.278Y57.756
X109.011Y57.99
X108.861Y58.122
X108.797Y58.135
X108.34Y58.05
X107.914Y57.978
X107.549Y57.922
X107.198Y57.872
X106.832Y57.824
X106.479Y57.783
X106.112Y57.744
X105.759Y57.711
X105.391Y57.682
X105.037Y57.658
X104.669Y57.637
X104.314Y57.622
X103.945Y57.61
X103.59Y57.603
X103.294Y57.601
X100.475Y57.562
X100.155Y57.296
X99.637Y56.872
X99.287Y56.595
X99.005Y56.378
X98.711Y56.156
X98.424Y55.946
X98.124Y55.732
X97.832Y55.529
X97.527Y55.322
X97.231Y55.126
X96.92Y54.927
X96.619Y54.739
X96.304Y54.547
X95.998Y54.366
X95.679Y54.182
X95.368Y54.009
X95.036Y53.828
X94.445Y53.514
X94.047Y53.31
X93.729Y53.152
X93.397Y52.992
X93.075Y52.842
X92.739Y52.69
X92.413Y52.548
X92.073Y52.405
X91.744Y52.27
X91.401Y52.135
X91.069Y52.01
X90.723Y51.883
X90.387Y51.765
X90.038Y51.647
X89.7Y51.538
X89.338Y51.425
X88.698Y51.232
X88.268Y51.11
X87.925Y51.017
X87.568Y50.925
X87.223Y50.841
X86.863Y50.757
X86.516Y50.682
X86.155Y50.607
X85.806Y50.54
X85.443Y50.474
X85.093Y50.416
X84.729Y50.359
X84.377Y50.309
X84.011Y50.261
X83.658Y50.22
X83.281Y50.18
X82.616Y50.116
X82.17Y50.08
X81.816Y50.056
X81.447Y50.035
X81.093Y50.02
X80.724Y50.008
X80.369Y50.001
X80Y49.999
X79.645Y50.001
X79.276Y50.008
X78.921Y50.018
X78.552Y50.034
X78.198Y50.054
X77.83Y50.078
X77.476Y50.106
X77.098Y50.141
X76.433Y50.208
X75.989Y50.259
X75.636Y50.305
X75.271Y50.356
X74.92Y50.41
X74.556Y50.471
X74.207Y50.534
X73.844Y50.603
X73.496Y50.675
X73.136Y50.753
X72.79Y50.833
X72.432Y50.92
X72.087Y51.008
X71.731Y51.104
X71.389Y51.201
X71.026Y51.309
X70.386Y51.504
X69.961Y51.641
X69.624Y51.754
X69.276Y51.876
X68.942Y51.998
X68.597Y52.128
X68.267Y52.258
X67.925Y52.397
X67.598Y52.535
X67.26Y52.682
X66.936Y52.828
X66.601Y52.983
X66.281Y53.137
X65.95Y53.301
X65.634Y53.462
X65.299Y53.639
X64.709Y53.955
X64.319Y54.172
X64.011Y54.349
X63.693Y54.537
X63.389Y54.721
X63.076Y54.916
X62.777Y55.108
X62.469Y55.311
X62.175Y55.51
X61.872Y55.72
X61.583Y55.926
X61.285Y56.144
X61.001Y56.357
X60.709Y56.582
X60.43Y56.803
X60.136Y57.041
X59.62Y57.466
X59.279Y57.756
X59.011Y57.989
X58.736Y58.235
X58.474Y58.475
X58.349Y58.592
X30.999Y58.592
X30.998Y45.962
X30.999Y39.4
X30.999Y31.056
X58.52Y31.167
X58.859Y31.476
X59.206Y31.781
X59.534Y32.062
X59.825Y32.304
X60.343Y32.727
X60.693Y33.005
X60.975Y33.222
X61.269Y33.444
X61.556Y33.654
X61.856Y33.868
X62.148Y34.071
X62.453Y34.278
X62.749Y34.474
X63.06Y34.673
X63.361Y34.861
X63.676Y35.053
X63.982Y35.234
X64.301Y35.418
X64.612Y35.591
X64.945Y35.772
X65.535Y36.086
X65.933Y36.29
X66.251Y36.448
X66.583Y36.608
X66.905Y36.758
X67.242Y36.91
X67.567Y37.052
X67.907Y37.195
X68.236Y37.329
X68.579Y37.464
X68.911Y37.59
X69.258Y37.717
X69.593Y37.835
X69.942Y37.953
X70.28Y38.062
X70.642Y38.175
X71.282Y38.368
X71.712Y38.49
X72.055Y38.583
X72.412Y38.675
X72.757Y38.759
X73.117Y38.842
X73.464Y38.918
X73.825Y38.993
X74.174Y39.06
X74.537Y39.125
X74.887Y39.184
X75.251Y39.241
X75.603Y39.291
X75.969Y39.338
X76.322Y39.38
X76.698Y39.419
X77.364Y39.484
X77.81Y39.52
X78.164Y39.544
X78.532Y39.565
X78.887Y39.58
X79.256Y39.592
X79.611Y39.598
X79.98Y39.601
X80.335Y39.599
X80.704Y39.592
X81.059Y39.581
X81.428Y39.566
X81.782Y39.546
X82.15Y39.522
X82.505Y39.493
X82.882Y39.459
X83.547Y39.392
X83.992Y39.341
X84.344Y39.295
X84.709Y39.244
X85.06Y39.189
X85.424Y39.129
X85.773Y39.066
X86.136Y38.997
X86.484Y38.925
X86.844Y38.847
X87.19Y38.767
X87.548Y38.68
X87.892Y38.591
X88.248Y38.496
X88.59Y38.399
X88.954Y38.291
X89.593Y38.096
X90.019Y37.959
X90.356Y37.846
X90.704Y37.724
X91.037Y37.602
X91.382Y37.472
X91.713Y37.342
X92.055Y37.203
X92.382Y37.065
X92.72Y36.918
X93.044Y36.772
X93.379Y36.617
X93.699Y36.463
X94.029Y36.299
X94.346Y36.138
X94.681Y35.961
X95.27Y35.645
X95.661Y35.428
X95.904Y35.289
X95.402Y34.424
X95.773Y34.206
X96.066Y34.028
X96.368Y33.839
X96.657Y33.654
X96.955Y33.458
X97.239Y33.265
X97.532Y33.062
X97.811Y32.863
X98.099Y32.653
X98.373Y32.447
X98.656Y32.229
X98.925Y32.017
X99.21Y31.786
X99.719Y31.367
X100.048Y31.087
X100.149Y31
X109.841Y31.009
X110.178Y31.297
X110.46Y31.531
X110.97Y31.948
X111.309Y32.217
X111.58Y32.426
X111.865Y32.641
X112.142Y32.843
X112.432Y33.051
X112.713Y33.246
X113.001Y33.442
X113.008Y33.934
X113.02Y34.35
X113.035Y34.706
X113.054Y35.049
X113.077Y35.405
X113.105Y35.747
X113.137Y36.101
X113.173Y36.443
X113.214Y36.797
X113.258Y37.137
X113.308Y37.49
X113.36Y37.829
X113.419Y38.181
X113.479Y38.518
X113.547Y38.868
X113.615Y39.204
X113.691Y39.553
X113.768Y39.887
X113.853Y40.233
X113.938Y40.565
X114.031Y40.91
X114.124Y41.24
X114.225Y41.581
X114.327Y41.909
X114.436Y42.248
X114.546Y42.573
X114.664Y42.91
X114.781Y43.232
X114.907Y43.566
X115.032Y43.885
X115.167Y44.215
X115.3Y44.531
X115.442Y44.858
X115.583Y45.171
X115.733Y45.494
X115.881Y45.803
X116.039Y46.123
X116.195Y46.428
X116.361Y46.744
X116.525Y47.046
X116.698Y47.357
X116.869Y47.654
X117.05Y47.961
X117.229Y48.255
X117.417Y48.557
X117.466Y48.635
X117.42Y53.706
X117.029Y53.887
X116.72Y54.035
X116.401Y54.193
X116.095Y54.349
X115.771Y54.52
X115.19Y54.832
X114.812Y55.042
X114.515Y55.213
X114.208Y55.394
X113.914Y55.572
X113.612Y55.761
X113.323Y55.946
X113.025Y56.142
X112.741Y56.334
X112.448Y56.538
X112.169Y56.737
X111.881Y56.947
X111.607Y57.153
X111.324Y57.371
X111.055Y57.584
X110.77Y57.814
X110.261Y58.233
X109.932Y58.513
X109.673Y58.739
X109.408Y58.976
X109.322Y59.054
X108.835Y59.146
X108.797Y59.154
X108.444Y59.086
X108.093Y59.022
X107.755Y58.966
X107.403Y58.911
X107.063Y58.863
X106.71Y58.817
X106.369Y58.777
X106.015Y58.739
X105.673Y58.708
X105.318Y58.679
X104.976Y58.656
X104.62Y58.636
X104.277Y58.621
X103.921Y58.61
X103.578Y58.603
X103.286Y58.601
X100.103Y58.561
X99.802Y58.303
X99.52Y58.069
X99.01Y57.652
X98.672Y57.383
X98.4Y57.174
X98.115Y56.959
X97.838Y56.757
X97.548Y56.549
X97.267Y56.353
X96.972Y56.153
X96.685Y55.965
X96.386Y55.772
X96.095Y55.59
X95.79Y55.405
X95.495Y55.23
X95.186Y55.052
X94.886Y54.885
X94.564Y54.71
X93.982Y54.4
X93.598Y54.203
X93.291Y54.05
X92.969Y53.896
X92.659Y53.751
X92.334Y53.604
X92.019Y53.467
X91.691Y53.328
X91.373Y53.199
X91.041Y53.069
X90.721Y52.947
X90.386Y52.825
X90.062Y52.711
X89.725Y52.597
X89.398Y52.491
X89.048Y52.382
X88.417Y52.192
X88.001Y52.074
X87.67Y51.984
X87.325Y51.895
X86.992Y51.814
X86.645Y51.733
X86.309Y51.66
X85.96Y51.588
X85.623Y51.523
X85.273Y51.46
X84.934Y51.403
X84.582Y51.348
X84.242Y51.3
X83.889Y51.254
X83.548Y51.214
X83.183Y51.176
X82.527Y51.112
X82.097Y51.077
X81.754Y51.054
X81.399Y51.034
X81.056Y51.019
X80.7Y51.008
X80.357Y51.001
X80Y50.999
X79.657Y51.001
X79.301Y51.007
X78.958Y51.018
X78.602Y51.033
X78.259Y51.052
X77.904Y51.075
X77.561Y51.103
X77.196Y51.136
X76.541Y51.202
X76.111Y51.251
X75.771Y51.295
X75.418Y51.345
X75.079Y51.398
X74.727Y51.456
X74.39Y51.517
X74.04Y51.584
X73.704Y51.653
X73.355Y51.729
X73.021Y51.806
X72.675Y51.89
X72.342Y51.975
X71.998Y52.068
X71.668Y52.162
X71.316Y52.266
X70.686Y52.458
X70.275Y52.59
X69.95Y52.7
X69.613Y52.818
X69.291Y52.935
X68.958Y53.061
X68.638Y53.187
X68.308Y53.321
X67.992Y53.454
X67.665Y53.596
X67.352Y53.737
X67.029Y53.887
X66.72Y54.036
X66.4Y54.194
X66.095Y54.35
X65.77Y54.52
X65.189Y54.832
X64.812Y55.042
X64.514Y55.213
X64.207Y55.394
X63.914Y55.572
X63.612Y55.761
X63.323Y55.946
X63.025Y56.142
X62.741Y56.334
X62.448Y56.538
X62.169Y56.737
X61.881Y56.947
X61.607Y57.153
X61.324Y57.371
X61.055Y57.583
X60.77Y57.814
X60.261Y58.233
X59.932Y58.513
X59.674Y58.738
X59.408Y58.976
X59.155Y59.208
X58.895Y59.452
X58.749Y59.592
X29.999Y59.592
X29.998Y45.962
X29.999Y39.4
X29.999Y30.052
X58.909Y30.161
X59.13Y30.369
X59.393Y30.61
X59.648Y30.839
X59.917Y31.074
X60.178Y31.296
X60.46Y31.531
X60.97Y31.948
X61.308Y32.217
X61.58Y32.426
X61.865Y32.64
X62.142Y32.843
X62.432Y33.05
X62.713Y33.246
X63.008Y33.446
X63.295Y33.635
X63.595Y33.828
X63.885Y34.01
X64.19Y34.195
X64.485Y34.37
X64.794Y34.548
X65.094Y34.715
X65.416Y34.89
X65.998Y35.2
X66.382Y35.397
X66.69Y35.55
X67.011Y35.704
X67.322Y35.849
X67.647Y35.996
X67.961Y36.133
X68.289Y36.271
X68.607Y36.401
X68.939Y36.531
X69.26Y36.653
X69.594Y36.775
X69.918Y36.889
X70.256Y37.003
X70.582Y37.109
X70.932Y37.218
X71.563Y37.408
X71.979Y37.526
X72.31Y37.616
X72.655Y37.705
X72.988Y37.786
X73.336Y37.867
X73.671Y37.94
X74.02Y38.012
X74.357Y38.077
X74.707Y38.14
X75.046Y38.197
X75.398Y38.251
X75.737Y38.3
X76.091Y38.346
X76.432Y38.386
X76.796Y38.424
X77.452Y38.488
X77.883Y38.523
X78.225Y38.546
X78.581Y38.566
X78.924Y38.581
X79.28Y38.592
X79.623Y38.598
X79.98Y38.601
X80.323Y38.599
X80.679Y38.593
X81.022Y38.582
X81.378Y38.567
X81.721Y38.548
X82.077Y38.524
X82.419Y38.497
X82.784Y38.464
X83.44Y38.398
X83.869Y38.348
X84.209Y38.304
X84.562Y38.254
X84.901Y38.202
X85.253Y38.144
X85.59Y38.083
X85.94Y38.016
X86.276Y37.947
X86.625Y37.871
X86.959Y37.794
X87.305Y37.71
X87.637Y37.625
X87.982Y37.532
X88.312Y37.438
X88.663Y37.334
X89.294Y37.142
X89.705Y37.01
X90.03Y36.9
X90.367Y36.782
X90.689Y36.665
X91.022Y36.539
X91.342Y36.413
X91.672Y36.279
X91.988Y36.146
X92.315Y36.004
X92.628Y35.863
X92.951Y35.713
X93.26Y35.564
X93.58Y35.406
X93.885Y35.25
X94.21Y35.079
X94.79Y34.768
X95.168Y34.558
X95.402Y34.424
X94.901Y33.559
X95.258Y33.348
X95.541Y33.176
X95.833Y32.994
X96.112Y32.816
X96.399Y32.626
X96.673Y32.441
X96.956Y32.245
X97.225Y32.053
X97.503Y31.85
X97.768Y31.651
X98.04Y31.441
X98.3Y31.236
X98.576Y31.013
X99.133Y30.553
X99.395Y30.33
X99.644Y30.113
X99.771Y29.999
X110.215Y30.005
X110.57Y30.317
X110.822Y30.531
X111.094Y30.758
X111.597Y31.169
X111.924Y31.428
X112.186Y31.63
X112.461Y31.837
X112.727Y32.033
X113.008Y32.233
X113.279Y32.422
X113.564Y32.615
X113.84Y32.797
X114.001Y32.901
X114.003Y33.639
X114.009Y33.983
X114.019Y34.313
X114.034Y34.657
X114.052Y34.987
X114.075Y35.331
X114.101Y35.661
X114.132Y36.003
X114.167Y36.332
X114.207Y36.674
X114.249Y37.002
X114.297Y37.343
X114.348Y37.67
X114.404Y38.009
X114.462Y38.335
X114.527Y38.673
X114.594Y38.997
X114.667Y39.333
X114.741Y39.656
X114.823Y39.99
X114.905Y40.31
X114.994Y40.643
X115.084Y40.961
X115.182Y41.291
X115.28Y41.607
X115.386Y41.935
X115.491Y42.248
X115.605Y42.573
X115.718Y42.884
X115.84Y43.206
X115.961Y43.514
X116.09Y43.832
X116.219Y44.137
X116.356Y44.453
X116.492Y44.754
X116.637Y45.066
X116.78Y45.365
X116.933Y45.673
X117.083Y45.968
X117.243Y46.272
X117.401Y46.563
X117.568Y46.864
X117.733Y47.151
X117.908Y47.447
X118.08Y47.73
X118.262Y48.022
X118.441Y48.3
X118.469Y48.344
X118.414Y54.361
X118.071Y54.51
X117.769Y54.646
X117.457Y54.791
X117.159Y54.934
X116.851Y55.087
X116.556Y55.237
X116.242Y55.402
X115.606Y55.744
X115.305Y55.912
X115.018Y56.077
X114.722Y56.252
X114.439Y56.423
X114.147Y56.606
X113.868Y56.784
X113.581Y56.973
X113.307Y57.159
X113.024Y57.355
X112.755Y57.547
X112.477Y57.75
X112.212Y57.949
X111.939Y58.159
X111.68Y58.364
X111.404Y58.587
X110.903Y59
X110.585Y59.27
X110.336Y59.488
X110.079Y59.717
X109.835Y59.94
X109.784Y59.988
X109.368Y60.062
X109.031Y60.127
X108.797Y60.174
X108.331Y60.082
X107.923Y60.008
X107.596Y59.953
X107.256Y59.9
X106.929Y59.853
X106.588Y59.809
X106.259Y59.77
X105.917Y59.734
X105.587Y59.704
X105.244Y59.676
X104.914Y59.654
X104.571Y59.635
X104.24Y59.62
X103.896Y59.61
X103.565Y59.603
X103.278Y59.601
X99.721Y59.556
X99.41Y59.283
X99.159Y59.069
X98.886Y58.842
X98.383Y58.431
X98.057Y58.172
X97.795Y57.969
X97.52Y57.763
X97.253Y57.567
X96.973Y57.367
X96.701Y57.178
X96.416Y56.985
X96.14Y56.803
X95.851Y56.617
X95.57Y56.441
X95.276Y56.262
X94.992Y56.094
X94.693Y55.922
X94.404Y55.761
X94.093Y55.592
X93.52Y55.287
X93.149Y55.096
X92.852Y54.949
X92.542Y54.8
X92.242Y54.66
X91.929Y54.519
X91.625Y54.386
X91.308Y54.252
X91.002Y54.128
X90.682Y54.002
X90.372Y53.884
X90.049Y53.766
X89.737Y53.657
X89.411Y53.546
X89.096Y53.444
X88.758Y53.339
X88.136Y53.152
X87.735Y53.037
X87.415Y52.951
X87.082Y52.865
X86.761Y52.787
X86.426Y52.709
X86.102Y52.638
X85.765Y52.569
X85.441Y52.506
X85.102Y52.445
X84.776Y52.39
X84.435Y52.338
X84.108Y52.291
X83.767Y52.246
X83.438Y52.208
X83.085Y52.171
X82.439Y52.108
X82.023Y52.074
X81.693Y52.052
X81.35Y52.033
X81.019Y52.018
X80.675Y52.008
X80.344Y52.001
X80Y51.999
X79.67Y52.001
X79.325Y52.007
X78.995Y52.017
X78.651Y52.032
X78.321Y52.05
X77.977Y52.073
X77.647Y52.099
X77.294Y52.131
X76.648Y52.196
X76.234Y52.244
X75.906Y52.286
X75.565Y52.335
X75.238Y52.385
X74.899Y52.441
X74.573Y52.5
X74.235Y52.565
X73.911Y52.631
X73.575Y52.704
X73.252Y52.779
X72.918Y52.86
X72.597Y52.942
X72.265Y53.032
X71.947Y53.122
X71.607Y53.223
X70.986Y53.412
X70.589Y53.54
X70.275Y53.645
X69.95Y53.759
X69.639Y53.872
X69.318Y53.994
X69.01Y54.115
X68.691Y54.245
X68.386Y54.373
X68.07Y54.51
X67.769Y54.646
X67.457Y54.791
X67.158Y54.934
X66.85Y55.087
X66.555Y55.237
X66.241Y55.402
X65.605Y55.745
X65.305Y55.912
X65.018Y56.077
X64.722Y56.252
X64.439Y56.424
X64.147Y56.606
X63.868Y56.784
X63.581Y56.974
X63.307Y57.159
X63.024Y57.355
X62.755Y57.547
X62.477Y57.75
X62.213Y57.949
X61.94Y58.159
X61.68Y58.364
X61.405Y58.587
X60.847Y59.047
X60.585Y59.27
X60.336Y59.487
X60.08Y59.717
X59.836Y59.94
X59.585Y60.176
X59.347Y60.405
X59.157Y60.592
X28.999Y60.592
X28.998Y45.962
X28.999Y39.4
X28.999Y29.048
X59.309Y29.157
X59.57Y29.41
X59.811Y29.636
X60.064Y29.869
X60.31Y30.09
X60.57Y30.316
X60.821Y30.531
X61.094Y30.758
X61.597Y31.169
X61.923Y31.428
X62.185Y31.63
X62.46Y31.837
X62.727Y32.033
X63.007Y32.233
X63.279Y32.422
X63.564Y32.615
X63.84Y32.797
X64.129Y32.983
X64.41Y33.158
X64.704Y33.337
X64.989Y33.506
X65.287Y33.677
X65.576Y33.839
X65.887Y34.008
X66.525Y34.347
X66.832Y34.504
X67.128Y34.651
X67.438Y34.8
X67.738Y34.94
X68.052Y35.081
X68.355Y35.214
X68.672Y35.347
X68.978Y35.472
X69.298Y35.598
X69.608Y35.716
X69.931Y35.834
X70.243Y35.943
X70.569Y36.054
X70.884Y36.156
X71.223Y36.261
X71.844Y36.448
X72.245Y36.563
X72.565Y36.649
X72.898Y36.735
X73.219Y36.813
X73.555Y36.891
X73.878Y36.962
X74.215Y37.031
X74.54Y37.094
X74.878Y37.155
X75.204Y37.209
X75.544Y37.262
X75.872Y37.309
X76.213Y37.353
X76.542Y37.392
X76.894Y37.429
X77.541Y37.492
X77.956Y37.526
X78.287Y37.548
X78.63Y37.567
X78.961Y37.582
X79.305Y37.592
X79.636Y37.599
X79.98Y37.601
X80.311Y37.599
X80.655Y37.593
X80.985Y37.583
X81.329Y37.568
X81.66Y37.55
X82.003Y37.527
X82.333Y37.501
X82.686Y37.468
X83.332Y37.404
X83.746Y37.356
X84.074Y37.313
X84.415Y37.265
X84.742Y37.215
X85.081Y37.158
X85.407Y37.1
X85.745Y37.035
X86.069Y36.969
X86.405Y36.896
X86.728Y36.821
X87.062Y36.74
X87.382Y36.658
X87.715Y36.568
X88.033Y36.478
X88.373Y36.377
X88.994Y36.188
X89.391Y36.06
X89.705Y35.954
X90.029Y35.841
X90.34Y35.727
X90.662Y35.606
X90.97Y35.485
X91.289Y35.355
X91.594Y35.227
X91.909Y35.09
X92.211Y34.954
X92.523Y34.809
X92.821Y34.666
X93.13Y34.513
X93.425Y34.363
X93.738Y34.198
X94.375Y33.855
X94.675Y33.688
X94.901Y33.559
X94.399Y32.693
X94.744Y32.49
X95.016Y32.325
X95.298Y32.149
X95.566Y31.977
X95.843Y31.795
X96.107Y31.616
X96.38Y31.427
X96.639Y31.242
X96.907Y31.046
X97.162Y30.855
X97.425Y30.653
X97.675Y30.455
X97.941Y30.24
X98.489Y29.788
X98.741Y29.573
X98.981Y29.364
X99.229Y29.142
X99.386Y28.999
X110.599Y29.003
X110.922Y29.296
X111.223Y29.559
X111.465Y29.766
X111.729Y29.985
X112.279Y30.434
X112.539Y30.64
X112.791Y30.835
X113.056Y31.034
X113.313Y31.222
X113.583Y31.415
X113.845Y31.597
X114.119Y31.783
X114.385Y31.959
X114.664Y32.138
X114.934Y32.307
X115.001Y32.348
X115.002Y33.556
X115.009Y33.958
X115.018Y34.276
X115.032Y34.608
X115.05Y34.926
X115.072Y35.257
X115.097Y35.575
X115.128Y35.905
X115.161Y36.222
X115.199Y36.552
X115.24Y36.868
X115.286Y37.196
X115.335Y37.511
X115.389Y37.838
X115.446Y38.152
X115.508Y38.478
X115.572Y38.79
X115.643Y39.114
X115.714Y39.424
X115.793Y39.747
X115.872Y40.055
X115.958Y40.376
X116.045Y40.682
X116.139Y41.001
X116.233Y41.305
X116.335Y41.621
X116.437Y41.923
X116.546Y42.236
X116.656Y42.535
X116.773Y42.845
X116.889Y43.142
X117.014Y43.449
X117.138Y43.743
X117.27Y44.047
X117.401Y44.338
X117.541Y44.639
X117.679Y44.926
X117.826Y45.223
X117.971Y45.507
X118.125Y45.801
X118.277Y46.081
X118.438Y46.371
X118.597Y46.647
X118.766Y46.933
X118.931Y47.205
X119.107Y47.487
X119.279Y47.755
X119.472Y48.048
X119.417Y55.029
X119.074Y55.168
X118.78Y55.292
X118.476Y55.424
X118.186Y55.555
X117.885Y55.695
X117.598Y55.833
X117.3Y55.98
X117.016Y56.125
X116.713Y56.284
X116.088Y56.62
X115.798Y56.782
X115.522Y56.941
X115.236Y57.109
X114.964Y57.275
X114.682Y57.45
X114.414Y57.622
X114.137Y57.805
X113.873Y57.983
X113.6Y58.173
X113.341Y58.358
X113.073Y58.554
X112.818Y58.745
X112.555Y58.947
X112.305Y59.145
X112.038Y59.36
X111.491Y59.812
X111.238Y60.027
X110.998Y60.237
X110.751Y60.458
X110.516Y60.673
X110.274Y60.9
X110.248Y60.925
X109.865Y60.989
X109.551Y61.045
X109.226Y61.107
X108.914Y61.171
X108.797Y61.196
X108.391Y61.112
X108.078Y61.052
X107.752Y60.993
X107.438Y60.94
X107.11Y60.889
X106.794Y60.844
X106.465Y60.802
X106.149Y60.764
X105.819Y60.73
X105.502Y60.7
X105.171Y60.674
X104.853Y60.652
X104.522Y60.633
X104.204Y60.62
X103.872Y60.609
X103.553Y60.603
X103.271Y60.601
X99.344Y60.562
X99.007Y60.259
X98.757Y60.041
X98.515Y59.834
X98.252Y59.615
X97.702Y59.166
X97.441Y58.96
X97.189Y58.765
X96.924Y58.566
X96.667Y58.378
X96.397Y58.185
X96.136Y58.003
X95.861Y57.817
X95.595Y57.641
X95.316Y57.462
X95.046Y57.293
X94.762Y57.12
X94.488Y56.958
X94.201Y56.793
X93.922Y56.637
X93.621Y56.474
X92.994Y56.141
X92.699Y55.989
X92.414Y55.848
X92.115Y55.704
X91.826Y55.569
X91.524Y55.433
X91.232Y55.305
X90.926Y55.176
X90.631Y55.056
X90.322Y54.935
X90.024Y54.822
X89.713Y54.708
X89.412Y54.602
X89.098Y54.496
X88.794Y54.398
X88.467Y54.296
X87.787Y54.092
X87.468Y54.001
X87.161Y53.918
X86.839Y53.835
X86.53Y53.76
X86.207Y53.685
X85.895Y53.617
X85.57Y53.55
X85.258Y53.489
X84.931Y53.43
X84.617Y53.378
X84.289Y53.327
X83.974Y53.282
X83.644Y53.239
X83.328Y53.202
X82.987Y53.166
X82.281Y53.098
X81.95Y53.072
X81.632Y53.05
X81.301Y53.031
X80.983Y53.018
X80.651Y53.007
X80.332Y53.001
X80.001Y52.999
X79.682Y53.001
X79.35Y53.007
X79.032Y53.016
X78.7Y53.03
X78.382Y53.048
X78.051Y53.07
X77.733Y53.095
X77.392Y53.127
X76.686Y53.198
X76.356Y53.236
X76.04Y53.277
X75.712Y53.324
X75.397Y53.372
X75.07Y53.427
X74.756Y53.483
X74.43Y53.546
X74.118Y53.609
X73.794Y53.68
X73.483Y53.752
X73.161Y53.83
X72.852Y53.909
X72.532Y53.996
X72.225Y54.082
X71.897Y54.179
X71.218Y54.387
X70.902Y54.489
X70.601Y54.591
X70.287Y54.701
X69.988Y54.81
X69.678Y54.927
X69.381Y55.043
X69.074Y55.168
X68.78Y55.292
X68.476Y55.424
X68.185Y55.555
X67.884Y55.695
X67.597Y55.833
X67.3Y55.98
X67.016Y56.125
X66.713Y56.284
X66.088Y56.621
X65.798Y56.782
X65.522Y56.941
X65.236Y57.109
X64.963Y57.275
X64.682Y57.45
X64.414Y57.622
X64.137Y57.805
X63.873Y57.983
X63.6Y58.173
X63.341Y58.358
X63.073Y58.553
X62.818Y58.745
X62.555Y58.947
X62.305Y59.145
X62.039Y59.36
X61.491Y59.812
X61.239Y60.027
X60.999Y60.236
X60.751Y60.457
X60.516Y60.673
X60.275Y60.9
X60.045Y61.121
X59.809Y61.354
X59.574Y61.592
X27.999Y61.592
X27.998Y45.962
X27.999Y39.4
X27.999Y28.044
X59.722Y28.159
X60.02Y28.455
X60.259Y28.685
X60.491Y28.904
X60.736Y29.128
X60.973Y29.341
X61.223Y29.559
X61.465Y29.766
X61.728Y29.985
X62.278Y30.434
X62.539Y30.64
X62.791Y30.834
X63.056Y31.034
X63.313Y31.222
X63.583Y31.415
X63.845Y31.597
X64.119Y31.783
X64.385Y31.959
X64.664Y32.138
X64.934Y32.307
X65.218Y32.48
X65.492Y32.642
X65.78Y32.807
X66.058Y32.963
X66.359Y33.126
X66.986Y33.459
X67.281Y33.61
X67.567Y33.752
X67.865Y33.896
X68.154Y34.031
X68.457Y34.167
X68.749Y34.294
X69.054Y34.424
X69.349Y34.544
X69.658Y34.665
X69.956Y34.778
X70.268Y34.892
X70.568Y34.998
X70.883Y35.104
X71.186Y35.202
X71.513Y35.304
X72.193Y35.508
X72.512Y35.599
X72.819Y35.682
X73.141Y35.765
X73.45Y35.84
X73.773Y35.915
X74.085Y35.983
X74.41Y36.05
X74.722Y36.111
X75.049Y36.169
X75.363Y36.222
X75.691Y36.273
X76.006Y36.318
X76.335Y36.361
X76.652Y36.398
X76.992Y36.434
X77.699Y36.502
X78.03Y36.528
X78.348Y36.55
X78.679Y36.568
X78.997Y36.582
X79.329Y36.593
X79.648Y36.599
X79.979Y36.601
X80.298Y36.599
X80.63Y36.593
X80.948Y36.583
X81.28Y36.569
X81.598Y36.552
X81.929Y36.53
X82.247Y36.505
X82.588Y36.473
X83.294Y36.402
X83.624Y36.363
X83.94Y36.323
X84.268Y36.276
X84.583Y36.228
X84.91Y36.173
X85.224Y36.117
X85.55Y36.054
X85.862Y35.99
X86.186Y35.92
X86.496Y35.848
X86.819Y35.77
X87.127Y35.691
X87.448Y35.604
X87.754Y35.518
X88.083Y35.42
X88.762Y35.213
X89.077Y35.111
X89.379Y35.009
X89.692Y34.899
X89.992Y34.79
X90.302Y34.673
X90.599Y34.557
X90.906Y34.432
X91.2Y34.308
X91.504Y34.176
X91.795Y34.045
X92.095Y33.905
X92.383Y33.767
X92.68Y33.62
X92.964Y33.475
X93.267Y33.316
X93.892Y32.979
X94.182Y32.818
X94.399Y32.693
X93.898Y31.828
X94.23Y31.633
X94.492Y31.474
X94.763Y31.305
X95.021Y31.139
X95.288Y30.964
X95.541Y30.792
X95.804Y30.61
X96.053Y30.432
X96.311Y30.243
X96.556Y30.059
X96.81Y29.865
X97.05Y29.675
X97.307Y29.467
X97.845Y29.023
X98.088Y28.816
X98.319Y28.614
X98.557Y28.402
X98.783Y28.195
X98.991Y27.999
X110.989Y27.999
X111.172Y28.171
X111.407Y28.387
X111.635Y28.592
X111.876Y28.802
X112.109Y29.001
X112.363Y29.212
X112.903Y29.653
X113.154Y29.852
X113.396Y30.039
X113.652Y30.231
X113.899Y30.412
X114.159Y30.598
X114.41Y30.772
X114.675Y30.952
X114.93Y31.121
X115.199Y31.293
X115.459Y31.456
X115.732Y31.622
X116.001Y31.781
X116.002Y33.546
X116.008Y33.933
X116.018Y34.239
X116.031Y34.559
X116.048Y34.865
X116.069Y35.183
X116.094Y35.489
X116.123Y35.807
X116.154Y36.112
X116.191Y36.429
X116.231Y36.733
X116.275Y37.049
X116.322Y37.352
X116.375Y37.667
X116.429Y37.969
X116.489Y38.282
X116.55Y38.583
X116.618Y38.895
X116.687Y39.193
X116.763Y39.504
X116.839Y39.8
X116.922Y40.109
X117.005Y40.404
X117.096Y40.71
X117.186Y41.003
X117.285Y41.307
X117.382Y41.597
X117.488Y41.899
X117.593Y42.187
X117.706Y42.485
X117.818Y42.771
X117.938Y43.067
X118.057Y43.349
X118.184Y43.642
X118.31Y43.921
X118.445Y44.211
X118.577Y44.487
X118.719Y44.774
X118.858Y45.046
X119.007Y45.329
X119.153Y45.599
X119.308Y45.878
X119.461Y46.143
X119.623Y46.419
X119.782Y46.68
X119.951Y46.951
X120.117Y47.209
X120.293Y47.476
X120.474Y47.745
X120.415Y55.718
X120.038Y55.86
X119.753Y55.972
X119.457Y56.092
X119.174Y56.211
X118.882Y56.338
X118.602Y56.464
X118.313Y56.599
X118.036Y56.731
X117.75Y56.873
X117.477Y57.012
X117.185Y57.166
X116.57Y57.496
X116.291Y57.652
X116.026Y57.804
X115.75Y57.967
X115.488Y58.126
X115.217Y58.295
X114.959Y58.46
X114.692Y58.636
X114.439Y58.808
X114.176Y58.99
X113.927Y59.168
X113.669Y59.357
X113.423Y59.541
X113.17Y59.736
X112.93Y59.925
X112.673Y60.133
X112.135Y60.577
X111.892Y60.784
X111.661Y60.986
X111.423Y61.199
X111.197Y61.406
X110.964Y61.624
X110.743Y61.837
X110.713Y61.866
X110.351Y61.922
X110.036Y61.974
X109.734Y62.028
X109.421Y62.088
X109.121Y62.15
X108.797Y62.22
X108.509Y62.158
X108.196Y62.093
X107.896Y62.035
X107.581Y61.978
X107.279Y61.928
X106.963Y61.879
X106.66Y61.835
X106.343Y61.794
X106.039Y61.758
X105.721Y61.725
X105.416Y61.697
X105.098Y61.671
X104.792Y61.65
X104.473Y61.632
X104.167Y61.619
X103.848Y61.609
X103.541Y61.603
X103.264Y61.601
X98.95Y61.562
X98.622Y61.257
X98.345Y61.008
X98.104Y60.798
X97.871Y60.599
X97.617Y60.388
X97.077Y59.947
X96.826Y59.748
X96.584Y59.561
X96.328Y59.369
X96.081Y59.188
X95.821Y59.002
X95.57Y58.827
X95.305Y58.648
X95.05Y58.479
X94.781Y58.307
X94.521Y58.144
X94.248Y57.978
X93.985Y57.822
X93.708Y57.663
X93.44Y57.513
X93.15Y57.356
X92.534Y57.028
X92.25Y56.883
X91.975Y56.747
X91.687Y56.608
X91.41Y56.479
X91.118Y56.347
X90.838Y56.225
X90.543Y56.1
X90.26Y55.985
X89.962Y55.868
X89.676Y55.759
X89.376Y55.649
X89.087Y55.548
X88.784Y55.446
X88.492Y55.351
X88.177Y55.253
X87.509Y55.052
X87.202Y54.965
X86.906Y54.885
X86.597Y54.805
X86.299Y54.732
X85.988Y54.66
X85.688Y54.595
X85.375Y54.53
X85.075Y54.472
X84.76Y54.416
X84.458Y54.365
X84.142Y54.316
X83.839Y54.273
X83.522Y54.231
X83.218Y54.196
X82.889Y54.161
X82.195Y54.095
X81.877Y54.069
X81.571Y54.048
X81.252Y54.03
X80.946Y54.017
X80.627Y54.007
X80.32Y54.001
X80.001Y53.999
X79.694Y54.001
X79.375Y54.006
X79.069Y54.016
X78.749Y54.029
X78.444Y54.046
X78.125Y54.067
X77.819Y54.092
X77.49Y54.122
X76.796Y54.192
X76.479Y54.229
X76.175Y54.268
X75.859Y54.313
X75.556Y54.36
X75.241Y54.412
X74.939Y54.466
X74.626Y54.526
X74.325Y54.588
X74.013Y54.656
X73.715Y54.724
X73.404Y54.8
X73.107Y54.876
X72.799Y54.959
X72.504Y55.043
X72.187Y55.136
X71.52Y55.341
X71.216Y55.439
X70.926Y55.537
X70.624Y55.642
X70.337Y55.747
X70.038Y55.86
X69.753Y55.972
X69.457Y56.092
X69.174Y56.211
X68.881Y56.338
X68.602Y56.464
X68.312Y56.599
X68.036Y56.731
X67.75Y56.873
X67.477Y57.012
X67.184Y57.166
X66.57Y57.497
X66.291Y57.652
X66.025Y57.805
X65.75Y57.967
X65.488Y58.126
X65.217Y58.295
X64.959Y58.461
X64.692Y58.636
X64.439Y58.808
X64.176Y58.99
X63.927Y59.168
X63.669Y59.356
X63.424Y59.54
X63.171Y59.735
X62.93Y59.925
X62.673Y60.133
X62.135Y60.577
X61.892Y60.784
X61.661Y60.985
X61.423Y61.198
X61.197Y61.405
X60.964Y61.624
X60.744Y61.837
X60.516Y62.061
X60.301Y62.279
X60.079Y62.509
X60Y62.592
X26.999Y62.592
X26.998Y45.962
X26.999Y39.4
X26.999Y27.041
X60.145Y27.16
X60.454Y27.477
X60.719Y27.739
X60.949Y27.961
X61.172Y28.171
X61.407Y28.387
X61.635Y28.592
X61.876Y28.802
X62.109Y29.001
X62.363Y29.212
X62.903Y29.653
X63.154Y29.851
X63.396Y30.038
X63.652Y30.231
X63.899Y30.412
X64.159Y30.597
X64.41Y30.772
X64.675Y30.952
X64.93Y31.12
X65.199Y31.293
X65.459Y31.456
X65.732Y31.622
X65.995Y31.778
X66.272Y31.937
X66.54Y32.087
X66.83Y32.244
X67.446Y32.572
X67.731Y32.717
X68.005Y32.853
X68.293Y32.992
X68.571Y33.121
X68.862Y33.253
X69.143Y33.375
X69.437Y33.5
X69.721Y33.615
X70.018Y33.732
X70.304Y33.841
X70.604Y33.951
X70.894Y34.052
X71.196Y34.154
X71.488Y34.249
X71.803Y34.347
X72.471Y34.548
X72.779Y34.635
X73.074Y34.715
X73.384Y34.795
X73.681Y34.867
X73.992Y34.939
X74.292Y35.005
X74.605Y35.069
X74.905Y35.127
X75.22Y35.184
X75.522Y35.235
X75.838Y35.284
X76.141Y35.327
X76.458Y35.368
X76.762Y35.404
X77.09Y35.439
X77.785Y35.505
X78.103Y35.531
X78.409Y35.552
X78.728Y35.57
X79.034Y35.583
X79.353Y35.593
X79.66Y35.599
X79.979Y35.601
X80.286Y35.599
X80.605Y35.593
X80.911Y35.584
X81.231Y35.571
X81.537Y35.554
X81.855Y35.533
X82.161Y35.508
X82.49Y35.478
X83.184Y35.408
X83.501Y35.371
X83.805Y35.332
X84.121Y35.287
X84.424Y35.24
X84.739Y35.188
X85.041Y35.134
X85.354Y35.074
X85.655Y35.012
X85.967Y34.944
X86.265Y34.875
X86.576Y34.8
X86.872Y34.724
X87.181Y34.641
X87.476Y34.557
X87.792Y34.463
X88.459Y34.259
X88.763Y34.161
X89.054Y34.063
X89.355Y33.958
X89.643Y33.853
X89.942Y33.74
X90.227Y33.628
X90.523Y33.508
X90.806Y33.389
X91.099Y33.261
X91.378Y33.136
X91.668Y33.001
X91.944Y32.869
X92.23Y32.727
X92.503Y32.587
X92.796Y32.434
X93.41Y32.103
X93.689Y31.948
X93.898Y31.828
X93.397Y30.963
X93.716Y30.775
X93.967Y30.622
X94.228Y30.46
X94.475Y30.301
X94.732Y30.132
X94.976Y29.967
X95.228Y29.792
X95.467Y29.622
X95.715Y29.44
X95.951Y29.264
X96.194Y29.076
X96.425Y28.894
X96.672Y28.694
X97.201Y28.258
X97.435Y28.059
X97.656Y27.865
X97.885Y27.661
X98.102Y27.462
X98.326Y27.252
X98.538Y27.048
X98.588Y26.999
X111.391Y26.998
X111.638Y27.237
X111.852Y27.438
X112.079Y27.646
X112.298Y27.843
X112.529Y28.045
X112.753Y28.236
X112.997Y28.439
X113.528Y28.872
X113.769Y29.063
X114.002Y29.243
X114.247Y29.427
X114.485Y29.601
X114.734Y29.78
X114.976Y29.948
X115.23Y30.12
X115.476Y30.282
X115.734Y30.448
X115.983Y30.604
X116.246Y30.764
X116.499Y30.914
X116.765Y31.067
X117.001Y31.199
X117.002Y33.536
X117.008Y33.909
X117.017Y34.203
X117.03Y34.509
X117.046Y34.803
X117.067Y35.11
X117.09Y35.403
X117.118Y35.709
X117.148Y36.001
X117.184Y36.306
X117.222Y36.598
X117.265Y36.902
X117.309Y37.193
X117.36Y37.496
X117.412Y37.785
X117.47Y38.087
X117.529Y38.375
X117.594Y38.675
X117.66Y38.962
X117.733Y39.261
X117.806Y39.545
X117.886Y39.842
X117.966Y40.125
X118.053Y40.42
X118.14Y40.701
X118.234Y40.993
X118.328Y41.272
X118.429Y41.562
X118.53Y41.838
X118.639Y42.125
X118.746Y42.399
X118.862Y42.684
X118.976Y42.955
X119.098Y43.237
X119.219Y43.505
X119.349Y43.783
X119.476Y44.049
X119.612Y44.324
X119.746Y44.586
X119.889Y44.858
X120.029Y45.116
X120.178Y45.385
X120.325Y45.64
X120.481Y45.904
X120.634Y46.156
X120.796Y46.416
X120.955Y46.664
X121.124Y46.921
X121.289Y47.164
X121.477Y47.435
X121.417Y56.426
X120.962Y56.584
X120.685Y56.684
X120.398Y56.793
X120.124Y56.9
X119.84Y57.016
X119.569Y57.13
X119.287Y57.252
X119.019Y57.373
X118.74Y57.503
X118.475Y57.63
X118.2Y57.766
X117.938Y57.9
X117.656Y58.048
X117.053Y58.372
X116.784Y58.522
X116.529Y58.668
X116.265Y58.825
X116.013Y58.977
X115.752Y59.14
X115.505Y59.299
X115.248Y59.468
X115.004Y59.632
X114.752Y59.808
X114.512Y59.978
X114.264Y60.16
X114.029Y60.336
X113.786Y60.524
X113.555Y60.706
X113.307Y60.906
X112.779Y61.342
X112.545Y61.541
X112.323Y61.735
X112.094Y61.939
X111.878Y62.138
X111.654Y62.348
X111.442Y62.552
X111.223Y62.768
X111.18Y62.811
X110.8Y62.864
X110.51Y62.909
X110.207Y62.959
X109.918Y63.011
X109.616Y63.069
X109.328Y63.128
X109.028Y63.193
X108.797Y63.246
X108.364Y63.149
X108.001Y63.074
X107.713Y63.018
X107.41Y62.964
X107.12Y62.915
X106.817Y62.868
X106.526Y62.826
X106.221Y62.787
X105.929Y62.752
X105.623Y62.72
X105.33Y62.693
X105.024Y62.668
X104.731Y62.648
X104.424Y62.631
X104.13Y62.618
X103.823Y62.609
X103.529Y62.603
X103.258Y62.601
X98.544Y62.558
X98.342Y62.363
X98.128Y62.162
X97.902Y61.954
X97.682Y61.757
X97.451Y61.555
X97.227Y61.364
X96.983Y61.161
X96.452Y60.728
X96.211Y60.537
X95.978Y60.357
X95.733Y60.173
X95.496Y59.999
X95.246Y59.82
X95.004Y59.652
X94.75Y59.48
X94.505Y59.318
X94.246Y59.152
X93.997Y58.996
X93.734Y58.836
X93.481Y58.686
X93.215Y58.533
X92.958Y58.389
X92.679Y58.237
X92.074Y57.916
X91.8Y57.776
X91.537Y57.645
X91.26Y57.512
X90.993Y57.388
X90.713Y57.261
X90.444Y57.144
X90.161Y57.024
X89.888Y56.913
X89.603Y56.801
X89.328Y56.696
X89.039Y56.591
X88.762Y56.493
X88.471Y56.395
X88.191Y56.304
X87.887Y56.21
X87.231Y56.013
X86.935Y55.929
X86.651Y55.852
X86.354Y55.775
X86.068Y55.705
X85.769Y55.636
X85.481Y55.573
X85.181Y55.511
X84.892Y55.456
X84.589Y55.401
X84.299Y55.352
X83.996Y55.305
X83.705Y55.264
X83.4Y55.224
X83.108Y55.19
X82.791Y55.156
X82.109Y55.091
X81.803Y55.066
X81.51Y55.046
X81.203Y55.029
X80.909Y55.016
X80.602Y55.007
X80.308Y55.001
X80.001Y54.999
X79.707Y55.001
X79.4Y55.006
X79.106Y55.015
X78.799Y55.028
X78.505Y55.044
X78.199Y55.065
X77.905Y55.088
X77.588Y55.117
X76.907Y55.186
X76.602Y55.221
X76.31Y55.259
X76.006Y55.302
X75.715Y55.347
X75.412Y55.397
X75.122Y55.449
X74.821Y55.507
X74.533Y55.566
X74.232Y55.631
X73.946Y55.697
X73.647Y55.77
X73.362Y55.843
X73.066Y55.923
X72.783Y56.003
X72.478Y56.093
X71.822Y56.294
X71.53Y56.388
X71.251Y56.482
X70.961Y56.584
X70.685Y56.684
X70.398Y56.793
X70.124Y56.9
X69.839Y57.016
X69.568Y57.13
X69.287Y57.253
X69.018Y57.373
X68.74Y57.503
X68.475Y57.63
X68.199Y57.766
X67.937Y57.9
X67.656Y58.048
X67.052Y58.373
X66.784Y58.522
X66.529Y58.669
X66.264Y58.825
X66.013Y58.977
X65.752Y59.14
X65.505Y59.299
X65.248Y59.468
X65.004Y59.632
X64.752Y59.808
X64.513Y59.978
X64.265Y60.16
X64.029Y60.336
X63.786Y60.523
X63.555Y60.706
X63.308Y60.906
X62.779Y61.342
X62.545Y61.541
X62.324Y61.734
X62.095Y61.939
X61.878Y62.138
X61.654Y62.348
X61.442Y62.552
X61.223Y62.768
X61.017Y62.977
X60.803Y63.198
X60.602Y63.412
X60.436Y63.592
X25.999
X25.998Y45.962
X25.999Y39.4
X25.999Y26.037
X60.573Y26.157
X60.788Y26.386
X60.992Y26.598
X61.208Y26.816
X61.417Y27.023
X61.638Y27.237
X61.852Y27.438
X62.078Y27.646
X62.297Y27.842
X62.529Y28.045
X62.753Y28.235
X62.997Y28.439
X63.528Y28.872
X63.769Y29.063
X64.002Y29.243
X64.247Y29.427
X64.484Y29.601
X64.734Y29.78
X64.976Y29.948
X65.23Y30.12
X65.476Y30.282
X65.734Y30.448
X65.983Y30.604
X66.246Y30.764
X66.499Y30.914
X66.765Y31.067
X67.022Y31.211
X67.301Y31.362
X67.907Y31.684
X68.18Y31.824
X68.444Y31.955
X68.72Y32.088
X68.987Y32.212
X69.267Y32.338
X69.536Y32.456
X69.819Y32.576
X70.092Y32.687
X70.378Y32.799
X70.653Y32.903
X70.941Y33.009
X71.219Y33.106
X71.51Y33.205
X71.79Y33.296
X72.093Y33.39
X72.75Y33.587
X73.045Y33.671
X73.329Y33.748
X73.626Y33.825
X73.912Y33.894
X74.211Y33.964
X74.499Y34.027
X74.799Y34.089
X75.088Y34.144
X75.391Y34.199
X75.681Y34.247
X75.984Y34.295
X76.275Y34.336
X76.58Y34.376
X76.872Y34.41
X77.188Y34.444
X77.87Y34.509
X78.177Y34.534
X78.47Y34.554
X78.777Y34.571
X79.071Y34.584
X79.378Y34.593
X79.672Y34.599
X79.979Y34.601
X80.273Y34.599
X80.58Y34.594
X80.874Y34.585
X81.181Y34.572
X81.475Y34.556
X81.782Y34.535
X82.075Y34.512
X82.392Y34.483
X83.073Y34.414
X83.379Y34.378
X83.67Y34.341
X83.974Y34.298
X84.265Y34.253
X84.568Y34.203
X84.858Y34.151
X85.159Y34.093
X85.447Y34.034
X85.747Y33.969
X86.034Y33.902
X86.333Y33.83
X86.617Y33.757
X86.914Y33.677
X87.197Y33.597
X87.502Y33.507
X88.157Y33.306
X88.45Y33.212
X88.728Y33.118
X89.018Y33.016
X89.295Y32.916
X89.582Y32.807
X89.856Y32.7
X90.14Y32.584
X90.412Y32.47
X90.693Y32.347
X90.961Y32.227
X91.24Y32.097
X91.505Y31.97
X91.781Y31.834
X92.043Y31.7
X92.324Y31.552
X92.928Y31.227
X93.196Y31.078
X93.397Y30.963
X92.895Y30.098
X93.201Y29.917
X93.442Y29.771
X93.693Y29.615
X93.93Y29.463
X94.176Y29.301
X94.41Y29.143
X94.652Y28.975
X94.882Y28.811
X95.12Y28.637
X95.345Y28.468
X95.579Y28.288
X95.8Y28.113
X96.038Y27.921
X96.557Y27.493
X96.782Y27.302
X96.994Y27.116
X97.214Y26.92
X97.422Y26.729
X97.636Y26.528
X97.84Y26.332
X98.049Y26.125
X98.175Y25.999
X111.431Y25.998
X111.798Y25.992
X112.116Y26.308
X112.328Y26.512
X112.533Y26.706
X112.75Y26.905
X112.96Y27.093
X113.182Y27.287
X113.397Y27.47
X113.632Y27.666
X114.153Y28.092
X114.384Y28.275
X114.607Y28.447
X114.843Y28.624
X115.07Y28.791
X115.31Y28.962
X115.542Y29.123
X115.786Y29.289
X116.021Y29.444
X116.269Y29.603
X116.508Y29.753
X116.76Y29.906
X117.002Y30.05
X117.258Y30.197
X117.504Y30.334
X117.773Y30.481
X118.001Y30.602
X118.002Y33.526
X118.008Y33.884
X118.016Y34.166
X118.029Y34.46
X118.044Y34.742
X118.064Y35.036
X118.086Y35.317
X118.113Y35.611
X118.142Y35.891
X118.176Y36.184
X118.212Y36.463
X118.254Y36.755
X118.297Y37.034
X118.345Y37.325
X118.395Y37.602
X118.45Y37.892
X118.507Y38.168
X118.57Y38.456
X118.633Y38.731
X118.703Y39.017
X118.773Y39.291
X118.849Y39.575
X118.926Y39.846
X119.01Y40.129
X119.093Y40.399
X119.184Y40.679
X119.274Y40.946
X119.371Y41.225
X119.467Y41.49
X119.572Y41.765
X119.675Y42.028
X119.786Y42.301
X119.895Y42.561
X120.013Y42.831
X120.128Y43.088
X120.252Y43.356
X120.374Y43.61
X120.505Y43.874
X120.633Y44.125
X120.771Y44.386
X120.905Y44.634
X121.048Y44.892
X121.189Y45.136
X121.339Y45.39
X121.485Y45.631
X121.641Y45.881
X121.793Y46.119
X121.955Y46.365
X122.113Y46.598
X122.281Y46.841
X122.445Y47.07
X122.479Y47.117
X122.412Y57.158
X122.125Y57.247
X121.844Y57.338
X121.577Y57.428
X121.299Y57.525
X121.034Y57.622
X120.758Y57.726
X120.496Y57.829
X120.222Y57.94
X119.963Y58.049
X119.692Y58.167
X119.435Y58.282
X119.168Y58.407
X118.914Y58.528
X118.65Y58.659
X118.398Y58.787
X118.128Y58.93
X117.535Y59.248
X117.277Y59.392
X117.033Y59.532
X116.779Y59.682
X116.538Y59.829
X116.288Y59.985
X116.05Y60.137
X115.804Y60.299
X115.57Y60.457
X115.328Y60.625
X115.098Y60.789
X114.86Y60.963
X114.635Y61.132
X114.401Y61.312
X114.18Y61.487
X113.942Y61.679
X113.423Y62.107
X113.198Y62.298
X112.986Y62.484
X112.766Y62.68
X112.558Y62.871
X112.343Y63.073
X112.14Y63.268
X111.93Y63.475
X111.732Y63.676
X111.65Y63.76
X111.239Y63.812
X110.947Y63.853
X110.669Y63.896
X110.378Y63.945
X110.101Y63.994
X109.811Y64.05
X109.535Y64.106
X109.247Y64.169
X108.973Y64.232
X108.797Y64.274
X108.371Y64.174
X108.095Y64.114
X107.806Y64.055
X107.53Y64.001
X107.24Y63.949
X106.962Y63.902
X106.67Y63.857
X106.391Y63.817
X106.099Y63.779
X105.819Y63.746
X105.525Y63.715
X105.245Y63.689
X104.951Y63.665
X104.67Y63.646
X104.375Y63.63
X104.094Y63.618
X103.799Y63.608
X103.517Y63.603
X103.253Y63.601
X98.13Y63.556
X97.865Y63.292
X97.652Y63.088
X97.447Y62.894
X97.23Y62.695
X97.02Y62.507
X96.798Y62.313
X96.584Y62.13
X96.348Y61.934
X95.827Y61.508
X95.596Y61.325
X95.373Y61.153
X95.137Y60.976
X94.91Y60.809
X94.67Y60.638
X94.439Y60.477
X94.195Y60.311
X93.959Y60.156
X93.711Y59.997
X93.472Y59.847
X93.22Y59.694
X92.978Y59.55
X92.722Y59.403
X92.476Y59.265
X92.207Y59.119
X91.613Y58.804
X91.351Y58.669
X91.098Y58.544
X90.832Y58.416
X90.577Y58.297
X90.308Y58.176
X90.05Y58.063
X89.778Y57.948
X89.517Y57.842
X89.243Y57.734
X88.979Y57.634
X88.702Y57.533
X88.436Y57.439
X88.157Y57.345
X87.889Y57.258
X87.597Y57.167
X86.952Y56.973
X86.669Y56.893
X86.396Y56.819
X86.111Y56.745
X85.837Y56.678
X85.55Y56.612
X85.274Y56.552
X84.986Y56.492
X84.709Y56.439
X84.419Y56.386
X84.141Y56.34
X83.849Y56.294
X83.57Y56.255
X83.278Y56.216
X82.998Y56.184
X82.693Y56.151
X82.024Y56.087
X81.73Y56.063
X81.449Y56.044
X81.154Y56.028
X80.872Y56.016
X80.578Y56.006
X80.296Y56.001
X80.001Y55.999
X79.719Y56.001
X79.424Y56.006
X79.143Y56.014
X78.848Y56.027
X78.566Y56.042
X78.272Y56.062
X77.991Y56.084
X77.687Y56.112
X77.017Y56.18
X76.724Y56.214
X76.445Y56.25
X76.153Y56.291
X75.874Y56.334
X75.583Y56.382
X75.306Y56.432
X75.016Y56.488
X74.74Y56.544
X74.452Y56.607
X74.177Y56.67
X73.89Y56.74
X73.617Y56.81
X73.333Y56.887
X73.061Y56.963
X72.768Y57.05
X72.125Y57.247
X71.844Y57.338
X71.577Y57.428
X71.299Y57.525
X71.034Y57.622
X70.758Y57.726
X70.495Y57.829
X70.222Y57.94
X69.962Y58.049
X69.692Y58.167
X69.435Y58.282
X69.167Y58.407
X68.913Y58.529
X68.649Y58.659
X68.398Y58.788
X68.127Y58.93
X67.535Y59.249
X67.277Y59.392
X67.033Y59.533
X66.779Y59.682
X66.538Y59.829
X66.287Y59.985
X66.05Y60.137
X65.804Y60.299
X65.57Y60.457
X65.328Y60.625
X65.099Y60.789
X64.86Y60.963
X64.635Y61.132
X64.401Y61.312
X64.18Y61.486
X63.942Y61.679
X63.423Y62.107
X63.199Y62.298
X62.986Y62.483
X62.766Y62.68
X62.558Y62.87
X62.344Y63.072
X62.14Y63.268
X61.931Y63.475
X61.732Y63.675
X61.528Y63.888
X61.334Y64.093
X61.135Y64.31
X60.947Y64.52
X60.883Y64.592
X24.999Y64.592
X24.998Y45.962
X24.999Y39.4
X24.999Y25.033
X61.016Y25.158
X61.31Y25.481
X61.512Y25.696
X61.708Y25.899
X61.915Y26.109
X62.115Y26.307
X62.327Y26.512
X62.533Y26.705
X62.75Y26.905
X62.96Y27.093
X63.182Y27.287
X63.396Y27.47
X63.631Y27.666
X64.153Y28.091
X64.384Y28.274
X64.607Y28.447
X64.843Y28.624
X65.07Y28.791
X65.31Y28.962
X65.541Y29.123
X65.785Y29.289
X66.021Y29.444
X66.269Y29.603
X66.508Y29.753
X66.76Y29.906
X67.002Y30.05
X67.258Y30.197
X67.504Y30.334
X67.773Y30.48
X68.367Y30.796
X68.63Y30.931
X68.882Y31.056
X69.148Y31.184
X69.403Y31.303
X69.672Y31.424
X69.93Y31.537
X70.202Y31.652
X70.463Y31.758
X70.737Y31.866
X71.001Y31.966
X71.278Y32.067
X71.544Y32.161
X71.823Y32.255
X72.092Y32.342
X72.384Y32.433
X73.028Y32.627
X73.312Y32.707
X73.584Y32.781
X73.869Y32.854
X74.143Y32.921
X74.43Y32.988
X74.706Y33.048
X74.994Y33.108
X75.271Y33.161
X75.561Y33.214
X75.839Y33.26
X76.131Y33.305
X76.41Y33.345
X76.702Y33.383
X76.982Y33.416
X77.286Y33.448
X77.956Y33.513
X78.25Y33.536
X78.531Y33.555
X78.826Y33.572
X79.107Y33.584
X79.402Y33.593
X79.684Y33.599
X79.979Y33.601
X80.261Y33.599
X80.556Y33.594
X80.838Y33.586
X81.132Y33.573
X81.414Y33.558
X81.708Y33.538
X81.989Y33.516
X82.294Y33.488
X82.963Y33.42
X83.256Y33.386
X83.536Y33.35
X83.828Y33.309
X84.106Y33.266
X84.397Y33.217
X84.674Y33.168
X84.964Y33.112
X85.24Y33.055
X85.528Y32.993
X85.803Y32.93
X86.089Y32.86
X86.362Y32.79
X86.647Y32.713
X86.918Y32.636
X87.212Y32.55
X87.855Y32.353
X88.136Y32.262
X88.403Y32.172
X88.681Y32.075
X88.946Y31.978
X89.222Y31.874
X89.484Y31.771
X89.758Y31.66
X90.017Y31.551
X90.288Y31.433
X90.545Y31.317
X90.812Y31.193
X91.067Y31.071
X91.331Y30.94
X91.582Y30.812
X91.853Y30.67
X92.445Y30.351
X92.703Y30.208
X92.895Y30.098
X92.394Y29.232
X92.687Y29.06
X92.918Y28.92
X93.157Y28.77
X93.384Y28.625
X93.621Y28.469
X93.844Y28.318
X94.076Y28.157
X94.296Y28.001
X94.524Y27.834
X94.739Y27.672
X94.963Y27.5
X95.175Y27.333
X95.404Y27.148
X95.913Y26.728
X96.128Y26.545
X96.331Y26.367
X96.542Y26.179
X96.741Y25.997
X96.947Y25.803
X97.141Y25.616
X97.342Y25.418
X97.532Y25.226
X97.728Y25.023
X97.751Y24.999
X111.421Y24.998
X111.764Y24.992
X112.033Y24.984
X112.209Y24.977
X112.424Y25.201
X112.622Y25.402
X112.814Y25.592
X113.017Y25.788
X113.213Y25.973
X113.422Y26.164
X113.622Y26.344
X113.835Y26.53
X114.04Y26.705
X114.266Y26.893
X114.778Y27.311
X114.999Y27.486
X115.213Y27.651
X115.438Y27.821
X115.656Y27.98
X115.886Y28.144
X116.107Y28.299
X116.341Y28.457
X116.566Y28.606
X116.804Y28.758
X117.032Y28.901
X117.274Y29.048
X117.506Y29.186
X117.751Y29.327
X117.986Y29.458
X118.244Y29.599
X118.828Y29.909
X119.001Y29.998
X119.002Y33.517
X119.007Y33.859
X119.016Y34.129
X119.028Y34.411
X119.042Y34.68
X119.061Y34.962
X119.082Y35.231
X119.108Y35.512
X119.136Y35.781
X119.169Y36.061
X119.203Y36.329
X119.243Y36.609
X119.284Y36.875
X119.33Y37.154
X119.378Y37.419
X119.431Y37.697
X119.485Y37.961
X119.545Y38.237
X119.606Y38.5
X119.673Y38.774
X119.74Y39.036
X119.813Y39.308
X119.886Y39.568
X119.967Y39.839
X120.046Y40.096
X120.133Y40.365
X120.219Y40.621
X120.312Y40.888
X120.405Y41.141
X120.505Y41.405
X120.603Y41.656
X120.709Y41.918
X120.814Y42.167
X120.927Y42.426
X121.037Y42.672
X121.156Y42.928
X121.273Y43.171
X121.398Y43.424
X121.521Y43.665
X121.652Y43.915
X121.781Y44.152
X121.918Y44.399
X122.053Y44.632
X122.196Y44.876
X122.336Y45.106
X122.486Y45.346
X122.631Y45.573
X122.787Y45.809
X122.938Y46.032
X123.099Y46.265
X123.255Y46.484
X123.422Y46.712
X123.481Y46.791
X123.415Y57.902
X123.058Y58.007
X122.427Y58.2
X122.158Y58.287
X121.902Y58.373
X121.636Y58.467
X121.382Y58.559
X121.118Y58.659
X120.867Y58.757
X120.605Y58.863
X120.357Y58.968
X120.098Y59.081
X119.852Y59.191
X119.596Y59.31
X119.352Y59.427
X119.099Y59.552
X118.859Y59.675
X118.599Y59.812
X118.017Y60.124
X117.77Y60.262
X117.536Y60.396
X117.293Y60.54
X117.062Y60.68
X116.823Y60.829
X116.596Y60.975
X116.359Y61.13
X116.136Y61.281
X115.904Y61.443
X115.684Y61.599
X115.456Y61.766
X115.24Y61.928
X115.016Y62.1
X114.805Y62.267
X114.576Y62.452
X114.067Y62.872
X113.851Y63.056
X113.648Y63.233
X113.438Y63.421
X113.239Y63.603
X113.033Y63.797
X112.839Y63.984
X112.638Y64.182
X112.448Y64.374
X112.252Y64.577
X112.122Y64.715
X111.698Y64.762
X111.373Y64.803
X111.094Y64.843
X110.827Y64.884
X110.549Y64.93
X110.284Y64.977
X110.006Y65.031
X109.742Y65.085
X109.466Y65.145
X109.204Y65.205
X108.929Y65.272
X108.797Y65.305
X108.427Y65.214
X108.152Y65.15
X107.888Y65.093
X107.612Y65.035
X107.347Y64.984
X107.069Y64.934
X106.803Y64.89
X106.524Y64.846
X106.257Y64.808
X105.976Y64.772
X105.709Y64.74
X105.428Y64.71
X105.159Y64.686
X104.877Y64.663
X104.608Y64.644
X104.326Y64.629
X104.057Y64.617
X103.774Y64.608
X103.505Y64.603
X103.247Y64.601
X97.704Y64.552
X97.556Y64.399
X97.358Y64.198
X97.166Y64.008
X96.963Y63.812
X96.767Y63.627
X96.559Y63.436
X96.358Y63.256
X96.145Y63.07
X95.94Y62.895
X95.714Y62.707
X95.203Y62.289
X94.981Y62.114
X94.767Y61.949
X94.542Y61.779
X94.324Y61.62
X94.094Y61.455
X93.873Y61.301
X93.639Y61.143
X93.414Y60.994
X93.176Y60.841
X92.948Y60.698
X92.706Y60.552
X92.474Y60.414
X92.229Y60.273
X91.994Y60.142
X91.736Y60.001
X91.153Y59.691
X90.901Y59.563
X90.66Y59.443
X90.405Y59.32
X90.161Y59.206
X89.903Y59.09
X89.656Y58.982
X89.396Y58.872
X89.146Y58.77
X88.883Y58.667
X88.631Y58.571
X88.366Y58.474
X88.111Y58.385
X87.843Y58.294
X87.587Y58.211
X87.306Y58.124
X86.674Y57.934
X86.402Y57.856
X86.142Y57.786
X85.868Y57.715
X85.606Y57.651
X85.331Y57.588
X85.067Y57.53
X84.791Y57.473
X84.526Y57.422
X84.248Y57.372
X83.982Y57.327
X83.703Y57.284
X83.436Y57.246
X83.155Y57.209
X82.888Y57.177
X82.595Y57.147
X81.938Y57.084
X81.656Y57.061
X81.387Y57.042
X81.105Y57.027
X80.836Y57.015
X80.553Y57.006
X80.284Y57.001
X80.001Y56.999
X79.732Y57.001
X79.449Y57.005
X79.179Y57.014
X78.897Y57.026
X78.628Y57.04
X78.346Y57.059
X78.077Y57.08
X77.785Y57.107
X77.127Y57.174
X76.847Y57.206
X76.579Y57.241
X76.299Y57.28
X76.033Y57.321
X75.754Y57.368
X75.489Y57.415
X75.211Y57.469
X74.947Y57.523
X74.671Y57.583
X74.408Y57.643
X74.134Y57.71
X73.872Y57.777
X73.6Y57.85
X73.34Y57.924
X73.058Y58.007
X72.427Y58.2
X72.158Y58.287
X71.902Y58.373
X71.636Y58.467
X71.382Y58.559
X71.118Y58.659
X70.867Y58.757
X70.605Y58.864
X70.356Y58.968
X70.097Y59.081
X69.851Y59.192
X69.595Y59.311
X69.352Y59.427
X69.099Y59.553
X68.859Y59.675
X68.599Y59.812
X68.017Y60.125
X67.77Y60.262
X67.536Y60.396
X67.293Y60.54
X67.062Y60.68
X66.823Y60.829
X66.596Y60.975
X66.359Y61.13
X66.136Y61.281
X65.904Y61.443
X65.684Y61.599
X65.456Y61.766
X65.241Y61.928
X65.017Y62.1
X64.805Y62.267
X64.577Y62.452
X64.067Y62.872
X63.852Y63.055
X63.649Y63.233
X63.438Y63.421
X63.239Y63.603
X63.033Y63.796
X62.839Y63.983
X62.638Y64.182
X62.448Y64.374
X62.252Y64.577
X62.067Y64.773
X61.876Y64.981
X61.696Y65.182
X61.51Y65.395
X61.342Y65.592
X23.999Y65.592
X23.998Y45.962
X23.999Y39.4
X23.999Y24.03
X61.465Y24.153
X61.672Y24.391
X61.861Y24.602
X62.043Y24.801
X62.236Y25.007
X62.423Y25.201
X62.622Y25.402
X62.814Y25.592
X63.017Y25.788
X63.213Y25.973
X63.421Y26.164
X63.622Y26.344
X63.835Y26.53
X64.04Y26.705
X64.266Y26.893
X64.777Y27.311
X64.999Y27.486
X65.212Y27.651
X65.438Y27.821
X65.656Y27.98
X65.886Y28.144
X66.107Y28.298
X66.341Y28.457
X66.566Y28.606
X66.804Y28.758
X67.032Y28.901
X67.274Y29.048
X67.506Y29.186
X67.751Y29.327
X67.986Y29.458
X68.244Y29.599
X68.827Y29.908
X69.079Y30.037
X69.321Y30.157
X69.575Y30.28
X69.82Y30.394
X70.077Y30.51
X70.324Y30.618
X70.585Y30.728
X70.834Y30.83
X71.097Y30.933
X71.349Y31.029
X71.615Y31.126
X71.869Y31.215
X72.137Y31.306
X72.393Y31.389
X72.674Y31.476
X73.306Y31.666
X73.578Y31.743
X73.838Y31.814
X74.112Y31.884
X74.374Y31.948
X74.649Y32.012
X74.913Y32.07
X75.189Y32.127
X75.454Y32.178
X75.732Y32.228
X75.998Y32.273
X76.277Y32.316
X76.544Y32.354
X76.824Y32.391
X77.092Y32.422
X77.384Y32.453
X78.042Y32.516
X78.324Y32.539
X78.593Y32.557
X78.875Y32.573
X79.144Y32.585
X79.427Y32.594
X79.696Y32.599
X79.979Y32.601
X80.249Y32.599
X80.531Y32.594
X80.801Y32.586
X81.083Y32.574
X81.352Y32.56
X81.634Y32.541
X81.903Y32.519
X82.196Y32.493
X82.853Y32.426
X83.133Y32.394
X83.401Y32.359
X83.681Y32.32
X83.947Y32.278
X84.226Y32.232
X84.491Y32.184
X84.769Y32.131
X85.033Y32.077
X85.309Y32.017
X85.572Y31.957
X85.846Y31.89
X86.107Y31.823
X86.38Y31.749
X86.64Y31.676
X86.922Y31.593
X87.553Y31.399
X87.822Y31.313
X88.078Y31.227
X88.344Y31.133
X88.598Y31.041
X88.862Y30.941
X89.113Y30.843
X89.375Y30.736
X89.623Y30.632
X89.882Y30.519
X90.128Y30.408
X90.385Y30.289
X90.628Y30.173
X90.881Y30.047
X91.121Y29.925
X91.381Y29.788
X91.963Y29.475
X92.21Y29.338
X92.394Y29.232
X91.893Y28.367
X92.173Y28.202
X92.393Y28.069
X92.622Y27.926
X92.839Y27.787
X93.065Y27.638
X93.278Y27.494
X93.5Y27.34
X93.71Y27.19
X93.928Y27.031
X94.134Y26.876
X94.348Y26.712
X94.55Y26.552
X94.769Y26.375
X95.269Y25.963
X95.475Y25.787
X95.669Y25.618
X95.87Y25.438
X96.06Y25.264
X96.257Y25.079
X96.443Y24.901
X96.635Y24.711
X96.816Y24.528
X97.004Y24.333
X97.18Y24.146
X97.316Y23.999
X111.469Y23.997
X111.739Y23.993
X111.996Y23.985
X112.266Y23.974
X112.523Y23.959
X112.623Y23.953
X112.776Y24.12
X112.961Y24.317
X113.139Y24.503
X113.329Y24.695
X113.512Y24.876
X113.707Y25.064
X113.894Y25.24
X114.093Y25.423
X114.285Y25.595
X114.488Y25.773
X114.684Y25.94
X114.9Y26.12
X115.402Y26.53
X115.614Y26.698
X115.818Y26.855
X116.034Y27.017
X116.242Y27.17
X116.462Y27.327
X116.673Y27.474
X116.897Y27.626
X117.111Y27.767
X117.339Y27.914
X117.557Y28.05
X117.788Y28.191
X118.009Y28.322
X118.244Y28.457
X118.468Y28.582
X118.716Y28.717
X119.288Y29.021
X119.528Y29.144
X119.759Y29.258
X120.001Y29.375
X120.002Y33.564
X120.007Y33.834
X120.015Y34.092
X120.026Y34.362
X120.04Y34.619
X120.058Y34.888
X120.079Y35.145
X120.103Y35.414
X120.13Y35.67
X120.161Y35.939
X120.194Y36.194
X120.232Y36.462
X120.271Y36.716
X120.316Y36.983
X120.361Y37.236
X120.412Y37.501
X120.464Y37.754
X120.521Y38.018
X120.579Y38.269
X120.643Y38.531
X120.706Y38.781
X120.777Y39.042
X120.847Y39.289
X120.923Y39.548
X121Y39.794
X121.083Y40.052
X121.165Y40.296
X121.254Y40.551
X121.342Y40.792
X121.438Y41.045
X121.532Y41.285
X121.633Y41.535
X121.733Y41.773
X121.841Y42.02
X121.947Y42.255
X122.06Y42.5
X122.172Y42.732
X122.292Y42.975
X122.409Y43.204
X122.534Y43.443
X122.657Y43.669
X122.789Y43.906
X122.917Y44.129
X123.054Y44.362
X123.188Y44.582
X123.331Y44.811
X123.469Y45.028
X123.618Y45.253
X123.762Y45.467
X123.916Y45.689
X124.066Y45.898
X124.225Y46.117
X124.38Y46.322
X124.483Y46.457
X124.416Y58.67
X124.127Y58.744
X123.866Y58.814
X123.619Y58.884
X123.349Y58.964
X122.729Y59.154
X122.472Y59.237
X122.228Y59.319
X121.973Y59.408
X121.731Y59.496
X121.478Y59.592
X121.238Y59.686
X120.988Y59.787
X120.751Y59.887
X120.503Y59.995
X120.268Y60.101
X120.023Y60.214
X119.791Y60.326
X119.549Y60.446
X119.32Y60.563
X119.07Y60.694
X118.5Y61
X118.263Y61.132
X118.04Y61.26
X117.807Y61.398
X117.587Y61.531
X117.358Y61.674
X117.141Y61.813
X116.915Y61.962
X116.702Y62.106
X116.48Y62.26
X116.27Y62.41
X116.052Y62.569
X115.846Y62.724
X115.632Y62.888
X115.43Y63.048
X115.211Y63.225
X114.711Y63.638
X114.505Y63.813
X114.311Y63.982
X114.109Y64.162
X113.92Y64.336
X113.723Y64.521
X113.537Y64.699
X113.345Y64.889
X113.164Y65.072
X112.976Y65.267
X112.8Y65.454
X112.597Y65.675
X112.287Y65.703
X112.031Y65.73
X111.763Y65.761
X111.508Y65.794
X111.241Y65.832
X110.986Y65.871
X110.72Y65.915
X110.467Y65.961
X110.201Y66.011
X109.949Y66.063
X109.685Y66.12
X109.435Y66.178
X109.172Y66.242
X108.923Y66.306
X108.797Y66.339
X108.446Y66.248
X108.196Y66.187
X107.933Y66.126
X107.681Y66.071
X107.417Y66.016
X107.164Y65.967
X106.898Y65.919
X106.644Y65.877
X106.377Y65.835
X106.122Y65.799
X105.854Y65.764
X105.598Y65.734
X105.33Y65.706
X105.073Y65.682
X104.804Y65.66
X104.547Y65.643
X104.277Y65.627
X104.02Y65.616
X103.75Y65.608
X103.493Y65.603
X97.273Y65.554
X97.019Y65.283
X96.841Y65.097
X96.651Y64.905
X96.468Y64.724
X96.274Y64.536
X96.086Y64.36
X95.887Y64.177
X95.695Y64.005
X95.492Y63.827
X95.296Y63.66
X95.08Y63.48
X94.578Y63.07
X94.366Y62.902
X94.162Y62.745
X93.946Y62.582
X93.738Y62.43
X93.519Y62.273
X93.307Y62.126
X93.084Y61.974
X92.869Y61.833
X92.642Y61.686
X92.423Y61.55
X92.192Y61.409
X91.971Y61.278
X91.737Y61.143
X91.512Y61.018
X91.265Y60.883
X90.692Y60.579
X90.452Y60.456
X90.221Y60.341
X89.978Y60.224
X89.744Y60.115
X89.498Y60.004
X89.262Y59.901
X89.013Y59.796
X88.775Y59.699
X88.523Y59.6
X88.283Y59.509
X88.029Y59.416
X87.786Y59.33
X87.53Y59.244
X87.285Y59.164
X87.016Y59.081
X86.395Y58.894
X86.135Y58.82
X85.887Y58.753
X85.625Y58.685
X85.375Y58.624
X85.112Y58.563
X84.86Y58.508
X84.596Y58.454
X84.343Y58.405
X84.077Y58.357
X83.823Y58.314
X83.556Y58.273
X83.301Y58.236
X83.033Y58.201
X82.777Y58.171
X82.497Y58.142
X81.852Y58.08
X81.583Y58.058
X81.326Y58.041
X81.056Y58.025
X80.799Y58.014
X80.529Y58.006
X80.272Y58.001
X80.001Y57.999
X79.744Y58
X79.474Y58.005
X79.216Y58.013
X78.946Y58.024
X78.689Y58.038
X78.42Y58.056
X78.163Y58.077
X77.883Y58.102
X77.238Y58.167
X76.969Y58.199
X76.714Y58.232
X76.446Y58.269
X76.192Y58.309
X75.925Y58.353
X75.672Y58.398
X75.406Y58.449
X75.154Y58.501
X74.89Y58.558
X74.639Y58.616
X74.377Y58.68
X74.127Y58.744
X73.866Y58.814
X73.619Y58.884
X73.349Y58.964
X72.729Y59.154
X72.472Y59.237
X72.228Y59.319
X71.973Y59.408
X71.731Y59.496
X71.478Y59.592
X71.238Y59.686
X70.988Y59.787
X70.751Y59.887
X70.503Y59.995
X70.268Y60.101
X70.023Y60.215
X69.791Y60.326
X69.549Y60.446
X69.319Y60.563
X69.07Y60.694
X68.499Y61.001
X68.263Y61.132
X68.04Y61.26
X67.807Y61.398
X67.587Y61.531
X67.358Y61.674
X67.141Y61.813
X66.915Y61.962
X66.702Y62.106
X66.48Y62.26
X66.27Y62.409
X66.052Y62.569
X65.846Y62.723
X65.632Y62.888
X65.43Y63.048
X65.211Y63.225
X64.711Y63.637
X64.505Y63.812
X64.311Y63.982
X64.11Y64.162
X63.92Y64.336
X63.723Y64.521
X63.537Y64.699
X63.345Y64.889
X63.164Y65.072
X62.976Y65.266
X62.8Y65.454
X62.617Y65.653
X62.445Y65.845
X62.267Y66.048
X62.1Y66.244
X61.92Y66.46
X61.812Y66.592
X22.999
X22.998Y45.962
X22.999Y39.4
X22.999Y23.027
X61.922Y23.142
X62.077Y23.329
X62.252Y23.535
X62.422Y23.729
X62.602Y23.93
X62.776Y24.12
X62.961Y24.317
X63.139Y24.502
X63.329Y24.695
X63.512Y24.876
X63.706Y25.064
X63.894Y25.24
X64.093Y25.423
X64.284Y25.595
X64.488Y25.773
X64.684Y25.94
X64.9Y26.12
X65.402Y26.53
X65.614Y26.698
X65.818Y26.855
X66.034Y27.017
X66.242Y27.17
X66.461Y27.327
X66.673Y27.474
X66.896Y27.625
X67.111Y27.767
X67.339Y27.913
X67.557Y28.05
X67.788Y28.191
X68.009Y28.322
X68.243Y28.457
X68.468Y28.582
X68.716Y28.717
X69.288Y29.021
X69.528Y29.144
X69.759Y29.258
X70.003Y29.376
X70.236Y29.484
X70.482Y29.596
X70.718Y29.699
X70.967Y29.804
X71.205Y29.901
X71.457Y30
X71.698Y30.091
X71.951Y30.184
X72.194Y30.27
X72.45Y30.356
X72.695Y30.435
X72.964Y30.519
X73.585Y30.706
X73.845Y30.78
X74.093Y30.847
X74.355Y30.914
X74.605Y30.976
X74.868Y31.037
X75.12Y31.092
X75.384Y31.146
X75.637Y31.195
X75.903Y31.243
X76.157Y31.286
X76.424Y31.327
X76.679Y31.363
X76.947Y31.398
X77.202Y31.428
X77.482Y31.458
X78.128Y31.52
X78.397Y31.542
X78.654Y31.559
X78.924Y31.574
X79.181Y31.586
X79.451Y31.594
X79.708Y31.599
X79.979Y31.601
X80.236Y31.599
X80.506Y31.595
X80.764Y31.587
X81.034Y31.575
X81.291Y31.561
X81.561Y31.543
X81.817Y31.523
X82.098Y31.497
X82.742Y31.432
X83.011Y31.401
X83.266Y31.368
X83.534Y31.33
X83.788Y31.291
X84.055Y31.247
X84.308Y31.201
X84.574Y31.151
X84.826Y31.099
X85.09Y31.042
X85.341Y30.984
X85.603Y30.92
X85.853Y30.856
X86.113Y30.786
X86.361Y30.716
X86.631Y30.636
X87.251Y30.446
X87.508Y30.363
X87.752Y30.281
X88.007Y30.192
X88.249Y30.104
X88.502Y30.008
X88.742Y29.914
X88.992Y29.812
X89.229Y29.713
X89.477Y29.605
X89.712Y29.499
X89.957Y29.385
X90.189Y29.274
X90.431Y29.154
X90.661Y29.037
X90.91Y28.906
X91.481Y28.599
X91.717Y28.468
X91.893Y28.367
X91.391Y27.502
X91.659Y27.345
X91.868Y27.217
X92.087Y27.081
X92.294Y26.948
X92.509Y26.807
X92.712Y26.669
X92.924Y26.522
X93.124Y26.38
X93.332Y26.228
X93.528Y26.081
X93.733Y25.923
X93.925Y25.771
X94.135Y25.602
X94.625Y25.197
X94.822Y25.03
X95.006Y24.869
X95.199Y24.697
X95.38Y24.532
X95.568Y24.355
X95.744Y24.185
X95.928Y24.004
X96.1Y23.83
X96.279Y23.644
X96.447Y23.466
X96.622Y23.276
X96.786Y23.093
X96.869Y22.999
X111.456Y22.997
X111.714Y22.993
X111.959Y22.986
X112.217Y22.975
X112.461Y22.961
X112.719Y22.944
X112.963Y22.925
X113.041Y22.918
X113.171Y23.066
X113.343Y23.259
X113.508Y23.44
X113.685Y23.628
X113.855Y23.804
X114.036Y23.988
X114.21Y24.16
X114.396Y24.339
X114.575Y24.507
X114.764Y24.682
X114.947Y24.846
X115.141Y25.016
X115.328Y25.175
X115.535Y25.347
X116.027Y25.749
X116.229Y25.909
X116.424Y26.059
X116.63Y26.214
X116.827Y26.359
X117.037Y26.509
X117.238Y26.649
X117.452Y26.794
X117.657Y26.929
X117.874Y27.069
X118.081Y27.199
X118.302Y27.333
X118.513Y27.458
X118.736Y27.586
X118.95Y27.706
X119.187Y27.835
X119.748Y28.133
X119.978Y28.251
X120.198Y28.36
X120.43Y28.472
X120.652Y28.575
X120.887Y28.681
X121.001Y28.731
X121.002Y33.552
X121.007Y33.81
X121.014Y34.055
X121.025Y34.313
X121.038Y34.557
X121.056Y34.815
X121.075Y35.059
X121.099Y35.316
X121.124Y35.56
X121.154Y35.816
X121.185Y36.059
X121.221Y36.315
X121.258Y36.557
X121.301Y36.812
X121.344Y37.053
X121.393Y37.306
X121.442Y37.546
X121.497Y37.799
X121.552Y38.037
X121.613Y38.288
X121.673Y38.526
X121.741Y38.775
X121.807Y39.011
X121.88Y39.258
X121.953Y39.492
X122.032Y39.738
X122.11Y39.97
X122.195Y40.214
X122.279Y40.444
X122.371Y40.685
X122.46Y40.914
X122.557Y41.153
X122.652Y41.379
X122.755Y41.615
X122.856Y41.839
X122.964Y42.073
X123.07Y42.294
X123.185Y42.525
X123.296Y42.743
X123.416Y42.972
X123.533Y43.187
X123.659Y43.413
X123.781Y43.625
X123.912Y43.847
X124.039Y44.057
X124.175Y44.276
X124.308Y44.482
X124.449Y44.698
X124.587Y44.901
X124.734Y45.113
X124.876Y45.312
X125.028Y45.521
X125.176Y45.717
X125.333Y45.921
X125.485Y46.114
X125.412Y59.469
X125.109Y59.534
X124.87Y59.589
X124.62Y59.65
X124.382Y59.711
X124.133Y59.778
X123.897Y59.845
X123.639Y59.921
X123.031Y60.107
X122.785Y60.186
X122.553Y60.264
X122.31Y60.35
X122.079Y60.433
X121.838Y60.525
X121.61Y60.614
X121.371Y60.711
X121.145Y60.806
X120.908Y60.909
X120.685Y61.01
X120.451Y61.118
X120.23Y61.224
X119.999Y61.339
X119.78Y61.45
X119.542Y61.575
X118.982Y61.876
X118.756Y62.002
X118.544Y62.124
X118.321Y62.255
X118.112Y62.382
X117.893Y62.519
X117.686Y62.651
X117.471Y62.793
X117.268Y62.931
X117.056Y63.078
X116.856Y63.22
X116.648Y63.372
X116.452Y63.519
X116.247Y63.677
X116.054Y63.829
X115.845Y63.998
X115.355Y64.403
X115.158Y64.57
X114.973Y64.731
X114.781Y64.903
X114.6Y65.068
X114.412Y65.245
X114.236Y65.415
X114.052Y65.596
X113.88Y65.77
X113.7Y65.956
X113.532Y66.134
X113.358Y66.324
X113.194Y66.507
X113.075Y66.643
X112.642Y66.675
X112.385Y66.698
X112.142Y66.724
X111.886Y66.754
X111.643Y66.785
X111.387Y66.821
X111.145Y66.858
X110.891Y66.9
X110.65Y66.944
X110.396Y66.992
X110.156Y67.041
X109.904Y67.096
X109.666Y67.151
X109.415Y67.212
X109.178Y67.273
X108.929Y67.34
X108.797Y67.377
X108.453Y67.283
X108.203Y67.218
X107.965Y67.16
X107.714Y67.102
X107.474Y67.049
X107.222Y66.997
X106.981Y66.951
X106.727Y66.905
X106.485Y66.864
X106.23Y66.825
X105.988Y66.79
X105.732Y66.757
X105.488Y66.728
X105.232Y66.701
X104.988Y66.678
X104.731Y66.657
X104.486Y66.641
X104.228Y66.626
X103.983Y66.616
X103.726Y66.607
X103.48Y66.603
X96.825Y66.551
X96.637Y66.341
X96.472Y66.16
X96.295Y65.972
X96.125Y65.796
X95.944Y65.612
X95.77Y65.44
X95.584Y65.261
X95.406Y65.092
X95.216Y64.918
X95.033Y64.754
X94.839Y64.584
X94.652Y64.425
X94.445Y64.253
X93.953Y63.851
X93.751Y63.691
X93.557Y63.541
X93.35Y63.386
X93.153Y63.241
X92.943Y63.091
X92.742Y62.951
X92.528Y62.806
X92.324Y62.671
X92.107Y62.531
X91.899Y62.401
X91.678Y62.267
X91.467Y62.142
X91.244Y62.014
X91.03Y61.894
X90.793Y61.765
X90.232Y61.467
X90.002Y61.349
X89.783Y61.24
X89.55Y61.128
X89.328Y61.025
X89.093Y60.918
X88.868Y60.82
X88.631Y60.72
X88.403Y60.627
X88.163Y60.533
X87.934Y60.446
X87.692Y60.357
X87.461Y60.276
X87.216Y60.193
X86.983Y60.118
X86.726Y60.038
X86.117Y59.855
X85.869Y59.784
X85.632Y59.72
X85.382Y59.656
X85.144Y59.597
X84.893Y59.539
X84.653Y59.487
X84.401Y59.435
X84.16Y59.388
X83.906Y59.342
X83.664Y59.302
X83.409Y59.262
X83.167Y59.227
X82.911Y59.194
X82.667Y59.165
X82.399Y59.137
X81.767Y59.076
X81.509Y59.055
X81.265Y59.039
X81.007Y59.024
X80.762Y59.014
X80.505Y59.005
X80.259Y59.001
X80.001Y58.999
X79.756Y59
X79.498Y59.005
X79.253Y59.012
X78.996Y59.023
X78.751Y59.037
X78.493Y59.054
X78.249Y59.073
X77.981Y59.098
X77.348Y59.161
X77.092Y59.191
X76.849Y59.223
X76.593Y59.259
X76.351Y59.296
X76.096Y59.338
X75.855Y59.382
X75.602Y59.43
X75.361Y59.479
X75.109Y59.534
X74.87Y59.589
X74.62Y59.65
X74.382Y59.711
X74.133Y59.778
X73.897Y59.845
X73.639Y59.921
X73.031Y60.107
X72.785Y60.186
X72.553Y60.264
X72.31Y60.35
X72.079Y60.434
X71.838Y60.525
X71.61Y60.614
X71.371Y60.711
X71.145Y60.806
X70.908Y60.909
X70.684Y61.01
X70.451Y61.118
X70.229Y61.225
X69.998Y61.339
X69.78Y61.45
X69.541Y61.576
X68.981Y61.877
X68.756Y62.002
X68.543Y62.124
X68.321Y62.255
X68.112Y62.383
X67.893Y62.519
X67.686Y62.651
X67.471Y62.793
X67.268Y62.931
X67.056Y63.078
X66.856Y63.22
X66.648Y63.372
X66.452Y63.519
X66.247Y63.677
X66.055Y63.828
X65.845Y63.998
X65.355Y64.402
X65.158Y64.569
X64.974Y64.731
X64.781Y64.903
X64.601Y65.068
X64.412Y65.245
X64.236Y65.415
X64.052Y65.596
X63.88Y65.77
X63.701Y65.956
X63.533Y66.134
X63.358Y66.324
X63.194Y66.507
X63.024Y66.701
X62.865Y66.888
X62.693Y67.095
X62.287Y67.592
X21.999
X21.998Y45.962
X21.999Y39.4
X21.999Y22.024
X62.395Y22.142
X62.842Y22.685
X63.009Y22.881
X63.171Y23.066
X63.343Y23.259
X63.508Y23.439
X63.685Y23.627
X63.855Y23.804
X64.036Y23.988
X64.21Y24.16
X64.396Y24.339
X64.574Y24.507
X64.764Y24.682
X64.947Y24.846
X65.141Y25.015
X65.328Y25.175
X65.535Y25.347
X66.027Y25.749
X66.229Y25.909
X66.423Y26.059
X66.629Y26.214
X66.827Y26.359
X67.037Y26.509
X67.238Y26.649
X67.452Y26.794
X67.656Y26.929
X67.873Y27.069
X68.081Y27.199
X68.302Y27.333
X68.513Y27.458
X68.736Y27.586
X68.95Y27.706
X69.187Y27.835
X69.748Y28.133
X69.978Y28.251
X70.198Y28.36
X70.43Y28.472
X70.652Y28.575
X70.887Y28.681
X71.112Y28.78
X71.35Y28.88
X71.577Y28.972
X71.817Y29.067
X72.046Y29.154
X72.288Y29.243
X72.52Y29.324
X72.764Y29.406
X72.997Y29.482
X73.254Y29.562
X73.863Y29.745
X74.111Y29.816
X74.348Y29.88
X74.598Y29.944
X74.836Y30.003
X75.087Y30.061
X75.327Y30.113
X75.579Y30.165
X75.82Y30.212
X76.074Y30.258
X76.316Y30.298
X76.571Y30.338
X76.813Y30.372
X77.069Y30.406
X77.313Y30.435
X77.58Y30.463
X78.213Y30.524
X78.47Y30.544
X78.715Y30.561
X78.973Y30.576
X79.218Y30.586
X79.475Y30.594
X79.721Y30.599
X79.979Y30.601
X80.224Y30.599
X80.482Y30.595
X80.727Y30.588
X80.985Y30.577
X81.229Y30.563
X81.487Y30.546
X81.731Y30.527
X82Y30.502
X82.632Y30.438
X82.888Y30.409
X83.132Y30.377
X83.387Y30.341
X83.629Y30.304
X83.884Y30.262
X84.125Y30.218
X84.378Y30.17
X84.618Y30.121
X84.871Y30.066
X85.109Y30.011
X85.36Y29.95
X85.598Y29.889
X85.847Y29.822
X86.083Y29.755
X86.341Y29.679
X86.949Y29.493
X87.194Y29.414
X87.427Y29.335
X87.67Y29.25
X87.901Y29.166
X88.142Y29.075
X88.37Y28.986
X88.609Y28.889
X88.835Y28.794
X89.072Y28.691
X89.295Y28.59
X89.529Y28.481
X89.75Y28.375
X89.982Y28.261
X90.2Y28.149
X90.439Y28.024
X90.999Y27.723
X91.224Y27.598
X91.391Y27.502
X90.89Y26.637
X91.145Y26.487
X91.344Y26.366
X91.552Y26.236
X91.748Y26.11
X91.953Y25.975
X92.146Y25.845
X92.348Y25.705
X92.538Y25.57
X92.736Y25.425
X92.923Y25.285
X93.117Y25.135
X93.3Y24.991
X93.5Y24.829
X93.981Y24.432
X94.168Y24.273
X94.344Y24.12
X94.527Y23.956
X94.699Y23.799
X94.878Y23.631
X95.046Y23.469
X95.221Y23.297
X95.384Y23.131
X95.555Y22.955
X95.715Y22.785
X95.881Y22.604
X96.036Y22.431
X96.198Y22.246
X96.349Y22.069
X96.408Y21.999
X111.444Y21.998
X111.69Y21.993
X111.922Y21.986
X112.168Y21.976
X112.4Y21.963
X112.645Y21.947
X112.877Y21.929
X113.122Y21.906
X113.353Y21.882
X113.465Y21.87
X113.608Y22.041
X113.767Y22.228
X113.92Y22.404
X114.084Y22.587
X114.241Y22.759
X114.409Y22.938
X114.571Y23.106
X114.743Y23.281
X114.909Y23.444
X115.085Y23.615
X115.255Y23.775
X115.436Y23.941
X115.609Y24.096
X115.794Y24.258
X115.972Y24.409
X116.169Y24.574
X116.652Y24.968
X116.845Y25.121
X117.029Y25.263
X117.225Y25.411
X117.413Y25.549
X117.613Y25.692
X117.804Y25.825
X118.007Y25.962
X118.202Y26.091
X118.408Y26.224
X118.606Y26.347
X118.816Y26.475
X119.016Y26.594
X119.229Y26.716
X119.432Y26.83
X119.658Y26.953
X120.209Y27.245
X120.427Y27.357
X120.636Y27.461
X120.857Y27.568
X121.069Y27.666
X121.292Y27.767
X121.506Y27.86
X121.732Y27.956
X121.948Y28.044
X122.001Y28.065
X122.002Y33.54
X122.007Y33.785
X122.014Y34.018
X122.024Y34.263
X122.037Y34.496
X122.053Y34.741
X122.071Y34.973
X122.094Y35.218
X122.118Y35.45
X122.146Y35.694
X122.176Y35.925
X122.21Y36.168
X122.246Y36.398
X122.286Y36.64
X122.327Y36.87
X122.373Y37.111
X122.42Y37.339
X122.472Y37.579
X122.525Y37.806
X122.583Y38.045
X122.64Y38.271
X122.704Y38.508
X122.768Y38.732
X122.837Y38.968
X122.906Y39.19
X122.982Y39.424
X123.056Y39.645
X123.137Y39.877
X123.217Y40.095
X123.303Y40.325
X123.388Y40.542
X123.481Y40.77
X123.571Y40.984
X123.669Y41.21
X123.765Y41.422
X123.868Y41.645
X123.969Y41.855
X124.078Y42.075
X124.184Y42.283
X124.298Y42.5
X124.409Y42.705
X124.529Y42.92
X124.645Y43.122
X124.769Y43.333
X124.89Y43.532
X125.02Y43.741
X125.146Y43.937
X125.35Y44.245
X125.551Y44.537
X125.687Y44.727
X125.832Y44.925
X125.971Y45.111
X126.121Y45.306
X126.265Y45.489
X126.42Y45.68
X126.487Y45.761
X126.41Y60.299
X126.038Y60.365
X125.797Y60.411
X125.569Y60.458
X125.329Y60.51
X125.102Y60.562
X124.863Y60.62
X124.637Y60.678
X124.4Y60.742
X124.176Y60.805
X123.929Y60.878
X123.333Y61.06
X123.099Y61.136
X122.879Y61.21
X122.647Y61.291
X122.428Y61.371
X122.198Y61.458
X121.981Y61.543
X121.754Y61.635
X121.539Y61.725
X121.314Y61.823
X121.101Y61.919
X120.879Y62.022
X120.669Y62.123
X120.448Y62.232
X120.241Y62.338
X120.013Y62.457
X119.464Y62.752
X119.249Y62.872
X119.047Y62.988
X118.836Y63.113
X118.636Y63.234
X118.428Y63.364
X118.232Y63.49
X118.027Y63.625
X117.834Y63.755
X117.632Y63.895
X117.442Y64.03
X117.243Y64.175
X117.057Y64.315
X116.862Y64.465
X116.679Y64.609
X116.479Y64.771
X115.998Y65.168
X115.811Y65.327
X115.636Y65.48
X115.453Y65.644
X115.281Y65.801
X115.102Y65.969
X114.934Y66.131
X114.759Y66.303
X114.595Y66.469
X114.425Y66.645
X114.265Y66.815
X114.099Y66.996
X113.943Y67.169
X113.782Y67.354
X113.631Y67.531
X113.558Y67.618
X113.205Y67.637
X112.96Y67.653
X112.728Y67.671
X112.483Y67.694
X112.252Y67.718
X112.008Y67.746
X111.777Y67.776
X111.534Y67.81
X111.304Y67.845
X111.062Y67.886
X110.833Y67.927
X110.592Y67.973
X110.363Y68.02
X110.124Y68.072
X109.897Y68.124
X109.658Y68.182
X109.433Y68.24
X109.196Y68.303
X108.972Y68.367
X108.797Y68.418
X108.423Y68.31
X108.198Y68.25
X107.96Y68.188
X107.734Y68.133
X107.495Y68.077
X107.267Y68.028
X107.027Y67.978
X106.798Y67.934
X106.556Y67.89
X106.326Y67.851
X106.084Y67.814
X105.853Y67.781
X105.61Y67.749
X105.378Y67.722
X105.134Y67.696
X104.902Y67.674
X104.657Y67.655
X104.425Y67.639
X104.179Y67.625
X103.947Y67.615
X103.701Y67.607
X103.468Y67.603
X96.363Y67.548
X96.213Y67.372
X96.06Y67.196
X95.897Y67.013
X95.739Y66.841
X95.571Y66.662
X95.409Y66.494
X95.237Y66.319
X95.071Y66.155
