(Created with grbl post processor 2023/10/20 10:54)
G21
(G-code generated with BlenderCAM and NC library)
G17G90
(Tool: D = 3.0 mm  type BALLNOSE flutes 2)
S12000M03
G00 Z2.0

G0X0Y0Z2
X0.02Y41.083
G1Z-2F200
Y44.683F400
G0Z2
X0.32Y41.083
G1Z-2F200
Y44.683F400
G0Z2
X0.62Y41.083
G1Z-2F200
Y44.683F400
G0Z2
X0.92Y41.083
G1Z-2F200
Y44.683F400
G0Z2
X1.22Y41.083
G1Z-2F200
Y44.683F400
G0Z2
X1.52Y41.083
G1Z-2F200
Y44.683F400
G0Z2
X1.82Y41.083
G1Z-2F200
Y44.683F400
G0Z2
X2.12Y41.083
G1Z-2F200
Y44.683F400
G0Z2
X2.42Y41.083
G1Z-2F200
Y44.683F400
G0Z2
X0.02Y41.083
G1Z-4F200
Y44.683F400
G0Z2
X0.32Y41.083
G1Z-4F200
Y44.683F400
G0Z2
X0.62Y41.083
G1Z-4F200
Y44.683F400
G0Z2
X0.92Y41.083
G1Z-4F200
Y44.683F400
G0Z2
X1.22Y41.083
G1Z-4F200
Y44.683F400
G0Z2
X1.52Y41.083
G1Z-4F200
Y44.683F400
G0Z2
X1.82Y41.083
G1Z-4F200
Y44.683F400
G0Z2
X2.12Y41.083
G1Z-4F200
Y44.683F400
G0Z2
X2.42Y41.083
G1Z-4F200
Y44.683F400
G0Z2
X0.02Y41.083
G1Z-6F200
Y44.683F400
G0Z2
X0.32Y41.083
G1Z-6F200
Y44.683F400
G0Z2
X0.62Y41.083
G1Z-6F200
Y44.683F400
G0Z2
X0.92Y41.083
G1Z-6F200
Y44.683F400
G0Z2
X1.22Y41.083
G1Z-6F200
Y44.683F400
G0Z2
X1.52Y41.083
G1Z-6F200
Y44.683F400
G0Z2
X1.82Y41.083
G1Z-6F200
Y44.683F400
G0Z2
X2.12Y41.083
G1Z-6F200
Y44.683F400
G0Z2
X2.42Y41.083
G1Z-6F200
Y44.683F400
G0Z2
X0.02Y41.083
G1Z-7.821F200
Y41.189Z-8
Y44.578F400
Y44.683Z-7.822
G0Z2
X0.32Y41.083
G1Z-7.821F200
Y41.189Z-8
Y44.578F400
Y44.683Z-7.822
G0Z2
X0.62Y41.083
G1Z-7.821F200
Y41.189Z-8
Y44.578F400
Y44.683Z-7.822
G0Z2
X0.92Y41.083
G1Z-7.821F200
Y41.189Z-8
Y44.578F400
Y44.683Z-7.822
G0Z2
X1.22Y41.083
G1Z-7.821F200
Y41.189Z-8
Y44.578F400
Y44.683Z-7.822
G0Z2
X1.52Y41.083
G1Z-7.821F200
Y41.189Z-8
Y44.578F400
Y44.683Z-7.822
G0Z2
X1.82Y41.083
G1Z-7.821F200
Y41.189Z-8
Y44.578F400
Y44.683Z-7.822
G0Z2
X2.12Y41.083
G1Z-7.821F200
Y41.189Z-8
Y44.578F400
Y44.683Z-7.822
G0Z2
X2.42Y41.083
G1Z-7.821F200
Y41.189Z-8
Y44.578F400
Y44.683Z-7.822
G0Z2
X0.02Y41.189
G1Z-8F200
Y41.283Z-8.16
Y41.483Z-8.389
Y41.683Z-8.568
Y41.883Z-8.702
Y42.083Z-8.8F400
Y42.283Z-8.883
Y42.483Z-8.927
Y42.683Z-8.967
Y42.883Z-8.968
Y43.083Z-8.967
Y43.283Z-8.927
Y43.483Z-8.883
Y43.683Z-8.8
Y43.883Z-8.702
Y44.083Z-8.568
Y44.283Z-8.389
Y44.483Z-8.16
Y44.578Z-8
G0Z2
X0.32Y41.189
G1Z-8F200
Y41.283Z-8.16
Y41.483Z-8.389
Y41.683Z-8.568
Y41.883Z-8.702
Y42.083Z-8.8F400
Y42.283Z-8.883
Y42.483Z-8.927
Y42.683Z-8.967
Y42.883Z-8.968
Y43.083Z-8.967
Y43.283Z-8.927
Y43.483Z-8.883
Y43.683Z-8.8
Y43.883Z-8.702
Y44.083Z-8.568
Y44.283Z-8.389
Y44.483Z-8.16
Y44.578Z-8
G0Z2
X0.62Y41.189
G1Z-8F200
Y41.283Z-8.16
Y41.483Z-8.389
Y41.683Z-8.568
Y41.883Z-8.702
Y42.083Z-8.8F400
Y42.283Z-8.883
Y42.483Z-8.927
Y42.683Z-8.967
Y42.883Z-8.968
Y43.083Z-8.967
Y43.283Z-8.927
Y43.483Z-8.883
Y43.683Z-8.8
Y43.883Z-8.702
Y44.083Z-8.568
Y44.283Z-8.389
Y44.483Z-8.16
Y44.578Z-8
G0Z2
X0.92Y41.189
G1Z-8F200
Y41.283Z-8.16
Y41.483Z-8.389
Y41.683Z-8.568
Y41.883Z-8.702
Y42.083Z-8.8F400
Y42.283Z-8.883
Y42.483Z-8.927
Y42.683Z-8.967
Y42.883Z-8.968
Y43.083Z-8.967
Y43.283Z-8.927
Y43.483Z-8.883
Y43.683Z-8.8
Y43.883Z-8.702
Y44.083Z-8.568
Y44.283Z-8.389
Y44.483Z-8.16
Y44.578Z-8
G0Z2
X1.22Y41.189
G1Z-8F200
Y41.283Z-8.16
Y41.483Z-8.389
Y41.683Z-8.568
Y41.883Z-8.702
Y42.083Z-8.8F400
Y42.283Z-8.883
Y42.483Z-8.927
Y42.683Z-8.967
Y42.883Z-8.968
Y43.083Z-8.967
Y43.283Z-8.927
Y43.483Z-8.883
Y43.683Z-8.8
Y43.883Z-8.702
Y44.083Z-8.568
Y44.283Z-8.389
Y44.483Z-8.16
Y44.578Z-8
G0Z2
X1.52Y41.189
G1Z-8F200
Y41.283Z-8.16
Y41.483Z-8.389
Y41.683Z-8.568
Y41.883Z-8.702
Y42.083Z-8.8F400
Y42.283Z-8.883
Y42.483Z-8.927
Y42.683Z-8.967
Y42.883Z-8.968
Y43.083Z-8.967
Y43.283Z-8.927
Y43.483Z-8.883
Y43.683Z-8.8
Y43.883Z-8.702
Y44.083Z-8.568
Y44.283Z-8.389
Y44.483Z-8.16
Y44.578Z-8
G0Z2
X1.82Y41.189
G1Z-8F200
Y41.283Z-8.16
Y41.483Z-8.389
Y41.683Z-8.568
Y41.883Z-8.702
Y42.083Z-8.8F400
Y42.283Z-8.883
Y42.483Z-8.927
Y42.683Z-8.967
Y42.883Z-8.968
Y43.083Z-8.967
Y43.283Z-8.927
Y43.483Z-8.883
Y43.683Z-8.8
Y43.883Z-8.702
Y44.083Z-8.568
Y44.283Z-8.389
Y44.483Z-8.16
Y44.578Z-8
G0Z2
X2.12Y41.189
G1Z-8F200
Y41.283Z-8.16
Y41.483Z-8.389
Y41.683Z-8.568
Y41.883Z-8.702
Y42.083Z-8.8F400
Y42.283Z-8.883
Y42.483Z-8.927
Y42.683Z-8.967
Y42.883Z-8.968
Y43.083Z-8.967
Y43.283Z-8.927
Y43.483Z-8.883
Y43.683Z-8.8
Y43.883Z-8.702
Y44.083Z-8.568
Y44.283Z-8.389
Y44.483Z-8.16
Y44.578Z-8
G0Z2
X2.42Y41.189
G1Z-8F200
Y41.283Z-8.16
Y41.483Z-8.389
Y41.683Z-8.568
Y41.883Z-8.702
Y42.083Z-8.8F400
Y42.283Z-8.883
Y42.483Z-8.927
Y42.683Z-8.967
Y42.883Z-8.968
Y43.083Z-8.967
Y43.283Z-8.927
Y43.483Z-8.883
Y43.683Z-8.8
Y43.883Z-8.702
Y44.083Z-8.568
Y44.283Z-8.389
Y44.483Z-8.16
Y44.578Z-8
G0Z2
 
