(Created with grbl post processor 2023/10/19 00:16)
G21
(G-code generated with BlenderCAM and NC library)
G17G90
(Tool: D = 1.0 mm  type END flutes 2)
S12000M03
G00 Z2.0

G0X0Y0Z2
X26.59Y17.55
G1Z-10.49F50
Z0F100
G0Z2
X34.69Y34.65
G1Z-12.497F50
Z0F100
G0Z2
X57.29Y34.95
G1Z-12.497F50
Z0F100
G0Z2
Y60.75
G1Z-12.497F50
Z0F100
G0Z2
X62.99Y82.35
G1Z-12.497F50
Z0F100
G0Z2
X79.99Y81.55
G1Z-6.197F50
Z0F100
G0Z2
X40.99Y82.35
G1Z-12.497F50
Z0F100
G0Z2
X36.99Y71.55
G1Z-10.49F50
Z0F100
G0Z2
X63.99Y6.85
G1Z-12.497F50
Z0F100
G0Z2
X79.99Y8.05
G1Z-6.197F50
Z0F100
G0Z2
X129.99Y8.05
G1Z-7.603F50
Z0F100
G0Z2
Y81.55
G1Z-7.603F50
Z0F100
G0Z2
 
