(Created with grbl post processor 2023/10/19 00:16)
G21
(G-code generated with BlenderCAM and NC library)
G17G90
(Tool: D = 1.5 mm  type END flutes 2)
S12000M03
G00 Z2.0

G0X0Y0Z2
X21.555Y57.673
G1Z-13.5F75
X11.243Y62.829F150
X9.481Y63.71Z-13.516
G0Z2
X23.791Y62.145
G1Z-13.5F75
X13.498Y67.292Z-13.5F150
X11.717Y68.182Z-13.508
G0Z2
X26.028Y66.617
G1Z-13.5F75
X13.953Y72.654Z-13.501F150
G0Z2
X18.425Y81.599
G1Z-13.486F75
X20.263Y80.68Z-13.499F150
X30.5Y75.561
G0Z2
X28.264Y71.089
G1Z-13.499F75
X18.008Y76.217F150
X16.189Y77.126Z-13.493
G0Z2
(Tool: D = 1.5 mm  type END flutes 2)
S12000M03
G00 Z2.0

X50.941Y57.934
G1Z-8.506F75
X51.855Y59.048Z-8.506F150
X52.535Y60.32
X52.954Y61.7Z-8.506
X53.095Y63.135
X52.954Y64.57Z-8.506
X52.535Y65.95
X51.855Y67.222Z-8.506
X50.941Y68.336
X49.826Y69.251
X48.554Y69.931
X47.174Y70.35Z-8.506
X45.739Y70.491
X44.304Y70.35
X42.924Y69.931Z-8.506
X41.653Y69.251
X40.538Y68.336
X39.623Y67.222
X38.943Y65.95Z-8.506
X38.525Y64.57
X38.383Y63.135Z-8.506
X38.525Y61.7
X38.943Y60.32Z-8.506
X39.623Y59.048
X40.538Y57.934Z-8.506
X41.653Y57.019
X42.924Y56.339
X44.304Y55.921
X45.739Y55.779
G0Z2
X47.594Y82.549
G1Z-8.5F75
X46.679Y81.435Z-8.5F150
X45.999Y80.163
X45.581Y78.783
X45.439Y77.348Z-8.5
X45.581Y75.913
X45.999Y74.533Z-8.5
X46.679Y73.261
X47.594Y72.147Z-8.5
X48.708Y71.232
X49.98Y70.552
X51.36Y70.133
X52.795Y69.992Z-8.5
X54.23Y70.133Z-8.5
X55.61Y70.552
X56.882Y71.232
X57.996Y72.147
X58.911Y73.261Z-8.5
X59.591Y74.533
X60.009Y75.913Z-8.5
X60.151Y77.348
X60.009Y78.783Z-8.5
X59.591Y80.163
X58.911Y81.435
X57.996Y82.549Z-8.5
X56.882Y83.464
X55.61Y84.144
X54.23Y84.562Z-8.499
X52.795Y84.704
G0Z2
(Tool: D = 1.5 mm  type END flutes 2)
S12000M03
G00 Z2.0

X45.734Y56.289
G1Z-9.5F75
X45.739Y56.288F150
X45.745Y56.289
X45.739Y56.366
X45.734Y56.289
X45.739Y55.786
X46.278Y55.835
X46.138Y57.821
X45.813Y57.789
X45.794Y57.787
X45.776Y57.786
X45.758Y57.785
X45.74Y57.785
X45.721Y57.785
X45.703Y57.786
X45.685Y57.787
X45.666Y57.789
X45.34Y57.82
X45.201Y55.834
X45.739Y55.786
G0Z2
X45.739Y69.904
G1Z-9.5F75
X45.744Y69.981F150
X45.739Y69.982
X45.734Y69.982
X45.739Y69.904
X45.739Y70.484
X45.2Y70.436
X45.34Y68.449
X45.666Y68.481
X45.684Y68.483
X45.702Y68.484
X45.721Y68.485
X45.739Y68.485
X45.757Y68.485
X45.775Y68.484
X45.794Y68.483
X45.812Y68.481
X46.138Y68.45
X46.277Y70.436
X45.739Y70.484
G0Z2
X52.79Y70.501
G1Z-9.5F75
X52.795Y70.501F150
X52.801Y70.502
X52.795Y70.579
X52.79Y70.501
X52.795Y69.999
X53.334Y70.048
X53.194Y72.034
X52.869Y72.002
X52.85Y72
X52.832Y71.999
X52.814Y71.998
X52.795Y71.998
X52.777Y71.998
X52.759Y71.999
X52.74Y72
X52.722Y72.001
X52.396Y72.033
X52.257Y70.047
X52.795Y69.999
G0Z2
X52.795Y84.117
G1Z-9.5F75
X52.8Y84.194F150
X52.795Y84.195
X52.789Y84.194
X52.795Y84.117
X52.795Y84.697
X52.256Y84.649
X52.396Y82.662
X52.722Y82.694
X52.74Y82.696
X52.758Y82.697
X52.776Y82.698
X52.795Y82.698
X52.813Y82.698
X52.831Y82.697
X52.85Y82.696
X52.868Y82.694
X53.194Y82.662
X53.333Y84.649
X52.795Y84.697
G0Z2
X45.734Y56.289
G1Z-11.5F75
X45.739Y56.288F150
X45.745Y56.289
X45.739Y56.366
X45.734Y56.289
X45.739Y55.786
X46.278Y55.835
X46.138Y57.821
X45.813Y57.789
X45.794Y57.787
X45.776Y57.786
X45.758Y57.785
X45.74Y57.785
X45.721Y57.785
X45.703Y57.786
X45.685Y57.787
X45.666Y57.789
X45.34Y57.82
X45.201Y55.834
X45.739Y55.786
G0Z2
X45.739Y69.904
G1Z-11.5F75
X45.744Y69.981F150
X45.739Y69.982
X45.734Y69.982
X45.739Y69.904
X45.739Y70.484
X45.2Y70.436
X45.34Y68.449
X45.666Y68.481
X45.684Y68.483
X45.702Y68.484
X45.721Y68.485
X45.739Y68.485
X45.757Y68.485
X45.775Y68.484
X45.794Y68.483
X45.812Y68.481
X46.138Y68.45
X46.277Y70.436
X45.739Y70.484
G0Z2
X52.79Y70.501
G1Z-11.5F75
X52.795Y70.501F150
X52.801Y70.502
X52.795Y70.579
X52.79Y70.501
X52.795Y69.999
X53.334Y70.048
X53.194Y72.034
X52.869Y72.002
X52.85Y72
X52.832Y71.999
X52.814Y71.998
X52.795Y71.998
X52.777Y71.998
X52.759Y71.999
X52.74Y72
X52.722Y72.001
X52.396Y72.033
X52.257Y70.047
X52.795Y69.999
G0Z2
X52.795Y84.117
G1Z-11.5F75
X52.8Y84.194F150
X52.795Y84.195
X52.789Y84.194
X52.795Y84.117
X52.795Y84.697
X52.256Y84.649
X52.396Y82.662
X52.722Y82.694
X52.74Y82.696
X52.758Y82.697
X52.776Y82.698
X52.795Y82.698
X52.813Y82.698
X52.831Y82.697
X52.85Y82.696
X52.868Y82.694
X53.194Y82.662
X53.333Y84.649
X52.795Y84.697
G0Z2
X45.734Y56.289
G1Z-12.006F75
X45.739Y56.288F150
X45.745Y56.289
X45.739Y56.366
X45.734Y56.289
X45.739Y55.786
X46.278Y55.835
X46.138Y57.821
X45.813Y57.789
X45.794Y57.787
X45.776Y57.786
X45.758Y57.785
X45.74Y57.785
X45.721Y57.785
X45.703Y57.786
X45.685Y57.787
X45.666Y57.789
X45.34Y57.82
X45.201Y55.834
X45.739Y55.786
G0Z2
X45.739Y69.904
G1Z-12.006F75
X45.744Y69.981F150
X45.739Y69.982
X45.734Y69.982
X45.739Y69.904
X45.739Y70.484
X45.2Y70.436
X45.34Y68.449
X45.666Y68.481
X45.684Y68.483
X45.702Y68.484
X45.721Y68.485
X45.739Y68.485
X45.757Y68.485
X45.775Y68.484
X45.794Y68.483
X45.812Y68.481
X46.138Y68.45
X46.277Y70.436
X45.739Y70.484
G0Z2
X52.79Y70.501
G1Z-12.006F75
X52.795Y70.501F150
X52.801Y70.502
X52.795Y70.579
X52.79Y70.501
X52.795Y69.999
X53.334Y70.048
X53.194Y72.034
X52.869Y72.002
X52.85Y72
X52.832Y71.999
X52.814Y71.998
X52.795Y71.998
X52.777Y71.998
X52.759Y71.999
X52.74Y72
X52.722Y72.001
X52.396Y72.033
X52.257Y70.047
X52.795Y69.999
G0Z2
X52.795Y84.117
G1Z-12.006F75
X52.8Y84.194F150
X52.795Y84.195
X52.789Y84.194
X52.795Y84.117
X52.795Y84.697
X52.256Y84.649
X52.396Y82.662
X52.722Y82.694
X52.74Y82.696
X52.758Y82.697
X52.776Y82.698
X52.795Y82.698
X52.813Y82.698
X52.831Y82.697
X52.85Y82.696
X52.868Y82.694
X53.194Y82.662
X53.333Y84.649
X52.795Y84.697
G0Z2
(Tool: D = 1.5 mm  type END flutes 2)
S12000M03
G00 Z2.0

X48.227Y54.866
G1Z-8.5F75
X48.172Y54.916F150
X48.122Y54.971
X48.029Y55.085
X47.985Y55.144
X47.947Y55.207
X47.878Y55.336
X47.847Y55.403
X47.822Y55.472
X47.779Y55.613
X47.761Y55.685
X47.75Y55.758
X47.736Y55.904
X47.732Y55.977
X47.736Y56.051
X47.75Y56.197
X47.761Y56.27
X47.779Y56.342
X47.822Y56.483
X47.847Y56.552
X47.878Y56.619
X47.947Y56.748
X47.985Y56.811
X48.029Y56.87
X48.122Y56.984
X48.172Y57.039
X48.226Y57.088
X48.34Y57.182
X48.399Y57.225
X48.462Y57.263
X48.592Y57.333
X48.659Y57.364
X48.728Y57.389
X48.869Y57.432
X48.94Y57.45
X49.013Y57.46
X49.159Y57.475
X49.233Y57.479
X49.307Y57.475
X49.453Y57.46
X49.526Y57.45
X49.597Y57.432
X49.738Y57.389
X49.808Y57.364
X49.874Y57.333
X50.004Y57.263
X50.067Y57.226
X50.126Y57.182
X50.24Y57.089
X50.294Y57.039
X50.344Y56.984
X50.437Y56.87
X50.481Y56.811
X50.519Y56.748
X50.588Y56.619
X50.62Y56.552
X50.645Y56.482
X50.688Y56.341
X50.705Y56.27
X50.716Y56.198
X50.731Y56.051
X50.734Y55.978
X50.731Y55.904
X50.716Y55.757
X50.705Y55.685
X50.687Y55.613
X50.645Y55.472
X50.62Y55.403
X50.589Y55.337
X50.519Y55.207
X50.481Y55.144
X50.437Y55.084
X50.344Y54.971
X50.295Y54.916
X50.24Y54.867
X50.126Y54.773
X50.067Y54.729
X50.004Y54.692
X49.874Y54.622
X49.807Y54.591
X49.738Y54.566
X49.597Y54.523
X49.526Y54.505
X49.453Y54.495
X49.307Y54.48
X49.233Y54.477
X49.16Y54.48
X49.013Y54.495
X48.94Y54.505
X48.869Y54.523
X48.728Y54.566
X48.659Y54.591
X48.592Y54.622
X48.462Y54.692
X48.399Y54.73
X48.341Y54.773
X48.227Y54.866
G0Z2
X49.233Y82.977
G1Z-6.5F75
X49.16Y82.98F150
X49.013Y82.995
X48.94Y83.005
X48.869Y83.023
X48.728Y83.066
X48.659Y83.091
X48.592Y83.122
X48.462Y83.192
X48.399Y83.23
X48.341Y83.273
X48.227Y83.366
X48.172Y83.416
X48.122Y83.471
X48.029Y83.585
X47.985Y83.644
X47.947Y83.707
X47.878Y83.836
X47.847Y83.903
X47.822Y83.972
X47.779Y84.113
X47.761Y84.185
X47.75Y84.258
X47.736Y84.404
X47.732Y84.477
X47.736Y84.551
X47.75Y84.697
X47.761Y84.77
X47.779Y84.842
X47.822Y84.983
X47.847Y85.052
X47.878Y85.119
X47.947Y85.248
X47.985Y85.311
X48.029Y85.37
X48.122Y85.484
X48.172Y85.539
X48.226Y85.588
X48.34Y85.682
X48.399Y85.725
X48.462Y85.763
X48.592Y85.833
X48.659Y85.864
X48.728Y85.889
X48.869Y85.932
X48.94Y85.95
X49.013Y85.96
X49.159Y85.975
X49.233Y85.979
X49.307Y85.975
X49.453Y85.96
X49.526Y85.95
X49.597Y85.932
X49.738Y85.889
X49.808Y85.864
X49.874Y85.833
X50.004Y85.763
X50.067Y85.726
X50.126Y85.682
X50.24Y85.589
X50.294Y85.539
X50.344Y85.484
X50.437Y85.37
X50.481Y85.311
X50.519Y85.248
X50.588Y85.119
X50.62Y85.052
X50.645Y84.982
X50.688Y84.841
X50.705Y84.77
X50.716Y84.698
X50.731Y84.551
X50.734Y84.478
X50.731Y84.404
X50.716Y84.257
X50.705Y84.185
X50.687Y84.113
X50.645Y83.972
X50.62Y83.903
X50.589Y83.837
X50.519Y83.707
X50.481Y83.644
X50.437Y83.584
X50.344Y83.471
X50.295Y83.416
X50.24Y83.367
X50.126Y83.273
X50.067Y83.229
X50.004Y83.192
X49.874Y83.122
X49.807Y83.091
X49.738Y83.066
X49.597Y83.023
X49.526Y83.005
X49.453Y82.995
X49.307Y82.98
X49.233Y82.977
Z-8.5F75
X49.16Y82.98F150
X49.013Y82.995
X48.94Y83.005
X48.869Y83.023
X48.728Y83.066
X48.659Y83.091
X48.592Y83.122
X48.462Y83.192
X48.399Y83.23
X48.341Y83.273
X48.227Y83.366
X48.172Y83.416
X48.122Y83.471
X48.029Y83.585
X47.985Y83.644
X47.947Y83.707
X47.878Y83.836
X47.847Y83.903
X47.822Y83.972
X47.779Y84.113
X47.761Y84.185
X47.75Y84.258
X47.736Y84.404
X47.732Y84.477
X47.736Y84.551
X47.75Y84.697
X47.761Y84.77
X47.779Y84.842
X47.822Y84.983
X47.847Y85.052
X47.878Y85.119
X47.947Y85.248
X47.985Y85.311
X48.029Y85.37
X48.122Y85.484
X48.172Y85.539
X48.226Y85.588
X48.34Y85.682
X48.399Y85.725
X48.462Y85.763
X48.592Y85.833
X48.659Y85.864
X48.728Y85.889
X48.869Y85.932
X48.94Y85.95
X49.013Y85.96
X49.159Y85.975
X49.233Y85.979
X49.307Y85.975
X49.453Y85.96
X49.526Y85.95
X49.597Y85.932
X49.738Y85.889
X49.808Y85.864
X49.874Y85.833
X50.004Y85.763
X50.067Y85.726
X50.126Y85.682
X50.24Y85.589
X50.294Y85.539
X50.344Y85.484
X50.437Y85.37
X50.481Y85.311
X50.519Y85.248
X50.588Y85.119
X50.62Y85.052
X50.645Y84.982
X50.688Y84.841
X50.705Y84.77
X50.716Y84.698
X50.731Y84.551
X50.734Y84.478
X50.731Y84.404
X50.716Y84.257
X50.705Y84.185
X50.687Y84.113
X50.645Y83.972
X50.62Y83.903
X50.589Y83.837
X50.519Y83.707
X50.481Y83.644
X50.437Y83.584
X50.344Y83.471
X50.295Y83.416
X50.24Y83.367
X50.126Y83.273
X50.067Y83.229
X50.004Y83.192
X49.874Y83.122
X49.807Y83.091
X49.738Y83.066
X49.597Y83.023
X49.526Y83.005
X49.453Y82.995
X49.307Y82.98
X49.233Y82.977
G0Z2
 
