(Created with grbl post processor 2023/10/19 00:16)
G21
(G-code generated with BlenderCAM and NC library)
G17G90
(Tool: D = 3.0 mm  type END flutes 2)
S12000M03
G00 Z2.0

G0X0Y0Z2
X0.498Y0.499
G1Z-1.49F200
X0.553Y0.499F400
X0.498Y0.554
X0.498Y0.499
G0Z2
X146.947Y0.499
G1Z-1.49F200
X147.002Y0.499F400
X147.002Y0.554
X146.947Y0.499
X146.259Y1.224
X146.215Y1.182
X146.17Y1.14
X146.124Y1.1
X146.076Y1.061
X146.028Y1.023
X145.979Y0.986
X145.929Y0.95
X145.879Y0.915
X145.827Y0.882
X145.775Y0.85
X145.721Y0.82
X145.668Y0.79
X145.613Y0.762
X145.558Y0.736
X145.502Y0.71
X145.445Y0.687
X145.388Y0.664
X145.331Y0.643
X145.272Y0.623
X145.214Y0.605
X145.155Y0.588
X145.095Y0.573
X145.036Y0.559
X144.976Y0.547
X144.915Y0.536
X144.855Y0.526
X144.794Y0.518
X144.733Y0.512
X144.672Y0.507
X144.61Y0.503
X144.549Y0.501
X144.5Y0.501
X111.224Y0.5
X2.988Y0.501
X2.926Y0.502
X2.865Y0.505
X2.804Y0.509
X2.743Y0.514
X2.682Y0.521
X2.621Y0.53
X2.56Y0.54
X2.5Y0.551
X2.44Y0.564
X2.381Y0.579
X2.321Y0.595
X2.262Y0.612
X2.204Y0.631
X2.146Y0.651
X2.089Y0.673
X2.032Y0.696
X1.976Y0.72
X1.92Y0.746
X1.865Y0.773
X1.811Y0.802
X1.757Y0.832
X1.704Y0.863
X1.652Y0.895
X1.601Y0.929
X1.55Y0.964
X1.501Y1
X1.452Y1.038
X1.404Y1.076
X1.358Y1.116
X1.312Y1.157
X1.267Y1.199
X1.224Y1.242
X1.181Y1.286
X1.139Y1.331
X1.099Y1.377
X1.06Y1.424
X1.022Y1.473
X0.985Y1.522
X0.949Y1.571
X0.914Y1.622
X0.881Y1.674
X0.849Y1.726
X0.819Y1.779
X0.789Y1.833
X0.761Y1.888
X0.735Y1.943
X0.709Y1.999
X0.686Y2.056
X0.663Y2.113
X0.642Y2.17
X0.622Y2.228
X0.604Y2.287
X0.587Y2.346
X0.572Y2.405
X0.558Y2.465
X0.546Y2.525
X0.535Y2.586
X0.525Y2.646
X0.517Y2.707
X0.511Y2.768
X0.506Y2.829
X0.502Y2.891
X0.5Y2.952
X0.5Y3.001
X0.5Y73.539
X0.501Y73.6
X0.503Y73.649
X0.57Y75.009
X0.574Y75.07
X0.579Y75.131
X0.586Y75.192
X0.593Y75.241
X0.782Y76.514
X0.792Y76.575
X0.804Y76.635
X0.817Y76.695
X0.828Y76.743
X1.141Y77.992
X1.157Y78.051
X1.174Y78.11
X1.193Y78.168
X1.209Y78.215
X1.643Y79.427
X1.665Y79.485
X1.688Y79.541
X1.712Y79.598
X1.733Y79.642
X2.283Y80.806
X2.311Y80.861
X2.339Y80.916
X2.369Y80.969
X2.394Y81.012
X3.056Y82.116
X3.088Y82.168
X3.122Y82.219
X3.157Y82.27
X3.186Y82.31
X3.953Y83.344
X3.99Y83.392
X4.029Y83.44
X4.069Y83.487
X4.101Y83.524
X4.966Y84.478
X5.008Y84.522
X5.051Y84.566
X5.095Y84.609
X5.131Y84.642
X6.085Y85.507
X6.131Y85.547
X6.179Y85.586
X6.227Y85.625
X6.266Y85.654
X7.3Y86.421
X7.35Y86.457
X7.401Y86.491
X7.452Y86.525
X7.494Y86.55
X8.599Y87.212
X8.652Y87.243
X8.706Y87.272
X8.76Y87.3
X8.805Y87.322
X9.969Y87.872
X10.025Y87.897
X10.081Y87.921
X10.138Y87.944
X10.184Y87.961
X11.397Y88.395
X11.455Y88.414
X11.513Y88.432
X11.572Y88.449
X11.62Y88.462
X12.869Y88.775
X12.929Y88.788
X12.989Y88.801
X13.049Y88.812
X13.098Y88.82
X14.371Y89.008
X14.432Y89.016
X14.493Y89.023
X14.554Y89.028
X14.603Y89.031
X15.963Y89.097
X16.024Y89.099
X16.074Y89.1
X89.869Y89.1
X89.895Y89.157
X89.921Y89.212
X89.949Y89.267
X89.979Y89.32
X90.009Y89.374
X90.041Y89.426
X90.074Y89.478
X90.109Y89.528
X90.145Y89.578
X90.181Y89.627
X90.22Y89.675
X90.259Y89.723
X90.299Y89.769
X90.341Y89.814
X90.383Y89.858
X90.427Y89.901
X90.472Y89.943
X90.518Y89.984
X90.564Y90.024
X90.612Y90.062
X90.664Y90.102
X16.03Y90.102
X15.944Y90.1
X14.468Y90.027
X14.297Y90.01
X12.865Y89.798
X12.697Y89.764
X11.292Y89.413
X11.128Y89.363
X9.765Y88.875
X9.607Y88.809
X8.298Y88.19
X8.146Y88.109
X6.905Y87.365
X6.762Y87.27
X5.599Y86.407
X5.467Y86.299
X4.394Y85.326
X4.273Y85.205
X3.301Y84.132
X3.192Y84
X2.329Y82.837
X2.234Y82.694
X1.49Y81.453
X1.409Y81.301
X0.79Y79.992
X0.724Y79.834
X0.237Y78.471
X0.187Y78.307
X-0.164Y76.902
X-0.197Y76.734
X-0.41Y75.302
X-0.426Y75.131
X-0.499Y73.655
X-0.501Y73.569
X-0.501Y0.061
X-0.496Y-0.048
X-0.489Y-0.096
X-0.477Y-0.144
X-0.46Y-0.19
X-0.439Y-0.234
X-0.414Y-0.276
X-0.385Y-0.315
X-0.352Y-0.351
X-0.316Y-0.384
X-0.277Y-0.413
X-0.235Y-0.438
X-0.191Y-0.459
X-0.144Y-0.476
X-0.097Y-0.487
X-0.049Y-0.495
X0.061Y-0.5
X111.224Y-0.501
X147.44Y-0.5
X147.55Y-0.495
X147.598Y-0.487
X147.646Y-0.476
X147.692Y-0.459
X147.736Y-0.438
X147.778Y-0.413
X147.817Y-0.384
X147.853Y-0.351
X147.886Y-0.315
X147.915Y-0.276
X147.94Y-0.234
X147.961Y-0.19
X147.977Y-0.144
X147.989Y-0.096
X147.997Y-0.048
X148.002Y0.062
Y18.511
X147.944Y18.486
X147.887Y18.464
X147.829Y18.443
X147.771Y18.423
X147.712Y18.405
X147.653Y18.388
X147.594Y18.373
X147.534Y18.359
X147.474Y18.346
X147.414Y18.335
X147.353Y18.326
X147.292Y18.318
X147.231Y18.311
X147.17Y18.306
X147.109Y18.303
X147.048Y18.301
X147Y18.301
X147Y2.989
X146.999Y2.927
X146.996Y2.866
X146.992Y2.805
X146.987Y2.744
X146.98Y2.683
X146.971Y2.622
X146.961Y2.561
X146.949Y2.501
X146.936Y2.441
X146.922Y2.382
X146.906Y2.322
X146.889Y2.263
X146.87Y2.205
X146.85Y2.147
X146.828Y2.09
X146.805Y2.033
X146.78Y1.977
X146.755Y1.921
X146.727Y1.866
X146.699Y1.812
X146.669Y1.758
X146.638Y1.705
X146.605Y1.653
X146.572Y1.602
X146.537Y1.551
X146.501Y1.502
X146.463Y1.453
X146.425Y1.405
X146.385Y1.359
X146.344Y1.313
X146.302Y1.268
X146.259Y1.224
G0Z2
X112.091Y89.1
G1Z-1.49F200
X112.117Y89.157F400
X112.144Y89.212
X112.172Y89.267
X112.201Y89.32
X112.231Y89.374
X112.263Y89.426
X112.297Y89.478
X112.331Y89.528
X112.367Y89.578
X112.404Y89.627
X112.442Y89.675
X112.481Y89.723
X112.521Y89.769
X112.563Y89.814
X112.606Y89.858
X112.649Y89.901
X112.694Y89.943
X112.74Y89.984
X112.787Y90.024
X112.834Y90.062
X112.886Y90.102
X104.707
X104.739Y90.077
X104.788Y90.039
X104.835Y90
X104.881Y89.959
X104.926Y89.918
X104.97Y89.875
X105.013Y89.832
X105.055Y89.787
X105.096Y89.741
X105.136Y89.694
X105.174Y89.647
X105.212Y89.598
X105.248Y89.548
X105.283Y89.498
X105.317Y89.447
X105.349Y89.395
X105.38Y89.342
X105.41Y89.288
X105.439Y89.234
X105.466Y89.179
X105.492Y89.123
X105.502Y89.1
X112.091
X113.011Y88.707
X113.026Y88.74
X113.042Y88.773
X113.059Y88.806
X113.077Y88.838
X113.095Y88.87
X113.115Y88.901
X113.135Y88.932
X113.156Y88.963
X113.177Y88.992
X113.2Y89.022
X113.223Y89.051
X113.246Y89.079
X113.271Y89.106
X113.296Y89.133
X113.321Y89.16
X113.348Y89.185
X113.375Y89.21
X113.402Y89.235
X113.43Y89.258
X113.459Y89.281
X113.488Y89.304
X113.518Y89.325
X113.549Y89.346
X113.58Y89.366
X113.611Y89.386
X113.643Y89.404
X113.675Y89.422
X113.708Y89.439
X113.741Y89.455
X113.774Y89.47
X113.808Y89.485
X113.842Y89.498
X113.877Y89.511
X113.912Y89.523
X113.947Y89.534
X113.982Y89.545
X114.018Y89.554
X114.053Y89.562
X114.089Y89.57
X114.126Y89.577
X114.162Y89.583
X114.198Y89.588
X114.235Y89.592
X114.272Y89.595
X114.308Y89.597
X114.345Y89.598
X114.382Y89.599
X124.083
X124.114Y89.633
X124.14Y89.659
X124.166Y89.685
X124.193Y89.71
X124.221Y89.734
X124.249Y89.758
X124.278Y89.781
X124.307Y89.803
X124.337Y89.825
X124.367Y89.846
X124.398Y89.866
X124.429Y89.885
X124.461Y89.904
X124.493Y89.921
X124.526Y89.938
X124.559Y89.954
X124.593Y89.97
X124.626Y89.984
X124.661Y89.998
X124.695Y90.011
X124.73Y90.023
X124.765Y90.034
X124.8Y90.044
X124.836Y90.054
X124.872Y90.062
X124.908Y90.07
X124.944Y90.076
X124.98Y90.082
X125.017Y90.087
X125.053Y90.091
X125.09Y90.094
X125.127Y90.097
X125.164Y90.098
X125.201Y90.099
X146.999
X147.035Y90.098
X147.072Y90.097
X147.109Y90.094
X147.146Y90.091
X147.182Y90.087
X147.219Y90.082
X147.255Y90.076
X147.291Y90.07
X147.327Y90.062
X147.363Y90.054
X147.399Y90.044
X147.434Y90.034
X147.469Y90.023
X147.504Y90.011
X147.538Y89.998
X147.573Y89.984
X147.606Y89.97
X147.64Y89.954
X147.673Y89.938
X147.706Y89.921
X147.738Y89.904
X147.77Y89.885
X147.801Y89.866
X147.832Y89.846
X147.862Y89.825
X147.892Y89.803
X147.921Y89.781
X147.95Y89.758
X147.978Y89.734
X148.006Y89.71
X148.033Y89.685
X148.059Y89.659
X148.085Y89.633
X148.11Y89.606
X148.134Y89.578
X148.158Y89.55
X148.181Y89.521
X148.203Y89.492
X148.225Y89.462
X148.246Y89.432
X148.266Y89.401
X148.285Y89.37
X148.304Y89.338
X148.321Y89.306
X148.338Y89.273
X148.354Y89.24
X148.37Y89.206
X148.384Y89.173
X148.398Y89.138
X148.411Y89.104
X148.423Y89.069
X148.434Y89.034
X148.444Y88.999
X148.454Y88.963
X148.462Y88.927
X148.47Y88.891
X148.476Y88.855
X148.482Y88.819
X148.487Y88.782
X148.491Y88.746
X148.494Y88.709
X148.497Y88.672
X148.498Y88.635
X148.499Y88.599
Y20.801
X148.498Y20.764
X148.497Y20.727
X148.494Y20.69
X148.491Y20.653
X148.487Y20.617
X148.482Y20.58
X148.476Y20.544
X148.47Y20.508
X148.462Y20.472
X148.454Y20.436
X148.444Y20.4
X148.434Y20.365
X148.423Y20.33
X148.411Y20.295
X148.398Y20.261
X148.384Y20.226
X148.37Y20.193
X148.354Y20.159
X148.338Y20.126
X148.321Y20.093
X148.304Y20.061
X148.285Y20.029
X148.266Y19.998
X148.246Y19.967
X148.225Y19.937
X148.203Y19.907
X148.181Y19.878
X148.158Y19.849
X148.134Y19.821
X148.11Y19.793
X148.085Y19.766
X148.059Y19.74
X148.033Y19.714
X148.006Y19.689
X147.978Y19.665
X147.95Y19.641
X147.921Y19.618
X147.892Y19.596
X147.862Y19.574
X147.832Y19.553
X147.801Y19.533
X147.77Y19.514
X147.738Y19.495
X147.706Y19.478
X147.673Y19.461
X147.64Y19.445
X147.606Y19.429
X147.573Y19.415
X147.538Y19.401
X147.504Y19.388
X147.469Y19.376
X147.434Y19.365
X147.399Y19.355
X147.363Y19.345
X147.327Y19.337
X147.291Y19.329
X147.255Y19.323
X147.219Y19.317
X147.182Y19.312
X147.146Y19.308
X147.109Y19.305
X147.072Y19.302
X147.035Y19.301
X146.999Y19.301
X146Y19.301
Y3.001
X145.999Y2.964
X145.998Y2.927
X145.996Y2.891
X145.993Y2.854
X145.989Y2.817
X145.984Y2.781
X145.978Y2.744
X145.971Y2.708
X145.963Y2.672
X145.955Y2.636
X145.946Y2.601
X145.935Y2.565
X145.924Y2.53
X145.912Y2.496
X145.899Y2.461
X145.886Y2.427
X145.871Y2.393
X145.856Y2.36
X145.84Y2.326
X145.823Y2.294
X145.805Y2.262
X145.787Y2.23
X145.767Y2.198
X145.747Y2.168
X145.726Y2.137
X145.705Y2.107
X145.682Y2.078
X145.659Y2.049
X145.636Y2.021
X145.611Y1.994
X145.586Y1.967
X145.561Y1.94
X145.534Y1.914
X145.507Y1.889
X145.48Y1.865
X145.452Y1.841
X145.423Y1.818
X145.393Y1.796
X145.364Y1.774
X145.333Y1.754
X145.302Y1.734
X145.271Y1.714
X145.239Y1.696
X145.207Y1.678
X145.174Y1.661
X145.141Y1.645
X145.108Y1.63
X145.074Y1.615
X145.04Y1.601
X145.005Y1.589
X144.97Y1.577
X144.935Y1.565
X144.9Y1.555
X144.864Y1.546
X144.829Y1.537
X144.793Y1.53
X144.756Y1.523
X144.72Y1.517
X144.684Y1.512
X144.647Y1.508
X144.61Y1.505
X144.574Y1.503
X144.537Y1.501
X144.5Y1.501
X111.224Y1.5
X3Y1.501
X2.963Y1.501
X2.926Y1.503
X2.89Y1.505
X2.853Y1.508
X2.816Y1.512
X2.78Y1.517
X2.743Y1.523
X2.707Y1.53
X2.671Y1.537
X2.635Y1.546
X2.6Y1.555
X2.564Y1.566
X2.529Y1.577
X2.495Y1.589
X2.46Y1.601
X2.426Y1.615
X2.392Y1.63
X2.359Y1.645
X2.325Y1.661
X2.293Y1.678
X2.261Y1.696
X2.229Y1.714
X2.197Y1.734
X2.167Y1.754
X2.136Y1.775
X2.106Y1.796
X2.077Y1.818
X2.048Y1.841
X2.02Y1.865
X1.993Y1.889
X1.966Y1.915
X1.939Y1.94
X1.914Y1.967
X1.888Y1.994
X1.864Y2.021
X1.84Y2.049
X1.817Y2.078
X1.795Y2.107
X1.774Y2.137
X1.753Y2.168
X1.733Y2.198
X1.713Y2.23
X1.695Y2.262
X1.677Y2.294
X1.66Y2.326
X1.644Y2.36
X1.629Y2.393
X1.614Y2.427
X1.6Y2.461
X1.588Y2.496
X1.576Y2.53
X1.565Y2.565
X1.554Y2.601
X1.545Y2.636
X1.536Y2.672
X1.529Y2.708
X1.522Y2.744
X1.516Y2.781
X1.511Y2.817
X1.507Y2.854
X1.504Y2.891
X1.502Y2.927
X1.5Y2.964
X1.5Y3.001
X1.5Y73.526
X1.5Y73.563
X1.502Y73.6
X1.568Y74.947
X1.57Y74.984
X1.573Y75.021
X1.577Y75.057
X1.582Y75.094
X1.769Y76.356
X1.775Y76.392
X1.782Y76.428
X1.79Y76.464
X1.798Y76.5
X2.108Y77.737
X2.117Y77.773
X2.128Y77.808
X2.139Y77.843
X2.151Y77.878
X2.58Y79.079
X2.593Y79.113
X2.607Y79.147
X2.621Y79.181
X2.637Y79.215
X3.182Y80.368
X3.198Y80.401
X3.215Y80.433
X3.233Y80.466
X3.252Y80.498
X3.907Y81.591
X3.927Y81.623
X3.947Y81.654
X3.967Y81.684
X3.989Y81.714
X4.749Y82.738
X4.771Y82.768
X4.794Y82.796
X4.818Y82.824
X4.842Y82.852
X5.699Y83.797
X5.724Y83.824
X5.749Y83.85
X5.776Y83.876
X5.803Y83.901
X6.748Y84.758
X6.775Y84.782
X6.803Y84.806
X6.832Y84.829
X6.862Y84.851
X7.886Y85.611
X7.916Y85.632
X7.946Y85.653
X7.977Y85.673
X8.008Y85.693
X9.102Y86.348
X9.134Y86.367
X9.166Y86.385
X9.199Y86.402
X9.232Y86.418
X10.385Y86.963
X10.419Y86.978
X10.452Y86.993
X10.487Y87.007
X10.521Y87.019
X11.722Y87.449
X11.757Y87.461
X11.792Y87.472
X11.827Y87.482
X11.863Y87.492
X13.1Y87.802
X13.136Y87.81
X13.172Y87.818
X13.208Y87.824
X13.244Y87.83
X14.506Y88.017
X14.542Y88.022
X14.579Y88.026
X14.616Y88.03
X14.652Y88.032
X16Y88.098
X16.037Y88.099
X16.074Y88.1
X90.66Y88.1
X90.66Y88.136
X90.662Y88.173
X90.664Y88.209
X90.667Y88.246
X90.671Y88.283
X90.676Y88.319
X90.682Y88.355
X90.689Y88.392
X90.696Y88.428
X90.705Y88.463
X90.714Y88.499
X90.724Y88.534
X90.736Y88.569
X90.747Y88.604
X90.76Y88.639
X90.774Y88.673
X90.788Y88.707
X90.804Y88.74
X90.82Y88.773
X90.837Y88.806
X90.855Y88.838
X90.873Y88.87
X90.893Y88.901
X90.913Y88.932
X90.933Y88.963
X90.955Y88.992
X90.977Y89.022
X91Y89.051
X91.024Y89.079
X91.048Y89.106
X91.073Y89.133
X91.099Y89.16
X91.125Y89.185
X91.152Y89.21
X91.18Y89.235
X91.208Y89.258
X91.237Y89.281
X91.266Y89.304
X91.296Y89.325
X91.326Y89.346
X91.357Y89.366
X91.389Y89.386
X91.42Y89.404
X91.453Y89.422
X91.485Y89.439
X91.518Y89.455
X91.552Y89.47
X91.586Y89.485
X91.62Y89.498
X91.654Y89.511
X91.689Y89.523
X91.724Y89.534
X91.76Y89.545
X91.795Y89.554
X91.831Y89.562
X91.867Y89.57
X91.903Y89.577
X91.94Y89.583
X91.976Y89.588
X92.013Y89.592
X92.049Y89.595
X92.086Y89.597
X92.123Y89.598
X92.16Y89.599
X103.211
X103.248Y89.598
X103.285Y89.597
X103.321Y89.595
X103.358Y89.592
X103.395Y89.588
X103.431Y89.583
X103.468Y89.577
X103.504Y89.57
X103.54Y89.562
X103.576Y89.554
X103.611Y89.545
X103.646Y89.534
X103.682Y89.523
X103.716Y89.511
X103.751Y89.498
X103.785Y89.485
X103.819Y89.47
X103.852Y89.455
X103.885Y89.439
X103.918Y89.422
X103.95Y89.404
X103.982Y89.386
X104.014Y89.366
X104.044Y89.346
X104.075Y89.325
X104.105Y89.304
X104.134Y89.281
X104.163Y89.258
X104.191Y89.235
X104.218Y89.21
X104.245Y89.185
X104.272Y89.16
X104.297Y89.133
X104.322Y89.106
X104.347Y89.079
X104.371Y89.051
X104.394Y89.022
X104.416Y88.992
X104.437Y88.963
X104.458Y88.932
X104.478Y88.901
X104.498Y88.87
X104.516Y88.838
X104.534Y88.806
X104.551Y88.773
X104.567Y88.74
X104.582Y88.707
X104.597Y88.673
X104.611Y88.639
X104.623Y88.604
X104.635Y88.569
X104.646Y88.534
X104.657Y88.499
X104.666Y88.463
X104.675Y88.428
X104.682Y88.392
X104.689Y88.355
X104.695Y88.319
X104.7Y88.283
X104.704Y88.246
X104.707Y88.209
X104.709Y88.173
X104.711Y88.136
X104.711Y88.1
X112.882
X112.882Y88.136
X112.884Y88.173
X112.886Y88.209
X112.889Y88.246
X112.893Y88.283
X112.898Y88.319
X112.904Y88.355
X112.911Y88.392
X112.918Y88.428
X112.927Y88.463
X112.936Y88.499
X112.947Y88.534
X112.958Y88.569
X112.97Y88.604
X112.983Y88.639
X112.996Y88.673
X113.011Y88.707
G0Z2
X147.463Y91.102
G1Z-1.49F200
X16.018Y91.102F400
X15.907Y91.099
X14.394Y91.025
X14.174Y91.003
X12.694Y90.784
X12.477Y90.74
X11.026Y90.377
X10.814Y90.313
X9.405Y89.808
X9.201Y89.724
X7.848Y89.084
X7.653Y88.98
X6.37Y88.21
X6.186Y88.088
X4.984Y87.196
X4.813Y87.056
X3.704Y86.051
X3.548Y85.895
X2.543Y84.786
X2.403Y84.615
X1.512Y83.413
X1.389Y83.229
X0.62Y81.946
X0.516Y81.751
X-0.123Y80.398
X-0.208Y80.194
X-0.712Y78.785
X-0.776Y78.573
X-1.14Y77.122
X-1.183Y76.905
X-1.402Y75.425
X-1.424Y75.205
X-1.498Y73.692
X-1.501Y73.581
X-1.501Y0.037
X-1.492Y-0.146
X-1.47Y-0.292
X-1.435Y-0.434
X-1.385Y-0.573
X-1.322Y-0.706
X-1.247Y-0.832
X-1.159Y-0.95
X-1.06Y-1.059
X-0.951Y-1.158
X-0.833Y-1.246
X-0.707Y-1.321
X-0.574Y-1.384
X-0.435Y-1.434
X-0.293Y-1.469
X-0.147Y-1.491
X0.036Y-1.5
X111.224Y-1.501
X147.464Y-1.5
X147.648Y-1.491
X147.794Y-1.469
X147.936Y-1.434
X148.075Y-1.384
X148.208Y-1.321
X148.334Y-1.245
X148.452Y-1.158
X148.561Y-1.059
X148.66Y-0.95
X148.748Y-0.832
X148.823Y-0.706
X148.886Y-0.573
X148.936Y-0.434
X148.971Y-0.291
X148.993Y-0.146
X149.002Y0.037
Y20.782
X149.001Y89.564
X148.992Y89.748
X148.97Y89.894
X148.934Y90.036
X148.885Y90.175
X148.822Y90.308
X148.746Y90.434
X148.659Y90.552
X148.56Y90.661
X148.451Y90.76
X148.333Y90.848
X148.206Y90.923
X148.073Y90.986
X147.935Y91.036
X147.792Y91.071
X147.647Y91.093
X147.463Y91.102
G0Z2
(Tool: D = 3.0 mm  type END flutes 2)
S12000M03
G00 Z2.0

X-0.832Y-1.248
G1Z-2.5F200
X-0.863Y-1.226F400
X-0.893Y-1.205
X-0.923Y-1.182
X-0.952Y-1.159
X-0.98Y-1.135
X-1.008Y-1.11
X-1.035Y-1.085
X-1.062Y-1.059
X-1.088Y-1.032
X-1.113Y-1.005
X-1.138Y-0.977
X-1.162Y-0.948
X-1.185Y-0.919
X-1.208Y-0.889
X-1.229Y-0.859
X-1.25Y-0.828
X-1.271Y-0.797
X-1.29Y-0.765
X-1.309Y-0.733
X-1.326Y-0.7
X-1.343Y-0.667
X-1.36Y-0.633
X-1.375Y-0.599
X-1.389Y-0.565
X-1.403Y-0.53
X-1.416Y-0.495
X-1.428Y-0.46
X-1.439Y-0.424
X-1.449Y-0.388
X-1.458Y-0.352
X-1.466Y-0.315
X-1.473Y-0.281
X-1.48Y-0.246
X-1.485Y-0.211
X-1.49Y-0.176
X-1.493Y-0.14
X-1.496Y-0.105
X-1.498Y-0.07
X-1.5Y-0.034
X-1.5Y0
Y73.6
X-1.5Y73.637
X-1.498Y73.674
X-1.421Y75.242
X-1.419Y75.283
X-1.415Y75.318
X-1.412Y75.354
X-1.407Y75.388
X-1.176Y76.942
X-1.171Y76.978
X-1.164Y77.014
X-1.156Y77.05
X-1.148Y77.086
X-0.766Y78.609
X-0.757Y78.645
X-0.746Y78.68
X-0.735Y78.715
X-0.723Y78.75
X-0.194Y80.229
X-0.181Y80.264
X-0.167Y80.3
X-0.153Y80.333
X-0.138Y80.365
X0.532Y81.784
X0.546Y81.813
X0.561Y81.842
X0.577Y81.87
X0.602Y81.914
X1.409Y83.261
X1.43Y83.295
X1.45Y83.325
X1.47Y83.354
X1.491Y83.383
X2.426Y84.644
X2.46Y84.688
X2.479Y84.712
X2.499Y84.735
X2.52Y84.758
X3.574Y85.922
X3.599Y85.949
X3.625Y85.975
X3.651Y86.001
X3.678Y86.026
X4.846Y87.084
X4.872Y87.107
X4.9Y87.13
X4.927Y87.152
X4.956Y87.174
X6.217Y88.109
X6.245Y88.129
X6.273Y88.149
X6.302Y88.168
X6.339Y88.191
X7.686Y88.998
X7.718Y89.017
X7.75Y89.034
X7.783Y89.051
X7.816Y89.068
X9.235Y89.739
X9.268Y89.754
X9.301Y89.768
X9.334Y89.782
X9.371Y89.795
X10.85Y90.324
X10.881Y90.335
X10.916Y90.346
X10.952Y90.357
X10.991Y90.367
X12.514Y90.748
X12.541Y90.755
X12.58Y90.763
X12.619Y90.771
X12.658Y90.777
X14.211Y91.008
X14.246Y91.012
X14.281Y91.016
X14.317Y91.019
X14.358Y91.022
X15.926Y91.099
X15.963Y91.1
X16Y91.101
X147.5Y91.101
X147.536Y91.1
X147.571Y91.099
X147.607Y91.097
X147.642Y91.094
X147.678Y91.09
X147.713Y91.086
X147.748Y91.08
X147.784Y91.074
X147.82Y91.066
X147.856Y91.058
X147.892Y91.049
X147.928Y91.039
X147.964Y91.027
X147.999Y91.016
X148.034Y91.003
X148.068Y90.989
X148.103Y90.975
X148.137Y90.959
X148.17Y90.943
X148.203Y90.926
X148.236Y90.908
X148.268Y90.889
X148.3Y90.87
X148.331Y90.85
X148.362Y90.829
X148.392Y90.807
X148.422Y90.785
X148.451Y90.761
X148.479Y90.737
X148.507Y90.713
X148.534Y90.687
X148.562Y90.661
X148.587Y90.634
X148.613Y90.607
X148.637Y90.58
X148.661Y90.551
X148.684Y90.522
X148.706Y90.493
X148.728Y90.463
X148.749Y90.433
X148.769Y90.402
X148.788Y90.37
X148.807Y90.338
X148.825Y90.306
X148.842Y90.273
X148.858Y90.239
X148.873Y90.206
X148.888Y90.172
X148.901Y90.137
X148.914Y90.103
X148.926Y90.068
X148.937Y90.032
X148.947Y89.997
X148.957Y89.961
X148.965Y89.925
X148.973Y89.889
X148.979Y89.853
X148.985Y89.817
X148.99Y89.781
X148.994Y89.745
X148.997Y89.709
X148.999Y89.673
X149.001Y89.636
X149.001Y89.6
X149.001Y0
X149Y-0.038
X148.999Y-0.076
X148.997Y-0.114
X148.993Y-0.153
X148.989Y-0.191
X148.984Y-0.226
X148.978Y-0.26
X148.972Y-0.295
X148.964Y-0.329
X148.956Y-0.363
X148.947Y-0.397
X148.938Y-0.43
X148.928Y-0.462
X148.917Y-0.494
X148.906Y-0.525
X148.894Y-0.557
X148.88Y-0.589
X148.866Y-0.62
X148.852Y-0.652
X148.836Y-0.683
X148.82Y-0.713
X148.803Y-0.744
X148.785Y-0.775
X148.765Y-0.807
X148.745Y-0.837
X148.724Y-0.867
X148.703Y-0.897
X148.68Y-0.926
X148.657Y-0.955
X148.634Y-0.983
X148.609Y-1.01
X148.584Y-1.037
X148.559Y-1.063
X148.532Y-1.089
X148.505Y-1.114
X148.478Y-1.138
X148.449Y-1.162
X148.421Y-1.185
X148.391Y-1.207
X148.362Y-1.228
X148.332Y-1.249
X148.301Y-1.269
X148.27Y-1.288
X148.238Y-1.306
X148.206Y-1.324
X148.174Y-1.34
X148.141Y-1.356
X148.108Y-1.372
X148.074Y-1.386
X148.04Y-1.4
X148.006Y-1.412
X147.971Y-1.424
X147.936Y-1.435
X147.901Y-1.445
X147.866Y-1.455
X147.83Y-1.463
X147.794Y-1.471
X147.758Y-1.478
X147.721Y-1.484
X147.685Y-1.489
X147.648Y-1.493
X147.611Y-1.496
X147.574Y-1.498
X147.537Y-1.5
X147.5Y-1.5
X0
X-0.036Y-1.5
X-0.073Y-1.498
X-0.109Y-1.496
X-0.146Y-1.493
X-0.182Y-1.489
X-0.219Y-1.484
X-0.255Y-1.478
X-0.291Y-1.471
X-0.327Y-1.464
X-0.363Y-1.455
X-0.398Y-1.446
X-0.434Y-1.436
X-0.469Y-1.425
X-0.504Y-1.413
X-0.538Y-1.4
X-0.572Y-1.386
X-0.606Y-1.372
X-0.639Y-1.357
X-0.672Y-1.34
X-0.705Y-1.324
X-0.737Y-1.306
X-0.769Y-1.287
X-0.8Y-1.268
X-0.832Y-1.248
G0Z2
 
