(Created with grbl post processor 2023/10/20 22:31)
G21
(G-code generated with BlenderCAM and NC library)
G17G90
(Tool: D = 1.5 mm  type END flutes 2)
S12000M03
G00 Z2.0

G0X0Y0Z2
X7.897Y5.142
G1Z-3.3F100
X7.927Y5.105F200
X7.963Y5.076
X8.005Y5.053
X8.049Y5.04
X8.097Y5.035
X8.143Y5.04
X8.188Y5.053
X8.23Y5.076
X8.266Y5.106
X8.296Y5.142
X8.318Y5.183
X8.332Y5.228
X8.337Y5.275
X8.332Y5.322
X8.318Y5.367
X8.296Y5.409
X8.266Y5.445
X8.23Y5.475
X8.188Y5.497
X8.144Y5.511
X8.096Y5.515
X8.05Y5.511
X8.005Y5.497
X7.963Y5.475
X7.927Y5.445
X7.897Y5.409
X7.875Y5.367
X7.861Y5.322
X7.856Y5.275
X7.861Y5.228
X7.875Y5.183
X7.897Y5.142
X7.479Y4.863
X7.572Y4.75
X7.684Y4.658
X7.812Y4.589
X7.952Y4.547
X8.097Y4.533
X8.241Y4.547
X8.381Y4.589
X8.509Y4.658
X8.622Y4.75
X8.714Y4.863
X8.783Y4.991
X8.825Y5.13
X8.839Y5.276
X8.825Y5.42
X8.783Y5.559
X8.714Y5.688
X8.621Y5.8
X8.509Y5.893
X8.381Y5.961
X8.241Y6.003
X8.096Y6.018
X7.952Y6.004
X7.812Y5.961
X7.684Y5.893
X7.571Y5.8
X7.479Y5.688
X7.411Y5.559
X7.368Y5.42
X7.354Y5.275
X7.368Y5.13
X7.411Y4.991
X7.479Y4.863
X7.061Y4.584
X7.216Y4.395
X7.405Y4.24
X7.62Y4.125
X7.854Y4.054
X8.097Y4.03
X8.339Y4.054
X8.573Y4.125
X8.788Y4.24
X8.977Y4.395
X9.132Y4.584
X9.247Y4.799
X9.318Y5.032
X9.341Y5.276
X9.318Y5.518
X9.247Y5.752
X9.132Y5.967
X8.977Y6.156
X8.788Y6.31
X8.573Y6.425
X8.339Y6.496
X8.096Y6.52
X7.854Y6.496
X7.62Y6.425
X7.405Y6.31
X7.216Y6.155
X7.061Y5.967
X6.946Y5.752
X6.876Y5.518
X6.852Y5.275
X6.876Y5.032
X6.946Y4.799
X7.061Y4.584
X6.644Y4.304
X6.861Y4.039
X7.126Y3.822
X7.428Y3.661
X7.756Y3.561
X8.097Y3.528
X8.437Y3.561
X8.765Y3.661
X9.067Y3.822
X9.332Y4.04
X9.549Y4.305
X9.711Y4.607
X9.81Y4.934
X9.844Y5.276
X9.81Y5.616
X9.711Y5.944
X9.549Y6.246
X9.332Y6.511
X9.067Y6.728
X8.765Y6.89
X8.437Y6.989
X8.096Y7.023
X7.756Y6.989
X7.428Y6.89
X7.126Y6.728
X6.861Y6.511
X6.644Y6.246
X6.482Y5.944
X6.383Y5.616
X6.349Y5.275
X6.383Y4.934
X6.482Y4.606
X6.644Y4.304
G0Z2
X52.856Y5.275
G1Z-3.3F100
X52.861Y5.228F200
X52.875Y5.183
X52.897Y5.142
X52.927Y5.105
X52.963Y5.076
X53.005Y5.053
X53.05Y5.04
X53.097Y5.035
X53.143Y5.04
X53.188Y5.053
X53.23Y5.076
X53.266Y5.106
X53.296Y5.142
X53.318Y5.183
X53.332Y5.228
X53.337Y5.275
X53.332Y5.322
X53.318Y5.367
X53.296Y5.409
X53.266Y5.445
X53.23Y5.475
X53.188Y5.497
X53.144Y5.511
X53.096Y5.515
X53.05Y5.511
X53.005Y5.497
X52.963Y5.475
X52.927Y5.445
X52.897Y5.409
X52.875Y5.367
X52.861Y5.322
X52.856Y5.275
X52.354Y5.275
X52.368Y5.13
X52.411Y4.991
X52.479Y4.863
X52.572Y4.75
X52.684Y4.658
X52.812Y4.589
X52.952Y4.547
X53.097Y4.533
X53.241Y4.547
X53.381Y4.589
X53.509Y4.658
X53.622Y4.75
X53.714Y4.863
X53.783Y4.991
X53.825Y5.13
X53.839Y5.276
X53.825Y5.42
X53.783Y5.559
X53.714Y5.688
X53.621Y5.8
X53.509Y5.893
X53.381Y5.961
X53.241Y6.003
X53.096Y6.018
X52.952Y6.004
X52.812Y5.961
X52.684Y5.893
X52.571Y5.8
X52.479Y5.688
X52.411Y5.559
X52.368Y5.42
X52.354Y5.275
X51.852Y5.275
X51.876Y5.032
X51.946Y4.799
X52.061Y4.584
X52.216Y4.395
X52.405Y4.24
X52.62Y4.125
X52.854Y4.054
X53.097Y4.03
X53.339Y4.054
X53.573Y4.125
X53.788Y4.24
X53.977Y4.395
X54.132Y4.584
X54.247Y4.799
X54.318Y5.032
X54.341Y5.276
X54.318Y5.518
X54.247Y5.752
X54.132Y5.967
X53.977Y6.156
X53.788Y6.31
X53.573Y6.425
X53.339Y6.496
X53.096Y6.52
X52.854Y6.496
X52.62Y6.425
X52.405Y6.31
X52.216Y6.155
X52.061Y5.967
X51.946Y5.752
X51.876Y5.518
X51.852Y5.275
X51.349Y5.275
X51.383Y4.934
X51.482Y4.606
X51.644Y4.304
X51.861Y4.039
X52.126Y3.822
X52.428Y3.661
X52.756Y3.561
X53.097Y3.528
X53.437Y3.561
X53.765Y3.661
X54.067Y3.822
X54.332Y4.04
X54.549Y4.305
X54.711Y4.607
X54.81Y4.934
X54.844Y5.276
X54.81Y5.616
X54.711Y5.944
X54.549Y6.246
X54.332Y6.511
X54.067Y6.728
X53.765Y6.89
X53.437Y6.989
X53.096Y7.023
X52.756Y6.989
X52.428Y6.89
X52.126Y6.728
X51.861Y6.511
X51.644Y6.246
X51.482Y5.944
X51.383Y5.616
X51.349Y5.275
G0Z2
X53.097Y54.558
G1Z-3.3F100
X53.143Y54.562F200
X53.188Y54.576
X53.23Y54.598
X53.266Y54.628
X53.296Y54.664
X53.318Y54.706
X53.332Y54.751
X53.337Y54.798
X53.332Y54.845
X53.318Y54.89
X53.296Y54.931
X53.266Y54.968
X53.23Y54.998
X53.188Y55.02
X53.144Y55.033
X53.096Y55.038
X53.05Y55.033
X53.005Y55.02
X52.963Y54.998
X52.927Y54.968
X52.897Y54.931
X52.875Y54.89
X52.861Y54.845
X52.856Y54.798
X52.861Y54.751
X52.875Y54.706
X52.897Y54.665
X52.927Y54.628
X52.963Y54.598
X53.005Y54.576
X53.05Y54.562
X53.097Y54.558
X53.097Y54.055
X53.241Y54.07
X53.381Y54.112
X53.509Y54.18
X53.622Y54.273
X53.714Y54.385
X53.783Y54.514
X53.825Y54.653
X53.839Y54.798
X53.825Y54.943
X53.783Y55.082
X53.714Y55.21
X53.621Y55.323
X53.509Y55.415
X53.381Y55.484
X53.241Y55.526
X53.096Y55.54
X52.952Y55.526
X52.812Y55.484
X52.684Y55.415
X52.571Y55.323
X52.479Y55.21
X52.411Y55.082
X52.368Y54.943
X52.354Y54.798
X52.368Y54.653
X52.411Y54.514
X52.479Y54.385
X52.572Y54.273
X52.684Y54.18
X52.812Y54.112
X52.952Y54.07
X53.097Y54.055
X53.097Y53.553
X53.339Y53.577
X53.573Y53.648
X53.788Y53.763
X53.977Y53.918
X54.132Y54.106
X54.247Y54.322
X54.318Y54.555
X54.341Y54.798
X54.318Y55.041
X54.247Y55.274
X54.132Y55.49
X53.977Y55.678
X53.788Y55.833
X53.573Y55.948
X53.339Y56.019
X53.096Y56.043
X52.854Y56.019
X52.62Y55.948
X52.405Y55.833
X52.216Y55.678
X52.061Y55.49
X51.946Y55.274
X51.876Y55.041
X51.852Y54.798
X51.876Y54.555
X51.946Y54.321
X52.061Y54.106
X52.216Y53.917
X52.405Y53.763
X52.62Y53.648
X52.854Y53.577
X53.097Y53.553
X53.097Y53.051
X53.437Y53.084
X53.765Y53.184
X54.067Y53.345
X54.332Y53.563
X54.549Y53.827
X54.711Y54.129
X54.81Y54.457
X54.844Y54.798
X54.81Y55.139
X54.711Y55.467
X54.549Y55.769
X54.332Y56.034
X54.067Y56.251
X53.765Y56.412
X53.437Y56.512
X53.096Y56.545
X52.756Y56.512
X52.428Y56.412
X52.126Y56.251
X51.861Y56.033
X51.644Y55.769
X51.482Y55.466
X51.383Y55.139
X51.349Y54.798
X51.383Y54.457
X51.482Y54.129
X51.644Y53.827
X51.861Y53.562
X52.126Y53.345
X52.428Y53.183
X52.756Y53.084
X53.097Y53.051
G0Z2
X8.337Y54.798
G1Z-3.3F100
X8.332Y54.845F200
X8.318Y54.89
X8.296Y54.931
X8.266Y54.968
X8.23Y54.998
X8.188Y55.02
X8.144Y55.033
X8.096Y55.038
X8.05Y55.033
X8.005Y55.02
X7.963Y54.998
X7.927Y54.968
X7.897Y54.931
X7.875Y54.89
X7.861Y54.845
X7.856Y54.798
X7.861Y54.751
X7.875Y54.706
X7.897Y54.665
X7.927Y54.628
X7.963Y54.598
X8.005Y54.576
X8.05Y54.562
X8.097Y54.558
X8.143Y54.562
X8.188Y54.576
X8.23Y54.598
X8.266Y54.628
X8.296Y54.664
X8.318Y54.706
X8.332Y54.751
X8.337Y54.798
X8.839Y54.798
X8.825Y54.943
X8.783Y55.082
X8.714Y55.21
X8.621Y55.323
X8.509Y55.415
X8.381Y55.484
X8.241Y55.526
X8.096Y55.54
X7.952Y55.526
X7.812Y55.484
X7.684Y55.415
X7.571Y55.323
X7.479Y55.21
X7.411Y55.082
X7.368Y54.943
X7.354Y54.798
X7.368Y54.653
X7.411Y54.514
X7.479Y54.385
X7.572Y54.273
X7.684Y54.18
X7.812Y54.112
X7.952Y54.07
X8.097Y54.055
X8.241Y54.07
X8.381Y54.112
X8.509Y54.18
X8.622Y54.273
X8.714Y54.385
X8.783Y54.514
X8.825Y54.653
X8.839Y54.798
X9.341Y54.798
X9.318Y55.041
X9.247Y55.274
X9.132Y55.49
X8.977Y55.678
X8.788Y55.833
X8.573Y55.948
X8.339Y56.019
X8.096Y56.043
X7.854Y56.019
X7.62Y55.948
X7.405Y55.833
X7.216Y55.678
X7.061Y55.49
X6.946Y55.274
X6.876Y55.041
X6.852Y54.798
X6.876Y54.555
X6.946Y54.321
X7.061Y54.106
X7.216Y53.917
X7.405Y53.763
X7.62Y53.648
X7.854Y53.577
X8.097Y53.553
X8.339Y53.577
X8.573Y53.648
X8.788Y53.763
X8.977Y53.918
X9.132Y54.106
X9.247Y54.322
X9.318Y54.555
X9.341Y54.798
X9.844Y54.798
X9.81Y55.139
X9.711Y55.467
X9.549Y55.769
X9.332Y56.034
X9.067Y56.251
X8.765Y56.412
X8.437Y56.512
X8.096Y56.545
X7.756Y56.512
X7.428Y56.412
X7.126Y56.251
X6.861Y56.033
X6.644Y55.769
X6.482Y55.466
X6.383Y55.139
X6.349Y54.798
X6.383Y54.457
X6.482Y54.129
X6.644Y53.827
X6.861Y53.562
X7.126Y53.345
X7.428Y53.183
X7.756Y53.084
X8.097Y53.051
X8.437Y53.084
X8.765Y53.184
X9.067Y53.345
X9.332Y53.563
X9.549Y53.827
X9.711Y54.129
X9.81Y54.457
X9.844Y54.798
G0Z2
 
