(Created with grbl post processor 2023/10/20 22:31)
G21
(G-code generated with BlenderCAM and NC library)
G17G90
(Tool: D = 1.5 mm  type END flutes 2)
S12000M03
G00 Z2.0

G0X0Y0Z2
X0.253Y0.001
G1Z-5F100
X0.253Y60.11F200
X0.254Y60.137
X0.256Y60.172
X0.26Y60.206
X0.262Y60.223
X0.265Y60.242
X0.269Y60.26
X0.273Y60.279
X0.278Y60.297
X0.283Y60.315
X0.288Y60.333
X0.294Y60.351
X0.301Y60.368
X0.307Y60.386
X0.315Y60.404
X0.322Y60.421
X0.331Y60.438
X0.339Y60.455
X0.348Y60.471
X0.357Y60.488
X0.367Y60.504
X0.377Y60.519
X0.388Y60.535
X0.399Y60.55
X0.41Y60.565
X0.422Y60.58
X0.434Y60.595
X0.447Y60.609
X0.46Y60.623
X0.473Y60.636
X0.487Y60.65
X0.5Y60.662
X0.515Y60.675
X0.529Y60.687
X0.544Y60.699
X0.559Y60.71
X0.574Y60.721
X0.59Y60.732
X0.606Y60.742
X0.622Y60.752
X0.638Y60.761
X0.655Y60.77
X0.671Y60.779
X0.688Y60.787
X0.706Y60.795
X0.722Y60.801
X0.738Y60.808
X0.755Y60.814
X0.771Y60.819
X0.788Y60.824
X0.804Y60.829
X0.838Y60.838
X0.859Y60.842
X0.88Y60.846
X0.901Y60.849
X0.918Y60.851
X0.936Y60.853
X0.954Y60.855
X0.972Y60.856
X1.004Y60.856
X59.848Y60.856
X59.875Y60.856
X59.91Y60.853
X59.944Y60.849
X59.961Y60.847
X59.98Y60.844
X59.998Y60.84
X60.017Y60.836
X60.035Y60.831
X60.053Y60.826
X60.071Y60.821
X60.089Y60.815
X60.106Y60.809
X60.124Y60.802
X60.141Y60.794
X60.159Y60.787
X60.176Y60.779
X60.192Y60.77
X60.209Y60.761
X60.225Y60.752
X60.241Y60.742
X60.257Y60.732
X60.273Y60.721
X60.288Y60.71
X60.303Y60.699
X60.318Y60.687
X60.333Y60.675
X60.347Y60.662
X60.36Y60.65
X60.374Y60.636
X60.387Y60.623
X60.4Y60.609
X60.413Y60.595
X60.425Y60.58
X60.437Y60.565
X60.448Y60.55
X60.459Y60.535
X60.47Y60.519
X60.48Y60.504
X60.49Y60.488
X60.499Y60.471
X60.508Y60.455
X60.516Y60.438
X60.525Y60.421
X60.532Y60.403
X60.54Y60.386
X60.546Y60.368
X60.553Y60.351
X60.559Y60.333
X60.564Y60.315
X60.569Y60.297
X60.574Y60.279
X60.578Y60.26
X60.582Y60.242
X60.585Y60.223
X60.588Y60.203
X60.59Y60.183
X60.592Y60.163
X60.593Y60.143
X60.594Y60.105
Y36.573
X63.343
X63.362Y36.573
X63.38Y36.572
X63.398Y36.571
X63.417Y36.569
X63.709Y36.54
X63.728Y36.538
X63.746Y36.536
X63.764Y36.533
X63.782Y36.53
X63.8Y36.526
X63.818Y36.522
X63.836Y36.517
X63.854Y36.512
X64.135Y36.426
X64.153Y36.421
X64.17Y36.415
X64.187Y36.408
X64.205Y36.402
X64.222Y36.394
X64.238Y36.387
X64.255Y36.379
X64.271Y36.37
X64.53Y36.231
X64.547Y36.223
X64.563Y36.213
X64.578Y36.204
X64.594Y36.194
X64.609Y36.183
X64.624Y36.172
X64.639Y36.161
X64.653Y36.15
X64.88Y35.963
X64.894Y35.951
X64.908Y35.939
X64.922Y35.927
X64.935Y35.914
X64.948Y35.9
X64.96Y35.887
X64.972Y35.873
X64.984Y35.859
X65.171Y35.632
X65.182Y35.617
X65.194Y35.603
X65.204Y35.588
X65.215Y35.572
X65.225Y35.557
X65.235Y35.541
X65.244Y35.525
X65.253Y35.509
X65.391Y35.25
X65.4Y35.234
X65.408Y35.217
X65.415Y35.2
X65.423Y35.183
X65.43Y35.166
X65.436Y35.149
X65.442Y35.132
X65.448Y35.114
X65.533Y34.833
X65.538Y34.815
X65.543Y34.797
X65.547Y34.779
X65.551Y34.761
X65.554Y34.743
X65.557Y34.725
X65.56Y34.706
X65.562Y34.688
X65.591Y34.396
X65.592Y34.377
X65.593Y34.359
X65.594Y34.34
X65.594Y34.322
Y25.789
X65.594Y25.77
X65.593Y25.752
X65.592Y25.733
X65.591Y25.715
X65.562Y25.422
X65.56Y25.404
X65.557Y25.386
X65.554Y25.368
X65.551Y25.349
X65.547Y25.331
X65.543Y25.313
X65.538Y25.296
X65.533Y25.278
X65.448Y24.997
X65.442Y24.979
X65.436Y24.962
X65.43Y24.944
X65.423Y24.927
X65.415Y24.91
X65.408Y24.893
X65.4Y24.877
X65.391Y24.861
X65.253Y24.601
X65.244Y24.585
X65.235Y24.569
X65.225Y24.554
X65.215Y24.538
X65.204Y24.523
X65.194Y24.508
X65.182Y24.493
X65.171Y24.479
X64.984Y24.252
X64.972Y24.237
X64.96Y24.224
X64.948Y24.21
X64.935Y24.197
X64.922Y24.184
X64.908Y24.171
X64.894Y24.159
X64.88Y24.147
X64.653Y23.961
X64.639Y23.949
X64.624Y23.938
X64.609Y23.927
X64.594Y23.917
X64.578Y23.907
X64.563Y23.897
X64.547Y23.888
X64.53Y23.879
X64.271Y23.74
X64.255Y23.732
X64.238Y23.724
X64.222Y23.716
X64.204Y23.709
X64.187Y23.702
X64.17Y23.696
X64.153Y23.69
X64.135Y23.684
X63.854Y23.599
X63.836Y23.594
X63.818Y23.589
X63.8Y23.585
X63.782Y23.581
X63.764Y23.577
X63.746Y23.575
X63.728Y23.572
X63.709Y23.57
X63.417Y23.541
X63.398Y23.54
X63.38Y23.539
X63.362Y23.538
X63.343Y23.538
X60.594Y23.538
X60.594Y0.001
X60.593Y-0.026
X60.591Y-0.06
X60.587Y-0.095
X60.585Y-0.112
X60.582Y-0.13
X60.578Y-0.149
X60.574Y-0.167
X60.569Y-0.185
X60.564Y-0.203
X60.559Y-0.221
X60.553Y-0.239
X60.546Y-0.257
X60.54Y-0.274
X60.532Y-0.292
X60.525Y-0.309
X60.516Y-0.326
X60.508Y-0.343
X60.499Y-0.36
X60.49Y-0.376
X60.48Y-0.392
X60.47Y-0.408
X60.459Y-0.424
X60.448Y-0.439
X60.437Y-0.454
X60.425Y-0.469
X60.413Y-0.483
X60.4Y-0.497
X60.387Y-0.511
X60.374Y-0.525
X60.36Y-0.538
X60.347Y-0.551
X60.333Y-0.563
X60.318Y-0.575
X60.303Y-0.587
X60.288Y-0.599
X60.273Y-0.61
X60.257Y-0.62
X60.241Y-0.63
X60.225Y-0.64
X60.209Y-0.65
X60.192Y-0.659
X60.176Y-0.667
X60.159Y-0.675
X60.141Y-0.683
X60.124Y-0.69
X60.106Y-0.697
X60.089Y-0.703
X60.071Y-0.709
X60.053Y-0.715
X60.035Y-0.72
X60.017Y-0.724
X59.998Y-0.729
X59.98Y-0.732
X59.961Y-0.735
X59.927Y-0.74
X59.892Y-0.743
X59.875Y-0.744
X59.843Y-0.745
X0.985Y-0.745
X0.92Y-0.74
X0.886Y-0.735
X0.849Y-0.729
X0.812Y-0.72
X0.776Y-0.709
X0.741Y-0.697
X0.723Y-0.69
X0.706Y-0.683
X0.688Y-0.675
X0.671Y-0.667
X0.655Y-0.659
X0.638Y-0.65
X0.622Y-0.64
X0.606Y-0.63
X0.59Y-0.62
X0.574Y-0.61
X0.559Y-0.599
X0.544Y-0.587
X0.529Y-0.575
X0.515Y-0.563
X0.5Y-0.551
X0.487Y-0.538
X0.473Y-0.525
X0.46Y-0.511
X0.447Y-0.497
X0.434Y-0.483
X0.422Y-0.469
X0.41Y-0.454
X0.399Y-0.439
X0.388Y-0.424
X0.377Y-0.408
X0.367Y-0.392
X0.357Y-0.376
X0.348Y-0.36
X0.339Y-0.343
X0.331Y-0.326
X0.322Y-0.309
X0.315Y-0.292
X0.307Y-0.274
X0.301Y-0.257
X0.294Y-0.239
X0.288Y-0.221
X0.283Y-0.203
X0.278Y-0.185
X0.273Y-0.167
X0.269Y-0.149
X0.265Y-0.13
X0.262Y-0.112
X0.259Y-0.092
X0.257Y-0.072
X0.255Y-0.052
X0.254Y-0.031
X0.253Y0.001
G0Z2
 
