(Created with grbl post processor 2023/10/20 22:31)
G21
(G-code generated with BlenderCAM and NC library)
G17G90
(Tool: D = 1.5 mm  type END flutes 2)
S12000M03
G00 Z2.0

G0X0Y0Z2
X21.377Y2.25
G1Z-0.5F100
Y57.75F200
G0Z2
X25.377Y2.25
G1Z-0.5F100
Y57.75F200
G0Z2
X29.377Y2.25
G1Z-0.5F100
Y57.75F200
G0Z2
X33.377Y2.25
G1Z-0.5F100
Y57.75F200
G0Z2
X37.377Y2.25
G1Z-0.5F100
Y57.75F200
G0Z2
X41.377Y2.25
G1Z-0.5F100
Y57.75F200
G0Z2
X45.377Y2.25
G1Z-0.5F100
Y57.75F200
G0Z2
X49.377Y2.25
G1Z-0.5F100
Y57.75F200
G0Z2
X53.377Y2.25
G1Z-0.5F100
Y57.75F200
G0Z2
X57.377Y2.25
G1Z-0.5F100
Y57.75F200
G0Z2
 
