(Created with grbl post processor 2023/10/20 15:02)
G21
(G-code generated with BlenderCAM and NC library)
G17G90
(Tool: D = 1.5 mm  type END flutes 2)
S12000M03
G00 Z2.0

G0X0Y0Z2
X33.625Y29.749
G1Z-2.3F100
X35.28Y29.749F200
X35.28Y30.25
X33.625Y30.25
Y29.749
X33.125Y29.249
X35.78Y29.249
X35.78Y30.75
X33.125Y30.75
Y29.249
X32.625Y28.749
X36.28Y28.749
X36.28Y31.25
X32.625Y31.25
Y28.749
X32.125Y28.249
X36.78Y28.249
X36.78Y31.75
X32.125Y31.75
Y28.249
X31.625Y27.749
X37.28Y27.749
X37.28Y32.25
X31.625Y32.25
Y27.749
X31.125Y27.249
X37.78Y27.249
X37.78Y32.75
X31.125Y32.75
X31.125Y27.249
X30.625Y26.749
X38.28Y26.749
X38.28Y33.25
X30.625Y33.25
Y26.749
X30.125Y26.249
X38.78Y26.249
X38.78Y33.75
X30.125Y33.75
X30.125Y26.249
X29.625Y25.749
X39.28Y25.749
X39.28Y34.25
X29.625Y34.25
Y25.749
X29.125Y25.249
X39.78Y25.249
X39.78Y34.75
X29.125Y34.75
X29.125Y25.249
X28.625Y24.749
X40.28Y24.749
X40.28Y35.25
X28.625Y35.25
Y24.749
X28.125Y24.249
X40.78Y24.249
X40.78Y35.75
X28.125Y35.75
X28.125Y24.249
X27.625Y23.749
X41.28Y23.749
X41.28Y36.25
X27.625Y36.25
Y23.749
X27.125Y23.249
X41.78Y23.249
X41.78Y36.75
X27.125Y36.75
X27.125Y23.249
X26.625Y22.749
X42.28Y22.749
X42.28Y37.25
X26.625Y37.25
X26.625Y22.749
X26.125Y22.249
X42.78Y22.249
X42.78Y37.75
X26.125Y37.75
X26.125Y22.249
X25.625Y21.749
X43.28Y21.749
X43.28Y38.25
X25.625Y38.25
X25.625Y21.749
X25.125Y21.249
X43.78Y21.249
X43.78Y38.75
X25.125Y38.75
X25.125Y21.249
X24.625Y20.749
X44.28Y20.749
X44.28Y39.25
X24.625Y39.25
X24.625Y20.749
X24.125Y20.249
X44.78Y20.249
X44.78Y39.75
X24.125Y39.75
X24.125Y20.249
X23.625Y19.749
X45.28Y19.749
X45.28Y40.25
X23.625Y40.25
X23.625Y19.749
X23.125Y19.249
X45.78Y19.249
X45.78Y40.75
X23.125Y40.75
X23.125Y19.249
X22.625Y18.749
X46.28Y18.749
X46.28Y41.25
X22.625Y41.25
X22.625Y18.749
X22.125Y18.249
X46.78Y18.249
X46.78Y41.75
X22.125Y41.75
X22.125Y18.249
X21.625Y17.749
X47.28Y17.749
X47.28Y42.25
X21.625Y42.25
X21.625Y17.749
X21.125Y17.249
X47.78Y17.249
X47.78Y42.75
X21.125Y42.75
X21.125Y17.249
X20.625Y16.749
X48.28Y16.749
X48.28Y43.25
X20.625Y43.25
X20.625Y16.749
X20.125Y16.249
X48.78Y16.249
X48.78Y43.75
X20.125Y43.75
X20.125Y16.249
X19.625Y15.749
X49.28Y15.749
X49.28Y44.25
X19.625Y44.25
X19.625Y15.749
X19.125Y15.249
X49.78Y15.249
X49.78Y44.75
X19.125Y44.75
X19.125Y15.249
X18.625Y14.749
X50.28Y14.749
X50.28Y45.25
X18.625Y45.25
X18.625Y14.749
X18.125Y14.249
X50.78Y14.249
X50.78Y45.75
X18.125Y45.75
X18.125Y14.249
X17.625Y13.749
X51.28Y13.749
X51.28Y46.25
X17.625Y46.25
X17.625Y13.749
X17.125Y13.249
X51.78Y13.249
X51.78Y46.75
X17.125Y46.75
X17.125Y13.249
X16.625Y12.749
X52.28Y12.749
X52.28Y47.25
X16.625Y47.25
X16.625Y12.749
X16.125Y12.249
X52.78Y12.249
X52.78Y47.75
X16.125Y47.75
X16.125Y12.249
X15.625Y11.749
X53.28Y11.749
X53.28Y48.25
X15.625Y48.25
X15.625Y11.749
X15.125Y11.249
X53.78Y11.249
X53.78Y48.75
X15.125Y48.75
X15.125Y11.249
X14.625Y10.749
X54.28Y10.749
X54.28Y49.25
X14.625Y49.25
X14.625Y10.749
X14.125Y10.249
X54.78Y10.249
X54.78Y49.75
X14.125Y49.75
X14.125Y10.249
X13.625Y9.749
X55.28Y9.749
X55.28Y50.25
X13.625Y50.25
X13.625Y9.749
X13.125Y9.249
X55.78Y9.249
X55.779Y50.75
X13.125Y50.75
X13.125Y9.249
X12.625Y8.749
X56.28Y8.749
X56.279Y51.25
X12.625Y51.25
X12.625Y8.749
X12.125Y8.249
X56.78Y8.249
X56.779Y51.75
X12.125Y51.75
X12.125Y8.249
X11.625Y7.749
X57.28Y7.749
X57.279Y52.25
X11.625Y52.25
X11.625Y7.749
X11.125Y7.249
X57.78Y7.249
X57.779Y52.75
X11.125Y52.75
X11.125Y7.249
X10.625Y6.749
X58.28Y6.749
X58.279Y53.25
X10.625Y53.25
X10.625Y6.749
X10.125Y6.249
X58.78Y6.249
X58.779Y53.75
X10.125Y53.75
X10.125Y6.249
X9.625Y5.749
X59.28Y5.749
X59.279Y54.25
X9.625Y54.25
X9.625Y5.749
X9.125Y5.249
X59.78Y5.249
X59.779Y54.75
X9.125Y54.75
X9.125Y5.249
X8.625Y4.749
X60.28Y4.749
X60.279Y55.25
X8.625Y55.25
X8.625Y4.749
X8.125Y4.249
X60.78Y4.249
X60.779Y55.75
X8.125Y55.75
X8.125Y4.249
X7.625Y3.749
X61.28Y3.749
X61.279Y56.25
X7.625Y56.25
X7.625Y3.749
X7.125Y3.249
X61.78Y3.249
X61.779Y56.75
X7.125Y56.75
X7.125Y3.249
X6.625Y3.223
X6.622Y3.077
X6.617Y2.973
X6.61Y2.869
X6.6Y2.765
X6.598Y2.749
X62.28Y2.749
X62.279Y57.25
X6.611Y57.25
X6.621Y57.074
X6.624Y56.97
X6.625Y56.909
X6.625Y3.223
X6.125Y3.223
X6.122Y3.095
X6.118Y3.003
X6.112Y2.912
X6.103Y2.82
X6.092Y2.729
X6.078Y2.638
X6.063Y2.547
X6.045Y2.457
X6.025Y2.367
X6.003Y2.277
X5.995Y2.249
X62.78Y2.249
X62.779Y57.75
X6.029Y57.75
X6.06Y57.604
X6.075Y57.513
X6.089Y57.422
X6.101Y57.331
X6.11Y57.239
X6.117Y57.148
X6.122Y57.056
X6.124Y56.964
X6.125Y56.909
X6.125Y3.223
X5.625Y3.224
X5.623Y3.114
X5.619Y3.034
X5.613Y2.955
X5.606Y2.875
X5.596Y2.796
X5.585Y2.717
X5.571Y2.638
X5.556Y2.56
X5.539Y2.482
X5.52Y2.405
X5.499Y2.328
X5.476Y2.251
X5.451Y2.176
X5.424Y2.101
X5.396Y2.026
X5.365Y1.952
X5.333Y1.879
X5.299Y1.807
X5.27Y1.749
X63.28Y1.749
X63.279Y58.25
X5.335Y58.25
X5.389Y58.124
X5.418Y58.049
X5.445Y57.974
X5.47Y57.899
X5.493Y57.823
X5.515Y57.746
X5.534Y57.668
X5.552Y57.591
X5.568Y57.512
X5.582Y57.434
X5.594Y57.355
X5.604Y57.276
X5.612Y57.197
X5.618Y57.117
X5.622Y57.037
X5.624Y56.958
X5.625Y56.909
X5.625Y3.224
X5.125Y3.224
X5.123Y3.132
X5.12Y3.065
X5.115Y2.997
X5.109Y2.93
X5.101Y2.863
X5.091Y2.796
X5.08Y2.73
X5.067Y2.664
X5.052Y2.598
X5.036Y2.532
X5.018Y2.467
X4.999Y2.402
X4.978Y2.338
X4.955Y2.275
X4.931Y2.212
X4.906Y2.149
X4.879Y2.087
X4.85Y2.026
X4.82Y1.966
X4.788Y1.906
X4.755Y1.847
X4.721Y1.789
X4.685Y1.732
X4.647Y1.676
X4.609Y1.621
X4.569Y1.566
X4.527Y1.513
X4.485Y1.461
X4.441Y1.41
X4.396Y1.359
X4.349Y1.31
X4.302Y1.262
X4.288Y1.249
X63.78Y1.249
X63.779Y58.75
X4.417Y58.75
X4.473Y58.686
X4.516Y58.634
X4.558Y58.581
X4.598Y58.527
X4.637Y58.472
X4.675Y58.416
X4.711Y58.359
X4.746Y58.301
X4.779Y58.243
X4.811Y58.183
X4.842Y58.123
X4.871Y58.062
X4.899Y58
X4.925Y57.938
X4.949Y57.875
X4.972Y57.812
X4.993Y57.748
X5.013Y57.683
X5.031Y57.618
X5.048Y57.553
X5.063Y57.487
X5.076Y57.421
X5.088Y57.354
X5.098Y57.288
X5.107Y57.221
X5.114Y57.154
X5.119Y57.086
X5.122Y57.019
X5.124Y56.951
X5.125Y56.909
X5.125Y3.224
X4.625
X4.623Y3.151
X4.621Y3.095
X4.617Y3.04
X4.612Y2.985
X4.605Y2.931
X4.597Y2.876
X4.588Y2.821
X4.578Y2.767
X4.566Y2.713
X4.553Y2.66
X4.538Y2.606
X4.522Y2.553
X4.505Y2.501
X4.487Y2.449
X4.467Y2.397
X4.446Y2.346
X4.424Y2.296
X4.401Y2.246
X4.376Y2.196
X4.35Y2.147
X4.323Y2.099
X4.295Y2.052
X4.266Y2.005
X4.235Y1.959
X4.203Y1.914
X4.171Y1.869
X4.137Y1.826
X4.102Y1.783
X4.066Y1.741
X4.029Y1.7
X3.991Y1.659
X3.953Y1.62
X3.913Y1.582
X3.872Y1.545
X3.83Y1.509
X3.788Y1.473
X3.744Y1.439
X3.7Y1.406
X3.655Y1.374
X3.609Y1.343
X3.563Y1.314
X3.516Y1.285
X3.468Y1.258
X3.419Y1.231
X3.37Y1.206
X3.32Y1.182
X3.27Y1.16
X3.219Y1.139
X3.167Y1.118
X3.115Y1.1
X3.063Y1.082
X3.01Y1.066
X2.957Y1.051
X2.903Y1.037
X2.85Y1.025
X2.795Y1.014
X2.741Y1.004
X2.687Y0.996
X2.632Y0.989
X2.577Y0.983
X2.522Y0.979
X2.467Y0.976
X2.411Y0.975
X2.375Y0.974
X1.749
X1.749Y0.749
X64.28Y0.749
X64.279Y59.25
X1.749Y59.25
X1.749Y59.159
X2.393Y59.158
X2.448Y59.157
X2.503Y59.155
X2.558Y59.151
X2.613Y59.146
X2.668Y59.139
X2.723Y59.131
X2.777Y59.122
X2.832Y59.112
X2.886Y59.1
X2.939Y59.087
X2.992Y59.072
X3.045Y59.056
X3.098Y59.039
X3.15Y59.021
X3.202Y59.001
X3.253Y58.98
X3.303Y58.958
X3.353Y58.935
X3.403Y58.91
X3.451Y58.884
X3.5Y58.857
X3.547Y58.829
X3.594Y58.8
X3.64Y58.769
X3.685Y58.737
X3.73Y58.705
X3.773Y58.671
X3.816Y58.636
X3.858Y58.6
X3.899Y58.563
X3.939Y58.525
X3.979Y58.486
X4.017Y58.447
X4.054Y58.406
X4.09Y58.364
X4.125Y58.322
X4.16Y58.278
X4.193Y58.234
X4.225Y58.189
X4.256Y58.143
X4.285Y58.097
X4.314Y58.049
X4.341Y58.001
X4.368Y57.953
X4.393Y57.904
X4.416Y57.854
X4.439Y57.803
X4.46Y57.753
X4.48Y57.701
X4.499Y57.649
X4.517Y57.597
X4.533Y57.544
X4.548Y57.491
X4.562Y57.437
X4.574Y57.384
X4.585Y57.329
X4.595Y57.275
X4.603Y57.22
X4.61Y57.166
X4.615Y57.111
X4.62Y57.056
X4.623Y57.001
X4.624Y56.945
X4.625Y56.909
X4.625Y3.224
X4.125
X4.124Y3.169
X4.122Y3.126
X4.119Y3.083
X4.115Y3.04
X4.11Y2.998
X4.104Y2.955
X4.097Y2.913
X4.089Y2.871
X4.079Y2.829
X4.069Y2.787
X4.058Y2.746
X4.046Y2.704
X4.032Y2.664
X4.018Y2.623
X4.003Y2.583
X3.987Y2.543
X3.969Y2.504
X3.951Y2.465
X3.932Y2.426
X3.912Y2.388
X3.891Y2.351
X3.869Y2.314
X3.846Y2.278
X3.823Y2.242
X3.798Y2.207
X3.773Y2.172
X3.747Y2.138
X3.72Y2.105
X3.692Y2.072
X3.663Y2.04
X3.634Y2.009
X3.603Y1.978
X3.572Y1.948
X3.541Y1.919
X3.508Y1.891
X3.475Y1.864
X3.442Y1.837
X3.407Y1.811
X3.372Y1.786
X3.337Y1.762
X3.3Y1.739
X3.264Y1.717
X3.226Y1.696
X3.189Y1.675
X3.15Y1.656
X3.112Y1.637
X3.073Y1.619
X3.033Y1.603
X2.993Y1.587
X2.953Y1.572
X2.912Y1.559
X2.871Y1.546
X2.83Y1.534
X2.788Y1.524
X2.746Y1.514
X2.704Y1.506
X2.662Y1.498
X2.619Y1.491
X2.577Y1.486
X2.534Y1.482
X2.491Y1.478
X2.448Y1.476
X2.405Y1.475
X2.375Y1.474
X1.249
X1.249Y0.249
X64.78Y0.249
X64.779Y59.75
X1.249Y59.75
X1.249Y58.659
X2.387Y58.658
X2.43Y58.658
X2.473Y58.656
X2.516Y58.653
X2.558Y58.649
X2.601Y58.644
X2.644Y58.638
X2.686Y58.631
X2.728Y58.622
X2.77Y58.613
X2.812Y58.603
X2.853Y58.592
X2.894Y58.58
X2.935Y58.566
X2.976Y58.552
X3.016Y58.537
X3.056Y58.521
X3.095Y58.503
X3.134Y58.485
X3.172Y58.466
X3.21Y58.446
X3.248Y58.425
X3.285Y58.403
X3.321Y58.38
X3.357Y58.357
X3.392Y58.332
X3.427Y58.307
X3.461Y58.281
X3.494Y58.253
X3.527Y58.226
X3.559Y58.197
X3.59Y58.167
X3.621Y58.137
X3.65Y58.106
X3.679Y58.075
X3.708Y58.042
X3.735Y58.009
X3.762Y57.975
X3.787Y57.941
X3.812Y57.906
X3.836Y57.871
X3.86Y57.834
X3.882Y57.798
X3.903Y57.76
X3.924Y57.723
X3.943Y57.684
X3.962Y57.646
X3.979Y57.606
X3.996Y57.567
X4.012Y57.527
X4.026Y57.487
X4.04Y57.446
X4.053Y57.405
X4.064Y57.363
X4.075Y57.322
X4.085Y57.28
X4.093Y57.238
X4.101Y57.196
X4.107Y57.153
X4.113Y57.111
X4.117Y57.068
X4.121Y57.025
X4.123Y56.982
X4.124Y56.939
X4.125Y56.909
X4.125Y3.224
X3.625Y3.224
X3.624Y3.187
X3.623Y3.157
X3.621Y3.126
X3.618Y3.096
X3.614Y3.065
X3.61Y3.035
X3.605Y3.004
X3.599Y2.974
X3.593Y2.944
X3.586Y2.915
X3.578Y2.885
X3.569Y2.856
X3.56Y2.826
X3.549Y2.797
X3.539Y2.769
X3.527Y2.74
X3.515Y2.712
X3.502Y2.684
X3.488Y2.657
X3.474Y2.63
X3.459Y2.603
X3.444Y2.576
X3.427Y2.55
X3.411Y2.525
X3.393Y2.499
X3.375Y2.475
X3.356Y2.45
X3.337Y2.427
X3.317Y2.403
X3.297Y2.38
X3.276Y2.358
X3.254Y2.336
X3.232Y2.315
X3.209Y2.294
X3.186Y2.274
X3.163Y2.254
X3.139Y2.235
X3.114Y2.217
X3.089Y2.199
X3.064Y2.182
X3.038Y2.165
X3.012Y2.149
X2.985Y2.134
X2.958Y2.119
X2.931Y2.105
X2.904Y2.092
X2.876Y2.079
X2.847Y2.067
X2.819Y2.056
X2.79Y2.045
X2.761Y2.035
X2.732Y2.026
X2.702Y2.018
X2.672Y2.01
X2.643Y2.003
X2.612Y1.997
X2.582Y1.992
X2.552Y1.987
X2.522Y1.983
X2.491Y1.98
X2.46Y1.977
X2.43Y1.975
X2.399Y1.974
X2.375Y1.974
X0.999Y1.974
X0.968Y1.975
X0.937Y1.976
X0.907Y1.978
X0.876Y1.981
X0.846Y1.984
X0.815Y1.989
X0.785Y1.994
X0.749Y2.001
X0.749Y-0.25
X65.28Y-0.25
X65.279Y60.25
X0.749Y60.25
X0.749Y58.132
X0.797Y58.141
X0.828Y58.146
X0.858Y58.15
X0.888Y58.153
X0.919Y58.156
X0.95Y58.157
X0.98Y58.158
X1.005Y58.159
X2.381Y58.158
X2.411Y58.158
X2.442Y58.157
X2.473Y58.155
X2.503Y58.152
X2.534Y58.148
X2.564Y58.144
X2.594Y58.139
X2.624Y58.133
X2.654Y58.127
X2.684Y58.12
X2.714Y58.112
X2.743Y58.103
X2.773Y58.093
X2.802Y58.083
X2.83Y58.073
X2.859Y58.061
X2.887Y58.049
X2.915Y58.036
X2.942Y58.022
X2.969Y58.008
X2.996Y57.993
X3.022Y57.978
X3.049Y57.961
X3.074Y57.944
X3.099Y57.927
X3.124Y57.909
X3.148Y57.89
X3.172Y57.871
X3.196Y57.851
X3.219Y57.831
X3.241Y57.81
X3.263Y57.788
X3.284Y57.766
X3.305Y57.743
X3.325Y57.72
X3.345Y57.697
X3.364Y57.673
X3.382Y57.648
X3.4Y57.623
X3.417Y57.598
X3.434Y57.572
X3.45Y57.546
X3.465Y57.519
X3.48Y57.492
X3.494Y57.465
X3.507Y57.437
X3.52Y57.409
X3.532Y57.381
X3.543Y57.353
X3.554Y57.324
X3.563Y57.295
X3.573Y57.266
X3.581Y57.236
X3.589Y57.206
X3.596Y57.176
X3.602Y57.146
X3.607Y57.116
X3.612Y57.086
X3.616Y57.055
X3.619Y57.025
X3.622Y56.994
X3.623Y56.964
X3.624Y56.933
X3.625Y56.909
X3.625Y3.224
X3.125
X3.124Y3.206
X3.124Y3.187
X3.123Y3.169
X3.121Y3.151
X3.119Y3.132
X3.117Y3.114
X3.114Y3.096
X3.11Y3.078
X3.106Y3.06
X3.102Y3.042
X3.097Y3.024
X3.092Y3.007
X3.087Y2.989
X3.081Y2.972
X3.074Y2.954
X3.068Y2.937
X3.06Y2.92
X3.053Y2.904
X3.045Y2.887
X3.036Y2.871
X3.027Y2.855
X3.018Y2.839
X3.008Y2.823
X2.998Y2.808
X2.988Y2.792
X2.977Y2.777
X2.966Y2.763
X2.954Y2.748
X2.943Y2.734
X2.93Y2.721
X2.918Y2.707
X2.905Y2.694
X2.892Y2.681
X2.878Y2.669
X2.865Y2.656
X2.85Y2.644
X2.836Y2.633
X2.821Y2.622
X2.806Y2.611
X2.791Y2.601
X2.776Y2.591
X2.76Y2.581
X2.744Y2.572
X2.728Y2.563
X2.712Y2.554
X2.695Y2.546
X2.679Y2.539
X2.662Y2.531
X2.645Y2.524
X2.627Y2.518
X2.61Y2.512
X2.592Y2.507
X2.575Y2.501
X2.557Y2.497
X2.539Y2.492
X2.521Y2.489
X2.503Y2.485
X2.485Y2.482
X2.466Y2.48
X2.448Y2.478
X2.43Y2.476
X2.411Y2.475
X2.393Y2.474
X2.375Y2.474
X1.005
X0.986Y2.474
X0.968Y2.475
X0.95Y2.476
X0.931Y2.478
X0.913Y2.48
X0.895Y2.482
X0.877Y2.485
X0.859Y2.489
X0.841Y2.492
X0.823Y2.497
X0.805Y2.501
X0.787Y2.507
X0.77Y2.512
X0.752Y2.518
X0.735Y2.524
X0.718Y2.531
X0.701Y2.539
X0.684Y2.546
X0.668Y2.554
X0.651Y2.563
X0.635Y2.572
X0.619Y2.581
X0.604Y2.591
X0.588Y2.601
X0.573Y2.611
X0.558Y2.622
X0.543Y2.633
X0.529Y2.644
X0.515Y2.656
X0.501Y2.669
X0.488Y2.681
X0.475Y2.694
X0.462Y2.707
X0.449Y2.721
X0.437Y2.734
X0.425Y2.748
X0.414Y2.763
X0.403Y2.777
X0.392Y2.792
X0.381Y2.808
X0.371Y2.823
X0.362Y2.839
X0.352Y2.855
X0.343Y2.871
X0.335Y2.887
X0.327Y2.904
X0.319Y2.92
X0.312Y2.937
X0.305Y2.954
X0.299Y2.972
X0.293Y2.989
X0.287Y3.007
X0.282Y3.024
X0.277Y3.042
X0.273Y3.06
X0.269Y3.078
X0.266Y3.096
X0.263Y3.114
X0.261Y3.132
X0.259Y3.151
X0.257Y3.169
X0.256Y3.187
X0.255Y3.206
X0.255Y3.224
Y56.909
X0.255Y56.927
X0.256Y56.945
X0.257Y56.964
X0.259Y56.982
X0.261Y57
X0.263Y57.019
X0.266Y57.037
X0.269Y57.055
X0.273Y57.073
X0.277Y57.091
X0.282Y57.109
X0.287Y57.126
X0.293Y57.144
X0.299Y57.161
X0.305Y57.178
X0.312Y57.196
X0.319Y57.212
X0.327Y57.229
X0.335Y57.246
X0.343Y57.262
X0.352Y57.278
X0.362Y57.294
X0.371Y57.31
X0.381Y57.325
X0.392Y57.34
X0.403Y57.355
X0.414Y57.37
X0.425Y57.384
X0.437Y57.398
X0.449Y57.412
X0.462Y57.426
X0.475Y57.439
X0.488Y57.452
X0.501Y57.464
X0.515Y57.476
X0.529Y57.488
X0.543Y57.5
X0.558Y57.511
X0.573Y57.522
X0.588Y57.532
X0.604Y57.542
X0.619Y57.552
X0.635Y57.561
X0.651Y57.57
X0.668Y57.578
X0.684Y57.587
X0.701Y57.594
X0.718Y57.601
X0.735Y57.608
X0.752Y57.615
X0.77Y57.621
X0.787Y57.626
X0.805Y57.631
X0.823Y57.636
X0.841Y57.64
X0.859Y57.644
X0.877Y57.647
X0.895Y57.65
X0.913Y57.653
X0.931Y57.655
X0.95Y57.657
X0.968Y57.658
X0.986Y57.658
X1.005Y57.659
X2.375
X2.393Y57.658
X2.411Y57.658
X2.43Y57.657
X2.448Y57.655
X2.466Y57.653
X2.485Y57.65
X2.503Y57.647
X2.521Y57.644
X2.539Y57.64
X2.557Y57.636
X2.575Y57.631
X2.592Y57.626
X2.61Y57.621
X2.627Y57.615
X2.645Y57.608
X2.662Y57.601
X2.679Y57.594
X2.695Y57.587
X2.712Y57.578
X2.728Y57.57
X2.744Y57.561
X2.76Y57.552
X2.776Y57.542
X2.791Y57.532
X2.806Y57.522
X2.821Y57.511
X2.836Y57.5
X2.85Y57.488
X2.865Y57.476
X2.878Y57.464
X2.892Y57.452
X2.905Y57.439
X2.918Y57.426
X2.93Y57.412
X2.943Y57.398
X2.954Y57.384
X2.966Y57.37
X2.977Y57.355
X2.988Y57.34
X2.998Y57.325
X3.008Y57.31
X3.018Y57.294
X3.027Y57.278
X3.036Y57.262
X3.045Y57.246
X3.053Y57.229
X3.06Y57.212
X3.068Y57.196
X3.074Y57.178
X3.081Y57.161
X3.087Y57.144
X3.092Y57.126
X3.097Y57.109
X3.102Y57.091
X3.106Y57.073
X3.11Y57.055
X3.114Y57.037
X3.117Y57.019
X3.119Y57
X3.121Y56.982
X3.123Y56.964
X3.124Y56.945
X3.124Y56.927
X3.125Y56.909
X3.125Y3.224
G0Z2
X0.249Y-0.75
G1Z-2.3F100
X65.78Y-0.75F200
X65.779Y60.75
X0.249Y60.75
X0.249Y-0.75
G0Z2
 
