(Created with grbl post processor 2023/10/20 15:02)
G21
(G-code generated with BlenderCAM and NC library)
G17G90
(Tool: D = 1.5 mm  type END flutes 2)
S12000M03
G00 Z2.0

G0X0Y0Z2
X63.093Y25.403
G1Z-2.98F100
X63.28Y25.403F200
Y34.683
X63.092Y34.683
X63.093Y25.403
X62.593Y24.902
X63.78Y24.903
Y35.183
X62.592Y35.183
X62.593Y24.902
X62.093Y24.402
X64.28Y24.403
Y35.683
X62.092Y35.683
X62.093Y24.402
X61.593Y23.902
X64.78Y23.903
Y36.183
X61.592Y36.182
X61.593Y23.902
X61.093Y23.402
X65.28Y23.403
Y36.683
X61.092Y36.682
X61.093Y23.402
X60.593Y22.902
X65.78Y22.903
Y37.183
X60.592Y37.182
X60.593Y22.902
G0Z2
 
