(Created with grbl post processor 2023/10/20 22:31)
G21
(G-code generated with BlenderCAM and NC library)
G17G90
(Tool: D = 3.0 mm  type END flutes 2)
S12000M03
G00 Z2.0

G0X0Y0Z2
G1Z-5F100
Z0F200
G0Z2
Y60
G1Z-5F100
Z0F200
G0Z2
X65
G1Z-5F100
Z0F200
G0Z2
Y0
G1Z-5F100
Z0F200
G0Z2
 
