(Created with grbl post processor 2023/10/15 23:44)
G21
(G-code generated with BlenderCAM and NC library)
G17G90
(Tool: D = 3.0 mm  type BALLNOSE flutes 2)
S12000M03
G00 Z2.0

G0X0Y0Z2
X-0.077Y39.439
G1Z0F200
X-0.122Y39.081F400
X0.056Y39.17
X-0.167Y38.723
X0.19Y38.902
X-0.032Y38.455
X0.324Y38.634
X-0.077Y38.097
X0.458Y38.365
X-0.122Y37.739
X0.593Y38.097
G0Z2
X-0.167Y37.381
G1Z0F200
X0.727Y37.829F400
G0Z2
X-0.032Y37.113
G1Z0F200
X0.861Y37.56F400
G0Z2
X-0.077Y36.755
G1Z0F200
X0.995Y37.292F400
G0Z2
X-0.122Y36.397
G1Z0F200
X1.129Y37.024F400
G0Z2
X-0.167Y36.04
G1Z0F200
X1.263Y36.755Z0F400
G0Z2
X-0.032Y35.771
G1Z0F200
X1.398Y36.487Z0F400
G0Z2
X-0.077Y35.414
G1Z-0.018F200
X0.101Y35.503Z0F400
X1.532Y36.219Z0
G0Z2
X-0.122Y35.056
G1Z-0.063F200
X0.056Y35.145Z-0.018F400
X0.235Y35.235Z0
X1.666Y35.95Z0
G0Z2
X-0.167Y34.698
G1Z-0.133F200
X0.011Y34.787Z-0.064F400
X0.19Y34.877Z-0.018
X0.369Y34.966Z0
X1.8Y35.682Z0
G0Z2
X-0.032Y34.43
G1Z-0.134F200
X0.145Y34.519Z-0.064F400
X0.324Y34.609Z-0.018
X0.503Y34.698Z0
X0.682Y34.787Z0
X1.934Y35.414
G0Z2
X-0.077Y34.072
G1Z-0.206F200
X0.101Y34.161Z-0.134F400
X0.28Y34.251Z-0.065
X0.458Y34.34Z-0.018
X0.637Y34.43Z0
X0.816Y34.519Z0
X2.068Y35.145
G0Z2
X-0.122Y33.714
G1Z-0.277F200
X0.235Y33.893Z-0.135F400
X0.414Y33.982Z-0.065
X0.593Y34.072Z-0.019
X0.772Y34.161Z0
X0.95Y34.251Z0
X2.203Y34.877
G0Z2
X-0.167Y33.356
G1Z-0.349F200
X0.369Y33.625Z-0.135F400
X0.548Y33.714Z-0.065
X0.727Y33.804Z-0.019
X0.906Y33.893Z-0
X1.085Y33.982Z0
X2.337Y34.609
G0Z2
X-0.032Y33.088
G1Z-0.35F200
X0.503Y33.356Z-0.136F400
X0.682Y33.446Z-0.066
X0.861Y33.535Z-0.019
X1.04Y33.625Z-0
X1.219Y33.714Z0
X2.471Y34.34
G0Z2
X-0.077Y32.73
G1Z-0.421F200
X0.637Y33.088Z-0.136F400
X0.816Y33.177Z-0.066
X0.995Y33.267Z-0.019
X1.174Y33.356Z-0
X1.353Y33.446Z0
X2.605Y34.072
G0Z2
X-0.122Y32.372
G1Z-0.493F200
X0.772Y32.82Z-0.136F400
X0.95Y32.909Z-0.067
X1.129Y32.999Z-0.019
X1.308Y33.088Z-0
X1.487Y33.177Z0
X2.739Y33.804
G0Z2
X-0.167Y32.015
G1Z-0.565F200
X0.906Y32.551Z-0.137F400
X1.085Y32.641Z-0.067
X1.263Y32.73Z-0.02
X1.442Y32.82Z-0
X1.621Y32.909Z0
X2.873Y33.535
G0Z2
X-0.032Y31.746
G1Z-0.566F200
X1.04Y32.283Z-0.137F400
X1.219Y32.372Z-0.067
X1.398Y32.462Z-0.02
X1.576Y32.551Z-0
X1.755Y32.641Z0
X3.008Y33.267
G0Z2
X-0.077Y31.389
G1Z-0.637F200
X1.174Y32.015Z-0.138F400
X1.353Y32.104Z-0.068
X1.532Y32.194Z-0.02
X1.711Y32.283Z-0
X1.89Y32.372Z0
X3.142Y32.999
G0Z2
X-0.122Y31.031
G1Z-0.709F200
X1.308Y31.746Z-0.138F400
X1.487Y31.836Z-0.068
X1.666Y31.925Z-0.02
X1.845Y32.015Z-0
X2.024Y32.104Z0
X3.276Y32.73
G0Z2
X-0.167Y30.673
G1Z-0.781F200
X1.442Y31.478Z-0.139F400
X1.621Y31.567Z-0.069
X1.8Y31.657Z-0.02
X1.979Y31.746Z-0
X2.158Y31.836Z0
X3.41Y32.462
G0Z2
X-0.032Y30.405
G1Z-0.781F200
X1.576Y31.21Z-0.139F400
X1.755Y31.299Z-0.069
X1.934Y31.389Z-0.021
X2.113Y31.478Z-0
X2.292Y31.567Z0
X3.544Y32.194
G0Z2
X-0.077Y30.047
G1Z-0.853F200
X1.711Y30.941Z-0.14F400
X1.89Y31.031Z-0.069
X2.068Y31.12Z-0.021
X2.247Y31.21Z-0
X2.426Y31.299Z0
X3.678Y31.925
G0Z2
X-0.122Y29.689
G1Z-0.925F200
X1.845Y30.673Z-0.14F400
X2.024Y30.762Z-0.07
X2.203Y30.852Z-0.021
X2.381Y30.941Z-0
X2.56Y31.031Z0
X3.813Y31.657
G0Z2
X-0.167Y29.331
G1Z-0.997F200
X1.979Y30.405Z-0.141F400
X2.158Y30.494Z-0.07
X2.337Y30.584Z-0.021
X2.516Y30.673Z-0.001
X2.695Y30.762Z0
X3.947Y31.389
G0Z2
X-0.032Y29.063
G1Z-0.997F200
X2.113Y30.136Z-0.141F400
X2.292Y30.226Z-0.071
X2.471Y30.315Z-0.022
X2.65Y30.405Z-0.001
X2.829Y30.494Z0
X4.081Y31.12
G0Z2
X-0.077Y28.705
G1Z-1.069F200
X2.247Y29.868Z-0.141F400
X2.426Y29.957Z-0.071
X2.605Y30.047Z-0.022
X2.784Y30.136Z-0.001
X2.963Y30.226Z0
X4.215Y30.852
G0Z2
X-0.122Y28.347
G1Z-1.141F200
X2.381Y29.6Z-0.142F400
X2.56Y29.689Z-0.071
X2.739Y29.779Z-0.022
X2.918Y29.868Z-0.001
X3.097Y29.957Z0
X4.349Y30.584
G0Z2
X-0.167Y27.99
G1Z-1.213F200
X2.516Y29.331Z-0.142F400
X2.695Y29.421Z-0.072
X2.873Y29.51Z-0.022
X3.052Y29.6Z-0.001
X3.231Y29.689Z0
X4.483Y30.315
G0Z2
X-0.032Y27.721
G1Z-1.213F200
X2.65Y29.063Z-0.143F400
X2.829Y29.152Z-0.072
X3.008Y29.242Z-0.022
X3.186Y29.331Z-0.001
X3.365Y29.421Z0
X4.618Y30.047
G0Z2
X-0.077Y27.364
G1Z-1.285F200
X2.784Y28.795Z-0.143F400
X2.963Y28.884Z-0.073
X3.142Y28.974Z-0.023
X3.321Y29.063Z-0.001
X3.5Y29.152Z0
X4.752Y29.779
G0Z2
X-0.122Y27.006
G1Z-1.357F200
X2.918Y28.526Z-0.144F400
X3.097Y28.616Z-0.073
X3.276Y28.705Z-0.023
X3.455Y28.795Z-0.001
X3.634Y28.884Z0
X4.886Y29.51
G0Z2
X-0.167Y26.648
G1Z-1.429F200
X3.052Y28.258Z-0.144F400
X3.231Y28.347Z-0.073
X3.41Y28.437Z-0.023
X3.589Y28.526Z-0.001
X3.768Y28.616Z0
X5.02Y29.242
G0Z2
X-0.032Y26.38
G1Z-1.429F200
X3.186Y27.99Z-0.145F400
X3.365Y28.079Z-0.074
X3.544Y28.169Z-0.023
X3.723Y28.258Z-0.001
X3.902Y28.347Z0
X5.154Y28.974
G0Z2
X-0.077Y26.022
G1Z-1.501F200
X3.321Y27.721Z-0.145F400
X3.5Y27.811Z-0.074
X3.678Y27.9Z-0.024
X3.857Y27.99Z-0.001
X4.036Y28.079Z0
X5.288Y28.705
G0Z2
X-0.122Y25.664
G1Z-1.573F200
X3.455Y27.453Z-0.146F400
X3.634Y27.542Z-0.075
X3.813Y27.632Z-0.024
X3.991Y27.721Z-0.001
X4.17Y27.811Z0
X5.423Y28.437
G0Z2
X-0.167Y25.306
G1Z-1.644F200
X3.589Y27.185Z-0.146F400
X3.768Y27.274Z-0.075
X3.947Y27.364Z-0.024
X4.126Y27.453Z-0.001
X4.304Y27.542Z0
X5.557Y28.169
G0Z2
X-0.032Y25.038
G1Z-1.645F200
X3.723Y26.916Z-0.146F400
X3.902Y27.006Z-0.076
X4.081Y27.095Z-0.024
X4.26Y27.185Z-0.001
X4.439Y27.274Z0
X5.691Y27.9
G0Z2
X-0.077Y24.68
G1Z-1.717F200
X3.857Y26.648Z-0.147F400
X4.036Y26.738Z-0.076
X4.215Y26.827Z-0.025
X4.394Y26.916Z-0.001
X4.573Y27.006Z0
X5.825Y27.632
G0Z2
X-0.122Y24.323
G1Z-1.789F200
X3.991Y26.38Z-0.147F400
X4.17Y26.469Z-0.076
X4.349Y26.559Z-0.025
X4.528Y26.648Z-0.001
X4.707Y26.738Z0
X5.959Y27.364
G0Z2
X-0.167Y23.965
G1Z-1.86F200
X4.126Y26.111Z-0.148F400
X4.305Y26.201Z-0.077
X4.483Y26.29Z-0.025
X4.662Y26.38Z-0.001
X4.841Y26.469Z0
X6.093Y27.095
G0Z2
X-0.032Y23.696
G1Z-1.861F200
X4.26Y25.843Z-0.148F400
X4.439Y25.933Z-0.077
X4.618Y26.022Z-0.025
X4.796Y26.111Z-0.001
X4.975Y26.201Z0
X6.228Y26.827
G0Z2
X-0.077Y23.339
G1Z-1.933F200
X4.394Y25.575Z-0.149F400
X4.573Y25.664Z-0.078
X4.752Y25.754Z-0.025
X4.931Y25.843Z-0.002
X5.109Y25.933Z0
X6.362Y26.559
G0Z2
X-0.122Y22.981
G1Z-2F200
X-0.11Y22.987F400
X4.528Y25.306Z-0.149
X4.707Y25.396Z-0.078
X4.886Y25.485Z-0.026
X5.065Y25.575Z-0.002
X5.244Y25.664Z0
X6.496Y26.29
G0Z2
X-0.167Y22.623
G1Z-2F200
X0.025Y22.719F400
X4.662Y25.038Z-0.15
X4.841Y25.128Z-0.079
X5.02Y25.217Z-0.026
X5.199Y25.306Z-0.002
X5.378Y25.396Z0
X6.63Y26.022
G0Z2
X-0.032Y22.355
G1Z-2F200
X0.16Y22.452F400
X4.975Y24.859Z-0.079
X5.154Y24.949Z-0.026
X5.333Y25.038Z-0.002
X5.512Y25.128Z0
X6.764Y25.754
G0Z2
X-0.077Y21.997
G1Z-2F200
X0.295Y22.184F400
X5.109Y24.591Z-0.079
X5.288Y24.68Z-0.026
X5.467Y24.77Z-0.002
X5.646Y24.859Z0
X6.898Y25.485
G0Z2
X-0.122Y21.639
G1Z-2F200
X0.431Y21.916F400
X5.244Y24.323Z-0.08
X5.423Y24.412Z-0.027
X5.601Y24.501Z-0.002
X5.78Y24.591Z0
X7.033Y25.217
G0Z2
X-0.167Y21.282
G1Z-2F200
X0.566Y21.648F400
X5.378Y24.054Z-0.08
X5.557Y24.144Z-0.027
X5.736Y24.233Z-0.002
X5.914Y24.323Z0
X7.167Y24.949
G0Z2
X-0.032Y21.013
G1Z-2F200
X0.701Y21.38F400
X5.512Y23.786Z-0.081
X5.691Y23.875Z-0.027
X5.87Y23.965Z-0.002
X6.049Y24.054Z0
X7.301Y24.68
G0Z2
X-0.077Y20.655
G1Z-2F200
X0.836Y21.113F400
X5.646Y23.518Z-0.081
X5.825Y23.607Z-0.027
X6.004Y23.696Z-0.002
X6.183Y23.786Z0
X7.435Y24.412
G0Z2
X-0.122Y20.298
G1Z-2F200
X0.972Y20.845F400
X5.78Y23.249Z-0.082
X5.959Y23.339Z-0.028
X6.138Y23.428Z-0.002
X6.317Y23.518Z0
X7.569Y24.144
G0Z2
X-0.167Y19.94
G1Z-2F200
X1.107Y20.577F400
X5.914Y22.981Z-0.082
X6.093Y23.07Z-0.028
X6.272Y23.16Z-0.002
X6.451Y23.249Z0
X7.703Y23.875
G0Z2
X-0.032Y19.672
G1Z-2F200
X1.242Y20.309F400
X6.049Y22.713Z-0.082
X6.228Y22.802Z-0.028
X6.406Y22.891Z-0.002
X6.585Y22.981Z0
X7.837Y23.607
G0Z2
X-0.077Y19.314
G1Z-2F200
X1.378Y20.042F400
X6.183Y22.444Z-0.083
X6.362Y22.534Z-0.028
X6.541Y22.623Z-0.002
X6.719Y22.713Z0
X7.972Y23.339
G0Z2
X-0.122Y18.956
G1Z-2F200
X1.513Y19.774F400
X6.317Y22.176Z-0.083
X6.496Y22.265Z-0.029
X6.675Y22.355Z-0.002
X6.854Y22.444Z0
X8.106Y23.07
G0Z2
X-0.167Y18.598
G1Z-2F200
X1.648Y19.506F400
X6.451Y21.908Z-0.084
X6.63Y21.997Z-0.029
X6.809Y22.086Z-0.003
X6.988Y22.176Z0
X8.24Y22.802
G0Z2
X-0.032Y18.33
G1Z-2F200
X1.784Y19.238F400
X6.585Y21.639Z-0.084
X6.764Y21.729Z-0.029
X6.943Y21.818Z-0.003
X7.122Y21.908Z0
X8.374Y22.534
G0Z2
X-0.077Y17.972
G1Z-2F200
X1.919Y18.971F400
X6.719Y21.371Z-0.085
X6.898Y21.46Z-0.029
X7.077Y21.55Z-0.003
X7.256Y21.639Z0
X8.508Y22.265
G0Z2
X-0.122Y17.614
G1Z-2F200
X2.054Y18.703F400
X6.854Y21.103Z-0.085
X7.033Y21.192Z-0.03
X7.211Y21.281Z-0.003
X7.39Y21.371Z0
X8.642Y21.997
G0Z2
X-0.167Y17.257
G1Z-2F200
X2.189Y18.435F400
X6.988Y20.834Z-0.086
X7.167Y20.924Z-0.03
X7.346Y21.013Z-0.003
X7.524Y21.103Z0
X8.777Y21.729
G0Z2
X-0.032Y16.988
G1Z-2F200
X2.325Y18.167F400
X7.122Y20.566Z-0.086
X7.301Y20.655Z-0.03
X7.48Y20.745Z-0.003
X7.659Y20.834Z0
X8.911Y21.46
G0Z2
X-0.077Y16.63
G1Z-2F200
X2.46Y17.9F400
X7.256Y20.298Z-0.086
X7.435Y20.387Z-0.03
X7.614Y20.477Z-0.003
X7.793Y20.566Z0
X9.045Y21.192
G0Z2
X-0.122Y16.273
G1Z-2F200
X2.595Y17.632F400
X7.39Y20.029Z-0.087
X7.569Y20.119Z-0.031
X7.748Y20.208Z-0.003
X7.927Y20.298Z0
X9.179Y20.924
G0Z2
X-0.167Y15.915
G1Z-2F200
X2.731Y17.364F400
X7.524Y19.761Z-0.087
X7.703Y19.85Z-0.031
X7.882Y19.94Z-0.003
X8.061Y20.029Z0
X9.313Y20.655
G0Z2
X-0.032Y15.647
G1Z-2F200
X2.866Y17.096F400
X7.659Y19.493Z-0.088
X7.837Y19.582Z-0.031
X8.016Y19.672Z-0.003
X8.195Y19.761Z0
X9.447Y20.387
G0Z2
X-0.077Y15.289
G1Z-2F200
X3.001Y16.829F400
X7.793Y19.224Z-0.088
X7.972Y19.314Z-0.032
X8.151Y19.403Z-0.003
X8.329Y19.493Z0
X9.582Y20.119
G0Z2
X-0.122Y14.931
G1Z-2F200
X3.137Y16.561F400
X7.927Y18.956Z-0.089
X8.106Y19.045Z-0.032
X8.285Y19.135Z-0.004
X8.464Y19.224Z0
X9.716Y19.85
G0Z2
X-0.167Y14.573
G1Z-2F200
X3.272Y16.293F400
X8.061Y18.688Z-0.089
X8.24Y18.777Z-0.032
X8.419Y18.867Z-0.004
X8.598Y18.956Z0
X9.85Y19.582
G0Z2
X-0.032Y14.305
G1Z-2F200
X3.407Y16.025F400
X8.195Y18.419Z-0.09
X8.374Y18.509Z-0.032
X8.553Y18.598Z-0.004
X8.732Y18.688Z0
X9.984Y19.314
G0Z2
X-0.077Y13.947
G1Z-2F200
X3.543Y15.758F400
X8.329Y18.151Z-0.09
X8.508Y18.24Z-0.033
X8.687Y18.33Z-0.004
X8.866Y18.419Z0
X10.118Y19.045
G0Z2
X-0.122Y13.589
G1Z-2F200
X3.678Y15.49F400
X8.464Y17.883Z-0.091
X8.642Y17.972Z-0.033
X8.821Y18.062Z-0.004
X9Y18.151Z0
X10.252Y18.777
G0Z2
X-0.167Y13.232
G1Z-2F200
X3.813Y15.222F400
X8.598Y17.614Z-0.091
X8.777Y17.704Z-0.033
X8.956Y17.793Z-0.004
X9.134Y17.883Z0
X10.387Y18.509
G0Z2
X-0.032Y12.963
G1Z-2F200
X3.948Y14.954F400
X8.732Y17.346Z-0.091
X8.911Y17.435Z-0.033
X9.09Y17.525Z-0.004
X9.269Y17.614Z0
X10.521Y18.24
G0Z2
X-0.077Y12.606
G1Z-2F200
X4.084Y14.687F400
X8.866Y17.078Z-0.092
X9.045Y17.167Z-0.034
X9.224Y17.257Z-0.004
X9.403Y17.346Z0
X10.655Y17.972
G0Z2
X-0.122Y12.248
G1Z-2F200
X4.219Y14.419F400
X9Y16.809Z-0.092
X9.179Y16.899Z-0.034
X9.358Y16.988Z-0.004
X9.537Y17.078Z0
X10.789Y17.704
G0Z2
X-0.167Y11.89
G1Z-2F200
X4.354Y14.151F400
X9.134Y16.541Z-0.093
X9.313Y16.63Z-0.034
X9.492Y16.72Z-0.004
X9.671Y16.809Z0
X10.923Y17.435
G0Z2
X-0.032Y11.622
G1Z-2F200
X4.49Y13.883F400
X9.269Y16.273Z-0.093
X9.447Y16.362Z-0.035
X9.626Y16.452Z-0.005
X9.805Y16.541Z0
X11.057Y17.167
G0Z2
X-0.077Y11.264
G1Z-2F200
X4.625Y13.615F400
X9.403Y16.004Z-0.094
X9.582Y16.094Z-0.035
X9.761Y16.183Z-0.005
X9.939Y16.273Z0
X11.192Y16.899
G0Z2
X-0.122Y10.906
G1Z-2F200
X4.76Y13.348F400
X9.537Y15.736Z-0.094
X9.716Y15.825Z-0.035
X9.895Y15.915Z-0.005
X10.074Y16.004Z0
X11.326Y16.63
G0Z2
X-0.167Y10.548
G1Z-2F200
X4.896Y13.08F400
X9.671Y15.468Z-0.095
X9.85Y15.557Z-0.035
X10.029Y15.647Z-0.005
X10.208Y15.736Z0
X11.46Y16.362
G0Z2
X-0.032Y10.28
G1Z-2F200
X5.031Y12.812F400
X9.805Y15.199Z-0.095
X9.984Y15.289Z-0.036
X10.163Y15.378Z-0.005
X10.342Y15.468Z0
X11.594Y16.094
G0Z2
X-0.077Y9.922
G1Z-2F200
X5.166Y12.544F400
X9.939Y14.931Z-0.096
X10.118Y15.021Z-0.036
X10.297Y15.11Z-0.005
X10.476Y15.199Z0
X11.728Y15.825
G0Z2
X-0.122Y9.565
G1Z-2F200
X5.301Y12.277F400
X10.074Y14.663Z-0.096
X10.252Y14.752Z-0.036
X10.431Y14.842Z-0.005
X10.61Y14.931Z0
X11.862Y15.557
G0Z2
X-0.167Y9.207
G1Z-2F200
X5.437Y12.009F400
X10.208Y14.394Z-0.096
X10.387Y14.484Z-0.037
X10.566Y14.573Z-0.005
X10.744Y14.663Z0
X11.997Y15.289
G0Z2
X-0.032Y8.938
G1Z-2F200
X5.572Y11.741F400
X10.342Y14.126Z-0.097
X10.521Y14.216Z-0.037
X10.7Y14.305Z-0.005
X10.879Y14.394Z0
X12.131Y15.021
G0Z2
X-0.077Y8.581
G1Z-2F200
X5.707Y11.473F400
X10.476Y13.858Z-0.097
X10.655Y13.947Z-0.037
X10.834Y14.037Z-0.005
X11.013Y14.126Z0
X12.265Y14.752
G0Z2
X-0.122Y8.223
G1Z-2F200
X5.843Y11.206F400
X10.61Y13.589Z-0.098
X10.789Y13.679Z-0.037
X10.968Y13.768Z-0.006
X11.147Y13.858Z0
X12.399Y14.484
G0Z2
X-0.167Y7.865
G1Z-2F200
X5.978Y10.938F400
X10.744Y13.321Z-0.098
X10.923Y13.411Z-0.038
X11.102Y13.5Z-0.006
X11.281Y13.589Z0
X12.533Y14.216Z0
G0Z2
X-0.032Y7.597
G1Z-2F200
X6.113Y10.67F400
X10.879Y13.053Z-0.099
X11.057Y13.142Z-0.038
X11.236Y13.232Z-0.006
X11.415Y13.321Z0
X12.667Y13.947Z0
G0Z2
X-0.077Y7.239
G1Z-2F200
X6.249Y10.402F400
X11.013Y12.784Z-0.099
X11.192Y12.874Z-0.038
X11.371Y12.963Z-0.006
X11.549Y13.053Z0
X12.802Y13.679Z0
G0Z2
X0.056Y6.971
G1Z-2F200
X6.384Y10.135F400
X11.147Y12.516Z-0.1
X11.326Y12.606Z-0.039
X11.505Y12.695Z-0.006
X11.684Y12.784Z0
X12.936Y13.411Z0
G0Z2
X0.19Y6.702
G1Z-2F200
X6.519Y9.867F400
X11.281Y12.248Z-0.1
X11.46Y12.337Z-0.039
X11.639Y12.427Z-0.006
X11.818Y12.516Z0
X13.07Y13.142Z0
G0Z2
X0.324Y6.434
G1Z-2F200
X6.654Y9.599F400
X11.415Y11.979Z-0.101
X11.594Y12.069Z-0.039
X11.773Y12.158Z-0.006
X11.952Y12.248Z0
X13.204Y12.874Z0
G0Z2
X0.458Y6.166
G1Z-2F200
X6.79Y9.331F400
X11.549Y11.711Z-0.101
X11.728Y11.801Z-0.039
X11.907Y11.89Z-0.006
X12.086Y11.979Z0
X13.159Y12.516
X13.338Y12.606Z0
G0Z2
X0.593Y5.897
G1Z-2F200
X6.925Y9.064F400
X11.684Y11.443Z-0.101
X11.862Y11.532Z-0.04
X12.041Y11.622Z-0.007
X12.22Y11.711Z0
X13.294Y12.248
X13.472Y12.337Z0
G0Z2
X0.727Y5.629
G1Z-2F200
X7.06Y8.796F400
X11.818Y11.174Z-0.102
X11.997Y11.264Z-0.04
X12.175Y11.353Z-0.007
X12.354Y11.443Z0
X13.428Y11.979
X13.607Y12.069Z0
G0Z2
X0.861Y5.361
G1Z-2F200
X7.196Y8.528F400
X11.952Y10.906Z-0.102
X12.131Y10.996Z-0.04
X12.31Y11.085Z-0.007
X12.489Y11.174Z0
X13.562Y11.711
X13.741Y11.801Z0
G0Z2
X0.995Y5.092
G1Z-2F200
X7.331Y8.26F400
X12.086Y10.638Z-0.103
X12.265Y10.727Z-0.041
X12.444Y10.817Z-0.007
X12.623Y10.906Z0
X13.696Y11.443
X13.875Y11.532Z0
G0Z2
X1.129Y4.824
G1Z-2F200
X7.466Y7.993F400
X12.22Y10.369Z-0.103
X12.399Y10.459Z-0.041
X12.578Y10.548Z-0.007
X12.757Y10.638Z0
X13.83Y11.174
X14.009Y11.264Z-0
G0Z2
X1.263Y4.556
G1Z-2F200
X7.602Y7.725F400
X12.354Y10.101Z-0.104
X12.533Y10.191Z-0.041
X12.712Y10.28Z-0.007
X12.891Y10.369Z0
X13.964Y10.906
X14.143Y10.996Z-0
G0Z2
X1.219Y4.198
G1Z-2F200
X7.737Y7.457F400
X12.489Y9.833Z-0.104
X12.667Y9.922Z-0.042
X12.846Y10.012Z-0.007
X13.025Y10.101Z0
X14.099Y10.638
X14.277Y10.727Z-0
G0Z2
X1.353Y3.93
G1Z-2F200
X7.872Y7.189F400
X12.623Y9.565Z-0.105
X12.802Y9.654Z-0.042
X12.98Y9.743Z-0.007
X13.159Y9.833Z0
X14.233Y10.369
X14.412Y10.459Z-0
G0Z2
X1.487Y3.661
G1Z-2F200
X8.007Y6.922F400
X12.757Y9.296Z-0.105
X12.936Y9.386Z-0.042
X13.115Y9.475Z-0.008
X13.294Y9.565Z0
X14.367Y10.101
X14.546Y10.191Z-0
G0Z2
X1.8Y3.482
G1Z-2F200
X8.143Y6.654F400
X12.891Y9.028Z-0.106
X13.07Y9.117Z-0.043
X13.249Y9.207Z-0.008
X13.428Y9.296Z0
X14.501Y9.833
X14.68Y9.922Z-0.001
G0Z2
X1.934Y3.214
G1Z-2F200
X8.278Y6.386F400
X13.025Y8.76Z-0.106
X13.204Y8.849Z-0.043
X13.383Y8.938Z-0.008
X13.562Y9.028Z0
X14.635Y9.565
X14.814Y9.654Z-0.001
G0Z2
X2.247Y3.035
G1Z-2F200
X8.413Y6.118F400
X13.159Y8.491Z-0.106
X13.338Y8.581Z-0.043
X13.517Y8.67Z-0.008
X13.696Y8.76Z0
X14.769Y9.296
X14.948Y9.386Z-0.001
G0Z2
X2.382Y2.767
G1Z-2F200
X8.549Y5.85F400
X13.294Y8.223Z-0.107
X13.472Y8.312Z-0.043
X13.651Y8.402Z-0.008
X13.83Y8.491Z0
X14.903Y9.028
X15.082Y9.117Z-0.001
G0Z2
X2.695Y2.588
G1Z-2F200
X8.684Y5.583F400
X13.428Y7.955Z-0.107
X13.607Y8.044Z-0.044
X13.785Y8.133Z-0.008
X13.964Y8.223Z0
X15.038Y8.76
X15.217Y8.849Z-0.001
G0Z2
X2.829Y2.32
G1Z-2F200
X8.819Y5.315F400
X13.562Y7.686Z-0.108
X13.741Y7.776Z-0.044
X13.92Y7.865Z-0.008
X14.099Y7.955Z0
X15.172Y8.491
X15.351Y8.581Z-0.001
G0Z2
X3.142Y2.141
G1Z-2F200
X8.955Y5.047F400
X13.696Y7.418Z-0.108
X13.875Y7.507Z-0.044
X14.054Y7.597Z-0.009
X14.233Y7.686Z0
X15.306Y8.223
X15.485Y8.312Z-0.001
G0Z2
X3.276Y1.872
G1Z-2F200
X9.09Y4.779F400
X13.83Y7.15Z-0.109
X14.009Y7.239Z-0.045
X14.188Y7.328Z-0.009
X14.367Y7.418Z0
X15.44Y7.955
X15.619Y8.044Z-0.001
G0Z2
X3.589Y1.694
G1Z-2F200
X9.225Y4.512F400
X13.964Y6.881Z-0.109
X14.143Y6.971Z-0.045
X14.322Y7.06Z-0.009
X14.501Y7.15Z0
X15.574Y7.686
X15.753Y7.776Z-0.002
G0Z2
X3.723Y1.425
G1Z-2F200
X9.361Y4.244F400
X14.099Y6.613Z-0.11
X14.277Y6.702Z-0.045
X14.456Y6.792Z-0.009
X14.635Y6.881Z0
X15.708Y7.418
X15.887Y7.507Z-0.002
G0Z2
X4.036Y1.246
G1Z-2F200
X9.501Y3.979F400
X9.582Y4.019Z-1.965
X14.233Y6.345Z-0.11
X14.412Y6.434Z-0.046
X14.59Y6.523Z-0.009
X14.769Y6.613Z0
X15.843Y7.15
X16.022Y7.239Z-0.002
X16.2Y7.328Z-0.027
G0Z2
X4.17Y0.978
G1Z-2F200
X9.654Y3.72F400
X9.716Y3.751Z-1.968
X9.895Y3.84Z-1.894
X14.367Y6.076Z-0.111
X14.546Y6.166Z-0.046
X14.725Y6.255Z-0.009
X14.903Y6.345Z0
X15.977Y6.881
X16.156Y6.971Z-0.002
X16.335Y7.06Z-0.027
G0Z2
X4.483Y0.799
G1Z-2F200
X9.819Y3.467F400
X9.85Y3.482Z-1.984
X10.029Y3.572Z-1.896
X10.208Y3.661Z-1.823
X14.501Y5.808Z-0.111
X14.68Y5.897Z-0.046
X14.859Y5.987Z-0.009
X15.038Y6.076Z0
X16.111Y6.613
X16.29Y6.702Z-0.002
X16.469Y6.792Z-0.028
G0Z2
X4.618Y0.531
G1Z-2F200
X9.987Y3.216F400
X10.163Y3.304Z-1.909
X10.342Y3.393Z-1.824
X14.635Y5.54Z-0.111
X14.814Y5.629Z-0.047
X14.993Y5.718Z-0.01
X15.172Y5.808Z0
X16.245Y6.345
X16.424Y6.434Z-0.002
X16.603Y6.523Z-0.028
G0Z2
X4.931Y0.352
G1Z-2F200
X10.155Y2.964F400
X10.476Y3.125Z-1.835
X10.655Y3.214Z-1.753
X14.769Y5.271Z-0.112
X14.948Y5.361Z-0.047
X15.127Y5.45Z-0.01
X15.306Y5.54Z0
X16.379Y6.076
X16.558Y6.166Z-0.003
X16.737Y6.255Z-0.029
G0Z2
X5.065Y0.084
G1Z-2F200
X10.323Y2.712F400
X10.789Y2.946Z-1.76
X10.968Y3.035Z-1.682
X14.903Y5.003Z-0.112
X15.082Y5.092Z-0.047
X15.261Y5.182Z-0.01
X15.44Y5.271Z0
X16.513Y5.808
X16.692Y5.897Z-0.003
X16.871Y5.987Z-0.03
G0Z2
X5.378Y-0.094
G1Z-2F200
X10.49Y2.461F400
X10.923Y2.677Z-1.777
X11.102Y2.767Z-1.686
X11.281Y2.856Z-1.611
X15.038Y4.735Z-0.113
X15.217Y4.824Z-0.048
X15.395Y4.913Z-0.01
X15.574Y5.003Z0
X16.648Y5.54
X16.827Y5.629Z-0.003
X17.005Y5.718Z-0.03
G0Z2
X5.512Y-0.363
G1Z-2F200
X10.658Y2.209F400
X11.236Y2.499Z-1.702
X11.415Y2.588Z-1.613
X11.594Y2.677Z-1.54
X15.172Y4.466Z-0.113
X15.351Y4.556Z-0.048
X15.53Y4.645Z-0.01
X15.708Y4.735Z0
X16.782Y5.271
X16.961Y5.361Z-0.003
X17.14Y5.45Z-0.031
G0Z2
X5.825Y-0.542
G1Z-2F200
X10.826Y1.958F400
X11.549Y2.32Z-1.628
X11.728Y2.409Z-1.541
X15.306Y4.198Z-0.114
X15.485Y4.287Z-0.048
X15.664Y4.377Z-0.01
X15.843Y4.466Z0
X16.916Y5.003
X17.095Y5.092Z-0.003
X17.274Y5.182Z-0.031
G0Z2
X6.138Y-0.72
G1Z-2F200
X10.993Y1.706F400
X11.862Y2.141Z-1.553
X12.041Y2.23Z-1.47
X15.44Y3.93Z-0.114
X15.619Y4.019Z-0.049
X15.798Y4.109Z-0.01
X15.977Y4.198Z0
X17.05Y4.735
X17.229Y4.824Z-0.004
X17.408Y4.913Z-0.032
G0Z2
X6.809Y-0.72
G1Z-2F200
X11.161Y1.455F400
X12.175Y1.962Z-1.478
X12.354Y2.051Z-1.399
X15.574Y3.661Z-0.115
X15.753Y3.751Z-0.049
X15.932Y3.84Z-0.011
X16.111Y3.93Z0
X17.184Y4.466
X17.363Y4.556Z-0.004
X17.542Y4.645Z-0.033
G0Z2
X7.48Y-0.72
G1Z-2F200
X11.329Y1.203F400
X12.31Y1.694Z-1.496
X12.489Y1.783Z-1.404
X12.667Y1.872Z-1.328
X15.708Y3.393Z-0.115
X15.887Y3.482Z-0.049
X16.066Y3.572Z-0.011
X16.245Y3.661Z0
X17.318Y4.198
X17.497Y4.287Z-0.004
X17.676Y4.377Z-0.033
G0Z2
X8.151Y-0.72
G1Z-2F200
X11.496Y0.952F400
X12.623Y1.515Z-1.421
X12.802Y1.604Z-1.331
X12.98Y1.694Z-1.257
X15.843Y3.125Z-0.116
X16.022Y3.214Z-0.05
X16.2Y3.304Z-0.011
X16.379Y3.393Z0
X17.453Y3.93
X17.631Y4.019Z-0.004
X17.81Y4.109Z-0.034
G0Z2
X8.821Y-0.72
G1Z-2F200
X11.664Y0.7F400
X12.936Y1.336Z-1.346
X13.115Y1.425Z-1.258
X13.294Y1.515Z-1.186
X15.977Y2.856Z-0.116
X16.156Y2.946Z-0.05
X16.335Y3.035Z-0.011
X16.513Y3.125Z0
X17.587Y3.661
X17.766Y3.751Z-0.004
X17.945Y3.84Z-0.034
G0Z2
X9.492Y-0.72
G1Z-2F200
X11.832Y0.448F400
X13.249Y1.157Z-1.272
X13.428Y1.246Z-1.187
X16.111Y2.588Z-0.116
X16.29Y2.677Z-0.05
X16.469Y2.767Z-0.011
X16.648Y2.856Z0
X17.721Y3.393
X17.9Y3.482Z-0.005
X18.079Y3.572Z-0.035
G0Z2
X10.163Y-0.72
G1Z-2F200
X12Y0.197F400
X13.562Y0.978Z-1.197
X13.741Y1.067Z-1.116
X16.245Y2.32Z-0.117
X16.424Y2.409Z-0.051
X16.603Y2.499Z-0.011
X16.782Y2.588Z0
X17.855Y3.125
X18.034Y3.214Z-0.005
X18.213Y3.304Z-0.036
G0Z2
X10.834Y-0.72
G1Z-2F200
X12.167Y-0.054F400
X13.875Y0.799Z-1.123
X14.054Y0.889Z-1.045
X16.379Y2.051Z-0.117
X16.558Y2.141Z-0.051
X16.737Y2.23Z-0.012
X16.916Y2.32Z0
X17.989Y2.856
X18.168Y2.946Z-0.005
X18.347Y3.035Z-0.036
G0Z2
X11.505Y-0.72
G1Z-2F200
X12.335Y-0.305F400
X14.009Y0.531Z-1.14
X14.188Y0.62Z-1.049
X14.367Y0.71Z-0.974
X16.513Y1.783Z-0.118
X16.692Y1.872Z-0.051
X16.871Y1.962Z-0.012
X17.05Y2.051Z0
X18.123Y2.588
X18.302Y2.677Z-0.005
X18.481Y2.767Z-0.037
G0Z2
X12.175Y-0.72
G1Z-2F200
X12.503Y-0.557F400
X14.322Y0.352Z-1.065
X14.501Y0.441Z-0.976
X14.68Y0.531Z-0.903
X16.648Y1.515Z-0.118
X16.826Y1.604Z-0.052
X17.005Y1.694Z-0.012
X17.184Y1.783Z0
X18.258Y2.32
X18.436Y2.409Z-0.006
X18.615Y2.499Z-0.038
G0Z2
X12.846Y-0.72
G1Z-1.909F200
X14.635Y0.173Z-0.99F400
X14.814Y0.262Z-0.904
X16.782Y1.246Z-0.119
X16.961Y1.336Z-0.052
X17.14Y1.425Z-0.012
X17.318Y1.515Z0
X18.392Y2.051
X18.571Y2.141Z-0.006
X18.75Y2.23Z-0.038
G0Z2
X13.517Y-0.72
G1Z-1.651F200
X14.948Y-0.005Z-0.916F400
X15.127Y0.084Z-0.833
X16.916Y0.978Z-0.119
X17.095Y1.067Z-0.052
X17.274Y1.157Z-0.012
X17.453Y1.246Z0
X18.526Y1.783
X18.705Y1.872Z-0.006
X18.884Y1.962Z-0.039
G0Z2
X14.188Y-0.72
G1Z-1.392F200
X15.261Y-0.184Z-0.841F400
X15.44Y-0.094Z-0.762
X17.05Y0.71Z-0.12
X17.229Y0.799Z-0.053
X17.408Y0.889Z-0.012
X17.587Y0.978Z0
X18.66Y1.515
X18.839Y1.604Z-0.006
X19.018Y1.694Z-0.04
G0Z2
X14.859Y-0.72
G1Z-1.134F200
X15.395Y-0.452Z-0.858F400
X15.574Y-0.363Z-0.767
X15.753Y-0.273Z-0.691
X17.184Y0.441Z-0.12
X17.363Y0.531Z-0.053
X17.542Y0.62Z-0.013
X17.721Y0.71Z0
X18.794Y1.246
X18.973Y1.336Z-0.007
G0Z2
X15.53Y-0.72
G1Z-0.876F200
X15.708Y-0.631Z-0.784F400
X15.887Y-0.542Z-0.694
X16.066Y-0.452Z-0.62
X17.318Y0.173Z-0.121
X17.497Y0.262Z-0.053
X17.676Y0.352Z-0.013
X17.855Y0.441Z0
X18.928Y0.978
G0Z2
X16.2Y-0.72
G1Z-0.621F200
X16.379Y-0.631Z-0.549F400
X17.453Y-0.094Z-0.121
X17.631Y-0.005Z-0.054
X17.81Y0.084Z-0.013
X17.989Y0.173Z0
X19.063Y0.71
G0Z2
X16.871Y-0.72
G1Z-0.407F200
X17.587Y-0.363Z-0.121F400
X17.766Y-0.273Z-0.054
X17.945Y-0.184Z-0.013
X18.123Y-0.094Z0
X19.018Y0.352
G0Z2
X17.542Y-0.72
G1Z-0.193F200
X17.721Y-0.631Z-0.122F400
X17.9Y-0.542Z-0.054
X18.079Y-0.452Z-0.013
X18.258Y-0.363Z0
X18.973Y-0.005
G0Z2
X18.213Y-0.72
G1Z-0.013F200
X18.392Y-0.631Z0F400
X18.928Y-0.363
X18.884Y-0.72
X19.063Y-0.631
G0Z2
X-0.122Y22.981
G1Z-2.004F200
X-0.11Y22.987Z-2F400
X-0.167Y22.623Z-2.076
X0.025Y22.719Z-2
X-0.032Y22.355Z-2.077
X0.16Y22.452Z-2
X-0.077Y21.997Z-2.148
X0.295Y22.184Z-2
X-0.122Y21.639Z-2.22
X0.431Y21.916Z-2
X-0.167Y21.282Z-2.292
X0.566Y21.648Z-2
X-0.032Y21.013Z-2.293
X0.701Y21.38Z-2
G0Z2
X-0.077Y20.655
G1Z-2.364F200
X0.836Y21.113Z-2F400
G0Z2
X-0.122Y20.298
G1Z-2.436F200
X0.972Y20.845Z-2F400
G0Z2
X-0.167Y19.94
G1Z-2.508F200
X1.107Y20.577Z-2F400
G0Z2
X-0.032Y19.672
G1Z-2.508F200
X1.242Y20.309Z-2F400
G0Z2
X-0.077Y19.314
G1Z-2.58F200
X1.378Y20.042Z-2F400
G0Z2
X-0.122Y18.956
G1Z-2.652F200
X1.513Y19.774Z-2F400
G0Z2
X-0.167Y18.598
G1Z-2.724F200
X1.648Y19.506Z-2F400
G0Z2
X-0.032Y18.33
G1Z-2.724F200
X1.784Y19.238Z-2F400
G0Z2
X-0.077Y17.972
G1Z-2.796F200
X1.919Y18.971Z-2F400
G0Z2
X-0.122Y17.614
G1Z-2.868F200
X2.054Y18.703Z-2F400
G0Z2
X-0.167Y17.257
G1Z-2.94F200
X2.189Y18.435Z-2F400
G0Z2
X-0.032Y16.988
G1Z-2.94F200
X2.325Y18.167Z-2F400
G0Z2
X-0.077Y16.63
G1Z-3.012F200
X2.46Y17.9Z-2F400
G0Z2
X-0.122Y16.273
G1Z-3.084F200
X2.595Y17.632Z-2F400
G0Z2
X-0.167Y15.915
G1Z-3.156F200
X2.731Y17.364Z-2F400
G0Z2
X-0.032Y15.647
G1Z-3.156F200
X2.866Y17.096Z-2F400
G0Z2
X-0.077Y15.289
G1Z-3.228F200
X3.001Y16.829Z-2F400
G0Z2
X-0.122Y14.931
G1Z-3.3F200
X3.137Y16.561Z-2F400
G0Z2
X-0.167Y14.573
G1Z-3.371F200
X3.272Y16.293Z-2F400
G0Z2
X-0.032Y14.305
G1Z-3.372F200
X3.407Y16.025Z-2F400
G0Z2
X-0.077Y13.947
G1Z-3.444F200
X3.543Y15.758Z-2F400
G0Z2
X-0.122Y13.589
G1Z-3.516F200
X3.678Y15.49Z-2F400
G0Z2
X-0.167Y13.232
G1Z-3.587F200
X3.813Y15.222Z-2F400
G0Z2
X-0.032Y12.963
G1Z-3.588F200
X3.948Y14.954Z-2F400
G0Z2
X-0.077Y12.606
G1Z-3.66F200
X4.084Y14.687Z-2F400
G0Z2
X-0.122Y12.248
G1Z-3.731F200
X4.219Y14.419Z-2F400
G0Z2
X-0.167Y11.89
G1Z-3.803F200
X4.354Y14.151Z-2F400
G0Z2
X-0.032Y11.622
G1Z-3.804F200
X4.49Y13.883Z-2F400
G0Z2
X-0.077Y11.264
G1Z-3.875F200
X4.625Y13.615Z-2F400
G0Z2
X-0.122Y10.906
G1Z-3.947F200
X4.76Y13.348Z-2F400
G0Z2
X-0.167Y10.548
G1Z-4F200
X-0.103Y10.58F400
X0.011Y10.638Z-3.948
X4.896Y13.08Z-2
G0Z2
X-0.032Y10.28
G1Z-4F200
X0.056Y10.325F400
X0.145Y10.37Z-3.954
X0.324Y10.459Z-3.877
X5.031Y12.812Z-2
G0Z2
X-0.077Y9.922
G1Z-4F200
X0.224Y10.073F400
X0.28Y10.101Z-3.971
X0.458Y10.191Z-3.88
X0.637Y10.28Z-3.806
X5.166Y12.544Z-2
G0Z2
X-0.122Y9.565
G1Z-4F200
X0.391Y9.822F400
X0.593Y9.922Z-3.896
X0.772Y10.012Z-3.807
X0.95Y10.101Z-3.735
X5.301Y12.277Z-2
G0Z2
X-0.167Y9.207
G1Z-4F200
X0.559Y9.57F400
X0.906Y9.743Z-3.821
X1.085Y9.833Z-3.736
X5.437Y12.009Z-2
G0Z2
X-0.032Y8.938
G1Z-4F200
X0.727Y9.318F400
X1.219Y9.565Z-3.747
X1.398Y9.654Z-3.665
X5.572Y11.741Z-2
G0Z2
X-0.077Y8.581
G1Z-4F200
X0.894Y9.067F400
X1.532Y9.386Z-3.672
X1.711Y9.475Z-3.594
X5.707Y11.473Z-2
G0Z2
X-0.122Y8.223
G1Z-4F200
X1.062Y8.815F400
X1.666Y9.117Z-3.689
X1.845Y9.207Z-3.598
X2.024Y9.296Z-3.523
X5.843Y11.206Z-2
G0Z2
X-0.167Y7.865
G1Z-4F200
X1.23Y8.564F400
X1.979Y8.938Z-3.615
X2.158Y9.028Z-3.525
X2.337Y9.117Z-3.452
X5.978Y10.938Z-2
G0Z2
X-0.032Y7.597
G1Z-4F200
X1.398Y8.312Z-3.999F400
X2.292Y8.76Z-3.54
X2.471Y8.849Z-3.453
X2.65Y8.938Z-3.381
X6.113Y10.67Z-2
G0Z2
X-0.077Y7.239
G1Z-4F200
X1.565Y8.061F400
X2.605Y8.581Z-3.465
X2.784Y8.67Z-3.381
X6.249Y10.402Z-2
G0Z2
X0.056Y6.971
G1Z-4F200
X1.733Y7.809F400
X2.918Y8.402Z-3.391
X3.097Y8.491Z-3.311
X6.384Y10.135Z-2
G0Z2
X0.19Y6.702
G1Z-4F200
X1.901Y7.558F400
X3.052Y8.133Z-3.408
X3.231Y8.223Z-3.316
X3.41Y8.312Z-3.24
X6.519Y9.867Z-2
G0Z2
X0.324Y6.434
G1Z-4F200
X2.068Y7.306F400
X3.365Y7.955Z-3.333
X3.544Y8.044Z-3.243
X3.723Y8.133Z-3.169
X6.654Y9.599Z-2
G0Z2
X0.458Y6.166
G1Z-4F200
X2.236Y7.054F400
X3.678Y7.776Z-3.259
X3.857Y7.865Z-3.17
X4.036Y7.955Z-3.098
X6.79Y9.331Z-2
G0Z2
X0.593Y5.897
G1Z-4F200
X2.404Y6.803F400
X3.991Y7.597Z-3.184
X4.17Y7.686Z-3.098
X6.925Y9.064Z-2
G0Z2
X0.727Y5.629
G1Z-4F200
X2.571Y6.551F400
X4.305Y7.418Z-3.109
X4.483Y7.507Z-3.027
X7.06Y8.796Z-2
G0Z2
X0.861Y5.361
G1Z-4F200
X2.739Y6.3F400
X4.618Y7.239Z-3.035
X4.796Y7.328Z-2.956
X7.196Y8.528Z-2
G0Z2
X0.995Y5.092
G1Z-4F200
X2.907Y6.048F400
X4.752Y6.971Z-3.052
X4.931Y7.06Z-2.961
X5.11Y7.15Z-2.886
X7.331Y8.26Z-2
G0Z2
X1.129Y4.824
G1Z-4F200
X3.075Y5.797F400
X5.065Y6.792Z-2.977
X5.244Y6.881Z-2.888
X5.423Y6.971Z-2.815
X7.466Y7.993Z-2
G0Z2
X1.263Y4.556
G1Z-4F200
X3.242Y5.545F400
X5.378Y6.613Z-2.903
X5.557Y6.702Z-2.816
X5.736Y6.792Z-2.744
X7.602Y7.725Z-2
G0Z2
X1.219Y4.198
G1Z-4F200
X3.41Y5.294F400
X5.691Y6.434Z-2.828
X5.87Y6.523Z-2.744
X7.737Y7.457Z-2
G0Z2
X1.353Y3.93
G1Z-4F200
X3.578Y5.042F400
X6.004Y6.255Z-2.753
X6.183Y6.345Z-2.673
X7.872Y7.189Z-2
G0Z2
X1.487Y3.661
G1Z-4F200
X3.745Y4.79F400
X6.138Y5.987Z-2.771
X6.317Y6.076Z-2.679
X6.496Y6.166Z-2.602
X8.007Y6.922Z-2
G0Z2
X1.8Y3.482
G1Z-4F200
X3.913Y4.539F400
X6.451Y5.808Z-2.696
X6.63Y5.897Z-2.606
X6.809Y5.987Z-2.532
X8.143Y6.654Z-2
G0Z2
X1.934Y3.214
G1Z-4F200
X4.081Y4.287Z-3.999F400
X6.764Y5.629Z-2.621
X6.943Y5.718Z-2.533
X7.122Y5.808Z-2.461
X8.278Y6.386Z-2
G0Z2
X2.247Y3.035
G1Z-4F200
X4.248Y4.036F400
X7.077Y5.45Z-2.547
X7.256Y5.54Z-2.461
X8.413Y6.118Z-2
G0Z2
X2.382Y2.767
G1Z-4F200
X4.416Y3.784F400
X7.39Y5.271Z-2.472
X7.569Y5.361Z-2.39
X8.549Y5.85Z-2
G0Z2
X2.695Y2.588
G1Z-4F200
X4.584Y3.533F400
X7.703Y5.092Z-2.397
X7.882Y5.182Z-2.319
X8.684Y5.583Z-2
G0Z2
X2.829Y2.32
G1Z-4F200
X4.752Y3.281F400
X7.838Y4.824Z-2.415
X8.016Y4.914Z-2.323
X8.195Y5.003Z-2.248
X8.819Y5.315Z-2
G0Z2
X3.142Y2.141
G1Z-4F200
X4.919Y3.03F400
X8.151Y4.645Z-2.34
X8.329Y4.735Z-2.251
X8.508Y4.824Z-2.178
X8.955Y5.047Z-2
G0Z2
X3.276Y1.872
G1Z-4F200
X5.087Y2.778F400
X8.464Y4.466Z-2.265
X8.642Y4.556Z-2.178
X9.09Y4.779Z-2
G0Z2
X3.589Y1.694
G1Z-4F200
X5.255Y2.526F400
X8.777Y4.287Z-2.191
X8.956Y4.377Z-2.107
X9.225Y4.512Z-2
G0Z2
X3.723Y1.425
G1Z-4F200
X5.422Y2.275F400
X9.09Y4.109Z-2.116
X9.269Y4.198Z-2.036
X9.361Y4.244Z-2
G0Z2
X4.036Y1.246
G1Z-4F200
X5.59Y2.023F400
X9.224Y3.84Z-2.133
X9.403Y3.93Z-2.042
X9.501Y3.979Z-2
G0Z2
X4.17Y0.978
G1Z-4F200
X5.758Y1.772F400
X9.537Y3.661Z-2.058
X9.654Y3.72Z-2
G0Z2
X4.483Y0.799
G1Z-4F200
X5.926Y1.52F400
X9.819Y3.467Z-2
G0Z2
X4.618Y0.531
G1Z-4F200
X6.093Y1.269F400
X9.987Y3.216Z-2
G0Z2
X4.931Y0.352
G1Z-4F200
X6.261Y1.017F400
X10.155Y2.964Z-2
G0Z2
X5.065Y0.084
G1Z-4F200
X6.429Y0.766F400
X10.323Y2.712Z-2
G0Z2
X5.378Y-0.094
G1Z-4F200
X6.596Y0.514F400
X10.49Y2.461Z-2
G0Z2
X5.512Y-0.363
G1Z-4F200
X6.764Y0.262Z-3.999F400
X10.658Y2.209Z-2
G0Z2
X5.825Y-0.542
G1Z-4F200
X6.932Y0.011F400
X10.826Y1.958Z-2
G0Z2
X6.138Y-0.72
G1Z-4F200
X7.099Y-0.24F400
X10.993Y1.706Z-2
G0Z2
X6.809Y-0.72
G1Z-4F200
X7.267Y-0.491F400
X11.161Y1.455Z-2
G0Z2
X7.48Y-0.72
G1Z-3.976F200
X11.329Y1.203Z-2F400
G0Z2
X8.151Y-0.72
G1Z-3.718F200
X11.496Y0.952Z-2F400
G0Z2
X8.821Y-0.72
G1Z-3.46F200
X11.664Y0.7Z-2F400
G0Z2
X9.492Y-0.72
G1Z-3.201F200
X11.832Y0.448Z-2F400
G0Z2
X10.163Y-0.72
G1Z-2.943F200
X12Y0.197Z-2F400
G0Z2
X10.834Y-0.72
G1Z-2.684F200
X12.167Y-0.054Z-2F400
G0Z2
X11.505Y-0.72
G1Z-2.426F200
X12.335Y-0.305Z-2F400
X12.175Y-0.72Z-2.168
X12.503Y-0.557Z-2
G0Z2
X-0.167Y10.548
G1Z-4.028F200
X-0.103Y10.58Z-4F400
X-0.058Y10.388Z-4.027
X-0.032Y10.28Z-4.045
X0.056Y10.325Z-4
X-0.077Y9.922Z-4.154
X0.224Y10.073Z-4
X-0.122Y9.565Z-4.253
X0.056Y9.654Z-4.172
X0.391Y9.822Z-4
X-0.167Y9.207Z-4.346
X0.011Y9.296Z-4.267
X0.19Y9.386Z-4.189
X0.559Y9.57Z-4
X-0.032Y8.938Z-4.36
X0.145Y9.028Z-4.281
X0.324Y9.117Z-4.204
X0.503Y9.207Z-4.114
X0.727Y9.318Z-4
G0Z2
X-0.077Y8.581
G1Z-4.475F200
X0.101Y8.67Z-4.374F400
X0.28Y8.76Z-4.296
X0.458Y8.849Z-4.219
X0.637Y8.938Z-4.132
X0.894Y9.067Z-4
G0Z2
X-0.122Y8.223
G1Z-4.593F200
X0.056Y8.312Z-4.486F400
X0.235Y8.402Z-4.388
X0.593Y8.581Z-4.233
X0.772Y8.67Z-4.149
X1.062Y8.815Z-4
G0Z2
X-0.167Y7.865
G1Z-4.593F200
X0.011Y7.955F400
X0.19Y8.044Z-4.498
X0.369Y8.133Z-4.402
X0.727Y8.312Z-4.248
X0.906Y8.402Z-4.166
X1.23Y8.564Z-4
G0Z2
X-0.032Y7.597
G1Z-4.593F200
X0.145Y7.686F400
X0.324Y7.776Z-4.51
X0.503Y7.865Z-4.417
X0.861Y8.044Z-4.262
X1.04Y8.133Z-4.183
X1.397Y8.312Z-4
G0Z2
X-0.077Y7.239
G1Z-4.593F200
X0.28Y7.418F400
X0.458Y7.507Z-4.523
X0.637Y7.597Z-4.431
X1.174Y7.865Z-4.199
X1.353Y7.955Z-4.109
X1.565Y8.061Z-4
G0Z2
X0.056Y6.971
G1Z-4.593F200
X0.414Y7.15F400
X0.593Y7.239Z-4.535
X0.772Y7.328Z-4.446
X1.308Y7.597Z-4.214
X1.487Y7.686Z-4.126
X1.733Y7.809Z-4
G0Z2
X0.19Y6.702
G1Z-4.593F200
X0.548Y6.881F400
X0.727Y6.971Z-4.548
X0.906Y7.06Z-4.46
X1.442Y7.328Z-4.228
X1.621Y7.418Z-4.143
X1.901Y7.558Z-4
G0Z2
X0.324Y6.434
G1Z-4.593F200
X0.682Y6.613F400
X0.861Y6.702Z-4.56
X1.04Y6.792Z-4.475
X1.577Y7.06Z-4.243
X1.755Y7.15Z-4.16
X2.068Y7.306Z-4
G0Z2
X0.458Y6.166
G1Z-4.593F200
X0.816Y6.345F400
X0.995Y6.434Z-4.573
X1.174Y6.523Z-4.489
X1.711Y6.792Z-4.257
X1.89Y6.881Z-4.177
X2.236Y7.054Z-4
G0Z2
X0.593Y5.897
G1Z-4.593F200
X0.95Y6.076F400
X1.129Y6.166Z-4.586
X1.308Y6.255Z-4.504
X2.024Y6.613Z-4.195
X2.404Y6.803Z-4
G0Z2
X0.727Y5.629
G1Z-4.593F200
X1.263Y5.897F400
X1.442Y5.987Z-4.518
X2.158Y6.345Z-4.209
X2.337Y6.434Z-4.12
X2.571Y6.551Z-4
G0Z2
X0.861Y5.361
G1Z-4.593F200
X1.398Y5.629F400
X1.577Y5.718Z-4.533
X2.292Y6.076Z-4.224
X2.471Y6.166Z-4.137
X2.739Y6.3Z-4
G0Z2
X0.995Y5.092
G1Z-4.593F200
X1.532Y5.361F400
X1.711Y5.45Z-4.547
X2.426Y5.808Z-4.238
X2.605Y5.897Z-4.154
X2.907Y6.048Z-4
G0Z2
X1.129Y4.824
G1Z-4.593F200
X1.666Y5.092F400
X1.845Y5.182Z-4.562
X2.56Y5.54Z-4.253
X2.739Y5.629Z-4.172
X3.075Y5.797Z-4
G0Z2
X1.263Y4.556
G1Z-4.593F200
X1.8Y4.824F400
X1.979Y4.914Z-4.576
X2.695Y5.271Z-4.267
X2.873Y5.361Z-4.189
X3.242Y5.545Z-4
G0Z2
X1.219Y4.198
G1Z-4.593F200
X1.934Y4.556F400
X2.113Y4.645Z-4.591
X3.008Y5.092Z-4.204
X3.186Y5.182Z-4.114
X3.41Y5.294Z-4
G0Z2
X1.353Y3.93
G1Z-4.593F200
X2.247Y4.377F400
X2.426Y4.466Z-4.528
X3.142Y4.824Z-4.219
X3.321Y4.914Z-4.132
X3.578Y5.042Z-4
G0Z2
X1.487Y3.661
G1Z-4.593F200
X2.382Y4.109F400
X2.56Y4.198Z-4.542
X3.276Y4.556Z-4.233
X3.455Y4.645Z-4.149
X3.745Y4.79Z-4
G0Z2
X1.8Y3.482
G1Z-4.593F200
X2.516Y3.84F400
X2.695Y3.93Z-4.557
X3.41Y4.287Z-4.248
X3.589Y4.377Z-4.166
X3.913Y4.539Z-4
G0Z2
X1.934Y3.214
G1Z-4.593F200
X2.65Y3.572F400
X2.829Y3.661Z-4.571
X3.544Y4.019Z-4.262
X3.723Y4.109Z-4.183
X4.081Y4.287Z-4
G0Z2
X2.247Y3.035
G1Z-4.593F200
X2.784Y3.304F400
X2.963Y3.393Z-4.586
X3.857Y3.84Z-4.199
X4.036Y3.93Z-4.109
X4.248Y4.036Z-4
G0Z2
X2.382Y2.767
G1Z-4.593F200
X3.097Y3.125F400
X3.276Y3.214Z-4.523
X3.991Y3.572Z-4.214
X4.17Y3.661Z-4.126
X4.416Y3.784Z-4
G0Z2
X2.695Y2.588
G1Z-4.593F200
X3.231Y2.856F400
X3.41Y2.946Z-4.537
X4.126Y3.304Z-4.228
X4.305Y3.393Z-4.143
X4.584Y3.533Z-4
G0Z2
X2.829Y2.32
G1Z-4.593F200
X3.365Y2.588F400
X3.544Y2.677Z-4.552
X4.26Y3.035Z-4.243
X4.439Y3.125Z-4.16
X4.752Y3.281Z-4
G0Z2
X3.142Y2.141
G1Z-4.593F200
X3.5Y2.32F400
X3.678Y2.409Z-4.57
X3.857Y2.499Z-4.489
X4.394Y2.767Z-4.257
X4.573Y2.856Z-4.177
X4.919Y3.03Z-4
G0Z2
X3.276Y1.872
G1Z-4.593F200
X3.813Y2.141F400
X3.991Y2.23Z-4.504
X4.707Y2.588Z-4.195
X5.087Y2.778Z-4
G0Z2
X3.589Y1.694
G1Z-4.593F200
X3.947Y1.872F400
X4.126Y1.962Z-4.522
X4.305Y2.051Z-4.441
X4.841Y2.32Z-4.209
X5.02Y2.409Z-4.12
X5.255Y2.526Z-4
G0Z2
X3.723Y1.425
G1Z-4.593F200
X4.081Y1.604F400
X4.26Y1.694Z-4.548
X4.439Y1.783Z-4.455
X4.975Y2.051Z-4.224
X5.154Y2.141Z-4.137
X5.422Y2.275Z-4
G0Z2
X4.036Y1.246
G1Z-4.593F200
X4.215Y1.336F400
X4.394Y1.425Z-4.583
X4.573Y1.515Z-4.473
X4.752Y1.604Z-4.393
X5.11Y1.783Z-4.238
X5.288Y1.872Z-4.154
X5.59Y2.023Z-4
G0Z2
X4.17Y0.978
G1Z-4.593F200
X4.528Y1.157F400
X4.886Y1.336Z-4.407
X5.244Y1.515Z-4.253
X5.423Y1.604Z-4.172
X5.758Y1.772Z-4
G0Z2
X4.483Y0.799
G1Z-4.593F200
X4.662Y0.889F400
X4.841Y0.978Z-4.535
X5.02Y1.067Z-4.425
X5.199Y1.157Z-4.344
X5.378Y1.246Z-4.267
X5.557Y1.336Z-4.189
X5.926Y1.52Z-4
G0Z2
X4.618Y0.531
G1Z-4.593F200
X4.796Y0.62F400
X4.975Y0.71Z-4.58
X5.154Y0.799Z-4.451
X5.333Y0.889Z-4.359
X5.691Y1.067Z-4.204
X5.87Y1.157Z-4.114
X6.093Y1.269Z-4
G0Z2
X4.931Y0.352
G1Z-4.593F200
X5.11Y0.441F400
X5.288Y0.531Z-4.486
X5.467Y0.62Z-4.377
X5.646Y0.71Z-4.296
X5.825Y0.799Z-4.219
X6.004Y0.889Z-4.132
X6.261Y1.017Z-4
G0Z2
X5.065Y0.084
G1Z-4.593F200
X5.244Y0.173F400
X5.423Y0.262Z-4.531
X5.601Y0.352Z-4.403
X5.78Y0.441Z-4.31
X5.959Y0.531Z-4.233
X6.138Y0.62Z-4.149
X6.429Y0.766Z-4
G0Z2
X5.378Y-0.094
G1Z-4.593F200
X5.557Y-0.005Z-4.588F400
X5.736Y0.084Z-4.438
X5.914Y0.173Z-4.328
X6.093Y0.262Z-4.248
X6.272Y0.352Z-4.166
X6.596Y0.514Z-4
G0Z2
X5.512Y-0.363
G1Z-4.593F200
X5.691Y-0.273F400
X5.87Y-0.184Z-4.483
X6.049Y-0.094Z-4.354
X6.228Y-0.005Z-4.262
X6.406Y0.084Z-4.183
X6.764Y0.262Z-4
G0Z2
X5.825Y-0.542
G1Z-4.593F200
X6.004Y-0.452Z-4.54F400
X6.183Y-0.363Z-4.389
X6.362Y-0.273Z-4.28
X6.541Y-0.184Z-4.199
X6.719Y-0.094Z-4.109
X6.932Y0.011Z-4
G0Z2
X6.138Y-0.72
G1Z-4.593F200
X6.317Y-0.631Z-4.434F400
X6.496Y-0.542Z-4.306
X6.675Y-0.452Z-4.214
X6.854Y-0.363Z-4.126
X7.099Y-0.24Z-4
X6.809Y-0.72Z-4.232
X6.988Y-0.631Z-4.143
X7.267Y-0.491Z-4
G0Z2
(Tool: D = 3.0 mm  type BALLNOSE flutes 2)
S12000M03
G00 Z2.0

X47.111Y23.276
G1Z-0.652F200
X52.426Y12.569F400
X52.647Y12.156
X52.671Y12.128
X52.697Y12.106
X52.728Y12.089
X52.761Y12.079
X52.795Y12.076
X52.829Y12.079
X52.862Y12.089
X52.893Y12.106
X52.919Y12.128
X52.941Y12.154
X52.958Y12.185
X52.968Y12.218
X52.971Y12.252
X52.967Y12.287
X52.935Y12.396
X46.108Y26.148
X45.887Y26.561
X45.864Y26.589
X45.837Y26.611
X45.806Y26.627
X45.774Y26.637
X45.739Y26.641
X45.705Y26.637
X45.672Y26.627
X45.641Y26.611
X45.615Y26.589
X45.593Y26.563
X45.577Y26.532
X45.567Y26.499
X45.563Y26.465
X45.567Y26.43
X45.6Y26.321
X47.111Y23.276
X46.832Y23.165Z-0.65
X52.16Y12.431Z-0.65
X52.397Y11.988Z-0.65
X52.457Y11.914Z-0.65
X52.53Y11.855
X52.612Y11.811Z-0.65
X52.702Y11.784Z-0.65
X52.795Y11.775
X52.888Y11.784
X52.978Y11.811Z-0.65
X53.06Y11.855Z-0.65
X53.133Y11.914Z-0.65
X53.192Y11.987Z-0.65
X53.236Y12.069
X53.263Y12.159
X53.272Y12.252
X53.263Y12.346Z-0.65
X53.214Y12.507Z-0.65
X46.375Y26.285Z-0.65
X46.137Y26.728Z-0.65
X46.077Y26.802Z-0.65
X46.004Y26.862Z-0.65
X45.922Y26.906Z-0.65
X45.832Y26.933
X45.739Y26.942
X45.646Y26.933Z-0.65
X45.557Y26.906
X45.474Y26.862
X45.402Y26.802Z-0.65
X45.342Y26.73
X45.298Y26.647
X45.271Y26.558
X45.262Y26.465
X45.271Y26.371Z-0.65
X45.32Y26.21Z-0.65
X46.832Y23.165Z-0.65
X46.552Y23.054Z-0.646
X51.893Y12.294Z-0.646
X52.146Y11.821Z-0.646
X52.244Y11.701Z-0.646
X52.362Y11.604
X52.497Y11.532
X52.643Y11.488
X52.795Y11.473
X52.947Y11.488
X53.093Y11.532
X53.228Y11.604
X53.346Y11.701
X53.443Y11.819Z-0.646
X53.515Y11.954Z-0.646
X53.559Y12.1Z-0.646
X53.574Y12.252Z-0.646
X53.559Y12.404Z-0.646
X53.494Y12.618Z-0.646
X46.641Y26.423Z-0.646
X46.388Y26.896Z-0.646
X46.29Y27.016Z-0.646
X46.172Y27.112
X46.037Y27.184
X45.891Y27.229
X45.739Y27.244
X45.587Y27.229
X45.441Y27.184
X45.307Y27.112
X45.188Y27.015
X45.092Y26.897
X45.02Y26.763
X44.975Y26.617
X44.96Y26.465
X44.975Y26.312Z-0.646
X45.04Y26.099Z-0.646
X46.552Y23.054Z-0.646
X46.272Y22.943Z-0.642
X51.626Y12.156Z-0.642
X51.896Y11.653Z-0.642
X52.031Y11.488Z-0.642
X52.195Y11.354Z-0.642
X52.382Y11.254
X52.584Y11.192
X52.795Y11.172Z-0.642
X53.006Y11.192
X53.208Y11.254Z-0.642
X53.395Y11.354
X53.559Y11.488
X53.693Y11.652Z-0.642
X53.793Y11.839Z-0.642
X53.855Y12.041Z-0.642
X53.875Y12.252
X53.854Y12.463Z-0.642
X53.774Y12.729Z-0.642
X46.908Y26.561Z-0.642
X46.639Y27.063Z-0.642
X46.503Y27.229Z-0.642
X46.339Y27.363
X46.152Y27.463
X45.95Y27.524Z-0.642
X45.739Y27.545
X45.528Y27.524Z-0.642
X45.326Y27.463Z-0.642
X45.139Y27.363Z-0.642
X44.975Y27.229Z-0.642
X44.841Y27.065Z-0.642
X44.741Y26.878
X44.68Y26.675
X44.659Y26.465Z-0.642
X44.68Y26.253Z-0.642
X44.76Y25.988Z-0.642
X46.272Y22.943Z-0.642
X45.992Y22.832Z-0.638
X51.36Y12.019Z-0.638
X51.645Y11.485Z-0.638
X51.818Y11.275Z-0.638
X52.027Y11.103
X52.266Y10.975
X52.526Y10.897
X52.795Y10.87
X53.065Y10.897
X53.324Y10.975
X53.563Y11.103
X53.772Y11.275
X53.944Y11.484
X54.072Y11.723Z-0.638
X54.15Y11.982Z-0.638
X54.177Y12.252
X54.15Y12.522Z-0.638
X54.054Y12.84Z-0.638
X47.175Y26.698Z-0.638
X46.889Y27.231Z-0.638
X46.716Y27.442Z-0.638
X46.507Y27.614
X46.268Y27.741Z-0.638
X46.009Y27.82
X45.739Y27.846
X45.47Y27.82
X45.21Y27.741Z-0.638
X44.972Y27.614Z-0.638
X44.762Y27.442
X44.59Y27.232Z-0.638
X44.463Y26.993Z-0.638
X44.384Y26.734Z-0.638
X44.357Y26.465Z-0.638
X44.384Y26.195Z-0.638
X44.48Y25.877Z-0.638
X45.992Y22.832Z-0.638
X45.712Y22.721Z-0.633
X51.093Y11.881Z-0.633
X51.395Y11.318Z-0.633
X51.605Y11.062Z-0.633
X51.86Y10.852
X52.151Y10.697
X52.467Y10.601
X52.795Y10.569
X53.123Y10.601Z-0.633
X53.439Y10.697Z-0.633
X53.73Y10.852
X53.985Y11.062
X54.195Y11.317Z-0.633
X54.35Y11.608Z-0.633
X54.446Y11.924
X54.478Y12.252Z-0.633
X54.446Y12.581Z-0.633
X54.334Y12.951Z-0.633
X47.441Y26.836Z-0.633
X47.14Y27.399Z-0.633
X46.929Y27.655Z-0.633
X46.674Y27.864
X46.383Y28.02
X46.068Y28.116
X45.739Y28.148
X45.411Y28.116
X45.095Y28.02
X44.804Y27.864
X44.549Y27.655
X44.34Y27.4
X44.184Y27.109
X44.088Y26.793
X44.056Y26.465
X44.088Y26.136Z-0.633
X44.2Y25.766Z-0.633
X45.712Y22.721Z-0.633
X45.432Y22.61Z-0.621
X50.826Y11.744Z-0.621
X51.144Y11.15Z-0.621
X51.392Y10.849Z-0.621
X51.693Y10.602Z-0.621
X52.035Y10.418Z-0.621
X52.408Y10.305Z-0.621
X52.795Y10.267
X53.182Y10.305Z-0.621
X53.555Y10.418Z-0.621
X53.898Y10.602Z-0.621
X54.198Y10.849Z-0.621
X54.445Y11.149
X54.629Y11.492
X54.742Y11.865
X54.78Y12.252Z-0.621
X54.741Y12.64Z-0.621
X54.614Y13.062Z-0.621
X47.708Y26.973Z-0.621
X47.39Y27.566Z-0.621
X47.142Y27.868Z-0.621
X46.842Y28.115Z-0.621
X46.499Y28.298
X46.126Y28.411Z-0.621
X45.739Y28.449Z-0.621
X45.352Y28.411Z-0.621
X44.98Y28.298
X44.637Y28.115Z-0.621
X44.336Y27.868Z-0.621
X44.089Y27.567Z-0.621
X43.906Y27.224Z-0.621
X43.793Y26.852
X43.755Y26.465
X43.793Y26.077Z-0.621
X43.921Y25.655Z-0.621
X45.432Y22.61Z-0.621
X45.152Y22.499Z-0.608
X50.56Y11.606Z-0.608
X50.893Y10.983Z-0.608
X51.178Y10.635Z-0.608
X51.525Y10.351
X51.92Y10.14Z-0.608
X52.349Y10.01Z-0.608
X52.795Y9.966
X53.241Y10.01Z-0.608
X53.67Y10.14Z-0.608
X54.065Y10.351Z-0.608
X54.412Y10.635Z-0.608
X54.696Y10.982
X54.907Y11.377
X55.037Y11.806Z-0.608
X55.081Y12.252Z-0.608
X55.037Y12.698Z-0.608
X54.893Y13.172Z-0.608
X47.975Y27.111Z-0.608
X47.641Y27.734Z-0.608
X47.356Y28.081Z-0.608
X47.009Y28.366
X46.614Y28.577Z-0.608
X46.185Y28.707Z-0.608
X45.739Y28.751Z-0.608
X45.293Y28.707Z-0.608
X44.864Y28.577Z-0.608
X44.469Y28.366Z-0.608
X44.123Y28.081
X43.838Y27.735Z-0.608
X43.627Y27.34Z-0.608
X43.497Y26.911Z-0.608
X43.453Y26.465Z-0.608
X43.497Y26.018Z-0.608
X43.641Y25.544Z-0.608
X45.152Y22.499Z-0.608
X44.873Y22.388Z-0.595
X50.293Y11.469Z-0.595
X50.643Y10.815Z-0.595
X50.965Y10.422Z-0.595
X51.358Y10.1
X51.805Y9.861Z-0.595
X52.29Y9.714Z-0.595
X52.795Y9.664
X53.3Y9.714Z-0.595
X53.785Y9.861Z-0.595
X54.233Y10.1Z-0.595
X54.625Y10.422Z-0.595
X54.946Y10.814Z-0.595
X55.186Y11.262
X55.333Y11.747Z-0.595
X55.383Y12.252Z-0.595
X55.333Y12.757Z-0.595
X55.173Y13.283Z-0.595
X48.241Y27.248Z-0.595
X47.891Y27.901Z-0.595
X47.569Y28.295Z-0.595
X47.177Y28.616Z-0.595
X46.729Y28.855
X46.244Y29.003Z-0.595
X45.739Y29.052
X45.234Y29.003
X44.749Y28.855Z-0.595
X44.302Y28.616Z-0.595
X43.909Y28.294Z-0.595
X43.588Y27.902Z-0.595
X43.349Y27.455Z-0.595
X43.201Y26.969Z-0.595
X43.152Y26.465Z-0.595
X43.201Y25.959Z-0.595
X43.361Y25.433Z-0.595
X44.873Y22.388Z-0.595
X44.593Y22.277Z-0.582
X50.026Y11.331Z-0.582
X50.392Y10.648Z-0.582
X50.752Y10.209Z-0.582
X51.19Y9.85Z-0.582
X51.689Y9.583Z-0.582
X52.232Y9.418
X52.795Y9.363Z-0.582
X53.359Y9.418Z-0.582
X53.901Y9.583Z-0.582
X54.4Y9.85Z-0.582
X54.838Y10.209
X55.197Y10.647
X55.464Y11.146
X55.628Y11.688Z-0.582
X55.684Y12.252
X55.628Y12.816Z-0.582
X55.453Y13.394Z-0.582
X48.508Y27.386Z-0.582
X48.142Y28.069Z-0.582
X47.782Y28.508Z-0.582
X47.344Y28.867Z-0.582
X46.845Y29.134
X46.303Y29.298Z-0.582
X45.739Y29.354Z-0.582
X45.175Y29.298Z-0.582
X44.634Y29.134
X44.134Y28.867Z-0.582
X43.696Y28.507Z-0.582
X43.337Y28.07Z-0.582
X43.07Y27.57Z-0.582
X42.906Y27.028
X42.85Y26.465Z-0.582
X42.906Y25.901Z-0.582
X43.081Y25.322Z-0.582
X44.593Y22.277Z-0.582
X44.313Y22.166Z-0.562
X49.76Y11.194Z-0.562
X50.142Y10.48Z-0.562
X50.539Y9.996Z-0.562
X51.023Y9.599Z-0.562
X51.574Y9.304Z-0.562
X52.173Y9.123Z-0.562
X52.795Y9.061Z-0.562
X53.417Y9.123Z-0.562
X54.016Y9.304Z-0.562
X54.568Y9.599Z-0.562
X55.051Y9.996Z-0.562
X55.448Y10.479Z-0.562
X55.743Y11.031Z-0.562
X55.924Y11.63Z-0.562
X55.985Y12.252
X55.924Y12.875Z-0.562
X55.733Y13.505Z-0.562
X48.774Y27.523Z-0.562
X48.393Y28.236Z-0.562
X47.995Y28.721Z-0.562
X47.512Y29.118Z-0.562
X46.96Y29.412Z-0.562
X46.362Y29.594
X45.739Y29.655
X45.117Y29.594
X44.518Y29.412Z-0.562
X43.967Y29.118Z-0.562
X43.483Y28.721Z-0.562
X43.086Y28.237Z-0.562
X42.792Y27.686Z-0.562
X42.61Y27.087
X42.549Y26.465Z-0.562
X42.61Y25.842Z-0.562
X42.801Y25.211Z-0.562
X44.313Y22.166Z-0.562
X44.033Y22.055Z-0.539
X49.493Y11.056Z-0.539
X49.891Y10.313Z-0.539
X50.326Y9.783Z-0.539
X50.855Y9.348Z-0.539
X51.459Y9.026Z-0.539
X52.114Y8.827
X52.795Y8.76Z-0.539
X53.476Y8.827Z-0.539
X54.131Y9.026Z-0.539
X54.735Y9.349Z-0.539
X55.264Y9.783Z-0.539
X55.698Y10.312Z-0.539
X56.021Y10.916Z-0.539
X56.22Y11.571Z-0.539
X56.287Y12.252
X56.22Y12.933Z-0.539
X56.013Y13.616Z-0.539
X49.041Y27.661Z-0.539
X48.643Y28.404Z-0.539
X48.208Y28.934Z-0.539
X47.679Y29.368Z-0.539
X47.075Y29.691Z-0.539
X46.42Y29.89Z-0.539
X45.739Y29.957Z-0.539
X45.058Y29.89Z-0.539
X44.403Y29.691Z-0.539
X43.799Y29.368Z-0.539
X43.27Y28.934Z-0.539
X42.836Y28.405Z-0.539
X42.513Y27.801Z-0.539
X42.314Y27.146Z-0.539
X42.247Y26.465Z-0.539
X42.314Y25.783Z-0.539
X42.521Y25.1Z-0.539
X44.033Y22.055Z-0.539
X43.753Y21.944Z-0.516
X49.227Y10.917Z-0.516
X49.641Y10.145Z-0.516
X50.113Y9.57Z-0.516
X50.688Y9.098
X51.343Y8.747Z-0.516
X52.055Y8.531
X52.795Y8.459Z-0.516
X53.535Y8.531Z-0.516
X54.247Y8.747Z-0.516
X54.903Y9.098Z-0.516
X55.477Y9.57Z-0.516
X55.949Y10.144Z-0.516
X56.3Y10.8Z-0.516
X56.515Y11.512
X56.588Y12.252Z-0.516
X56.515Y12.992Z-0.516
X56.293Y13.727Z-0.516
X49.307Y27.8Z-0.516
X48.894Y28.572Z-0.516
X48.421Y29.147Z-0.516
X47.847Y29.619Z-0.516
X47.191Y29.969
X46.479Y30.185
X45.739Y30.258Z-0.516
X44.999Y30.185Z-0.516
X44.288Y29.969
X43.632Y29.619Z-0.516
X43.057Y29.147
X42.585Y28.572Z-0.516
X42.235Y27.916Z-0.516
X42.019Y27.205Z-0.516
X41.946Y26.465Z-0.516
X42.019Y25.724Z-0.516
X42.242Y24.99Z-0.516
X43.753Y21.944Z-0.516
X43.473Y21.833Z-0.493
X48.962Y10.777Z-0.493
X49.39Y9.977Z-0.493
X49.9Y9.356Z-0.493
X50.52Y8.847Z-0.493
X51.228Y8.469Z-0.493
X51.996Y8.236Z-0.493
X52.795Y8.157Z-0.493
X53.594Y8.236Z-0.493
X54.362Y8.469Z-0.493
X55.07Y8.847
X55.69Y9.356
X56.2Y9.977Z-0.493
X56.578Y10.685Z-0.493
X56.811Y11.453Z-0.493
X56.89Y12.252Z-0.493
X56.811Y13.051Z-0.493
X56.572Y13.838Z-0.493
X49.573Y27.939Z-0.493
X49.144Y28.739Z-0.493
X48.634Y29.36Z-0.493
X48.014Y29.869Z-0.493
X47.306Y30.248
X46.538Y30.481Z-0.493
X45.739Y30.56Z-0.493
X44.94Y30.481Z-0.493
X44.172Y30.248Z-0.493
X43.464Y29.869Z-0.493
X42.844Y29.36Z-0.493
X42.334Y28.74Z-0.493
X41.956Y28.032Z-0.493
X41.723Y27.263Z-0.493
X41.644Y26.465Z-0.493
X41.723Y25.666Z-0.493
X41.962Y24.879Z-0.493
X43.473Y21.833Z-0.493
X43.194Y21.722Z-0.46
X48.696Y10.638Z-0.46
X49.139Y9.81Z-0.46
X49.686Y9.143Z-0.46
X50.353Y8.596Z-0.46
X51.113Y8.19Z-0.46
X51.938Y7.94Z-0.46
X52.795Y7.856Z-0.46
X53.653Y7.94Z-0.46
X54.477Y8.19Z-0.46
X55.237Y8.597Z-0.46
X55.904Y9.143Z-0.46
X56.45Y9.81Z-0.46
X56.857Y10.57Z-0.46
X57.107Y11.394Z-0.46
X57.191Y12.252Z-0.46
X57.107Y13.11Z-0.46
X56.852Y13.949Z-0.46
X49.838Y28.079Z-0.46
X49.395Y28.907Z-0.46
X48.848Y29.574Z-0.46
X48.182Y30.12
X47.421Y30.526Z-0.46
X46.597Y30.777Z-0.46
X45.739Y30.861Z-0.46
X44.881Y30.777Z-0.46
X44.057Y30.526Z-0.46
X43.297Y30.12Z-0.46
X42.63Y29.573Z-0.46
X42.084Y28.907Z-0.46
X41.678Y28.147Z-0.46
X41.427Y27.322
X41.343Y26.465
X41.427Y25.607Z-0.46
X41.682Y24.768Z-0.46
X43.194Y21.722Z-0.46
X42.92Y21.599Z-0.425
X48.422Y10.514Z-0.425
X48.43Y10.498Z-0.425
X48.881Y9.657Z-0.425
X48.89Y9.642Z-0.425
X48.899Y9.629Z-0.425
X49.463Y8.942Z-0.425
X49.474Y8.931Z-0.425
X49.486Y8.92Z-0.425
X50.173Y8.356Z-0.425
X50.186Y8.347Z-0.425
X50.199Y8.338Z-0.425
X50.983Y7.919Z-0.425
X50.998Y7.913Z-0.425
X51.013Y7.907Z-0.425
X51.864Y7.649Z-0.425
X51.879Y7.645Z-0.425
X51.895Y7.643Z-0.425
X52.779Y7.556Z-0.425
X52.795Y7.555Z-0.425
X52.811Y7.556Z-0.425
X53.696Y7.643Z-0.425
X53.711Y7.645Z-0.425
X53.727Y7.649Z-0.425
X54.578Y7.907Z-0.425
X54.592Y7.913Z-0.425
X54.607Y7.919Z-0.425
X55.391Y8.339Z-0.425
X55.404Y8.347Z-0.425
X55.417Y8.356Z-0.425
X56.105Y8.92Z-0.425
X56.116Y8.931Z-0.425
X56.127Y8.943Z-0.425
X56.691Y9.63Z-0.425
X56.7Y9.642Z-0.425
X56.709Y9.656Z-0.425
X57.128Y10.44Z-0.425
X57.134Y10.454Z-0.425
X57.14Y10.47Z-0.425
X57.398Y11.32Z-0.425
X57.402Y11.336Z-0.425
X57.404Y11.351Z-0.425
X57.491Y12.236Z-0.425
X57.492Y12.252Z-0.425
X57.491Y12.268Z-0.425
X57.404Y13.153Z-0.425
X57.402Y13.168Z-0.425
X57.398Y13.184Z-0.425
X57.136Y14.048Z-0.425
X57.132Y14.06Z-0.425
X57.126Y14.072Z-0.425
X50.112Y28.203Z-0.425
X50.104Y28.218Z-0.425
X49.654Y29.059Z-0.425
X49.644Y29.074Z-0.425
X49.635Y29.087Z-0.425
X49.071Y29.775Z-0.425
X49.06Y29.786Z-0.425
X49.048Y29.797Z-0.425
X48.361Y30.361Z-0.425
X48.349Y30.37Z-0.425
X48.335Y30.378Z-0.425
X47.551Y30.798Z-0.425
X47.536Y30.804Z-0.425
X47.521Y30.81Z-0.425
X46.671Y31.068Z-0.425
X46.656Y31.071Z-0.425
X46.64Y31.074Z-0.425
X45.755Y31.161Z-0.425
X45.739Y31.162Z-0.425
X45.723Y31.161Z-0.425
X44.838Y31.074Z-0.425
X44.823Y31.071Z-0.425
X44.807Y31.068Z-0.425
X43.956Y30.809Z-0.425
X43.942Y30.804Z-0.425
X43.927Y30.797Z-0.425
X43.143Y30.378Z-0.425
X43.13Y30.37Z-0.425
X43.117Y30.361Z-0.425
X42.429Y29.796Z-0.425
X42.418Y29.786Z-0.425
X42.407Y29.774Z-0.425
X41.843Y29.087Z-0.425
X41.834Y29.074Z-0.425
X41.826Y29.06Z-0.425
X41.406Y28.276Z-0.425
X41.4Y28.262Z-0.425
X41.394Y28.247Z-0.425
X41.136Y27.396Z-0.425
X41.133Y27.381Z-0.425
X41.13Y27.365Z-0.425
X41.043Y26.48Z-0.425
X41.042Y26.465Z-0.425
X41.043Y26.449Z-0.425
X41.13Y25.564Z-0.425
X41.133Y25.548Z-0.425
X41.137Y25.532Z-0.425
X41.398Y24.669Z-0.425
X41.402Y24.657Z-0.425
X41.408Y24.644Z-0.425
X42.92Y21.599Z-0.425
X42.648Y21.472Z-0.39
X48.155Y10.378Z-0.39
X48.165Y10.359Z-0.39
X48.62Y9.509Z-0.39
X48.64Y9.476Z-0.39
X48.662Y9.446Z-0.39
X49.237Y8.746Z-0.39
X49.261Y8.719Z-0.39
X49.289Y8.693Z-0.39
X49.989Y8.119Z-0.39
X50.019Y8.097Z-0.39
X50.051Y8.078Z-0.39
X50.849Y7.651Z-0.39
X50.883Y7.635Z-0.39
X50.918Y7.623Z-0.39
X51.785Y7.36Z-0.39
X51.82Y7.351Z-0.39
X51.857Y7.345Z-0.39
X52.758Y7.256Z-0.39
X52.795Y7.255Z-0.39
X52.832Y7.256Z-0.39
X53.734Y7.345Z-0.39
X53.77Y7.351Z-0.39
X53.806Y7.36Z-0.39
X54.673Y7.623Z-0.39
X54.707Y7.635Z-0.39
X54.741Y7.651Z-0.39
X55.54Y8.078Z-0.39
X55.571Y8.097Z-0.39
X55.601Y8.119Z-0.39
X56.301Y8.694Z-0.39
X56.328Y8.718Z-0.39
X56.354Y8.746Z-0.39
X56.928Y9.446Z-0.39
X56.95Y9.476Z-0.39
X56.969Y9.507Z-0.39
X57.396Y10.306Z-0.39
X57.412Y10.34Z-0.39
X57.424Y10.374Z-0.39
X57.687Y11.241Z-0.39
X57.696Y11.277Z-0.39
X57.702Y11.314Z-0.39
X57.791Y12.215Z-0.39
X57.792Y12.252Z-0.39
X57.791Y12.289Z-0.39
X57.702Y13.19Z-0.39
X57.696Y13.227Z-0.39
X57.687Y13.263Z-0.39
X57.421Y14.142Z-0.39
X57.411Y14.17Z-0.39
X57.398Y14.2Z-0.39
X50.379Y28.338Z-0.39
X50.369Y28.358Z-0.39
X49.914Y29.208Z-0.39
X49.894Y29.241Z-0.39
X49.872Y29.271Z-0.39
X49.297Y29.971Z-0.39
X49.273Y29.998Z-0.39
X49.245Y30.023Z-0.39
X48.545Y30.598Z-0.39
X48.515Y30.62Z-0.39
X48.484Y30.639Z-0.39
X47.685Y31.066Z-0.39
X47.651Y31.082Z-0.39
X47.616Y31.094Z-0.39
X46.75Y31.357Z-0.39
X46.714Y31.366Z-0.39
X46.677Y31.372Z-0.39
X45.776Y31.46Z-0.39
X45.739Y31.462Z-0.39
X45.702Y31.46Z-0.39
X44.8Y31.371Z-0.39
X44.764Y31.366Z-0.39
X44.728Y31.357Z-0.39
X43.861Y31.094Z-0.39
X43.827Y31.082Z-0.39
X43.793Y31.066Z-0.39
X42.994Y30.639Z-0.39
X42.963Y30.62Z-0.39
X42.933Y30.598Z-0.39
X42.233Y30.023Z-0.39
X42.206Y29.998Z-0.39
X42.18Y29.971Z-0.39
X41.606Y29.271Z-0.39
X41.584Y29.241Z-0.39
X41.565Y29.209Z-0.39
X41.138Y28.41Z-0.39
X41.122Y28.377Z-0.39
X41.11Y28.342Z-0.39
X40.847Y27.475Z-0.39
X40.838Y27.44Z-0.39
X40.832Y27.403Z-0.39
X40.744Y26.501Z-0.39
X40.742Y26.465Z-0.39
X40.744Y26.428Z-0.39
X40.833Y25.526Z-0.39
X40.838Y25.49Z-0.39
X40.847Y25.453Z-0.39
X41.113Y24.575Z-0.39
X41.123Y24.546Z-0.39
X41.136Y24.517Z-0.39
X42.648Y21.472Z-0.39
X42.376Y21.345Z-0.345
X47.887Y10.243Z-0.345
X47.899Y10.219Z-0.345
X48.36Y9.36Z-0.345
X48.391Y9.309Z-0.345
X48.425Y9.262Z-0.345
X49.01Y8.549Z-0.345
X49.049Y8.506Z-0.345
X49.092Y8.467Z-0.345
X49.805Y7.881Z-0.345
X49.852Y7.847Z-0.345
X49.902Y7.817Z-0.345
X50.715Y7.382Z-0.345
X50.768Y7.358Z-0.345
X50.823Y7.338Z-0.345
X51.706Y7.07Z-0.345
X51.762Y7.056Z-0.345
X51.819Y7.047Z-0.345
X52.737Y6.957Z-0.345
X52.795Y6.955Z-0.345
X52.853Y6.957Z-0.345
X53.771Y7.047Z-0.345
X53.828Y7.056Z-0.345
X53.885Y7.07Z-0.345
X54.768Y7.338Z-0.345
X54.822Y7.358Z-0.345
X54.875Y7.382Z-0.345
X55.689Y7.817Z-0.345
X55.738Y7.847Z-0.345
X55.785Y7.882Z-0.345
X56.498Y8.467Z-0.345
X56.541Y8.506Z-0.345
X56.58Y8.549Z-0.345
X57.165Y9.262Z-0.345
X57.2Y9.309Z-0.345
X57.23Y9.359Z-0.345
X57.665Y10.172Z-0.345
X57.689Y10.225Z-0.345
X57.709Y10.279Z-0.345
X57.977Y11.162Z-0.345
X57.991Y11.218Z-0.345
X57.999Y11.276Z-0.345
X58.09Y12.194Z-0.345
X58.092Y12.252Z-0.345
X58.09Y12.31Z-0.345
X57.999Y13.228Z-0.345
X57.991Y13.285Z-0.345
X57.977Y13.342Z-0.345
X57.706Y14.236Z-0.345
X57.69Y14.281Z-0.345
X57.67Y14.327Z-0.345
X50.647Y28.474Z-0.345
X50.635Y28.498Z-0.345
X50.175Y29.357Z-0.345
X50.144Y29.408Z-0.345
X50.109Y29.455Z-0.345
X49.524Y30.168Z-0.345
X49.485Y30.211Z-0.345
X49.442Y30.25Z-0.345
X48.729Y30.835Z-0.345
X48.682Y30.869Z-0.345
X48.632Y30.9Z-0.345
X47.819Y31.335Z-0.345
X47.766Y31.359Z-0.345
X47.712Y31.379Z-0.345
X46.829Y31.647Z-0.345
X46.773Y31.66Z-0.345
X46.715Y31.669Z-0.345
X45.797Y31.76Z-0.345
X45.739Y31.762Z-0.345
X45.681Y31.76Z-0.345
X44.763Y31.669Z-0.345
X44.706Y31.66Z-0.345
X44.649Y31.647Z-0.345
X43.766Y31.379Z-0.345
X43.712Y31.359Z-0.345
X43.659Y31.334Z-0.345
X42.846Y30.899Z-0.345
X42.796Y30.869Z-0.345
X42.749Y30.835Z-0.345
X42.036Y30.25Z-0.345
X41.993Y30.21Z-0.345
X41.954Y30.168Z-0.345
X41.369Y29.454Z-0.345
X41.335Y29.408Z-0.345
X41.304Y29.358Z-0.345
X40.869Y28.544Z-0.345
X40.845Y28.492Z-0.345
X40.825Y28.437Z-0.345
X40.557Y27.554Z-0.345
X40.544Y27.498Z-0.345
X40.535Y27.44Z-0.345
X40.444Y26.522Z-0.345
X40.442Y26.465Z-0.345
X40.444Y26.406Z-0.345
X40.535Y25.488Z-0.345
X40.544Y25.431Z-0.345
X40.558Y25.374Z-0.345
X40.828Y24.481Z-0.345
X40.844Y24.436Z-0.345
X40.864Y24.39Z-0.345
X42.376Y21.345Z-0.345
X42.104Y21.218Z-0.293
X47.619Y10.107Z-0.293
X47.634Y10.08Z-0.293
X48.099Y9.211Z-0.293
X48.141Y9.142Z-0.293
X48.188Y9.078Z-0.293
X48.783Y8.352Z-0.293
X48.837Y8.294Z-0.293
X48.895Y8.24Z-0.293
X49.622Y7.644Z-0.293
X49.685Y7.598Z-0.293
X49.753Y7.556Z-0.293
X50.581Y7.114Z-0.293
X50.653Y7.08Z-0.293
X50.727Y7.053Z-0.293
X51.626Y6.781Z-0.293
X51.703Y6.762Z-0.293
X51.782Y6.75Z-0.293
X52.716Y6.658Z-0.293
X52.795Y6.654Z-0.293
X52.874Y6.658Z-0.293
X53.809Y6.75Z-0.293
X53.887Y6.762Z-0.293
X53.964Y6.781Z-0.293
X54.863Y7.053Z-0.293
X54.937Y7.08Z-0.293
X55.009Y7.114Z-0.293
X55.837Y7.557Z-0.293
X55.905Y7.598Z-0.293
X55.969Y7.645Z-0.293
X56.695Y8.24Z-0.293
X56.753Y8.294Z-0.293
X56.807Y8.352Z-0.293
X57.403Y9.078Z-0.293
X57.449Y9.142Z-0.293
X57.491Y9.21Z-0.293
X57.933Y10.038Z-0.293
X57.967Y10.11Z-0.293
X57.994Y10.184Z-0.293
X58.266Y11.083Z-0.293
X58.285Y11.16Z-0.293
X58.297Y11.238Z-0.293
X58.389Y12.173Z-0.293
X58.393Y12.252Z-0.293
X58.389Y12.331Z-0.293
X58.297Y13.266Z-0.293
X58.285Y13.344Z-0.293
X58.266Y13.422Z-0.293
X57.991Y14.329Z-0.293
X57.969Y14.392Z-0.293
X57.942Y14.454Z-0.293
X50.915Y28.609Z-0.293
X50.9Y28.637Z-0.293
X50.435Y29.506Z-0.293
X50.393Y29.575Z-0.293
X50.347Y29.639Z-0.293
X49.751Y30.365Z-0.293
X49.697Y30.423Z-0.293
X49.639Y30.477Z-0.293
X48.913Y31.072Z-0.293
X48.849Y31.119Z-0.293
X48.781Y31.16Z-0.293
X47.953Y31.603Z-0.293
X47.881Y31.636Z-0.293
X47.807Y31.664Z-0.293
X46.908Y31.936Z-0.293
X46.831Y31.955Z-0.293
X46.753Y31.967Z-0.293
X45.818Y32.059Z-0.293
X45.739Y32.062Z-0.293
X45.66Y32.059Z-0.293
X44.725Y31.967Z-0.293
X44.647Y31.955Z-0.293
X44.57Y31.936Z-0.293
X43.671Y31.663Z-0.293
X43.597Y31.636Z-0.293
X43.525Y31.603Z-0.293
X42.697Y31.16Z-0.293
X42.629Y31.119Z-0.293
X42.565Y31.072Z-0.293
X41.839Y30.476Z-0.293
X41.781Y30.423Z-0.293
X41.727Y30.364Z-0.293
X41.131Y29.638Z-0.293
X41.085Y29.575Z-0.293
X41.044Y29.507Z-0.293
X40.601Y28.678Z-0.293
X40.568Y28.607Z-0.293
X40.54Y28.532Z-0.293
X40.268Y27.633Z-0.293
X40.249Y27.557Z-0.293
X40.237Y27.478Z-0.293
X40.145Y26.544Z-0.293
X40.142Y26.465Z-0.293
X40.145Y26.385Z-0.293
X40.237Y25.451Z-0.293
X40.249Y25.373Z-0.293
X40.268Y25.295Z-0.293
X40.543Y24.388Z-0.293
X40.565Y24.325Z-0.293
X40.593Y24.263Z-0.293
X42.104Y21.218Z-0.293
X41.832Y21.091Z-0.24
X47.352Y9.972Z-0.24
X47.368Y9.94Z-0.24
X47.838Y9.062Z-0.24
X47.891Y8.975Z-0.241
X47.951Y8.894Z-0.24
X48.557Y8.155Z-0.24
X48.625Y8.081Z-0.241
X48.699Y8.014Z-0.24
X49.438Y7.407Z-0.24
X49.518Y7.348Z-0.241
X49.604Y7.296Z-0.24
X50.447Y6.845Z-0.24
X50.538Y6.803Z-0.241
X50.632Y6.769Z-0.24
X51.547Y6.491Z-0.24
X51.645Y6.467Z-0.241
X51.744Y6.452Z-0.24
X52.695Y6.358Z-0.24
X52.795Y6.354Z-0.241
X52.895Y6.358Z-0.24
X53.847Y6.452Z-0.24
X53.946Y6.467Z-0.241
X54.043Y6.491Z-0.24
X54.958Y6.769Z-0.24
X55.052Y6.803Z-0.241
X55.143Y6.845Z-0.24
X55.986Y7.296Z-0.24
X56.072Y7.348Z-0.241
X56.153Y7.407Z-0.24
X56.892Y8.014Z-0.24
X56.965Y8.081Z-0.241
X57.033Y8.156Z-0.24
X57.64Y8.894Z-0.24
X57.699Y8.975Z-0.241
X57.751Y9.061Z-0.24
X58.202Y9.904Z-0.24
X58.244Y9.995Z-0.241
X58.278Y10.089Z-0.24
X58.556Y11.004Z-0.24
X58.58Y11.101Z-0.241
X58.595Y11.201Z-0.24
X58.689Y12.152Z-0.24
X58.693Y12.252Z-0.241
X58.689Y12.352Z-0.24
X58.595Y13.304Z-0.24
X58.58Y13.403Z-0.241
X58.556Y13.501Z-0.24
X58.276Y14.423Z-0.24
X58.248Y14.503Z-0.241
X58.213Y14.581Z-0.24
X51.183Y28.745Z-0.24
X51.166Y28.777Z-0.24
X50.696Y29.655Z-0.24
X50.643Y29.741Z-0.241
X50.584Y29.823Z-0.24
X49.977Y30.562Z-0.24
X49.909Y30.635Z-0.241
X49.835Y30.703Z-0.24
X49.097Y31.31Z-0.24
X49.016Y31.369Z-0.241
X48.93Y31.421Z-0.24
X48.087Y31.872Z-0.24
X47.996Y31.914Z-0.241
X47.902Y31.948Z-0.24
X46.987Y32.226Z-0.24
X46.89Y32.249Z-0.241
X46.79Y32.265Z-0.24
X45.839Y32.358Z-0.24
X45.739Y32.363Z-0.241
X45.639Y32.358Z-0.24
X44.687Y32.265Z-0.24
X44.588Y32.249Z-0.241
X44.491Y32.226Z-0.24
X43.576Y31.948Z-0.24
X43.482Y31.914Z-0.241
X43.391Y31.871Z-0.24
X42.548Y31.421Z-0.24
X42.462Y31.369Z-0.241
X42.381Y31.309Z-0.24
X41.642Y30.703Z-0.24
X41.569Y30.635Z-0.241
X41.501Y30.561Z-0.24
X40.894Y29.822Z-0.24
X40.835Y29.741Z-0.241
X40.783Y29.655Z-0.24
X40.332Y28.812Z-0.24
X40.29Y28.722Z-0.241
X40.256Y28.627Z-0.24
X39.978Y27.712Z-0.24
X39.955Y27.615Z-0.241
X39.939Y27.516Z-0.24
X39.846Y26.565Z-0.24
X39.841Y26.465Z-0.241
X39.846Y26.364Z-0.24
X39.939Y25.413Z-0.24
X39.955Y25.314Z-0.241
X39.979Y25.216Z-0.24
X40.258Y24.294Z-0.24
X40.286Y24.214Z-0.241
X40.321Y24.136Z-0.24
X41.832Y21.091Z-0.24
X41.561Y20.964Z-0.16
X47.084Y9.837Z-0.16
X47.103Y9.801Z-0.16
X47.578Y8.913Z-0.16
X47.642Y8.808Z-0.161
X47.713Y8.71Z-0.16
X48.33Y7.958Z-0.16
X48.412Y7.869Z-0.161
X48.502Y7.787Z-0.16
X49.254Y7.17Z-0.16
X49.352Y7.098Z-0.161
X49.456Y7.035Z-0.16
X50.313Y6.577Z-0.16
X50.423Y6.526Z-0.161
X50.537Y6.484Z-0.16
X51.468Y6.201Z-0.16
X51.586Y6.173Z-0.161
X51.706Y6.154Z-0.16
X52.674Y6.059Z-0.16
X52.795Y6.054Z-0.161
X52.917Y6.059Z-0.16
X53.884Y6.154Z-0.16
X54.004Y6.173Z-0.161
X54.122Y6.202Z-0.16
X55.053Y6.484Z-0.16
X55.167Y6.526Z-0.161
X55.277Y6.577Z-0.16
X56.135Y7.035Z-0.16
X56.239Y7.098Z-0.161
X56.337Y7.17Z-0.16
X57.089Y7.787Z-0.16
X57.178Y7.869Z-0.161
X57.26Y7.959Z-0.16
X57.877Y8.711Z-0.16
X57.949Y8.808Z-0.161
X58.012Y8.912Z-0.16
X58.47Y9.77Z-0.16
X58.521Y9.88Z-0.161
X58.563Y9.994Z-0.16
X58.845Y10.925Z-0.16
X58.874Y11.043Z-0.161
X58.893Y11.163Z-0.16
X58.988Y12.131Z-0.16
X58.993Y12.252Z-0.161
X58.988Y12.373Z-0.16
X58.893Y13.341Z-0.16
X58.874Y13.461Z-0.161
X58.845Y13.58Z-0.16
X58.561Y14.517Z-0.16
X58.527Y14.613Z-0.16
X58.485Y14.708Z-0.16
X51.45Y28.88Z-0.16
X51.432Y28.916Z-0.16
X50.957Y29.803Z-0.16
X50.893Y29.908Z-0.161
X50.821Y30.006Z-0.16
X50.204Y30.758Z-0.16
X50.122Y30.848Z-0.161
X50.032Y30.93Z-0.16
X49.281Y31.547Z-0.16
X49.183Y31.618Z-0.161
X49.079Y31.682Z-0.16
X48.221Y32.14Z-0.16
X48.111Y32.191Z-0.161
X47.997Y32.233Z-0.16
X47.066Y32.515Z-0.16
X46.948Y32.544Z-0.161
X46.828Y32.562Z-0.16
X45.86Y32.658Z-0.16
X45.739Y32.663Z-0.161
X45.617Y32.658Z-0.16
X44.65Y32.562Z-0.16
X44.53Y32.544Z-0.161
X44.412Y32.515Z-0.16
X43.481Y32.233Z-0.16
X43.367Y32.191Z-0.161
X43.257Y32.14Z-0.16
X42.399Y31.681Z-0.16
X42.296Y31.618Z-0.161
X42.197Y31.547Z-0.16
X41.446Y30.929Z-0.16
X41.356Y30.847Z-0.161
X41.274Y30.758Z-0.16
X40.657Y30.006Z-0.16
X40.585Y29.908Z-0.161
X40.522Y29.804Z-0.16
X40.064Y28.946Z-0.16
X40.013Y28.837Z-0.161
X39.971Y28.722Z-0.16
X39.689Y27.792Z-0.16
X39.66Y27.674Z-0.161
X39.641Y27.554Z-0.16
X39.546Y26.586Z-0.16
X39.541Y26.465Z-0.161
X39.546Y26.343Z-0.16
X39.642Y25.375Z-0.16
X39.66Y25.255Z-0.161
X39.689Y25.137Z-0.16
X39.973Y24.2Z-0.16
X40.007Y24.104Z-0.16
X40.049Y24.009Z-0.16
X41.561Y20.964Z-0.16
X41.289Y20.837Z-0.079
X46.816Y9.701Z-0.079
X46.837Y9.661Z-0.079
X47.317Y8.764Z-0.079
X47.392Y8.641Z-0.079
X47.476Y8.526Z-0.079
X48.104Y7.762Z-0.079
X48.2Y7.657Z-0.079
X48.305Y7.56Z-0.079
X49.07Y6.933Z-0.079
X49.185Y6.849Z-0.079
X49.307Y6.774Z-0.079
X50.179Y6.308Z-0.079
X50.308Y6.248Z-0.079
X50.442Y6.199Z-0.079
X51.389Y5.912Z-0.079
X51.527Y5.878Z-0.079
X51.669Y5.856Z-0.079
X52.653Y5.76Z-0.079
X52.795Y5.753Z-0.079
X52.938Y5.76Z-0.079
X53.922Y5.857Z-0.079
X54.063Y5.878Z-0.079
X54.202Y5.912Z-0.079
X55.148Y6.199Z-0.079
X55.282Y6.248Z-0.079
X55.411Y6.308Z-0.079
X56.284Y6.775Z-0.079
X56.405Y6.849Z-0.079
X56.521Y6.933Z-0.079
X57.285Y7.561Z-0.079
X57.39Y7.657Z-0.079
X57.487Y7.762Z-0.079
X58.114Y8.527Z-0.079
X58.198Y8.642Z-0.079
X58.272Y8.764Z-0.079
X58.739Y9.636Z-0.079
X58.799Y9.765Z-0.079
X58.848Y9.899Z-0.079
X59.135Y10.846Z-0.079
X59.169Y10.984Z-0.079
X59.19Y11.125Z-0.079
X59.287Y12.11Z-0.079
X59.293Y12.252Z-0.079
X59.287Y12.395Z-0.079
X59.19Y13.379Z-0.079
X59.169Y13.52Z-0.079
X59.135Y13.659Z-0.079
X58.846Y14.611Z-0.079
X58.806Y14.724Z-0.079
X58.757Y14.835Z-0.079
X51.718Y29.016Z-0.079
X51.697Y29.056Z-0.079
X51.217Y29.952Z-0.079
X51.142Y30.075Z-0.079
X51.058Y30.19Z-0.079
X50.43Y30.955Z-0.079
X50.334Y31.06Z-0.079
X50.229Y31.157Z-0.079
X49.464Y31.784Z-0.079
X49.349Y31.868Z-0.079
X49.228Y31.942Z-0.079
X48.355Y32.409Z-0.079
X48.226Y32.469Z-0.079
X48.092Y32.518Z-0.079
X47.145Y32.805Z-0.079
X47.007Y32.838Z-0.079
X46.866Y32.86Z-0.079
X45.881Y32.957Z-0.079
X45.739Y32.963Z-0.079
X45.596Y32.957Z-0.079
X44.612Y32.86Z-0.079
X44.471Y32.838Z-0.079
X44.332Y32.805Z-0.079
X43.386Y32.517Z-0.079
X43.252Y32.469Z-0.079
X43.123Y32.408Z-0.079
X42.25Y31.942Z-0.079
X42.129Y31.868Z-0.079
X42.014Y31.784Z-0.079
X41.249Y31.156Z-0.079
X41.144Y31.06Z-0.079
X41.047Y30.955Z-0.079
X40.42Y30.19Z-0.079
X40.336Y30.075Z-0.079
X40.262Y29.953Z-0.079
X39.795Y29.08Z-0.079
X39.735Y28.951Z-0.079
X39.686Y28.817Z-0.079
X39.399Y27.871Z-0.079
X39.366Y27.732Z-0.079
X39.344Y27.591Z-0.079
X39.247Y26.607Z-0.079
X39.241Y26.465Z-0.079
X39.247Y26.322Z-0.079
X39.344Y25.337Z-0.079
X39.366Y25.197Z-0.079
X39.4Y25.058Z-0.079
X39.688Y24.106Z-0.079
X39.728Y23.993Z-0.079
X39.777Y23.882Z-0.079
X41.289Y20.837Z-0.079
G0Z2
(Tool: D = 3.0 mm  type BALLNOSE flutes 2)
S12000M03
G00 Z2.0

X27.752Y38.017
G1Z-1F200
X27.178Y39.164F400
X27.74Y38.039
X27.752Y38.017
X27.493Y37.865
X27.557Y37.762
X27.566Y37.748
X27.57Y37.743
X27.587Y37.725
X27.599Y37.714
X27.613Y37.703
X27.633Y37.689
X27.638Y37.686
X27.653Y37.678
X27.7Y37.658
X27.751Y37.646
X27.757Y37.645
X27.763Y37.644
X27.815Y37.643
X27.866Y37.652
X27.882Y37.655
X27.888Y37.657
X27.911Y37.666
X27.917Y37.668
X27.932Y37.677
X27.975Y37.705
X28.013Y37.74
X28.017Y37.744
X28.021Y37.749
X28.043Y37.781
X28.077Y37.858
X28.086Y37.895
X28.089Y37.911
X28.09Y37.918
X28.09Y37.942
X28.09Y37.949
X28.088Y37.965
X28.079Y38.016
X28.061Y38.065
X28.041Y38.111
X24.405Y45.382
X24.384Y45.42
X24.371Y45.44
X24.361Y45.454
X24.35Y45.467
X24.333Y45.485
X24.321Y45.497
X24.308Y45.507
X24.288Y45.521
X24.282Y45.525
X24.267Y45.532
X24.22Y45.552
X24.17Y45.565
X24.153Y45.568
X24.147Y45.568
X24.122Y45.569
X24.106Y45.568
X24.089Y45.566
X24.065Y45.562
X24.048Y45.559
X24.032Y45.553
X24.009Y45.545
X23.994Y45.538
X23.979Y45.53
X23.958Y45.516
X23.945Y45.507
X23.932Y45.496
X23.914Y45.479
X23.902Y45.467
X23.892Y45.453
X23.878Y45.434
X23.869Y45.419
X23.861Y45.404
X23.851Y45.382
X23.845Y45.366
X23.84Y45.35
X23.835Y45.326
X23.834Y45.32
X23.833Y45.303
X23.832Y45.251
X23.84Y45.2
X23.844Y45.184
X23.846Y45.178
X23.855Y45.154
X23.872Y45.114
X27.475Y37.899
X27.493Y37.865
X27.234Y37.714
X27.305Y37.598
X27.328Y37.565
X27.347Y37.542
X27.374Y37.514
X27.402Y37.487
X27.433Y37.463
X27.465Y37.44
X27.49Y37.424
X27.527Y37.406
X27.605Y37.372
X27.689Y37.352
X27.719Y37.347
X27.751Y37.344
X27.836Y37.343
X27.921Y37.356
X27.961Y37.365
X27.989Y37.374
X28.025Y37.388
X28.052Y37.4
X28.088Y37.42
X28.159Y37.467
X28.223Y37.525
X28.244Y37.547
X28.263Y37.572
X28.305Y37.633
X28.362Y37.761
X28.38Y37.833
X28.387Y37.873
X28.389Y37.902
X28.39Y37.941
X28.39Y37.971
X28.385Y38.011
X28.369Y38.096
X28.339Y38.176
X28.313Y38.237
X24.67Y45.523
X24.642Y45.574
X24.621Y45.607
X24.598Y45.638
X24.573Y45.668
X24.546Y45.697
X24.518Y45.723
X24.487Y45.748
X24.455Y45.77
X24.43Y45.786
X24.394Y45.804
X24.315Y45.838
X24.232Y45.858
X24.192Y45.866
X24.162Y45.868
X24.123Y45.869
X24.084Y45.868
X24.045Y45.863
X24.007Y45.857
X23.969Y45.848
X23.932Y45.836
X23.895Y45.822
X23.86Y45.806
X23.826Y45.787
X23.792Y45.766
X23.76Y45.744
X23.731Y45.719
X23.702Y45.692
X23.675Y45.664
X23.651Y45.633
X23.629Y45.601
X23.608Y45.568
X23.59Y45.533
X23.574Y45.497
X23.56Y45.461
X23.55Y45.423
X23.541Y45.385
X23.536Y45.356
X23.533Y45.316
X23.532Y45.23
X23.545Y45.145
X23.554Y45.106
X23.563Y45.077
X23.577Y45.04
X23.601Y44.987
X27.209Y37.759
X27.234Y37.714
X26.975Y37.563
X27.054Y37.434
X27.09Y37.381
X27.125Y37.341
X27.162Y37.302
X27.206Y37.26
X27.254Y37.222
X27.298Y37.191
X27.342Y37.163
X27.4Y37.134
X27.51Y37.087
X27.627Y37.058
X27.682Y37.048
X27.738Y37.044
X27.857Y37.043
X27.976Y37.061
X28.039Y37.075
X28.089Y37.091
X28.139Y37.111
X28.187Y37.132
X28.244Y37.164
X28.344Y37.229
X28.432Y37.31
X28.471Y37.351
X28.506Y37.395
X28.568Y37.486
X28.648Y37.664
X28.673Y37.771
X28.685Y37.834
X28.689Y37.887
X28.69Y37.941
X28.689Y37.993
X28.681Y38.057
X28.659Y38.175
X28.618Y38.287
X28.585Y38.364
X24.935Y45.663
X24.899Y45.727
X24.871Y45.773
X24.836Y45.823
X24.796Y45.869
X24.759Y45.908
X24.715Y45.95
X24.667Y45.988
X24.622Y46.019
X24.578Y46.048
X24.52Y46.077
X24.411Y46.124
X24.294Y46.152
X24.23Y46.163
X24.178Y46.168
X24.124Y46.169
X24.063Y46.168
X24.002Y46.16
X23.949Y46.151
X23.89Y46.138
X23.831Y46.119
X23.781Y46.1
X23.725Y46.075
X23.672Y46.045
X23.626Y46.016
X23.576Y45.981
X23.53Y45.941
X23.491Y45.904
X23.449Y45.86
X23.411Y45.812
X23.38Y45.768
X23.347Y45.717
X23.319Y45.662
X23.297Y45.613
X23.275Y45.556
X23.259Y45.497
X23.247Y45.445
X23.238Y45.393
X23.233Y45.328
X23.231Y45.209
X23.25Y45.09
X23.264Y45.027
X23.28Y44.977
X23.3Y44.926
X23.329Y44.859
X26.944Y37.619
X26.975Y37.563
X26.715Y37.412Z-0.6
X26.802Y37.271Z-0.599
X26.852Y37.198Z-0.602
X26.902Y37.14Z-0.597
X26.949Y37.091Z-0.597
X27.009Y37.033Z-0.602
X27.075Y36.982Z-0.597
X27.131Y36.942Z-0.597
X27.194Y36.901Z-0.602
X27.274Y36.862Z-0.599
X27.415Y36.801Z-0.601
X27.564Y36.765Z-0.599
X27.644Y36.75Z-0.603
X27.725Y36.745Z-0.599
X27.879Y36.742Z-0.601
X28.031Y36.766Z-0.599
X28.118Y36.785Z-0.602
X28.189Y36.809Z-0.597
X28.253Y36.833Z-0.597
X28.323Y36.864Z-0.602
X28.4Y36.908Z-0.599
X28.529Y36.991Z-0.601
X28.642Y37.095Z-0.599
X28.698Y37.154Z-0.603
X28.748Y37.218Z-0.599
X28.831Y37.338Z-0.601
X28.912Y37.521Z-0.603
X28.933Y37.567Z-0.601
X28.967Y37.708Z-0.599
X28.983Y37.796Z-0.602
X28.989Y37.871Z-0.597
X28.991Y37.94Z-0.597
X28.989Y38.015Z-0.602
X28.978Y38.104Z-0.599
X28.95Y38.255Z-0.601
X28.897Y38.399Z-0.599
X28.857Y38.491Z-0.603
X28.768Y38.67Z-0.603
X25.279Y45.646Z-0.603
X25.2Y45.804Z-0.602
X25.157Y45.881Z-0.597
X25.121Y45.939Z-0.597
X25.073Y46.007Z-0.602
X25.019Y46.07Z-0.597
X24.972Y46.12Z-0.597
X24.912Y46.177Z-0.602
X24.846Y46.229Z-0.597
X24.79Y46.268Z-0.597
X24.726Y46.309Z-0.602
X24.647Y46.349Z-0.599
X24.506Y46.409Z-0.601
X24.356Y46.445Z-0.599
X24.269Y46.461Z-0.602
X24.193Y46.467Z-0.597
X24.125Y46.469Z-0.597
X24.042Y46.467Z-0.602
X23.959Y46.457Z-0.597
X23.891Y46.446Z-0.597
X23.81Y46.428Z-0.602
X23.731Y46.402Z-0.597
X23.667Y46.377Z-0.597
X23.591Y46.344Z-0.602
X23.519Y46.303Z-0.597
X23.46Y46.266Z-0.597
X23.392Y46.219Z-0.602
X23.329Y46.164Z-0.597
X23.279Y46.117Z-0.597
X23.222Y46.057Z-0.602
X23.17Y45.992Z-0.597
X23.131Y45.936Z-0.597
X23.086Y45.865Z-0.602
X23.048Y45.791Z-0.597
X23.02Y45.728Z-0.597
X22.99Y45.651Z-0.602
X22.968Y45.571Z-0.597
X22.953Y45.504Z-0.597
X22.939Y45.429Z-0.602
X22.933Y45.341Z-0.599
X22.931Y45.187Z-0.601
X22.955Y45.035Z-0.599
X22.974Y44.949Z-0.602
X22.997Y44.877Z-0.597
X23.022Y44.812Z-0.597
X23.057Y44.732Z-0.602
X23.147Y44.553Z-0.603
X26.678Y37.48Z-0.597
X26.715Y37.412Z-0.6
X26.456Y37.261Z-0.3
X26.55Y37.107Z-0.299
X26.614Y37.015Z-0.301
X26.679Y36.939Z-0.298
X26.736Y36.879Z-0.298
X26.81Y36.808Z-0.301
X26.814Y36.805Z-0.301
X26.895Y36.741Z-0.298
X26.963Y36.693Z-0.298
X27.046Y36.64Z-0.301
X27.148Y36.589Z-0.299
X27.314Y36.518Z-0.3
X27.319Y36.516Z-0.3
X27.326Y36.514Z-0.3
X27.502Y36.471Z-0.299
X27.607Y36.452Z-0.301
X27.713Y36.445Z-0.299
X27.894Y36.442Z-0.3
X27.9Y36.442Z-0.3
X27.907Y36.443Z-0.3
X28.086Y36.471Z-0.299
X28.196Y36.495Z-0.301
X28.29Y36.526Z-0.298
X28.367Y36.556Z-0.298
X28.458Y36.595Z-0.301
X28.556Y36.651Z-0.299
X28.708Y36.75Z-0.3
X28.713Y36.753Z-0.3
X28.718Y36.758Z-0.3
X28.851Y36.881Z-0.299
X28.925Y36.957Z-0.301
X28.99Y37.041Z-0.299
X29.09Y37.185Z-0.3
X29.093Y37.191Z-0.3
X29.096Y37.197Z-0.3
X29.178Y37.379Z-0.302
X29.215Y37.463Z-0.3
X29.218Y37.469Z-0.3
X29.219Y37.476Z-0.3
X29.261Y37.646Z-0.299
X29.281Y37.757Z-0.301
X29.288Y37.856Z-0.298
X29.291Y37.939Z-0.298
X29.288Y38.038Z-0.301
X29.274Y38.15Z-0.299
X29.241Y38.328Z-0.3
X29.24Y38.334Z-0.3
X29.238Y38.34Z-0.3
X29.175Y38.51Z-0.299
X29.129Y38.617Z-0.301
X29.04Y38.796Z-0.302
X25.551Y45.773Z-0.302
X25.465Y45.945Z-0.301
X25.415Y46.034Z-0.298
X25.371Y46.105Z-0.298
X25.312Y46.189Z-0.301
X25.309Y46.193Z-0.301
X25.242Y46.271Z-0.298
X25.184Y46.331Z-0.298
X25.11Y46.402Z-0.301
X25.106Y46.406Z-0.301
X25.025Y46.469Z-0.298
X24.957Y46.518Z-0.298
X24.874Y46.571Z-0.301
X24.773Y46.621Z-0.299
X24.607Y46.693Z-0.3
X24.601Y46.695Z-0.3
X24.595Y46.697Z-0.3
X24.418Y46.739Z-0.299
X24.308Y46.759Z-0.301
X24.209Y46.767Z-0.298
X24.125Y46.769Z-0.298
X24.023Y46.767Z-0.301
X24.018Y46.767Z-0.301
X23.916Y46.754Z-0.298
X23.834Y46.74Z-0.298
X23.733Y46.718Z-0.301
X23.728Y46.717Z-0.301
X23.63Y46.684Z-0.298
X23.552Y46.655Z-0.298
X23.459Y46.613Z-0.301
X23.455Y46.611Z-0.301
X23.365Y46.561Z-0.298
X23.294Y46.516Z-0.298
X23.21Y46.457Z-0.301
X23.206Y46.454Z-0.301
X23.128Y46.387Z-0.298
X23.067Y46.33Z-0.298
X22.996Y46.256Z-0.301
X22.993Y46.252Z-0.301
X22.93Y46.171Z-0.298
X22.881Y46.103Z-0.298
X22.826Y46.016Z-0.301
X22.824Y46.012Z-0.301
X22.777Y45.92Z-0.298
X22.743Y45.844Z-0.298
X22.706Y45.748Z-0.301
X22.705Y45.744Z-0.301
X22.677Y45.644Z-0.298
X22.658Y45.563Z-0.298
X22.641Y45.466Z-0.301
X22.633Y45.353Z-0.299
X22.631Y45.172Z-0.3
X22.631Y45.166Z-0.3
X22.632Y45.16Z-0.3
X22.66Y44.98Z-0.299
X22.684Y44.87Z-0.301
X22.714Y44.776Z-0.298
X22.744Y44.698Z-0.298
X22.786Y44.604Z-0.301
X22.875Y44.425Z-0.301
X26.413Y37.34Z-0.298
X26.456Y37.261Z-0.3
X26.197Y37.11Z-0.125
X26.299Y36.943Z-0.124
X26.374Y36.834Z-0.126
X26.379Y36.828Z-0.125
X26.456Y36.739Z-0.124
X26.523Y36.667Z-0.124
X26.608Y36.586Z-0.125
X26.623Y36.573Z-0.125
X26.716Y36.5Z-0.124
X26.796Y36.444Z-0.124
X26.895Y36.381Z-0.125
X26.902Y36.377Z-0.126
X27.021Y36.317Z-0.124
X27.201Y36.24Z-0.125
X27.225Y36.231Z-0.125
X27.249Y36.224Z-0.125
X27.44Y36.178Z-0.124
X27.569Y36.154Z-0.126
X27.7Y36.145Z-0.124
X27.896Y36.142Z-0.125
X27.921Y36.143Z-0.125
X27.947Y36.146Z-0.125
X28.141Y36.176Z-0.124
X28.271Y36.204Z-0.126
X28.278Y36.206Z-0.125
X28.39Y36.243Z-0.124
X28.482Y36.278Z-0.124
X28.589Y36.325Z-0.125
X28.596Y36.329Z-0.126
X28.712Y36.395Z-0.124
X28.876Y36.502Z-0.125
X28.897Y36.516Z-0.125
X28.917Y36.533Z-0.125
X29.061Y36.666Z-0.124
X29.152Y36.76Z-0.126
X29.233Y36.864Z-0.124
X29.34Y37.02Z-0.125
X29.355Y37.044Z-0.125
X29.367Y37.068Z-0.125
X29.449Y37.251Z-0.126
X29.492Y37.347Z-0.125
X29.502Y37.373Z-0.125
X29.51Y37.399Z-0.125
X29.554Y37.584Z-0.124
X29.578Y37.715Z-0.126
X29.579Y37.723Z-0.125
X29.588Y37.84Z-0.124
X29.591Y37.938Z-0.124
X29.588Y38.056Z-0.125
X29.588Y38.064Z-0.126
X29.571Y38.196Z-0.124
X29.535Y38.388Z-0.125
X29.53Y38.413Z-0.125
X29.522Y38.438Z-0.125
X29.454Y38.622Z-0.124
X29.401Y38.744Z-0.126
X25.823Y45.899Z-0.126
X25.73Y46.086Z-0.125
X25.673Y46.188Z-0.124
X25.621Y46.271Z-0.124
X25.553Y46.367Z-0.125
X25.541Y46.383Z-0.125
X25.465Y46.472Z-0.124
X25.397Y46.543Z-0.124
X25.312Y46.624Z-0.125
X25.297Y46.637Z-0.125
X25.205Y46.71Z-0.124
X25.125Y46.767Z-0.124
X25.025Y46.83Z-0.125
X25.019Y46.834Z-0.126
X24.899Y46.893Z-0.124
X24.719Y46.971Z-0.125
X24.696Y46.98Z-0.125
X24.671Y46.987Z-0.125
X24.481Y47.033Z-0.124
X24.35Y47.057Z-0.126
X24.342Y47.058Z-0.125
X24.224Y47.067Z-0.124
X24.126Y47.069Z-0.124
X24.009Y47.067Z-0.125
X23.989Y47.065Z-0.125
X23.872Y47.051Z-0.124
X23.776Y47.035Z-0.124
X23.661Y47.009Z-0.125
X23.642Y47.004Z-0.125
X23.53Y46.967Z-0.124
X23.438Y46.932Z-0.124
X23.331Y46.885Z-0.125
X23.314Y46.876Z-0.125
X23.211Y46.819Z-0.124
X23.128Y46.766Z-0.124
X23.032Y46.699Z-0.125
X23.017Y46.687Z-0.125
X22.927Y46.61Z-0.124
X22.856Y46.543Z-0.124
X22.774Y46.458Z-0.125
X22.762Y46.443Z-0.125
X22.689Y46.35Z-0.124
X22.632Y46.27Z-0.124
X22.569Y46.171Z-0.125
X22.56Y46.154Z-0.125
X22.506Y46.049Z-0.124
X22.466Y45.96Z-0.124
X22.424Y45.85Z-0.125
X22.418Y45.831Z-0.125
X22.386Y45.718Z-0.124
X22.364Y45.623Z-0.124
X22.344Y45.507Z-0.125
X22.343Y45.499Z-0.126
X22.334Y45.366Z-0.124
X22.331Y45.17Z-0.125
X22.331Y45.145Z-0.125
X22.334Y45.119Z-0.125
X22.365Y44.925Z-0.124
X22.393Y44.795Z-0.126
X22.395Y44.788Z-0.125
X22.432Y44.676Z-0.124
X22.467Y44.584Z-0.124
X22.514Y44.477Z-0.125
X22.603Y44.298Z-0.126
X26.147Y37.2Z-0.124
X26.197Y37.11Z-0.125
X25.938Y36.959Z-0.03
X26.047Y36.78Z-0.03
X26.132Y36.657Z-0.03
X26.147Y36.638Z-0.03
X26.233Y36.538Z-0.029
X26.311Y36.456Z-0.029
X26.406Y36.364Z-0.03
X26.432Y36.342Z-0.03
X26.536Y36.26Z-0.029
X26.628Y36.195Z-0.029
X26.74Y36.124Z-0.03
X26.761Y36.112Z-0.03
X26.895Y36.045Z-0.03
X27.088Y35.962Z-0.03
X27.13Y35.946Z-0.03
X27.173Y35.934Z-0.03
X27.378Y35.884Z-0.03
X27.525Y35.857Z-0.03
X27.538Y35.856Z-0.03
X27.688Y35.845Z-0.03
X27.898Y35.842Z-0.03
X27.943Y35.843Z-0.03
X27.987Y35.848Z-0.03
X28.196Y35.881Z-0.03
X28.342Y35.913Z-0.03
X28.365Y35.919Z-0.03
X28.491Y35.96Z-0.029
X28.596Y36Z-0.029
X28.717Y36.054Z-0.03
X28.738Y36.064Z-0.03
X28.868Y36.139Z-0.03
X29.045Y36.253Z-0.03
X29.081Y36.279Z-0.03
X29.116Y36.308Z-0.03
X29.27Y36.451Z-0.03
X29.375Y36.558Z-0.03
X29.383Y36.568Z-0.03
X29.475Y36.687Z-0.03
X29.591Y36.856Z-0.03
X29.617Y36.897Z-0.03
X29.638Y36.94Z-0.03
X29.72Y37.122Z-0.03
X29.769Y37.231Z-0.03
X29.786Y37.276Z-0.03
X29.8Y37.322Z-0.03
X29.848Y37.522Z-0.03
X29.875Y37.669Z-0.03
X29.878Y37.693Z-0.03
X29.888Y37.825Z-0.029
X29.891Y37.937Z-0.029
X29.888Y38.07Z-0.03
X29.886Y38.093Z-0.03
X29.867Y38.242Z-0.03
X29.829Y38.449Z-0.03
X29.819Y38.493Z-0.03
X29.806Y38.535Z-0.03
X29.733Y38.733Z-0.03
X29.673Y38.871Z-0.03
X26.006Y46.205Z-0.03
X25.995Y46.226Z-0.03
X25.931Y46.342Z-0.029
X25.871Y46.437Z-0.029
X25.795Y46.545Z-0.03
X25.774Y46.572Z-0.03
X25.687Y46.673Z-0.029
X25.61Y46.755Z-0.029
X25.514Y46.846Z-0.03
X25.488Y46.869Z-0.03
X25.384Y46.95Z-0.029
X25.292Y47.016Z-0.029
X25.18Y47.087Z-0.03
X25.16Y47.098Z-0.03
X25.026Y47.165Z-0.03
X24.832Y47.249Z-0.03
X24.791Y47.265Z-0.03
X24.748Y47.277Z-0.03
X24.543Y47.326Z-0.03
X24.395Y47.353Z-0.03
X24.372Y47.356Z-0.03
X24.24Y47.366Z-0.029
X24.127Y47.369Z-0.029
X23.995Y47.366Z-0.03
X23.961Y47.364Z-0.03
X23.829Y47.348Z-0.029
X23.718Y47.329Z-0.029
X23.589Y47.3Z-0.03
X23.556Y47.291Z-0.03
X23.429Y47.25Z-0.029
X23.324Y47.21Z-0.029
X23.203Y47.157Z-0.03
X23.173Y47.141Z-0.03
X23.058Y47.077Z-0.029
X22.962Y47.016Z-0.029
X22.854Y46.94Z-0.03
X22.827Y46.919Z-0.03
X22.726Y46.833Z-0.029
X22.644Y46.755Z-0.029
X22.553Y46.66Z-0.03
X22.53Y46.634Z-0.03
X22.448Y46.53Z-0.029
X22.383Y46.438Z-0.029
X22.312Y46.326Z-0.03
X22.295Y46.296Z-0.03
X22.235Y46.178Z-0.029
X22.189Y46.075Z-0.029
X22.141Y45.952Z-0.03
X22.131Y45.919Z-0.03
X22.095Y45.792Z-0.029
X22.07Y45.682Z-0.029
X22.047Y45.551Z-0.03
X22.044Y45.528Z-0.03
X22.034Y45.379Z-0.03
X22.031Y45.168Z-0.03
X22.032Y45.123Z-0.03
X22.037Y45.079Z-0.03
X22.07Y44.87Z-0.03
X22.101Y44.724Z-0.03
X22.108Y44.702Z-0.03
X22.149Y44.575Z-0.029
X22.189Y44.47Z-0.029
X22.242Y44.349Z-0.03
X25.881Y37.06Z-0.029
X25.938Y36.959Z-0.03
G0Z2
(Tool: D = 3.0 mm  type BALLNOSE flutes 2)
S12000M03
G00 Z2.0

X27.768Y52.99
G1Z-1F200
X27.764Y53F400
X24.158Y60.212
X24.152Y60.221
X24.156Y60.21
X27.762Y52.999
X27.768Y52.99
X27.5Y52.852
X27.56Y52.757
X27.6Y52.715
X27.647Y52.681
X27.7Y52.657
X27.757Y52.645
X27.815Y52.643
X27.872Y52.653
X27.926Y52.673
X27.975Y52.704
X28.017Y52.744
X28.051Y52.792
X28.074Y52.845
X28.087Y52.901
X28.089Y52.959
X28.079Y53.016
X28.039Y53.121
X24.42Y60.359
X24.36Y60.454
X24.32Y60.496
X24.273Y60.529
X24.22Y60.553
X24.164Y60.566
X24.106Y60.567
X24.049Y60.558
X23.994Y60.537
X23.945Y60.506
X23.903Y60.466
X23.87Y60.419
X23.846Y60.366
X23.833Y60.309
X23.832Y60.251
X23.841Y60.194
X23.882Y60.089
X27.5Y52.852
X27.241Y52.7
X27.322Y52.572
X27.402Y52.487
X27.498Y52.419
X27.605Y52.372
X27.719Y52.346
X27.836Y52.342
X27.952Y52.362
X28.061Y52.404
X28.16Y52.466
X28.245Y52.547
X28.313Y52.642
X28.36Y52.749
X28.386Y52.863
X28.39Y52.98
X28.37Y53.096
X28.316Y53.237
X28.312Y53.247
X24.684Y60.502
X24.679Y60.51
X24.598Y60.638
X24.518Y60.723
X24.422Y60.791
X24.316Y60.839
X24.201Y60.865
X24.084Y60.868
X23.969Y60.848
X23.86Y60.806
X23.76Y60.744
X23.675Y60.664
X23.608Y60.568
X23.56Y60.461
X23.534Y60.347
X23.531Y60.23
X23.551Y60.115
X23.605Y59.973
X23.609Y59.964
X27.237Y52.709
X27.241Y52.7
X26.984Y52.546
X27.08Y52.393
X27.084Y52.387
X27.089Y52.382
X27.2Y52.264
X27.205Y52.26
X27.211Y52.255
X27.343Y52.161
X27.349Y52.158
X27.355Y52.154
X27.503Y52.088
X27.51Y52.086
X27.516Y52.084
X27.675Y52.048
X27.681Y52.047
X27.688Y52.046
X27.851Y52.042
X27.857Y52.042
X27.864Y52.043
X28.025Y52.07
X28.031Y52.072
X28.038Y52.074
X28.189Y52.132
X28.195Y52.135
X28.201Y52.138
X28.339Y52.225
X28.344Y52.228
X28.35Y52.233
X28.468Y52.345
X28.472Y52.349
X28.477Y52.355
X28.571Y52.488
X28.574Y52.493
X28.577Y52.499
X28.644Y52.648
X28.646Y52.654
X28.648Y52.661
X28.684Y52.819
X28.685Y52.826
X28.686Y52.832
X28.69Y52.995
X28.69Y53.002
X28.689Y53.008
X28.662Y53.169
X28.66Y53.175
X28.658Y53.182
X28.593Y53.352
X28.583Y53.374
X24.949Y60.643
X24.937Y60.664
X24.84Y60.818
X24.836Y60.823
X24.832Y60.828
X24.72Y60.946
X24.715Y60.951
X24.71Y60.955
X24.577Y61.049
X24.571Y61.053
X24.565Y61.056
X24.417Y61.122
X24.411Y61.124
X24.404Y61.126
X24.246Y61.162
X24.239Y61.164
X24.232Y61.164
X24.07Y61.169
X24.063Y61.168
X24.056Y61.168
X23.896Y61.14
X23.889Y61.139
X23.883Y61.137
X23.731Y61.078
X23.725Y61.076
X23.719Y61.072
X23.581Y60.986
X23.576Y60.982
X23.571Y60.978
X23.452Y60.866
X23.448Y60.861
X23.444Y60.855
X23.35Y60.723
X23.346Y60.717
X23.343Y60.711
X23.277Y60.562
X23.274Y60.556
X23.273Y60.55
X23.237Y60.391
X23.235Y60.385
X23.235Y60.378
X23.23Y60.215
X23.231Y60.209
X23.231Y60.202
X23.259Y60.041
X23.26Y60.035
X23.262Y60.029
X23.327Y59.859
X23.337Y59.836
X26.972Y52.568
X26.984Y52.546
X26.726Y52.393Z-0.599
X26.831Y52.226Z-0.599
X26.847Y52.203Z-0.601
X26.865Y52.182Z-0.599
X26.989Y52.051Z-0.599
X27.008Y52.033Z-0.601
X27.03Y52.015Z-0.599
X27.177Y51.911Z-0.599
X27.2Y51.897Z-0.601
X27.225Y51.884Z-0.599
X27.389Y51.811Z-0.599
X27.415Y51.801Z-0.601
X27.441Y51.793Z-0.599
X27.617Y51.753Z-0.599
X27.644Y51.749Z-0.601
X27.672Y51.747Z-0.599
X27.851Y51.742Z-0.599
X27.879Y51.743Z-0.601
X27.906Y51.746Z-0.599
X28.084Y51.776Z-0.599
X28.11Y51.782Z-0.601
X28.137Y51.791Z-0.599
X28.305Y51.855Z-0.599
X28.33Y51.866Z-0.601
X28.354Y51.879Z-0.599
X28.506Y51.975Z-0.599
X28.529Y51.991Z-0.601
X28.55Y52.009Z-0.599
X28.68Y52.133Z-0.599
X28.699Y52.153Z-0.601
X28.716Y52.174Z-0.599
X28.82Y52.321Z-0.599
X28.835Y52.344Z-0.601
X28.848Y52.369Z-0.599
X28.921Y52.533Z-0.599
X28.931Y52.559Z-0.601
X28.938Y52.586Z-0.599
X28.978Y52.761Z-0.599
X28.983Y52.788Z-0.601
X28.985Y52.816Z-0.599
X28.99Y52.996Z-0.599
X28.989Y53.023Z-0.601
X28.986Y53.05Z-0.599
X28.956Y53.228Z-0.599
X28.95Y53.254Z-0.601
X28.941Y53.281Z-0.599
X28.871Y53.466Z-0.599
X28.855Y53.502Z-0.599
X25.214Y60.783Z-0.599
X25.195Y60.818Z-0.599
X25.089Y60.985Z-0.599
X25.074Y61.007Z-0.601
X25.056Y61.028Z-0.599
X24.932Y61.159Z-0.599
X24.912Y61.178Z-0.601
X24.89Y61.195Z-0.599
X24.743Y61.299Z-0.599
X24.72Y61.314Z-0.601
X24.696Y61.326Z-0.599
X24.531Y61.4Z-0.599
X24.506Y61.409Z-0.601
X24.479Y61.417Z-0.599
X24.304Y61.457Z-0.599
X24.277Y61.461Z-0.601
X24.249Y61.464Z-0.599
X24.069Y61.469Z-0.599
X24.042Y61.468Z-0.601
X24.014Y61.465Z-0.599
X23.837Y61.434Z-0.599
X23.81Y61.428Z-0.601
X23.784Y61.42Z-0.599
X23.616Y61.355Z-0.599
X23.591Y61.344Z-0.601
X23.567Y61.331Z-0.599
X23.414Y61.235Z-0.599
X23.392Y61.219Z-0.601
X23.371Y61.201Z-0.599
X23.24Y61.077Z-0.599
X23.221Y61.058Z-0.601
X23.204Y61.036Z-0.599
X23.1Y60.889Z-0.599
X23.085Y60.866Z-0.601
X23.073Y60.841Z-0.599
X22.999Y60.677Z-0.599
X22.99Y60.651Z-0.601
X22.982Y60.625Z-0.599
X22.942Y60.449Z-0.599
X22.938Y60.422Z-0.601
X22.935Y60.395Z-0.599
X22.93Y60.215Z-0.599
X22.931Y60.187Z-0.601
X22.934Y60.16Z-0.599
X22.965Y59.982Z-0.599
X22.971Y59.956Z-0.601
X22.979Y59.93Z-0.599
X23.05Y59.745Z-0.599
X23.066Y59.709Z-0.599
X26.706Y52.427Z-0.599
X26.726Y52.393Z-0.599
X26.468Y52.239Z-0.299
X26.582Y52.058Z-0.299
X26.61Y52.019Z-0.3
X26.641Y51.982Z-0.299
X26.777Y51.839Z-0.299
X26.812Y51.806Z-0.3
X26.85Y51.776Z-0.299
X27.011Y51.661Z-0.299
X27.052Y51.636Z-0.3
X27.095Y51.614Z-0.299
X27.275Y51.533Z-0.299
X27.32Y51.516Z-0.3
X27.366Y51.503Z-0.299
X27.559Y51.459Z-0.299
X27.606Y51.451Z-0.3
X27.655Y51.447Z-0.299
X27.852Y51.442Z-0.299
X27.9Y51.443Z-0.3
X27.948Y51.448Z-0.299
X28.143Y51.482Z-0.299
X28.19Y51.493Z-0.3
X28.236Y51.507Z-0.299
X28.42Y51.578Z-0.299
X28.464Y51.597Z-0.3
X28.506Y51.621Z-0.299
X28.673Y51.726Z-0.299
X28.713Y51.754Z-0.3
X28.75Y51.785Z-0.299
X28.893Y51.921Z-0.299
X28.926Y51.956Z-0.3
X28.956Y51.994Z-0.299
X29.07Y52.155Z-0.299
X29.096Y52.196Z-0.3
X29.118Y52.239Z-0.299
X29.199Y52.419Z-0.299
X29.216Y52.464Z-0.3
X29.229Y52.511Z-0.299
X29.273Y52.703Z-0.299
X29.281Y52.75Z-0.3
X29.285Y52.799Z-0.299
X29.29Y52.996Z-0.299
X29.289Y53.044Z-0.3
X29.283Y53.092Z-0.299
X29.25Y53.287Z-0.299
X29.239Y53.334Z-0.3
X29.225Y53.38Z-0.299
X29.148Y53.58Z-0.299
X29.126Y53.629Z-0.299
X25.479Y60.924Z-0.299
X25.453Y60.971Z-0.299
X25.339Y61.152Z-0.299
X25.311Y61.191Z-0.3
X25.279Y61.228Z-0.299
X25.144Y61.372Z-0.299
X25.109Y61.405Z-0.3
X25.071Y61.435Z-0.299
X24.91Y61.549Z-0.299
X24.869Y61.574Z-0.3
X24.826Y61.597Z-0.299
X24.646Y61.677Z-0.299
X24.601Y61.694Z-0.3
X24.554Y61.708Z-0.299
X24.362Y61.751Z-0.299
X24.314Y61.759Z-0.3
X24.266Y61.763Z-0.299
X24.069Y61.769Z-0.299
X24.02Y61.767Z-0.3
X23.972Y61.762Z-0.299
X23.778Y61.729Z-0.299
X23.731Y61.718Z-0.3
X23.684Y61.703Z-0.299
X23.5Y61.633Z-0.299
X23.456Y61.613Z-0.3
X23.414Y61.589Z-0.299
X23.247Y61.484Z-0.299
X23.208Y61.456Z-0.3
X23.171Y61.425Z-0.299
X23.027Y61.289Z-0.299
X22.994Y61.254Z-0.3
X22.964Y61.216Z-0.299
X22.85Y61.055Z-0.299
X22.825Y61.015Z-0.3
X22.802Y60.971Z-0.299
X22.722Y60.791Z-0.299
X22.705Y60.746Z-0.3
X22.691Y60.7Z-0.299
X22.648Y60.507Z-0.299
X22.64Y60.46Z-0.3
X22.636Y60.411Z-0.299
X22.63Y60.214Z-0.299
X22.632Y60.166Z-0.3
X22.637Y60.118Z-0.299
X22.67Y59.923Z-0.299
X22.681Y59.876Z-0.3
X22.696Y59.83Z-0.299
X22.772Y59.631Z-0.299
X22.794Y59.581Z-0.299
X26.441Y52.286Z-0.299
X26.468Y52.239Z-0.299
X26.21Y52.086Z-0.125
X26.332Y51.891Z-0.125
X26.373Y51.835Z-0.125
X26.417Y51.782Z-0.125
X26.565Y51.626Z-0.125
X26.615Y51.579Z-0.125
X26.669Y51.536Z-0.125
X26.844Y51.412Z-0.125
X26.903Y51.375Z-0.125
X26.965Y51.343Z-0.125
X27.16Y51.256Z-0.125
X27.225Y51.231Z-0.125
X27.291Y51.212Z-0.125
X27.501Y51.165Z-0.125
X27.569Y51.153Z-0.125
X27.638Y51.147Z-0.125
X27.852Y51.141Z-0.125
X27.921Y51.144Z-0.125
X27.99Y51.151Z-0.125
X28.202Y51.187Z-0.125
X28.269Y51.203Z-0.125
X28.335Y51.224Z-0.125
X28.535Y51.301Z-0.125
X28.598Y51.329Z-0.125
X28.659Y51.362Z-0.125
X28.841Y51.477Z-0.125
X28.897Y51.517Z-0.125
X28.95Y51.561Z-0.125
X29.105Y51.709Z-0.125
X29.153Y51.759Z-0.125
X29.196Y51.813Z-0.125
X29.32Y51.989Z-0.125
X29.357Y52.047Z-0.125
X29.389Y52.109Z-0.125
X29.476Y52.305Z-0.125
X29.5Y52.369Z-0.125
X29.52Y52.436Z-0.125
X29.567Y52.645Z-0.125
X29.579Y52.713Z-0.125
X29.585Y52.782Z-0.125
X29.59Y52.996Z-0.125
X29.588Y53.065Z-0.125
X29.581Y53.134Z-0.125
X29.544Y53.346Z-0.125
X29.529Y53.413Z-0.125
X29.508Y53.479Z-0.125
X29.426Y53.694Z-0.125
X29.398Y53.757Z-0.125
X25.744Y61.065Z-0.125
X25.71Y61.125Z-0.125
X25.588Y61.319Z-0.125
X25.548Y61.375Z-0.125
X25.503Y61.428Z-0.125
X25.356Y61.584Z-0.125
X25.305Y61.631Z-0.125
X25.251Y61.675Z-0.125
X25.076Y61.799Z-0.125
X25.017Y61.835Z-0.125
X24.956Y61.867Z-0.125
X24.76Y61.955Z-0.125
X24.696Y61.979Z-0.125
X24.629Y61.998Z-0.125
X24.42Y62.046Z-0.125
X24.352Y62.057Z-0.125
X24.283Y62.063Z-0.125
X24.068Y62.069Z-0.125
X23.999Y62.067Z-0.125
X23.93Y62.059Z-0.125
X23.719Y62.023Z-0.125
X23.651Y62.007Z-0.125
X23.585Y61.986Z-0.125
X23.385Y61.91Z-0.125
X23.322Y61.881Z-0.125
X23.262Y61.848Z-0.125
X23.08Y61.734Z-0.125
X23.024Y61.694Z-0.125
X22.971Y61.649Z-0.125
X22.815Y61.501Z-0.125
X22.767Y61.451Z-0.125
X22.724Y61.397Z-0.125
X22.6Y61.222Z-0.125
X22.564Y61.163Z-0.125
X22.532Y61.102Z-0.125
X22.444Y60.906Z-0.125
X22.42Y60.841Z-0.125
X22.401Y60.774Z-0.125
X22.353Y60.565Z-0.125
X22.342Y60.497Z-0.125
X22.336Y60.428Z-0.125
X22.33Y60.214Z-0.125
X22.332Y60.145Z-0.125
X22.34Y60.076Z-0.125
X22.376Y59.864Z-0.125
X22.392Y59.797Z-0.125
X22.412Y59.731Z-0.125
X22.495Y59.516Z-0.125
X22.522Y59.453Z-0.125
X26.176Y52.145Z-0.125
X26.21Y52.086Z-0.125
X25.952Y51.932Z-0.03
X26.083Y51.724Z-0.03
X26.135Y51.651Z-0.03
X26.193Y51.582Z-0.03
X26.353Y51.414Z-0.03
X26.418Y51.352Z-0.03
X26.489Y51.296Z-0.03
X26.678Y51.162Z-0.03
X26.754Y51.114Z-0.03
X26.834Y51.073Z-0.03
X27.046Y50.978Z-0.03
X27.13Y50.947Z-0.03
X27.217Y50.921Z-0.03
X27.443Y50.87Z-0.03
X27.531Y50.855Z-0.03
X27.621Y50.848Z-0.03
X27.853Y50.841Z-0.03
X27.943Y50.844Z-0.03
X28.032Y50.854Z-0.03
X28.261Y50.893Z-0.03
X28.348Y50.913Z-0.03
X28.434Y50.941Z-0.03
X28.651Y51.023Z-0.03
X28.733Y51.06Z-0.03
X28.811Y51.104Z-0.03
X29.008Y51.227Z-0.03
X29.081Y51.28Z-0.03
X29.15Y51.338Z-0.03
X29.318Y51.497Z-0.03
X29.38Y51.563Z-0.03
X29.436Y51.633Z-0.03
X29.57Y51.822Z-0.03
X29.617Y51.898Z-0.03
X29.659Y51.978Z-0.03
X29.753Y52.19Z-0.03
X29.785Y52.274Z-0.03
X29.81Y52.361Z-0.03
X29.862Y52.587Z-0.03
X29.877Y52.675Z-0.03
X29.884Y52.765Z-0.03
X29.891Y52.997Z-0.03
X29.888Y53.087Z-0.03
X29.878Y53.176Z-0.03
X29.839Y53.405Z-0.03
X29.819Y53.492Z-0.03
X29.791Y53.578Z-0.03
X29.703Y53.808Z-0.03
X29.67Y53.884Z-0.03
X26.009Y61.206Z-0.03
X25.968Y61.278Z-0.03
X25.837Y61.486Z-0.03
X25.785Y61.559Z-0.03
X25.727Y61.628Z-0.03
X25.568Y61.797Z-0.03
X25.502Y61.858Z-0.03
X25.432Y61.914Z-0.03
X25.242Y62.049Z-0.03
X25.166Y62.096Z-0.03
X25.086Y62.138Z-0.03
X24.875Y62.232Z-0.03
X24.791Y62.264Z-0.03
X24.704Y62.289Z-0.03
X24.478Y62.34Z-0.03
X24.389Y62.355Z-0.03
X24.299Y62.363Z-0.03
X24.068Y62.369Z-0.03
X23.978Y62.366Z-0.03
X23.888Y62.356Z-0.03
X23.66Y62.317Z-0.03
X23.572Y62.297Z-0.03
X23.486Y62.27Z-0.03
X23.269Y62.187Z-0.03
X23.188Y62.15Z-0.03
X23.109Y62.106Z-0.03
X22.913Y61.983Z-0.03
X22.84Y61.931Z-0.03
X22.771Y61.873Z-0.03
X22.602Y61.713Z-0.03
X22.541Y61.648Z-0.03
X22.484Y61.577Z-0.03
X22.35Y61.388Z-0.03
X22.303Y61.312Z-0.03
X22.261Y61.232Z-0.03
X22.167Y61.02Z-0.03
X22.135Y60.936Z-0.03
X22.11Y60.849Z-0.03
X22.059Y60.623Z-0.03
X22.044Y60.535Z-0.03
X22.036Y60.445Z-0.03
X22.03Y60.213Z-0.03
X22.033Y60.123Z-0.03
X22.043Y60.034Z-0.03
X22.082Y59.805Z-0.03
X22.102Y59.718Z-0.03
X22.129Y59.632Z-0.03
X22.217Y59.402Z-0.03
X22.251Y59.326Z-0.03
X25.911Y52.005Z-0.03
X25.952Y51.932Z-0.03
G0Z2
(Tool: D = 3.0 mm  type BALLNOSE flutes 2)
S12000M03
G00 Z2.0

X47.672Y70.532
G1Z-1.002F200
X47.68Y70.526F400
X47.69Y70.522
X47.699Y70.518
X47.709Y70.516
X47.72Y70.514
X47.73Y70.514
X47.74Y70.514Z-1.002
X47.751Y70.516Z-1.002
X47.761Y70.518
X47.77Y70.522
X47.78Y70.526
X47.788Y70.532
X47.797Y70.538
X47.804Y70.545
X47.811Y70.552
X47.817Y70.561
X47.823Y70.569
X47.827Y70.579
X47.831Y70.588
X47.833Y70.599
X47.835Y70.609
X47.835Y70.619
X47.835Y70.629
X47.833Y70.64
X47.831Y70.65
X47.827Y70.659
X47.823Y70.669
X47.817Y70.678
X47.811Y70.686
X47.804Y70.693
X47.797Y70.7
X47.788Y70.707Z-1.002
X47.78Y70.712
X47.77Y70.716
X47.761Y70.72
X47.751Y70.722Z-1.002
X47.74Y70.724Z-1.002
X47.73Y70.724Z-1.002
X47.72Y70.724
X47.709Y70.722
X47.699Y70.72
X47.69Y70.716
X47.68Y70.712
X47.672Y70.707
X47.663Y70.7
X47.656Y70.693
X47.649Y70.686
X47.642Y70.678
X47.637Y70.669
X47.633Y70.659
X47.629Y70.65
X47.627Y70.64
X47.625Y70.629
X47.625Y70.619
X47.625Y70.609
X47.627Y70.599
X47.629Y70.588
X47.633Y70.579
X47.637Y70.569
X47.642Y70.561
X47.649Y70.552
X47.656Y70.545
X47.663Y70.538
X47.672Y70.532
X47.505Y70.282Z-0.999
X47.539Y70.261
X47.575Y70.244
X47.612Y70.231
X47.651Y70.221
X47.69Y70.215
X47.73Y70.213
X47.77Y70.215
X47.809Y70.221
X47.848Y70.231
X47.885Y70.244
X47.921Y70.261
X47.955Y70.282
X47.987Y70.306
X48.017Y70.332
X48.044Y70.362
X48.067Y70.394
X48.088Y70.428
X48.105Y70.464
X48.118Y70.501
X48.128Y70.54
X48.134Y70.579
X48.136Y70.619
X48.134Y70.659
X48.128Y70.698Z-0.999
X48.118Y70.737Z-0.999
X48.105Y70.774
X48.088Y70.81
X48.067Y70.844Z-0.999
X48.044Y70.876
X48.017Y70.906
X47.987Y70.933
X47.955Y70.956
X47.921Y70.977
X47.885Y70.994
X47.848Y71.007
X47.809Y71.017
X47.77Y71.023
X47.73Y71.025Z-0.999
X47.69Y71.023
X47.651Y71.017
X47.612Y71.007Z-0.999
X47.575Y70.994Z-0.999
X47.539Y70.977
X47.505Y70.956
X47.473Y70.933
X47.443Y70.906
X47.416Y70.876
X47.393Y70.844
X47.372Y70.81
X47.355Y70.774
X47.342Y70.737
X47.332Y70.698
X47.326Y70.659
X47.324Y70.619
X47.326Y70.579
X47.332Y70.54
X47.342Y70.501
X47.355Y70.464
X47.372Y70.428
X47.393Y70.394
X47.416Y70.362
X47.443Y70.332
X47.473Y70.305
X47.505Y70.282
X47.338Y70.032Z-0.997
X47.397Y69.996Z-0.997
X47.46Y69.967
X47.525Y69.943Z-0.997
X47.592Y69.927Z-0.997
X47.661Y69.916
X47.73Y69.913Z-0.997
X47.799Y69.916
X47.868Y69.927
X47.935Y69.943
X48Y69.967
X48.063Y69.996
X48.122Y70.032Z-0.997
X48.178Y70.073
X48.229Y70.12
X48.276Y70.171
X48.317Y70.227
X48.353Y70.286
X48.382Y70.349
X48.406Y70.414
X48.422Y70.481
X48.433Y70.55
X48.436Y70.619
X48.433Y70.688
X48.422Y70.757
X48.406Y70.824
X48.382Y70.889
X48.353Y70.952
X48.317Y71.011
X48.276Y71.067
X48.229Y71.118
X48.178Y71.165
X48.122Y71.206
X48.063Y71.242
X48Y71.271Z-0.997
X47.935Y71.295
X47.868Y71.311Z-0.997
X47.799Y71.322
X47.73Y71.325
X47.661Y71.322
X47.592Y71.311
X47.525Y71.295
X47.46Y71.271
X47.397Y71.242
X47.338Y71.206Z-0.997
X47.282Y71.165Z-0.997
X47.231Y71.118
X47.184Y71.067Z-0.997
X47.143Y71.011Z-0.997
X47.107Y70.952
X47.078Y70.889
X47.054Y70.824
X47.038Y70.757
X47.027Y70.688
X47.024Y70.619
X47.027Y70.55Z-0.997
X47.038Y70.481
X47.054Y70.414
X47.078Y70.349
X47.107Y70.286
X47.143Y70.227Z-0.997
X47.184Y70.171
X47.231Y70.12Z-0.997
X47.282Y70.073
X47.338Y70.032
X47.171Y69.782Z-0.995
X47.256Y69.732
X47.345Y69.689
X47.438Y69.656
X47.534Y69.632
X47.631Y69.618
X47.73Y69.613
X47.829Y69.618
X47.926Y69.632
X48.022Y69.656
X48.115Y69.689
X48.204Y69.732
X48.289Y69.782
X48.368Y69.841
X48.442Y69.907
X48.508Y69.981
X48.567Y70.06
X48.618Y70.145
X48.66Y70.234
X48.693Y70.327
X48.717Y70.423
X48.731Y70.52
X48.736Y70.619
X48.731Y70.718
X48.717Y70.815
X48.693Y70.911
X48.66Y71.004
X48.617Y71.093
X48.567Y71.178
X48.508Y71.258
X48.442Y71.331
X48.368Y71.397Z-0.995
X48.289Y71.456Z-0.995
X48.204Y71.507Z-0.995
X48.115Y71.549
X48.022Y71.582Z-0.995
X47.926Y71.606
X47.829Y71.621
X47.73Y71.625
X47.631Y71.621
X47.534Y71.606
X47.438Y71.582
X47.345Y71.549
X47.256Y71.507
X47.171Y71.456
X47.092Y71.397
X47.018Y71.331
X46.952Y71.257
X46.893Y71.178
X46.842Y71.093
X46.8Y71.004
X46.767Y70.911
X46.743Y70.815
X46.728Y70.718
X46.724Y70.619
X46.728Y70.52
X46.743Y70.423
X46.767Y70.327
X46.8Y70.234
X46.842Y70.145
X46.893Y70.06
X46.952Y69.981
X47.018Y69.907
X47.092Y69.841
X47.171Y69.782
X47.004Y69.533Z-0.992
X47.114Y69.467
X47.23Y69.412
X47.351Y69.369
X47.475Y69.337
X47.602Y69.319
X47.73Y69.312
X47.858Y69.319
X47.985Y69.337
X48.109Y69.369
X48.23Y69.412
X48.346Y69.467
X48.456Y69.533
X48.559Y69.609
X48.654Y69.695
X48.74Y69.79
X48.816Y69.893
X48.882Y70.003Z-0.992
X48.937Y70.119Z-0.992
X48.98Y70.24
X49.012Y70.364
X49.03Y70.491
X49.037Y70.619
X49.03Y70.747Z-0.992
X49.012Y70.874Z-0.992
X48.98Y70.998
X48.937Y71.119
X48.882Y71.235
X48.816Y71.345Z-0.992
X48.74Y71.448
X48.654Y71.543
X48.559Y71.629
X48.456Y71.706Z-0.992
X48.346Y71.772Z-0.992
X48.23Y71.826
X48.109Y71.87
X47.985Y71.901
X47.858Y71.919
X47.73Y71.926Z-0.992
X47.602Y71.919
X47.475Y71.901
X47.351Y71.869
X47.23Y71.826
X47.114Y71.771
X47.004Y71.706
X46.901Y71.629
X46.806Y71.543
X46.72Y71.448
X46.643Y71.345
X46.578Y71.235
X46.523Y71.119
X46.48Y70.998
X46.448Y70.874
X46.43Y70.747
X46.423Y70.619
X46.43Y70.491
X46.448Y70.364
X46.48Y70.24
X46.523Y70.119
X46.578Y70.003
X46.644Y69.893
X46.72Y69.79
X46.806Y69.695
X46.901Y69.609
X47.004Y69.533
X46.837Y69.283Z-0.99
X46.972Y69.202
X47.115Y69.134
X47.264Y69.081
X47.417Y69.043
X47.573Y69.02Z-0.99
X47.73Y69.012
X47.888Y69.02
X48.044Y69.043Z-0.99
X48.197Y69.081
X48.345Y69.134
X48.488Y69.202
X48.623Y69.283
X48.75Y69.377
X48.866Y69.483
X48.972Y69.6
X49.066Y69.726
X49.147Y69.862
X49.215Y70.004
X49.268Y70.153
X49.306Y70.306
X49.329Y70.462
X49.337Y70.619
X49.329Y70.777
X49.306Y70.933
X49.268Y71.086
X49.215Y71.234
X49.147Y71.377
X49.066Y71.512
X48.972Y71.639
X48.866Y71.755
X48.749Y71.861
X48.623Y71.955
X48.487Y72.036
X48.345Y72.104Z-0.99
X48.196Y72.157
X48.043Y72.195
X47.887Y72.218Z-0.99
X47.73Y72.226
X47.572Y72.218
X47.416Y72.195
X47.263Y72.157
X47.115Y72.104
X46.972Y72.036
X46.837Y71.955Z-0.99
X46.71Y71.861Z-0.99
X46.594Y71.755
X46.488Y71.639
X46.394Y71.512
X46.313Y71.377
X46.245Y71.234
X46.192Y71.086
X46.154Y70.933
X46.131Y70.777
X46.123Y70.619
X46.131Y70.461Z-0.99
X46.154Y70.305
X46.192Y70.152Z-0.99
X46.245Y70.004
X46.313Y69.861
X46.394Y69.726
X46.488Y69.6
X46.594Y69.483Z-0.99
X46.711Y69.377Z-0.99
X46.837Y69.283
X46.67Y69.033Z-0.984
X46.831Y68.937
X47Y68.857
X47.176Y68.794Z-0.984
X47.358Y68.748Z-0.984
X47.543Y68.721
X47.73Y68.712Z-0.984
X47.917Y68.721Z-0.984
X48.102Y68.748Z-0.984
X48.284Y68.794Z-0.984
X48.46Y68.857Z-0.984
X48.629Y68.937
X48.79Y69.033
X48.94Y69.145Z-0.984
X49.079Y69.27Z-0.984
X49.204Y69.409
X49.316Y69.559
X49.412Y69.72
X49.492Y69.889
X49.555Y70.065
X49.601Y70.247
X49.628Y70.432
X49.637Y70.619Z-0.984
X49.628Y70.806Z-0.984
X49.601Y70.991
X49.555Y71.173
X49.492Y71.349
X49.412Y71.518
X49.316Y71.679Z-0.984
X49.204Y71.829
X49.079Y71.968
X48.94Y72.094Z-0.984
X48.79Y72.205Z-0.984
X48.629Y72.301
X48.46Y72.381Z-0.984
X48.284Y72.444
X48.102Y72.49
X47.917Y72.517Z-0.984
X47.73Y72.526Z-0.984
X47.543Y72.517Z-0.984
X47.358Y72.49
X47.176Y72.444
X47Y72.381
X46.831Y72.301
X46.67Y72.205Z-0.984
X46.52Y72.093Z-0.984
X46.381Y71.968
X46.255Y71.829
X46.144Y71.679Z-0.984
X46.048Y71.518Z-0.984
X45.968Y71.349
X45.905Y71.173
X45.859Y70.991
X45.832Y70.806
X45.823Y70.619
X45.832Y70.432Z-0.984
X45.859Y70.247Z-0.984
X45.905Y70.065Z-0.984
X45.968Y69.889Z-0.984
X46.048Y69.72
X46.144Y69.559
X46.256Y69.409
X46.381Y69.27
X46.52Y69.145
X46.67Y69.033
X46.49Y68.793Z-0.976
X46.503Y68.783Z-0.976
X46.689Y68.672Z-0.976
X46.885Y68.579Z-0.976
X47.089Y68.506Z-0.976
X47.299Y68.454
X47.514Y68.422
X47.73Y68.411
X47.946Y68.422Z-0.976
X48.161Y68.454Z-0.976
X48.371Y68.506
X48.575Y68.579
X48.771Y68.672
X48.957Y68.783Z-0.976
X49.131Y68.912Z-0.976
X49.291Y69.058Z-0.976
X49.437Y69.219Z-0.976
X49.566Y69.393Z-0.976
X49.677Y69.578
X49.77Y69.774
X49.843Y69.978Z-0.976
X49.895Y70.188
X49.927Y70.403
X49.938Y70.619
X49.927Y70.836
X49.895Y71.05Z-0.976
X49.843Y71.26
X49.77Y71.464Z-0.976
X49.677Y71.66
X49.566Y71.846Z-0.976
X49.437Y72.02
X49.291Y72.18Z-0.976
X49.131Y72.326
X48.956Y72.455
X48.771Y72.566Z-0.976
X48.575Y72.659
X48.371Y72.732Z-0.976
X48.161Y72.784Z-0.976
X47.946Y72.816Z-0.976
X47.73Y72.827
X47.513Y72.816
X47.299Y72.784
X47.089Y72.732
X46.885Y72.659Z-0.976
X46.689Y72.566Z-0.976
X46.503Y72.455
X46.329Y72.326Z-0.976
X46.169Y72.18Z-0.976
X46.023Y72.02
X45.894Y71.846Z-0.976
X45.783Y71.66
X45.69Y71.464Z-0.976
X45.617Y71.26
X45.565Y71.05
X45.533Y70.835Z-0.976
X45.522Y70.619Z-0.976
X45.533Y70.403
X45.565Y70.188
X45.617Y69.978
X45.69Y69.774
X45.783Y69.578
X45.894Y69.392Z-0.976
X46.023Y69.218Z-0.976
X46.169Y69.058
X46.329Y68.912
X46.49Y68.793Z-0.976
X46.3Y68.561Z-0.969
X46.337Y68.534Z-0.969
X46.548Y68.407Z-0.969
X46.77Y68.302
X47.002Y68.219Z-0.969
X47.241Y68.159Z-0.969
X47.484Y68.123
X47.73Y68.111Z-0.969
X47.976Y68.123Z-0.969
X48.219Y68.159Z-0.969
X48.458Y68.219Z-0.969
X48.69Y68.302Z-0.969
X48.912Y68.407
X49.124Y68.534Z-0.969
X49.321Y68.68
X49.504Y68.846
X49.669Y69.028
X49.815Y69.226
X49.942Y69.437
X50.047Y69.659
X50.13Y69.891
X50.19Y70.13
X50.226Y70.373
X50.238Y70.619Z-0.969
X50.226Y70.865Z-0.969
X50.19Y71.108Z-0.969
X50.13Y71.347
X50.047Y71.579
X49.942Y71.801Z-0.969
X49.815Y72.013Z-0.969
X49.669Y72.21Z-0.969
X49.503Y72.393
X49.321Y72.558
X49.123Y72.705Z-0.969
X48.912Y72.831Z-0.969
X48.69Y72.936Z-0.969
X48.458Y73.019Z-0.969
X48.219Y73.079Z-0.969
X47.976Y73.115Z-0.969
X47.73Y73.127Z-0.969
X47.484Y73.115
X47.241Y73.079Z-0.969
X47.002Y73.019Z-0.969
X46.77Y72.936
X46.548Y72.831
X46.336Y72.704Z-0.969
X46.139Y72.558Z-0.969
X45.956Y72.393
X45.791Y72.21
X45.644Y72.012Z-0.969
X45.518Y71.801Z-0.969
X45.413Y71.579
X45.33Y71.347
X45.27Y71.108
X45.234Y70.865
X45.222Y70.619
X45.234Y70.373Z-0.969
X45.27Y70.13
X45.33Y69.891
X45.413Y69.659Z-0.969
X45.518Y69.437
X45.645Y69.226
X45.791Y69.028Z-0.969
X45.956Y68.845Z-0.969
X46.139Y68.68
X46.3Y68.561Z-0.969
X46.109Y68.329Z-0.962
X46.17Y68.284Z-0.962
X46.406Y68.142Z-0.962
X46.655Y68.024Z-0.962
X46.915Y67.931
X47.182Y67.864
X47.455Y67.824Z-0.962
X47.73Y67.811
X48.005Y67.824Z-0.962
X48.278Y67.865Z-0.962
X48.545Y67.932
X48.805Y68.024Z-0.962
X49.054Y68.142Z-0.962
X49.29Y68.284
X49.512Y68.448Z-0.962
X49.716Y68.633Z-0.962
X49.901Y68.837
X50.065Y69.059Z-0.962
X50.207Y69.295
X50.325Y69.544
X50.418Y69.804Z-0.962
X50.485Y70.071
X50.525Y70.344
X50.538Y70.619
X50.525Y70.894Z-0.962
X50.485Y71.167Z-0.962
X50.418Y71.434Z-0.962
X50.325Y71.694
X50.207Y71.943
X50.065Y72.179Z-0.962
X49.901Y72.401
X49.716Y72.605Z-0.962
X49.512Y72.79Z-0.962
X49.29Y72.954Z-0.962
X49.054Y73.096Z-0.962
X48.805Y73.214Z-0.962
X48.545Y73.307
X48.278Y73.374
X48.005Y73.414Z-0.962
X47.73Y73.428Z-0.962
X47.455Y73.414Z-0.962
X47.182Y73.374
X46.915Y73.307
X46.655Y73.214Z-0.962
X46.406Y73.096
X46.17Y72.954Z-0.962
X45.948Y72.79Z-0.962
X45.744Y72.605
X45.559Y72.401Z-0.962
X45.395Y72.179Z-0.962
X45.253Y71.943Z-0.962
X45.135Y71.694
X45.042Y71.434
X44.975Y71.167
X44.935Y70.894Z-0.962
X44.921Y70.619Z-0.962
X44.935Y70.344
X44.975Y70.071
X45.042Y69.804Z-0.962
X45.135Y69.544Z-0.962
X45.253Y69.295
X45.395Y69.059
X45.559Y68.837
X45.744Y68.633
X45.948Y68.448Z-0.962
X46.109Y68.329Z-0.962
X45.918Y68.097Z-0.955
X46.003Y68.034Z-0.955
X46.265Y67.877Z-0.955
X46.54Y67.747
X46.828Y67.644Z-0.955
X47.124Y67.57Z-0.955
X47.425Y67.525Z-0.955
X47.73Y67.51Z-0.955
X48.035Y67.525Z-0.955
X48.337Y67.57
X48.633Y67.644
X48.92Y67.747Z-0.955
X49.196Y67.877Z-0.955
X49.457Y68.034Z-0.955
X49.702Y68.216Z-0.955
X49.928Y68.421Z-0.955
X50.133Y68.647Z-0.955
X50.315Y68.892Z-0.955
X50.472Y69.154Z-0.955
X50.602Y69.429
X50.705Y69.717Z-0.955
X50.779Y70.013Z-0.955
X50.824Y70.314Z-0.955
X50.839Y70.619Z-0.955
X50.824Y70.924Z-0.955
X50.779Y71.226
X50.705Y71.522
X50.602Y71.809Z-0.955
X50.472Y72.085Z-0.955
X50.315Y72.346Z-0.955
X50.133Y72.591
X49.928Y72.817
X49.702Y73.022Z-0.955
X49.457Y73.204
X49.195Y73.361Z-0.955
X48.92Y73.491Z-0.955
X48.632Y73.594Z-0.955
X48.336Y73.668
X48.035Y73.713Z-0.955
X47.73Y73.728Z-0.955
X47.425Y73.713Z-0.955
X47.123Y73.668Z-0.955
X46.827Y73.594Z-0.955
X46.54Y73.491
X46.264Y73.361
X46.003Y73.204
X45.758Y73.022Z-0.955
X45.532Y72.817Z-0.955
X45.327Y72.591Z-0.955
X45.145Y72.346Z-0.955
X44.988Y72.084
X44.858Y71.809
X44.755Y71.521Z-0.955
X44.681Y71.225
X44.636Y70.924Z-0.955
X44.621Y70.619Z-0.955
X44.636Y70.314
X44.681Y70.012
X44.755Y69.716
X44.858Y69.429Z-0.955
X44.988Y69.153
X45.145Y68.892
X45.327Y68.647Z-0.955
X45.532Y68.421Z-0.955
X45.758Y68.216Z-0.955
X45.918Y68.097Z-0.955
X45.728Y67.864Z-0.946
X45.836Y67.784Z-0.946
X46.123Y67.612Z-0.946
X46.425Y67.469
X46.74Y67.357
X47.065Y67.275Z-0.946
X47.396Y67.226Z-0.946
X47.73Y67.21Z-0.946
X48.064Y67.226Z-0.946
X48.395Y67.275Z-0.946
X48.72Y67.357Z-0.946
X49.035Y67.469Z-0.946
X49.337Y67.612
X49.624Y67.784
X49.893Y67.984Z-0.946
X50.141Y68.208Z-0.946
X50.365Y68.456
X50.565Y68.725Z-0.946
X50.737Y69.012Z-0.946
X50.88Y69.315Z-0.946
X50.992Y69.63
X51.074Y69.954Z-0.946
X51.123Y70.285Z-0.946
X51.139Y70.619Z-0.946
X51.123Y70.953Z-0.946
X51.074Y71.284Z-0.946
X50.992Y71.609Z-0.946
X50.88Y71.924Z-0.946
X50.737Y72.226Z-0.946
X50.565Y72.513Z-0.946
X50.365Y72.782Z-0.946
X50.141Y73.03Z-0.946
X49.893Y73.255Z-0.946
X49.624Y73.454Z-0.946
X49.337Y73.626Z-0.946
X49.035Y73.769Z-0.946
X48.72Y73.882Z-0.946
X48.395Y73.963
X48.064Y74.012Z-0.946
X47.73Y74.028Z-0.946
X47.396Y74.012Z-0.946
X47.065Y73.963
X46.74Y73.881Z-0.946
X46.425Y73.769
X46.123Y73.626Z-0.946
X45.836Y73.454Z-0.946
X45.567Y73.254Z-0.946
X45.319Y73.03Z-0.946
X45.095Y72.782Z-0.946
X44.895Y72.513Z-0.946
X44.723Y72.226Z-0.946
X44.58Y71.924
X44.468Y71.609Z-0.946
X44.386Y71.284Z-0.946
X44.337Y70.953Z-0.946
X44.321Y70.619Z-0.946
X44.337Y70.285Z-0.946
X44.386Y69.954Z-0.946
X44.468Y69.629Z-0.946
X44.58Y69.314Z-0.946
X44.723Y69.012Z-0.946
X44.895Y68.725Z-0.946
X45.095Y68.456Z-0.946
X45.319Y68.208Z-0.946
X45.567Y67.984
X45.728Y67.864Z-0.946
X45.537Y67.632Z-0.934
X45.669Y67.535Z-0.934
X45.981Y67.347Z-0.934
X46.31Y67.192Z-0.934
X46.653Y67.069Z-0.934
X47.006Y66.981Z-0.934
X47.367Y66.927
X47.73Y66.909Z-0.934
X48.094Y66.927Z-0.934
X48.454Y66.981Z-0.934
X48.807Y67.069Z-0.934
X49.15Y67.192Z-0.934
X49.479Y67.348Z-0.934
X49.791Y67.535
X50.083Y67.752Z-0.934
X50.353Y67.996Z-0.934
X50.598Y68.266Z-0.934
X50.814Y68.558Z-0.934
X51.002Y68.87Z-0.934
X51.157Y69.2Z-0.934
X51.28Y69.542
X51.368Y69.895Z-0.934
X51.422Y70.256Z-0.934
X51.44Y70.619Z-0.934
X51.422Y70.983Z-0.934
X51.368Y71.343Z-0.934
X51.28Y71.696Z-0.934
X51.157Y72.039
X51.001Y72.368Z-0.934
X50.814Y72.68Z-0.934
X50.597Y72.973Z-0.934
X50.353Y73.242Z-0.934
X50.083Y73.487Z-0.934
X49.791Y73.704Z-0.934
X49.479Y73.891Z-0.934
X49.149Y74.046Z-0.934
X48.807Y74.169
X48.454Y74.257Z-0.934
X48.093Y74.311Z-0.934
X47.73Y74.329Z-0.934
X47.366Y74.311Z-0.934
X47.006Y74.257
X46.653Y74.169Z-0.934
X46.31Y74.046Z-0.934
X45.981Y73.891Z-0.934
X45.669Y73.703Z-0.934
X45.377Y73.487Z-0.934
X45.107Y73.242Z-0.934
X44.862Y72.972Z-0.934
X44.645Y72.68Z-0.934
X44.458Y72.368
X44.303Y72.039Z-0.934
X44.18Y71.696Z-0.934
X44.092Y71.343Z-0.934
X44.038Y70.983Z-0.934
X44.02Y70.619Z-0.934
X44.038Y70.255Z-0.934
X44.092Y69.895
X44.18Y69.542
X44.303Y69.199Z-0.934
X44.458Y68.87
X44.646Y68.558Z-0.934
X44.862Y68.266Z-0.934
X45.107Y67.996Z-0.934
X45.377Y67.751Z-0.934
X45.537Y67.632Z-0.934
X45.347Y67.4Z-0.922
X45.502Y67.285Z-0.922
X45.84Y67.083Z-0.922
X46.196Y66.914Z-0.922
X46.566Y66.782
X46.948Y66.686Z-0.922
X47.337Y66.628Z-0.922
X47.73Y66.609Z-0.922
X48.123Y66.628Z-0.922
