(Created with grbl post processor 2023/10/15 23:44)
G21
(G-code generated with BlenderCAM and NC library)
G17G90
(Tool: D = 3.0 mm  type END flutes 2)
S12000M03
G00 Z2.0

G0X0Y0Z2
X-0.262Y7.183
G1Z-2F150
X-0.286Y7.225F300
X-0.305Y7.26
X-0.318Y7.283
X-0.336Y7.318
X-0.348Y7.341
X-0.371Y7.388
X-1.047Y8.818
X-1.071Y8.872
X-1.095Y8.927
X-1.118Y8.986
X-1.136Y9.034
X-1.669Y10.524
X-1.689Y10.583
X-1.707Y10.641
X-1.724Y10.7
X-1.736Y10.748
X-2.12Y12.28
X-2.131Y12.329
X-2.14Y12.368
X-2.145Y12.394
X-2.153Y12.433
X-2.157Y12.459
X-2.166Y12.512
X-2.398Y14.076
X-2.405Y14.135
X-2.412Y14.193
X-2.417Y14.254
X-2.42Y14.309
X-2.498Y15.889
X-2.5Y15.951
X-2.5Y16
X-2.5Y89.612
X-2.499Y89.671
X-2.497Y89.73
X-2.493Y89.789
X-2.488Y89.847
X-2.481Y89.906
X-2.473Y89.964
X-2.464Y90.023
X-2.453Y90.081
X-2.441Y90.14
X-2.427Y90.2
X-2.411Y90.26
X-2.394Y90.32
X-2.376Y90.379
X-2.355Y90.438
X-2.334Y90.496
X-2.311Y90.554
X-2.286Y90.611
X-2.261Y90.668
X-2.233Y90.723
X-2.205Y90.779
X-2.175Y90.833
X-2.144Y90.887
X-2.111Y90.939
X-2.077Y90.992
X-2.042Y91.043
X-2.005Y91.093
X-1.968Y91.142
X-1.929Y91.191
X-1.889Y91.238
X-1.847Y91.285
X-1.805Y91.33
X-1.761Y91.374
X-1.717Y91.418
X-1.671Y91.46
X-1.624Y91.501
X-1.577Y91.54
X-1.528Y91.579
X-1.478Y91.616
X-1.428Y91.652
X-1.376Y91.688
X-1.324Y91.721
X-1.272Y91.753
X-1.219Y91.783
X-1.165Y91.812
X-1.11Y91.84
X-1.055Y91.867
X-0.999Y91.892
X-0.943Y91.916
X-0.886Y91.938
X-0.828Y91.959
X-0.77Y91.979
X-0.712Y91.997
X-0.653Y92.014
X-0.594Y92.029
X-0.534Y92.043
X-0.474Y92.055
X-0.414Y92.066
X-0.353Y92.076
X-0.292Y92.084
X-0.231Y92.09
X-0.17Y92.095
X-0.109Y92.098
X-0.048Y92.1
X0Y92.101
X147.512Y92.101
X147.574Y92.1
X147.636Y92.097
X147.697Y92.093
X147.759Y92.087
X147.82Y92.08
X147.881Y92.072
X147.942Y92.062
X148.003Y92.05
X148.062Y92.037
X148.121Y92.022
X148.18Y92.007
X148.239Y91.989
X148.297Y91.971
X148.354Y91.951
X148.411Y91.929
X148.468Y91.906
X148.523Y91.882
X148.579Y91.856
X148.633Y91.829
X148.687Y91.801
X148.741Y91.771
X148.793Y91.741
X148.845Y91.708
X148.896Y91.675
X148.946Y91.64
X148.995Y91.605
X149.044Y91.568
X149.092Y91.529
X149.138Y91.49
X149.184Y91.449
X149.229Y91.407
X149.272Y91.364
X149.315Y91.321
X149.356Y91.276
X149.397Y91.23
X149.436Y91.183
X149.474Y91.135
X149.511Y91.086
X149.547Y91.037
X149.581Y90.986
X149.615Y90.935
X149.647Y90.883
X149.677Y90.831
X149.705Y90.78
X149.732Y90.729
X149.757Y90.677
X149.781Y90.625
X149.804Y90.572
X149.826Y90.518
X149.846Y90.466
X149.865Y90.414
X149.882Y90.361
X149.899Y90.307
X149.915Y90.251
X149.929Y90.195
X149.942Y90.138
X149.954Y90.081
X149.965Y90.024
X149.974Y89.966
X149.982Y89.907
X149.989Y89.843
X149.994Y89.779
X149.998Y89.715
X150Y89.651
X150.001Y89.6
X150.001Y-0.011
X150Y-0.071
X149.997Y-0.131
X149.994Y-0.191
X149.988Y-0.25
X149.981Y-0.31
X149.973Y-0.369
X149.964Y-0.428
X149.953Y-0.488
X149.94Y-0.549
X149.925Y-0.609
X149.91Y-0.669
X149.892Y-0.728
X149.874Y-0.787
X149.853Y-0.845
X149.832Y-0.903
X149.809Y-0.961
X149.784Y-1.017
X149.758Y-1.074
X149.731Y-1.129
X149.702Y-1.184
X149.673Y-1.238
X149.641Y-1.291
X149.609Y-1.344
X149.575Y-1.395
X149.54Y-1.446
X149.503Y-1.496
X149.466Y-1.545
X149.427Y-1.594
X149.387Y-1.641
X149.346Y-1.687
X149.303Y-1.732
X149.259Y-1.776
X149.215Y-1.82
X149.169Y-1.862
X149.122Y-1.902
X149.075Y-1.942
X149.026Y-1.98
X148.976Y-2.018
X148.926Y-2.054
X148.874Y-2.088
X148.822Y-2.122
X148.769Y-2.154
X148.715Y-2.185
X148.661Y-2.214
X148.606Y-2.242
X148.55Y-2.269
X148.493Y-2.294
X148.436Y-2.318
X148.378Y-2.341
X148.32Y-2.362
X148.261Y-2.382
X148.201Y-2.4
X148.142Y-2.416
X148.082Y-2.431
X148.021Y-2.445
X147.96Y-2.457
X147.902Y-2.468
X147.843Y-2.476
X147.784Y-2.484
X147.725Y-2.49
X147.666Y-2.495
X147.607Y-2.498
X147.547Y-2.5
X147.5Y-2.5
X15.988Y-2.5
X15.926Y-2.499
X15.877Y-2.497
X14.295Y-2.419
X14.228Y-2.415
X14.17Y-2.409
X14.111Y-2.402
X14.065Y-2.396
X12.501Y-2.164
X12.448Y-2.155
X12.393Y-2.145
X12.352Y-2.137
X12.325Y-2.131
X12.271Y-2.118
X10.737Y-1.734
X10.686Y-1.72
X10.634Y-1.705
X10.593Y-1.692
X10.513Y-1.665
X9.022Y-1.132
X8.963Y-1.109
X8.904Y-1.085
X8.85Y-1.062
X8.808Y-1.042
X7.378Y-0.366
X7.326Y-0.34
X7.275Y-0.314
X7.225Y-0.286
X7.172Y-0.255
X5.814Y0.558
X5.758Y0.593
X5.708Y0.626
X5.66Y0.66
X5.621Y0.688
X4.351Y1.63
X4.307Y1.663
X4.264Y1.698
X4.23Y1.726
X4.17Y1.779
X2.999Y2.84
X2.957Y2.879
X2.912Y2.924
X2.868Y2.969
X2.833Y3.007
X1.772Y4.178
X1.738Y4.216
X1.705Y4.255
X1.679Y4.287
X1.623Y4.36
X0.681Y5.631
X0.646Y5.679
X0.612Y5.728
X0.579Y5.779
X0.551Y5.825
X-0.262Y7.183
G0Z2
X0.602Y7.686
G1Z-2F150
X0.587Y7.711F300
X0.568Y7.746
X0.55Y7.78
X0.532Y7.816
X-0.138Y9.235
X-0.153Y9.267
X-0.167Y9.3
X-0.181Y9.335
X-0.194Y9.371
X-0.723Y10.85
X-0.735Y10.885
X-0.746Y10.92
X-0.757Y10.955
X-0.766Y10.991
X-1.148Y12.514
X-1.154Y12.541
X-1.163Y12.58
X-1.17Y12.619
X-1.176Y12.658
X-1.407Y14.211
X-1.412Y14.246
X-1.415Y14.281
X-1.419Y14.317
X-1.421Y14.358
X-1.498Y15.926
X-1.5Y15.963
X-1.5Y16
Y89.6
X-1.5Y89.635
X-1.498Y89.671
X-1.496Y89.706
X-1.493Y89.741
X-1.49Y89.777
X-1.485Y89.812
X-1.48Y89.847
X-1.473Y89.881
X-1.466Y89.917
X-1.458Y89.953
X-1.449Y89.989
X-1.439Y90.025
X-1.428Y90.061
X-1.416Y90.096
X-1.403Y90.131
X-1.389Y90.166
X-1.375Y90.2
X-1.36Y90.234
X-1.343Y90.267
X-1.326Y90.301
X-1.309Y90.333
X-1.29Y90.366
X-1.271Y90.398
X-1.25Y90.429
X-1.229Y90.46
X-1.208Y90.49
X-1.185Y90.52
X-1.162Y90.549
X-1.138Y90.577
X-1.113Y90.605
X-1.088Y90.633
X-1.062Y90.659
X-1.035Y90.686
X-1.008Y90.711
X-0.98Y90.736
X-0.952Y90.76
X-0.923Y90.783
X-0.893Y90.806
X-0.863Y90.827
X-0.831Y90.849
X-0.8Y90.869
X-0.769Y90.888
X-0.737Y90.907
X-0.705Y90.924
X-0.672Y90.941
X-0.639Y90.957
X-0.606Y90.973
X-0.572Y90.987
X-0.538Y91.001
X-0.504Y91.014
X-0.469Y91.025
X-0.434Y91.037
X-0.398Y91.047
X-0.363Y91.056
X-0.327Y91.065
X-0.291Y91.072
X-0.255Y91.079
X-0.219Y91.085
X-0.182Y91.09
X-0.146Y91.094
X-0.109Y91.097
X-0.073Y91.099
X-0.036Y91.1
X0Y91.101
X147.5
X147.537Y91.1
X147.574Y91.099
X147.611Y91.097
X147.648Y91.094
X147.685Y91.09
X147.721Y91.085
X147.758Y91.079
X147.795Y91.072
X147.83Y91.064
X147.866Y91.056
X147.901Y91.046
X147.936Y91.036
X147.971Y91.025
X148.006Y91.013
X148.04Y91
X148.074Y90.987
X148.108Y90.972
X148.141Y90.957
X148.174Y90.941
X148.206Y90.924
X148.238Y90.907
X148.27Y90.888
X148.301Y90.869
X148.332Y90.849
X148.362Y90.829
X148.391Y90.807
X148.421Y90.785
X148.45Y90.762
X148.478Y90.739
X148.505Y90.714
X148.532Y90.69
X148.559Y90.664
X148.584Y90.638
X148.609Y90.611
X148.634Y90.584
X148.657Y90.556
X148.68Y90.527
X148.703Y90.498
X148.724Y90.468
X148.745Y90.438
X148.765Y90.407
X148.785Y90.376
X148.803Y90.345
X148.82Y90.314
X148.836Y90.284
X148.852Y90.253
X148.866Y90.221
X148.88Y90.189
X148.894Y90.157
X148.906Y90.126
X148.917Y90.095
X148.928Y90.063
X148.938Y90.031
X148.947Y89.998
X148.956Y89.964
X148.964Y89.93
X148.972Y89.896
X148.978Y89.861
X148.984Y89.827
X148.989Y89.792
X148.993Y89.754
X148.997Y89.715
X148.999Y89.677
X149Y89.638
X149.001Y89.6
X149.001Y0
X149.001Y-0.035
X148.999Y-0.071
X148.997Y-0.107
X148.994Y-0.143
X148.99Y-0.178
X148.985Y-0.214
X148.98Y-0.25
X148.973Y-0.285
X148.966Y-0.322
X148.957Y-0.358
X148.948Y-0.394
X148.938Y-0.429
X148.927Y-0.465
X148.915Y-0.5
X148.902Y-0.535
X148.888Y-0.569
X148.874Y-0.603
X148.859Y-0.637
X148.842Y-0.671
X148.825Y-0.704
X148.808Y-0.736
X148.789Y-0.768
X148.77Y-0.8
X148.749Y-0.831
X148.728Y-0.862
X148.707Y-0.892
X148.684Y-0.921
X148.661Y-0.95
X148.637Y-0.979
X148.613Y-1.006
X148.587Y-1.034
X148.561Y-1.061
X148.534Y-1.087
X148.507Y-1.112
X148.479Y-1.137
X148.451Y-1.161
X148.422Y-1.184
X148.392Y-1.206
X148.362Y-1.228
X148.331Y-1.249
X148.3Y-1.269
X148.268Y-1.289
X148.236Y-1.307
X148.203Y-1.325
X148.17Y-1.342
X148.137Y-1.358
X148.103Y-1.374
X148.068Y-1.388
X148.034Y-1.402
X147.999Y-1.415
X147.964Y-1.427
X147.928Y-1.438
X147.892Y-1.448
X147.856Y-1.457
X147.82Y-1.466
X147.783Y-1.473
X147.748Y-1.479
X147.713Y-1.485
X147.678Y-1.49
X147.642Y-1.493
X147.607Y-1.496
X147.571Y-1.498
X147.536Y-1.5
X147.5Y-1.5
X16Y-1.5
X15.963Y-1.5
X15.926Y-1.498
X14.358Y-1.421
X14.316Y-1.419
X14.281Y-1.415
X14.246Y-1.412
X14.211Y-1.407
X12.658Y-1.176
X12.627Y-1.171
X12.595Y-1.166
X12.554Y-1.157
X12.514Y-1.148
X10.991Y-0.766
X10.96Y-0.758
X10.929Y-0.749
X10.898Y-0.74
X10.85Y-0.723
X9.371Y-0.194
X9.335Y-0.181
X9.3Y-0.167
X9.267Y-0.153
X9.235Y-0.138
X7.816Y0.532
X7.785Y0.547
X7.754Y0.563
X7.724Y0.58
X7.686Y0.602
X6.339Y1.409
X6.305Y1.43
X6.275Y1.45
X6.246Y1.47
X6.217Y1.491
X4.956Y2.426
X4.929Y2.446
X4.903Y2.467
X4.878Y2.488
X4.842Y2.52
X3.678Y3.574
X3.654Y3.596
X3.627Y3.623
X3.6Y3.65
X3.574Y3.678
X2.52Y4.842
X2.499Y4.865
X2.479Y4.888
X2.46Y4.912
X2.426Y4.955
X1.491Y6.217
X1.47Y6.246
X1.45Y6.275
X1.43Y6.305
X1.409Y6.339
X0.602Y7.686
G0Z2
X-0.262Y7.183
G1Z-4F150
X-0.286Y7.225F300
X-0.305Y7.26
X-0.318Y7.283
X-0.336Y7.318
X-0.348Y7.341
X-0.371Y7.388
X-1.047Y8.818
X-1.071Y8.872
X-1.095Y8.927
X-1.118Y8.986
X-1.136Y9.034
X-1.669Y10.524
X-1.689Y10.583
X-1.707Y10.641
X-1.724Y10.7
X-1.736Y10.748
X-2.12Y12.28
X-2.131Y12.329
X-2.14Y12.368
X-2.145Y12.394
X-2.153Y12.433
X-2.157Y12.459
X-2.166Y12.512
X-2.398Y14.076
X-2.405Y14.135
X-2.412Y14.193
X-2.417Y14.254
X-2.42Y14.309
X-2.498Y15.889
X-2.5Y15.951
X-2.5Y16
X-2.5Y89.612
X-2.499Y89.671
X-2.497Y89.73
X-2.493Y89.789
X-2.488Y89.847
X-2.481Y89.906
X-2.473Y89.964
X-2.464Y90.023
X-2.453Y90.081
X-2.441Y90.14
X-2.427Y90.2
X-2.411Y90.26
X-2.394Y90.32
X-2.376Y90.379
X-2.355Y90.438
X-2.334Y90.496
X-2.311Y90.554
X-2.286Y90.611
X-2.261Y90.668
X-2.233Y90.723
X-2.205Y90.779
X-2.175Y90.833
X-2.144Y90.887
X-2.111Y90.939
X-2.077Y90.992
X-2.042Y91.043
X-2.005Y91.093
X-1.968Y91.142
X-1.929Y91.191
X-1.889Y91.238
X-1.847Y91.285
X-1.805Y91.33
X-1.761Y91.374
X-1.717Y91.418
X-1.671Y91.46
X-1.624Y91.501
X-1.577Y91.54
X-1.528Y91.579
X-1.478Y91.616
X-1.428Y91.652
X-1.376Y91.688
X-1.324Y91.721
X-1.272Y91.753
X-1.219Y91.783
X-1.165Y91.812
X-1.11Y91.84
X-1.055Y91.867
X-0.999Y91.892
X-0.943Y91.916
X-0.886Y91.938
X-0.828Y91.959
X-0.77Y91.979
X-0.712Y91.997
X-0.653Y92.014
X-0.594Y92.029
X-0.534Y92.043
X-0.474Y92.055
X-0.414Y92.066
X-0.353Y92.076
X-0.292Y92.084
X-0.231Y92.09
X-0.17Y92.095
X-0.109Y92.098
X-0.048Y92.1
X0Y92.101
X147.512Y92.101
X147.574Y92.1
X147.636Y92.097
X147.697Y92.093
X147.759Y92.087
X147.82Y92.08
X147.881Y92.072
X147.942Y92.062
X148.003Y92.05
X148.062Y92.037
X148.121Y92.022
X148.18Y92.007
X148.239Y91.989
X148.297Y91.971
X148.354Y91.951
X148.411Y91.929
X148.468Y91.906
X148.523Y91.882
X148.579Y91.856
X148.633Y91.829
X148.687Y91.801
X148.741Y91.771
X148.793Y91.741
X148.845Y91.708
X148.896Y91.675
X148.946Y91.64
X148.995Y91.605
X149.044Y91.568
X149.092Y91.529
X149.138Y91.49
X149.184Y91.449
X149.229Y91.407
X149.272Y91.364
X149.315Y91.321
X149.356Y91.276
X149.397Y91.23
X149.436Y91.183
X149.474Y91.135
X149.511Y91.086
X149.547Y91.037
X149.581Y90.986
X149.615Y90.935
X149.647Y90.883
X149.677Y90.831
X149.705Y90.78
X149.732Y90.729
X149.757Y90.677
X149.781Y90.625
X149.804Y90.572
X149.826Y90.518
X149.846Y90.466
X149.865Y90.414
X149.882Y90.361
X149.899Y90.307
X149.915Y90.251
X149.929Y90.195
X149.942Y90.138
X149.954Y90.081
X149.965Y90.024
X149.974Y89.966
X149.982Y89.907
X149.989Y89.843
X149.994Y89.779
X149.998Y89.715
X150Y89.651
X150.001Y89.6
X150.001Y-0.011
X150Y-0.071
X149.997Y-0.131
X149.994Y-0.191
X149.988Y-0.25
X149.981Y-0.31
X149.973Y-0.369
X149.964Y-0.428
X149.953Y-0.488
X149.94Y-0.549
X149.925Y-0.609
X149.91Y-0.669
X149.892Y-0.728
X149.874Y-0.787
X149.853Y-0.845
X149.832Y-0.903
X149.809Y-0.961
X149.784Y-1.017
X149.758Y-1.074
X149.731Y-1.129
X149.702Y-1.184
X149.673Y-1.238
X149.641Y-1.291
X149.609Y-1.344
X149.575Y-1.395
X149.54Y-1.446
X149.503Y-1.496
X149.466Y-1.545
X149.427Y-1.594
X149.387Y-1.641
X149.346Y-1.687
X149.303Y-1.732
X149.259Y-1.776
X149.215Y-1.82
X149.169Y-1.862
X149.122Y-1.902
X149.075Y-1.942
X149.026Y-1.98
X148.976Y-2.018
X148.926Y-2.054
X148.874Y-2.088
X148.822Y-2.122
X148.769Y-2.154
X148.715Y-2.185
X148.661Y-2.214
X148.606Y-2.242
X148.55Y-2.269
X148.493Y-2.294
X148.436Y-2.318
X148.378Y-2.341
X148.32Y-2.362
X148.261Y-2.382
X148.201Y-2.4
X148.142Y-2.416
X148.082Y-2.431
X148.021Y-2.445
X147.96Y-2.457
X147.902Y-2.468
X147.843Y-2.476
X147.784Y-2.484
X147.725Y-2.49
X147.666Y-2.495
X147.607Y-2.498
X147.547Y-2.5
X147.5Y-2.5
X15.988Y-2.5
X15.926Y-2.499
X15.877Y-2.497
X14.295Y-2.419
X14.228Y-2.415
X14.17Y-2.409
X14.111Y-2.402
X14.065Y-2.396
X12.501Y-2.164
X12.448Y-2.155
X12.393Y-2.145
X12.352Y-2.137
X12.325Y-2.131
X12.271Y-2.118
X10.737Y-1.734
X10.686Y-1.72
X10.634Y-1.705
X10.593Y-1.692
X10.513Y-1.665
X9.022Y-1.132
X8.963Y-1.109
X8.904Y-1.085
X8.85Y-1.062
X8.808Y-1.042
X7.378Y-0.366
X7.326Y-0.34
X7.275Y-0.314
X7.225Y-0.286
X7.172Y-0.255
X5.814Y0.558
X5.758Y0.593
X5.708Y0.626
X5.66Y0.66
X5.621Y0.688
X4.351Y1.63
X4.307Y1.663
X4.264Y1.698
X4.23Y1.726
X4.17Y1.779
X2.999Y2.84
X2.957Y2.879
X2.912Y2.924
X2.868Y2.969
X2.833Y3.007
X1.772Y4.178
X1.738Y4.216
X1.705Y4.255
X1.679Y4.287
X1.623Y4.36
X0.681Y5.631
X0.646Y5.679
X0.612Y5.728
X0.579Y5.779
X0.551Y5.825
X-0.262Y7.183
G0Z2
X0.602Y7.686
G1Z-4F150
X0.587Y7.711F300
X0.568Y7.746
X0.55Y7.78
X0.532Y7.816
X-0.138Y9.235
X-0.153Y9.267
X-0.167Y9.3
X-0.181Y9.335
X-0.194Y9.371
X-0.723Y10.85
X-0.735Y10.885
X-0.746Y10.92
X-0.757Y10.955
X-0.766Y10.991
X-1.148Y12.514
X-1.154Y12.541
X-1.163Y12.58
X-1.17Y12.619
X-1.176Y12.658
X-1.407Y14.211
X-1.412Y14.246
X-1.415Y14.281
X-1.419Y14.317
X-1.421Y14.358
X-1.498Y15.926
X-1.5Y15.963
X-1.5Y16
Y89.6
X-1.5Y89.635
X-1.498Y89.671
X-1.496Y89.706
X-1.493Y89.741
X-1.49Y89.777
X-1.485Y89.812
X-1.48Y89.847
X-1.473Y89.881
X-1.466Y89.917
X-1.458Y89.953
X-1.449Y89.989
X-1.439Y90.025
X-1.428Y90.061
X-1.416Y90.096
X-1.403Y90.131
X-1.389Y90.166
X-1.375Y90.2
X-1.36Y90.234
X-1.343Y90.267
X-1.326Y90.301
X-1.309Y90.333
X-1.29Y90.366
X-1.271Y90.398
X-1.25Y90.429
X-1.229Y90.46
X-1.208Y90.49
X-1.185Y90.52
X-1.162Y90.549
X-1.138Y90.577
X-1.113Y90.605
X-1.088Y90.633
X-1.062Y90.659
X-1.035Y90.686
X-1.008Y90.711
X-0.98Y90.736
X-0.952Y90.76
X-0.923Y90.783
X-0.893Y90.806
X-0.863Y90.827
X-0.831Y90.849
X-0.8Y90.869
X-0.769Y90.888
X-0.737Y90.907
X-0.705Y90.924
X-0.672Y90.941
X-0.639Y90.957
X-0.606Y90.973
X-0.572Y90.987
X-0.538Y91.001
X-0.504Y91.014
X-0.469Y91.025
X-0.434Y91.037
X-0.398Y91.047
X-0.363Y91.056
X-0.327Y91.065
X-0.291Y91.072
X-0.255Y91.079
X-0.219Y91.085
X-0.182Y91.09
X-0.146Y91.094
X-0.109Y91.097
X-0.073Y91.099
X-0.036Y91.1
X0Y91.101
X147.5
X147.537Y91.1
X147.574Y91.099
X147.611Y91.097
X147.648Y91.094
X147.685Y91.09
X147.721Y91.085
X147.758Y91.079
X147.795Y91.072
X147.83Y91.064
X147.866Y91.056
X147.901Y91.046
X147.936Y91.036
X147.971Y91.025
X148.006Y91.013
X148.04Y91
X148.074Y90.987
X148.108Y90.972
X148.141Y90.957
X148.174Y90.941
X148.206Y90.924
X148.238Y90.907
X148.27Y90.888
X148.301Y90.869
X148.332Y90.849
X148.362Y90.829
X148.391Y90.807
X148.421Y90.785
X148.45Y90.762
X148.478Y90.739
X148.505Y90.714
X148.532Y90.69
X148.559Y90.664
X148.584Y90.638
X148.609Y90.611
X148.634Y90.584
X148.657Y90.556
X148.68Y90.527
X148.703Y90.498
X148.724Y90.468
X148.745Y90.438
X148.765Y90.407
X148.785Y90.376
X148.803Y90.345
X148.82Y90.314
X148.836Y90.284
X148.852Y90.253
X148.866Y90.221
X148.88Y90.189
X148.894Y90.157
X148.906Y90.126
X148.917Y90.095
X148.928Y90.063
X148.938Y90.031
X148.947Y89.998
X148.956Y89.964
X148.964Y89.93
X148.972Y89.896
X148.978Y89.861
X148.984Y89.827
X148.989Y89.792
X148.993Y89.754
X148.997Y89.715
X148.999Y89.677
X149Y89.638
X149.001Y89.6
X149.001Y0
X149.001Y-0.035
X148.999Y-0.071
X148.997Y-0.107
X148.994Y-0.143
X148.99Y-0.178
X148.985Y-0.214
X148.98Y-0.25
X148.973Y-0.285
X148.966Y-0.322
X148.957Y-0.358
X148.948Y-0.394
X148.938Y-0.429
X148.927Y-0.465
X148.915Y-0.5
X148.902Y-0.535
X148.888Y-0.569
X148.874Y-0.603
X148.859Y-0.637
X148.842Y-0.671
X148.825Y-0.704
X148.808Y-0.736
X148.789Y-0.768
X148.77Y-0.8
X148.749Y-0.831
X148.728Y-0.862
X148.707Y-0.892
X148.684Y-0.921
X148.661Y-0.95
X148.637Y-0.979
X148.613Y-1.006
X148.587Y-1.034
X148.561Y-1.061
X148.534Y-1.087
X148.507Y-1.112
X148.479Y-1.137
X148.451Y-1.161
X148.422Y-1.184
X148.392Y-1.206
X148.362Y-1.228
X148.331Y-1.249
X148.3Y-1.269
X148.268Y-1.289
X148.236Y-1.307
X148.203Y-1.325
X148.17Y-1.342
X148.137Y-1.358
X148.103Y-1.374
X148.068Y-1.388
X148.034Y-1.402
X147.999Y-1.415
X147.964Y-1.427
X147.928Y-1.438
X147.892Y-1.448
X147.856Y-1.457
X147.82Y-1.466
X147.783Y-1.473
X147.748Y-1.479
X147.713Y-1.485
X147.678Y-1.49
X147.642Y-1.493
X147.607Y-1.496
X147.571Y-1.498
X147.536Y-1.5
X147.5Y-1.5
X16Y-1.5
X15.963Y-1.5
X15.926Y-1.498
X14.358Y-1.421
X14.316Y-1.419
X14.281Y-1.415
X14.246Y-1.412
X14.211Y-1.407
X12.658Y-1.176
X12.627Y-1.171
X12.595Y-1.166
X12.554Y-1.157
X12.514Y-1.148
X10.991Y-0.766
X10.96Y-0.758
X10.929Y-0.749
X10.898Y-0.74
X10.85Y-0.723
X9.371Y-0.194
X9.335Y-0.181
X9.3Y-0.167
X9.267Y-0.153
X9.235Y-0.138
X7.816Y0.532
X7.785Y0.547
X7.754Y0.563
X7.724Y0.58
X7.686Y0.602
X6.339Y1.409
X6.305Y1.43
X6.275Y1.45
X6.246Y1.47
X6.217Y1.491
X4.956Y2.426
X4.929Y2.446
X4.903Y2.467
X4.878Y2.488
X4.842Y2.52
X3.678Y3.574
X3.654Y3.596
X3.627Y3.623
X3.6Y3.65
X3.574Y3.678
X2.52Y4.842
X2.499Y4.865
X2.479Y4.888
X2.46Y4.912
X2.426Y4.955
X1.491Y6.217
X1.47Y6.246
X1.45Y6.275
X1.43Y6.305
X1.409Y6.339
X0.602Y7.686
G0Z2
X-0.262Y7.183
G1Z-6F150
X-0.286Y7.225F300
X-0.305Y7.26
X-0.318Y7.283
X-0.336Y7.318
X-0.348Y7.341
X-0.371Y7.388
X-1.047Y8.818
X-1.071Y8.872
X-1.095Y8.927
X-1.118Y8.986
X-1.136Y9.034
X-1.669Y10.524
X-1.689Y10.583
X-1.707Y10.641
X-1.724Y10.7
X-1.736Y10.748
X-2.12Y12.28
X-2.131Y12.329
X-2.14Y12.368
X-2.145Y12.394
X-2.153Y12.433
X-2.157Y12.459
X-2.166Y12.512
X-2.398Y14.076
X-2.405Y14.135
X-2.412Y14.193
X-2.417Y14.254
X-2.42Y14.309
X-2.498Y15.889
X-2.5Y15.951
X-2.5Y16
X-2.5Y89.612
X-2.499Y89.671
X-2.497Y89.73
X-2.493Y89.789
X-2.488Y89.847
X-2.481Y89.906
X-2.473Y89.964
X-2.464Y90.023
X-2.453Y90.081
X-2.441Y90.14
X-2.427Y90.2
X-2.411Y90.26
X-2.394Y90.32
X-2.376Y90.379
X-2.355Y90.438
X-2.334Y90.496
X-2.311Y90.554
X-2.286Y90.611
X-2.261Y90.668
X-2.233Y90.723
X-2.205Y90.779
X-2.175Y90.833
X-2.144Y90.887
X-2.111Y90.939
X-2.077Y90.992
X-2.042Y91.043
X-2.005Y91.093
X-1.968Y91.142
X-1.929Y91.191
X-1.889Y91.238
X-1.847Y91.285
X-1.805Y91.33
X-1.761Y91.374
X-1.717Y91.418
X-1.671Y91.46
X-1.624Y91.501
X-1.577Y91.54
X-1.528Y91.579
X-1.478Y91.616
X-1.428Y91.652
X-1.376Y91.688
X-1.324Y91.721
X-1.272Y91.753
X-1.219Y91.783
X-1.165Y91.812
X-1.11Y91.84
X-1.055Y91.867
X-0.999Y91.892
X-0.943Y91.916
X-0.886Y91.938
X-0.828Y91.959
X-0.77Y91.979
X-0.712Y91.997
X-0.653Y92.014
X-0.594Y92.029
X-0.534Y92.043
X-0.474Y92.055
X-0.414Y92.066
X-0.353Y92.076
X-0.292Y92.084
X-0.231Y92.09
X-0.17Y92.095
X-0.109Y92.098
X-0.048Y92.1
X0Y92.101
X147.512Y92.101
X147.574Y92.1
X147.636Y92.097
X147.697Y92.093
X147.759Y92.087
X147.82Y92.08
X147.881Y92.072
X147.942Y92.062
X148.003Y92.05
X148.062Y92.037
X148.121Y92.022
X148.18Y92.007
X148.239Y91.989
X148.297Y91.971
X148.354Y91.951
X148.411Y91.929
X148.468Y91.906
X148.523Y91.882
X148.579Y91.856
X148.633Y91.829
X148.687Y91.801
X148.741Y91.771
X148.793Y91.741
X148.845Y91.708
X148.896Y91.675
X148.946Y91.64
X148.995Y91.605
X149.044Y91.568
X149.092Y91.529
X149.138Y91.49
X149.184Y91.449
X149.229Y91.407
X149.272Y91.364
X149.315Y91.321
X149.356Y91.276
X149.397Y91.23
X149.436Y91.183
X149.474Y91.135
X149.511Y91.086
X149.547Y91.037
X149.581Y90.986
X149.615Y90.935
X149.647Y90.883
X149.677Y90.831
X149.705Y90.78
X149.732Y90.729
X149.757Y90.677
X149.781Y90.625
X149.804Y90.572
X149.826Y90.518
X149.846Y90.466
X149.865Y90.414
X149.882Y90.361
X149.899Y90.307
X149.915Y90.251
X149.929Y90.195
X149.942Y90.138
X149.954Y90.081
X149.965Y90.024
X149.974Y89.966
X149.982Y89.907
X149.989Y89.843
X149.994Y89.779
X149.998Y89.715
X150Y89.651
X150.001Y89.6
X150.001Y-0.011
X150Y-0.071
X149.997Y-0.131
X149.994Y-0.191
X149.988Y-0.25
X149.981Y-0.31
X149.973Y-0.369
X149.964Y-0.428
X149.953Y-0.488
X149.94Y-0.549
X149.925Y-0.609
X149.91Y-0.669
X149.892Y-0.728
X149.874Y-0.787
X149.853Y-0.845
X149.832Y-0.903
X149.809Y-0.961
X149.784Y-1.017
X149.758Y-1.074
X149.731Y-1.129
X149.702Y-1.184
X149.673Y-1.238
X149.641Y-1.291
X149.609Y-1.344
X149.575Y-1.395
X149.54Y-1.446
X149.503Y-1.496
X149.466Y-1.545
X149.427Y-1.594
X149.387Y-1.641
X149.346Y-1.687
X149.303Y-1.732
X149.259Y-1.776
X149.215Y-1.82
X149.169Y-1.862
X149.122Y-1.902
X149.075Y-1.942
X149.026Y-1.98
X148.976Y-2.018
X148.926Y-2.054
X148.874Y-2.088
X148.822Y-2.122
X148.769Y-2.154
X148.715Y-2.185
X148.661Y-2.214
X148.606Y-2.242
X148.55Y-2.269
X148.493Y-2.294
X148.436Y-2.318
X148.378Y-2.341
X148.32Y-2.362
X148.261Y-2.382
X148.201Y-2.4
X148.142Y-2.416
X148.082Y-2.431
X148.021Y-2.445
X147.96Y-2.457
X147.902Y-2.468
X147.843Y-2.476
X147.784Y-2.484
X147.725Y-2.49
X147.666Y-2.495
X147.607Y-2.498
X147.547Y-2.5
X147.5Y-2.5
X15.988Y-2.5
X15.926Y-2.499
X15.877Y-2.497
X14.295Y-2.419
X14.228Y-2.415
X14.17Y-2.409
X14.111Y-2.402
X14.065Y-2.396
X12.501Y-2.164
X12.448Y-2.155
X12.393Y-2.145
X12.352Y-2.137
X12.325Y-2.131
X12.271Y-2.118
X10.737Y-1.734
X10.686Y-1.72
X10.634Y-1.705
X10.593Y-1.692
X10.513Y-1.665
X9.022Y-1.132
X8.963Y-1.109
X8.904Y-1.085
X8.85Y-1.062
X8.808Y-1.042
X7.378Y-0.366
X7.326Y-0.34
X7.275Y-0.314
X7.225Y-0.286
X7.172Y-0.255
X5.814Y0.558
X5.758Y0.593
X5.708Y0.626
X5.66Y0.66
X5.621Y0.688
X4.351Y1.63
X4.307Y1.663
X4.264Y1.698
X4.23Y1.726
X4.17Y1.779
X2.999Y2.84
X2.957Y2.879
X2.912Y2.924
X2.868Y2.969
X2.833Y3.007
X1.772Y4.178
X1.738Y4.216
X1.705Y4.255
X1.679Y4.287
X1.623Y4.36
X0.681Y5.631
X0.646Y5.679
X0.612Y5.728
X0.579Y5.779
X0.551Y5.825
X-0.262Y7.183
G0Z2
X0.602Y7.686
G1Z-6F150
X0.587Y7.711F300
X0.568Y7.746
X0.55Y7.78
X0.532Y7.816
X-0.138Y9.235
X-0.153Y9.267
X-0.167Y9.3
X-0.181Y9.335
X-0.194Y9.371
X-0.723Y10.85
X-0.735Y10.885
X-0.746Y10.92
X-0.757Y10.955
X-0.766Y10.991
X-1.148Y12.514
X-1.154Y12.541
X-1.163Y12.58
X-1.17Y12.619
X-1.176Y12.658
X-1.407Y14.211
X-1.412Y14.246
X-1.415Y14.281
X-1.419Y14.317
X-1.421Y14.358
X-1.498Y15.926
X-1.5Y15.963
X-1.5Y16
Y89.6
X-1.5Y89.635
X-1.498Y89.671
X-1.496Y89.706
X-1.493Y89.741
X-1.49Y89.777
X-1.485Y89.812
X-1.48Y89.847
X-1.473Y89.881
X-1.466Y89.917
X-1.458Y89.953
X-1.449Y89.989
X-1.439Y90.025
X-1.428Y90.061
X-1.416Y90.096
X-1.403Y90.131
X-1.389Y90.166
X-1.375Y90.2
X-1.36Y90.234
X-1.343Y90.267
X-1.326Y90.301
X-1.309Y90.333
X-1.29Y90.366
X-1.271Y90.398
X-1.25Y90.429
X-1.229Y90.46
X-1.208Y90.49
X-1.185Y90.52
X-1.162Y90.549
X-1.138Y90.577
X-1.113Y90.605
X-1.088Y90.633
X-1.062Y90.659
X-1.035Y90.686
X-1.008Y90.711
X-0.98Y90.736
X-0.952Y90.76
X-0.923Y90.783
X-0.893Y90.806
X-0.863Y90.827
X-0.831Y90.849
X-0.8Y90.869
X-0.769Y90.888
X-0.737Y90.907
X-0.705Y90.924
X-0.672Y90.941
X-0.639Y90.957
X-0.606Y90.973
X-0.572Y90.987
X-0.538Y91.001
X-0.504Y91.014
X-0.469Y91.025
X-0.434Y91.037
X-0.398Y91.047
X-0.363Y91.056
X-0.327Y91.065
X-0.291Y91.072
X-0.255Y91.079
X-0.219Y91.085
X-0.182Y91.09
X-0.146Y91.094
X-0.109Y91.097
X-0.073Y91.099
X-0.036Y91.1
X0Y91.101
X147.5
X147.537Y91.1
X147.574Y91.099
X147.611Y91.097
X147.648Y91.094
X147.685Y91.09
X147.721Y91.085
X147.758Y91.079
X147.795Y91.072
X147.83Y91.064
X147.866Y91.056
X147.901Y91.046
X147.936Y91.036
X147.971Y91.025
X148.006Y91.013
X148.04Y91
X148.074Y90.987
X148.108Y90.972
X148.141Y90.957
X148.174Y90.941
X148.206Y90.924
X148.238Y90.907
X148.27Y90.888
X148.301Y90.869
X148.332Y90.849
X148.362Y90.829
X148.391Y90.807
X148.421Y90.785
X148.45Y90.762
X148.478Y90.739
X148.505Y90.714
X148.532Y90.69
X148.559Y90.664
X148.584Y90.638
X148.609Y90.611
X148.634Y90.584
X148.657Y90.556
X148.68Y90.527
X148.703Y90.498
X148.724Y90.468
X148.745Y90.438
X148.765Y90.407
X148.785Y90.376
X148.803Y90.345
X148.82Y90.314
X148.836Y90.284
X148.852Y90.253
X148.866Y90.221
X148.88Y90.189
X148.894Y90.157
X148.906Y90.126
X148.917Y90.095
X148.928Y90.063
X148.938Y90.031
X148.947Y89.998
X148.956Y89.964
X148.964Y89.93
X148.972Y89.896
X148.978Y89.861
X148.984Y89.827
X148.989Y89.792
X148.993Y89.754
X148.997Y89.715
X148.999Y89.677
X149Y89.638
X149.001Y89.6
X149.001Y0
X149.001Y-0.035
X148.999Y-0.071
X148.997Y-0.107
X148.994Y-0.143
X148.99Y-0.178
X148.985Y-0.214
X148.98Y-0.25
X148.973Y-0.285
X148.966Y-0.322
X148.957Y-0.358
X148.948Y-0.394
X148.938Y-0.429
X148.927Y-0.465
X148.915Y-0.5
X148.902Y-0.535
X148.888Y-0.569
X148.874Y-0.603
X148.859Y-0.637
X148.842Y-0.671
X148.825Y-0.704
X148.808Y-0.736
X148.789Y-0.768
X148.77Y-0.8
X148.749Y-0.831
X148.728Y-0.862
X148.707Y-0.892
X148.684Y-0.921
X148.661Y-0.95
X148.637Y-0.979
X148.613Y-1.006
X148.587Y-1.034
X148.561Y-1.061
X148.534Y-1.087
X148.507Y-1.112
X148.479Y-1.137
X148.451Y-1.161
X148.422Y-1.184
X148.392Y-1.206
X148.362Y-1.228
X148.331Y-1.249
X148.3Y-1.269
X148.268Y-1.289
X148.236Y-1.307
X148.203Y-1.325
X148.17Y-1.342
X148.137Y-1.358
X148.103Y-1.374
X148.068Y-1.388
X148.034Y-1.402
X147.999Y-1.415
X147.964Y-1.427
X147.928Y-1.438
X147.892Y-1.448
X147.856Y-1.457
X147.82Y-1.466
X147.783Y-1.473
X147.748Y-1.479
X147.713Y-1.485
X147.678Y-1.49
X147.642Y-1.493
X147.607Y-1.496
X147.571Y-1.498
X147.536Y-1.5
X147.5Y-1.5
X16Y-1.5
X15.963Y-1.5
X15.926Y-1.498
X14.358Y-1.421
X14.316Y-1.419
X14.281Y-1.415
X14.246Y-1.412
X14.211Y-1.407
X12.658Y-1.176
X12.627Y-1.171
X12.595Y-1.166
X12.554Y-1.157
X12.514Y-1.148
X10.991Y-0.766
X10.96Y-0.758
X10.929Y-0.749
X10.898Y-0.74
X10.85Y-0.723
X9.371Y-0.194
X9.335Y-0.181
X9.3Y-0.167
X9.267Y-0.153
X9.235Y-0.138
X7.816Y0.532
X7.785Y0.547
X7.754Y0.563
X7.724Y0.58
X7.686Y0.602
X6.339Y1.409
X6.305Y1.43
X6.275Y1.45
X6.246Y1.47
X6.217Y1.491
X4.956Y2.426
X4.929Y2.446
X4.903Y2.467
X4.878Y2.488
X4.842Y2.52
X3.678Y3.574
X3.654Y3.596
X3.627Y3.623
X3.6Y3.65
X3.574Y3.678
X2.52Y4.842
X2.499Y4.865
X2.479Y4.888
X2.46Y4.912
X2.426Y4.955
X1.491Y6.217
X1.47Y6.246
X1.45Y6.275
X1.43Y6.305
X1.409Y6.339
X0.602Y7.686
G0Z2
X-0.262Y7.183
G1Z-8F150
X-0.286Y7.225F300
X-0.305Y7.26
X-0.318Y7.283
X-0.336Y7.318
X-0.348Y7.341
X-0.371Y7.388
X-1.047Y8.818
X-1.071Y8.872
X-1.095Y8.927
X-1.118Y8.986
X-1.136Y9.034
X-1.669Y10.524
X-1.689Y10.583
X-1.707Y10.641
X-1.724Y10.7
X-1.736Y10.748
X-2.12Y12.28
X-2.131Y12.329
X-2.14Y12.368
X-2.145Y12.394
X-2.153Y12.433
X-2.157Y12.459
X-2.166Y12.512
X-2.398Y14.076
X-2.405Y14.135
X-2.412Y14.193
X-2.417Y14.254
X-2.42Y14.309
X-2.498Y15.889
X-2.5Y15.951
X-2.5Y16
X-2.5Y89.612
X-2.499Y89.671
X-2.497Y89.73
X-2.493Y89.789
X-2.488Y89.847
X-2.481Y89.906
X-2.473Y89.964
X-2.464Y90.023
X-2.453Y90.081
X-2.441Y90.14
X-2.427Y90.2
X-2.411Y90.26
X-2.394Y90.32
X-2.376Y90.379
X-2.355Y90.438
X-2.334Y90.496
X-2.311Y90.554
X-2.286Y90.611
X-2.261Y90.668
X-2.233Y90.723
X-2.205Y90.779
X-2.175Y90.833
X-2.144Y90.887
X-2.111Y90.939
X-2.077Y90.992
X-2.042Y91.043
X-2.005Y91.093
X-1.968Y91.142
X-1.929Y91.191
X-1.889Y91.238
X-1.847Y91.285
X-1.805Y91.33
X-1.761Y91.374
X-1.717Y91.418
X-1.671Y91.46
X-1.624Y91.501
X-1.577Y91.54
X-1.528Y91.579
X-1.478Y91.616
X-1.428Y91.652
X-1.376Y91.688
X-1.324Y91.721
X-1.272Y91.753
X-1.219Y91.783
X-1.165Y91.812
X-1.11Y91.84
X-1.055Y91.867
X-0.999Y91.892
X-0.943Y91.916
X-0.886Y91.938
X-0.828Y91.959
X-0.77Y91.979
X-0.712Y91.997
X-0.653Y92.014
X-0.594Y92.029
X-0.534Y92.043
X-0.474Y92.055
X-0.414Y92.066
X-0.353Y92.076
X-0.292Y92.084
X-0.231Y92.09
X-0.17Y92.095
X-0.109Y92.098
X-0.048Y92.1
X0Y92.101
X147.512Y92.101
X147.574Y92.1
X147.636Y92.097
X147.697Y92.093
X147.759Y92.087
X147.82Y92.08
X147.881Y92.072
X147.942Y92.062
X148.003Y92.05
X148.062Y92.037
X148.121Y92.022
X148.18Y92.007
X148.239Y91.989
X148.297Y91.971
X148.354Y91.951
X148.411Y91.929
X148.468Y91.906
X148.523Y91.882
X148.579Y91.856
X148.633Y91.829
X148.687Y91.801
X148.741Y91.771
X148.793Y91.741
X148.845Y91.708
X148.896Y91.675
X148.946Y91.64
X148.995Y91.605
X149.044Y91.568
X149.092Y91.529
X149.138Y91.49
X149.184Y91.449
X149.229Y91.407
X149.272Y91.364
X149.315Y91.321
X149.356Y91.276
X149.397Y91.23
X149.436Y91.183
X149.474Y91.135
X149.511Y91.086
X149.547Y91.037
X149.581Y90.986
X149.615Y90.935
X149.647Y90.883
X149.677Y90.831
X149.705Y90.78
X149.732Y90.729
X149.757Y90.677
X149.781Y90.625
X149.804Y90.572
X149.826Y90.518
X149.846Y90.466
X149.865Y90.414
X149.882Y90.361
X149.899Y90.307
X149.915Y90.251
X149.929Y90.195
X149.942Y90.138
X149.954Y90.081
X149.965Y90.024
X149.974Y89.966
X149.982Y89.907
X149.989Y89.843
X149.994Y89.779
X149.998Y89.715
X150Y89.651
X150.001Y89.6
X150.001Y-0.011
X150Y-0.071
X149.997Y-0.131
X149.994Y-0.191
X149.988Y-0.25
X149.981Y-0.31
X149.973Y-0.369
X149.964Y-0.428
X149.953Y-0.488
X149.94Y-0.549
X149.925Y-0.609
X149.91Y-0.669
X149.892Y-0.728
X149.874Y-0.787
X149.853Y-0.845
X149.832Y-0.903
X149.809Y-0.961
X149.784Y-1.017
X149.758Y-1.074
X149.731Y-1.129
X149.702Y-1.184
X149.673Y-1.238
X149.641Y-1.291
X149.609Y-1.344
X149.575Y-1.395
X149.54Y-1.446
X149.503Y-1.496
X149.466Y-1.545
X149.427Y-1.594
X149.387Y-1.641
X149.346Y-1.687
X149.303Y-1.732
X149.259Y-1.776
X149.215Y-1.82
X149.169Y-1.862
X149.122Y-1.902
X149.075Y-1.942
X149.026Y-1.98
X148.976Y-2.018
X148.926Y-2.054
X148.874Y-2.088
X148.822Y-2.122
X148.769Y-2.154
X148.715Y-2.185
X148.661Y-2.214
X148.606Y-2.242
X148.55Y-2.269
X148.493Y-2.294
X148.436Y-2.318
X148.378Y-2.341
X148.32Y-2.362
X148.261Y-2.382
X148.201Y-2.4
X148.142Y-2.416
X148.082Y-2.431
X148.021Y-2.445
X147.96Y-2.457
X147.902Y-2.468
X147.843Y-2.476
X147.784Y-2.484
X147.725Y-2.49
X147.666Y-2.495
X147.607Y-2.498
X147.547Y-2.5
X147.5Y-2.5
X15.988Y-2.5
X15.926Y-2.499
X15.877Y-2.497
X14.295Y-2.419
X14.228Y-2.415
X14.17Y-2.409
X14.111Y-2.402
X14.065Y-2.396
X12.501Y-2.164
X12.448Y-2.155
X12.393Y-2.145
X12.352Y-2.137
X12.325Y-2.131
X12.271Y-2.118
X10.737Y-1.734
X10.686Y-1.72
X10.634Y-1.705
X10.593Y-1.692
X10.513Y-1.665
X9.022Y-1.132
X8.963Y-1.109
X8.904Y-1.085
X8.85Y-1.062
X8.808Y-1.042
X7.378Y-0.366
X7.326Y-0.34
X7.275Y-0.314
X7.225Y-0.286
X7.172Y-0.255
X5.814Y0.558
X5.758Y0.593
X5.708Y0.626
X5.66Y0.66
X5.621Y0.688
X4.351Y1.63
X4.307Y1.663
X4.264Y1.698
X4.23Y1.726
X4.17Y1.779
X2.999Y2.84
X2.957Y2.879
X2.912Y2.924
X2.868Y2.969
X2.833Y3.007
X1.772Y4.178
X1.738Y4.216
X1.705Y4.255
X1.679Y4.287
X1.623Y4.36
X0.681Y5.631
X0.646Y5.679
X0.612Y5.728
X0.579Y5.779
X0.551Y5.825
X-0.262Y7.183
G0Z2
X0.602Y7.686
G1Z-8F150
X0.587Y7.711F300
X0.568Y7.746
X0.55Y7.78
X0.532Y7.816
X-0.138Y9.235
X-0.153Y9.267
X-0.167Y9.3
X-0.181Y9.335
X-0.194Y9.371
X-0.723Y10.85
X-0.735Y10.885
X-0.746Y10.92
X-0.757Y10.955
X-0.766Y10.991
X-1.148Y12.514
X-1.154Y12.541
X-1.163Y12.58
X-1.17Y12.619
X-1.176Y12.658
X-1.407Y14.211
X-1.412Y14.246
X-1.415Y14.281
X-1.419Y14.317
X-1.421Y14.358
X-1.498Y15.926
X-1.5Y15.963
X-1.5Y16
Y89.6
X-1.5Y89.635
X-1.498Y89.671
X-1.496Y89.706
X-1.493Y89.741
X-1.49Y89.777
X-1.485Y89.812
X-1.48Y89.847
X-1.473Y89.881
X-1.466Y89.917
X-1.458Y89.953
X-1.449Y89.989
X-1.439Y90.025
X-1.428Y90.061
X-1.416Y90.096
X-1.403Y90.131
X-1.389Y90.166
X-1.375Y90.2
X-1.36Y90.234
X-1.343Y90.267
X-1.326Y90.301
X-1.309Y90.333
X-1.29Y90.366
X-1.271Y90.398
X-1.25Y90.429
X-1.229Y90.46
X-1.208Y90.49
X-1.185Y90.52
X-1.162Y90.549
X-1.138Y90.577
X-1.113Y90.605
X-1.088Y90.633
X-1.062Y90.659
X-1.035Y90.686
X-1.008Y90.711
X-0.98Y90.736
X-0.952Y90.76
X-0.923Y90.783
X-0.893Y90.806
X-0.863Y90.827
X-0.831Y90.849
X-0.8Y90.869
X-0.769Y90.888
X-0.737Y90.907
X-0.705Y90.924
X-0.672Y90.941
X-0.639Y90.957
X-0.606Y90.973
X-0.572Y90.987
X-0.538Y91.001
X-0.504Y91.014
X-0.469Y91.025
X-0.434Y91.037
X-0.398Y91.047
X-0.363Y91.056
X-0.327Y91.065
X-0.291Y91.072
X-0.255Y91.079
X-0.219Y91.085
X-0.182Y91.09
X-0.146Y91.094
X-0.109Y91.097
X-0.073Y91.099
X-0.036Y91.1
X0Y91.101
X147.5
X147.537Y91.1
X147.574Y91.099
X147.611Y91.097
X147.648Y91.094
X147.685Y91.09
X147.721Y91.085
X147.758Y91.079
X147.795Y91.072
X147.83Y91.064
X147.866Y91.056
X147.901Y91.046
X147.936Y91.036
X147.971Y91.025
X148.006Y91.013
X148.04Y91
X148.074Y90.987
X148.108Y90.972
X148.141Y90.957
X148.174Y90.941
X148.206Y90.924
X148.238Y90.907
X148.27Y90.888
X148.301Y90.869
X148.332Y90.849
X148.362Y90.829
X148.391Y90.807
X148.421Y90.785
X148.45Y90.762
X148.478Y90.739
X148.505Y90.714
X148.532Y90.69
X148.559Y90.664
X148.584Y90.638
X148.609Y90.611
X148.634Y90.584
X148.657Y90.556
X148.68Y90.527
X148.703Y90.498
X148.724Y90.468
X148.745Y90.438
X148.765Y90.407
X148.785Y90.376
X148.803Y90.345
X148.82Y90.314
X148.836Y90.284
X148.852Y90.253
X148.866Y90.221
X148.88Y90.189
X148.894Y90.157
X148.906Y90.126
X148.917Y90.095
X148.928Y90.063
X148.938Y90.031
X148.947Y89.998
X148.956Y89.964
X148.964Y89.93
X148.972Y89.896
X148.978Y89.861
X148.984Y89.827
X148.989Y89.792
X148.993Y89.754
X148.997Y89.715
X148.999Y89.677
X149Y89.638
X149.001Y89.6
X149.001Y0
X149.001Y-0.035
X148.999Y-0.071
X148.997Y-0.107
X148.994Y-0.143
X148.99Y-0.178
X148.985Y-0.214
X148.98Y-0.25
X148.973Y-0.285
X148.966Y-0.322
X148.957Y-0.358
X148.948Y-0.394
X148.938Y-0.429
X148.927Y-0.465
X148.915Y-0.5
X148.902Y-0.535
X148.888Y-0.569
X148.874Y-0.603
X148.859Y-0.637
X148.842Y-0.671
X148.825Y-0.704
X148.808Y-0.736
X148.789Y-0.768
X148.77Y-0.8
X148.749Y-0.831
X148.728Y-0.862
X148.707Y-0.892
X148.684Y-0.921
X148.661Y-0.95
X148.637Y-0.979
X148.613Y-1.006
X148.587Y-1.034
X148.561Y-1.061
X148.534Y-1.087
X148.507Y-1.112
X148.479Y-1.137
X148.451Y-1.161
X148.422Y-1.184
X148.392Y-1.206
X148.362Y-1.228
X148.331Y-1.249
X148.3Y-1.269
X148.268Y-1.289
X148.236Y-1.307
X148.203Y-1.325
X148.17Y-1.342
X148.137Y-1.358
X148.103Y-1.374
X148.068Y-1.388
X148.034Y-1.402
X147.999Y-1.415
X147.964Y-1.427
X147.928Y-1.438
X147.892Y-1.448
X147.856Y-1.457
X147.82Y-1.466
X147.783Y-1.473
X147.748Y-1.479
X147.713Y-1.485
X147.678Y-1.49
X147.642Y-1.493
X147.607Y-1.496
X147.571Y-1.498
X147.536Y-1.5
X147.5Y-1.5
X16Y-1.5
X15.963Y-1.5
X15.926Y-1.498
X14.358Y-1.421
X14.316Y-1.419
X14.281Y-1.415
X14.246Y-1.412
X14.211Y-1.407
X12.658Y-1.176
X12.627Y-1.171
X12.595Y-1.166
X12.554Y-1.157
X12.514Y-1.148
X10.991Y-0.766
X10.96Y-0.758
X10.929Y-0.749
X10.898Y-0.74
X10.85Y-0.723
X9.371Y-0.194
X9.335Y-0.181
X9.3Y-0.167
X9.267Y-0.153
X9.235Y-0.138
X7.816Y0.532
X7.785Y0.547
X7.754Y0.563
X7.724Y0.58
X7.686Y0.602
X6.339Y1.409
X6.305Y1.43
X6.275Y1.45
X6.246Y1.47
X6.217Y1.491
X4.956Y2.426
X4.929Y2.446
X4.903Y2.467
X4.878Y2.488
X4.842Y2.52
X3.678Y3.574
X3.654Y3.596
X3.627Y3.623
X3.6Y3.65
X3.574Y3.678
X2.52Y4.842
X2.499Y4.865
X2.479Y4.888
X2.46Y4.912
X2.426Y4.955
X1.491Y6.217
X1.47Y6.246
X1.45Y6.275
X1.43Y6.305
X1.409Y6.339
X0.602Y7.686
G0Z2
X-0.262Y7.183
G1Z-10F150
X-0.286Y7.225F300
X-0.305Y7.26
X-0.318Y7.283
X-0.336Y7.318
X-0.348Y7.341
X-0.371Y7.388
X-1.047Y8.818
X-1.071Y8.872
X-1.095Y8.927
X-1.118Y8.986
X-1.136Y9.034
X-1.669Y10.524
X-1.689Y10.583
X-1.707Y10.641
X-1.724Y10.7
X-1.736Y10.748
X-2.12Y12.28
X-2.131Y12.329
X-2.14Y12.368
X-2.145Y12.394
X-2.153Y12.433
X-2.157Y12.459
X-2.166Y12.512
X-2.398Y14.076
X-2.405Y14.135
X-2.412Y14.193
X-2.417Y14.254
X-2.42Y14.309
X-2.498Y15.889
X-2.5Y15.951
X-2.5Y16
X-2.5Y89.612
X-2.499Y89.671
X-2.497Y89.73
X-2.493Y89.789
X-2.488Y89.847
X-2.481Y89.906
X-2.473Y89.964
X-2.464Y90.023
X-2.453Y90.081
X-2.441Y90.14
X-2.427Y90.2
X-2.411Y90.26
X-2.394Y90.32
X-2.376Y90.379
X-2.355Y90.438
X-2.334Y90.496
X-2.311Y90.554
X-2.286Y90.611
X-2.261Y90.668
X-2.233Y90.723
X-2.205Y90.779
X-2.175Y90.833
X-2.144Y90.887
X-2.111Y90.939
X-2.077Y90.992
X-2.042Y91.043
X-2.005Y91.093
X-1.968Y91.142
X-1.929Y91.191
X-1.889Y91.238
X-1.847Y91.285
X-1.805Y91.33
X-1.761Y91.374
X-1.717Y91.418
X-1.671Y91.46
X-1.624Y91.501
X-1.577Y91.54
X-1.528Y91.579
X-1.478Y91.616
X-1.428Y91.652
X-1.376Y91.688
X-1.324Y91.721
X-1.272Y91.753
X-1.219Y91.783
X-1.165Y91.812
X-1.11Y91.84
X-1.055Y91.867
X-0.999Y91.892
X-0.943Y91.916
X-0.886Y91.938
X-0.828Y91.959
X-0.77Y91.979
X-0.712Y91.997
X-0.653Y92.014
X-0.594Y92.029
X-0.534Y92.043
X-0.474Y92.055
X-0.414Y92.066
X-0.353Y92.076
X-0.292Y92.084
X-0.231Y92.09
X-0.17Y92.095
X-0.109Y92.098
X-0.048Y92.1
X0Y92.101
X147.512Y92.101
X147.574Y92.1
X147.636Y92.097
X147.697Y92.093
X147.759Y92.087
X147.82Y92.08
X147.881Y92.072
X147.942Y92.062
X148.003Y92.05
X148.062Y92.037
X148.121Y92.022
X148.18Y92.007
X148.239Y91.989
X148.297Y91.971
X148.354Y91.951
X148.411Y91.929
X148.468Y91.906
X148.523Y91.882
X148.579Y91.856
X148.633Y91.829
X148.687Y91.801
X148.741Y91.771
X148.793Y91.741
X148.845Y91.708
X148.896Y91.675
X148.946Y91.64
X148.995Y91.605
X149.044Y91.568
X149.092Y91.529
X149.138Y91.49
X149.184Y91.449
X149.229Y91.407
X149.272Y91.364
X149.315Y91.321
X149.356Y91.276
X149.397Y91.23
X149.436Y91.183
X149.474Y91.135
X149.511Y91.086
X149.547Y91.037
X149.581Y90.986
X149.615Y90.935
X149.647Y90.883
X149.677Y90.831
X149.705Y90.78
X149.732Y90.729
X149.757Y90.677
X149.781Y90.625
X149.804Y90.572
X149.826Y90.518
X149.846Y90.466
X149.865Y90.414
X149.882Y90.361
X149.899Y90.307
X149.915Y90.251
X149.929Y90.195
X149.942Y90.138
X149.954Y90.081
X149.965Y90.024
X149.974Y89.966
X149.982Y89.907
X149.989Y89.843
X149.994Y89.779
X149.998Y89.715
X150Y89.651
X150.001Y89.6
X150.001Y-0.011
X150Y-0.071
X149.997Y-0.131
X149.994Y-0.191
X149.988Y-0.25
X149.981Y-0.31
X149.973Y-0.369
X149.964Y-0.428
X149.953Y-0.488
X149.94Y-0.549
X149.925Y-0.609
X149.91Y-0.669
X149.892Y-0.728
X149.874Y-0.787
X149.853Y-0.845
X149.832Y-0.903
X149.809Y-0.961
X149.784Y-1.017
X149.758Y-1.074
X149.731Y-1.129
X149.702Y-1.184
X149.673Y-1.238
X149.641Y-1.291
X149.609Y-1.344
X149.575Y-1.395
X149.54Y-1.446
X149.503Y-1.496
X149.466Y-1.545
X149.427Y-1.594
X149.387Y-1.641
X149.346Y-1.687
X149.303Y-1.732
X149.259Y-1.776
X149.215Y-1.82
X149.169Y-1.862
X149.122Y-1.902
X149.075Y-1.942
X149.026Y-1.98
X148.976Y-2.018
X148.926Y-2.054
X148.874Y-2.088
X148.822Y-2.122
X148.769Y-2.154
X148.715Y-2.185
X148.661Y-2.214
X148.606Y-2.242
X148.55Y-2.269
X148.493Y-2.294
X148.436Y-2.318
X148.378Y-2.341
X148.32Y-2.362
X148.261Y-2.382
X148.201Y-2.4
X148.142Y-2.416
X148.082Y-2.431
X148.021Y-2.445
X147.96Y-2.457
X147.902Y-2.468
X147.843Y-2.476
X147.784Y-2.484
X147.725Y-2.49
X147.666Y-2.495
X147.607Y-2.498
X147.547Y-2.5
X147.5Y-2.5
X15.988Y-2.5
X15.926Y-2.499
X15.877Y-2.497
X14.295Y-2.419
X14.228Y-2.415
X14.17Y-2.409
X14.111Y-2.402
X14.065Y-2.396
X12.501Y-2.164
X12.448Y-2.155
X12.393Y-2.145
X12.352Y-2.137
X12.325Y-2.131
X12.271Y-2.118
X10.737Y-1.734
X10.686Y-1.72
X10.634Y-1.705
X10.593Y-1.692
X10.513Y-1.665
X9.022Y-1.132
X8.963Y-1.109
X8.904Y-1.085
X8.85Y-1.062
X8.808Y-1.042
X7.378Y-0.366
X7.326Y-0.34
X7.275Y-0.314
X7.225Y-0.286
X7.172Y-0.255
X5.814Y0.558
X5.758Y0.593
X5.708Y0.626
X5.66Y0.66
X5.621Y0.688
X4.351Y1.63
X4.307Y1.663
X4.264Y1.698
X4.23Y1.726
X4.17Y1.779
X2.999Y2.84
X2.957Y2.879
X2.912Y2.924
X2.868Y2.969
X2.833Y3.007
X1.772Y4.178
X1.738Y4.216
X1.705Y4.255
X1.679Y4.287
X1.623Y4.36
X0.681Y5.631
X0.646Y5.679
X0.612Y5.728
X0.579Y5.779
X0.551Y5.825
X-0.262Y7.183
G0Z2
X0.602Y7.686
G1Z-10F150
X0.587Y7.711F300
X0.568Y7.746
X0.55Y7.78
X0.532Y7.816
X-0.138Y9.235
X-0.153Y9.267
X-0.167Y9.3
X-0.181Y9.335
X-0.194Y9.371
X-0.723Y10.85
X-0.735Y10.885
X-0.746Y10.92
X-0.757Y10.955
X-0.766Y10.991
X-1.148Y12.514
X-1.154Y12.541
X-1.163Y12.58
X-1.17Y12.619
X-1.176Y12.658
X-1.407Y14.211
X-1.412Y14.246
X-1.415Y14.281
X-1.419Y14.317
X-1.421Y14.358
X-1.498Y15.926
X-1.5Y15.963
X-1.5Y16
Y89.6
X-1.5Y89.635
X-1.498Y89.671
X-1.496Y89.706
X-1.493Y89.741
X-1.49Y89.777
X-1.485Y89.812
X-1.48Y89.847
X-1.473Y89.881
X-1.466Y89.917
X-1.458Y89.953
X-1.449Y89.989
X-1.439Y90.025
X-1.428Y90.061
X-1.416Y90.096
X-1.403Y90.131
X-1.389Y90.166
X-1.375Y90.2
X-1.36Y90.234
X-1.343Y90.267
X-1.326Y90.301
X-1.309Y90.333
X-1.29Y90.366
X-1.271Y90.398
X-1.25Y90.429
X-1.229Y90.46
X-1.208Y90.49
X-1.185Y90.52
X-1.162Y90.549
X-1.138Y90.577
X-1.113Y90.605
X-1.088Y90.633
X-1.062Y90.659
X-1.035Y90.686
X-1.008Y90.711
X-0.98Y90.736
X-0.952Y90.76
X-0.923Y90.783
X-0.893Y90.806
X-0.863Y90.827
X-0.831Y90.849
X-0.8Y90.869
X-0.769Y90.888
X-0.737Y90.907
X-0.705Y90.924
X-0.672Y90.941
X-0.639Y90.957
X-0.606Y90.973
X-0.572Y90.987
X-0.538Y91.001
X-0.504Y91.014
X-0.469Y91.025
X-0.434Y91.037
X-0.398Y91.047
X-0.363Y91.056
X-0.327Y91.065
X-0.291Y91.072
X-0.255Y91.079
X-0.219Y91.085
X-0.182Y91.09
X-0.146Y91.094
X-0.109Y91.097
X-0.073Y91.099
X-0.036Y91.1
X0Y91.101
X147.5
X147.537Y91.1
X147.574Y91.099
X147.611Y91.097
X147.648Y91.094
X147.685Y91.09
X147.721Y91.085
X147.758Y91.079
X147.795Y91.072
X147.83Y91.064
X147.866Y91.056
X147.901Y91.046
X147.936Y91.036
X147.971Y91.025
X148.006Y91.013
X148.04Y91
X148.074Y90.987
X148.108Y90.972
X148.141Y90.957
X148.174Y90.941
X148.206Y90.924
X148.238Y90.907
X148.27Y90.888
X148.301Y90.869
X148.332Y90.849
X148.362Y90.829
X148.391Y90.807
X148.421Y90.785
X148.45Y90.762
X148.478Y90.739
X148.505Y90.714
X148.532Y90.69
X148.559Y90.664
X148.584Y90.638
X148.609Y90.611
X148.634Y90.584
X148.657Y90.556
X148.68Y90.527
X148.703Y90.498
X148.724Y90.468
X148.745Y90.438
X148.765Y90.407
X148.785Y90.376
X148.803Y90.345
X148.82Y90.314
X148.836Y90.284
X148.852Y90.253
X148.866Y90.221
X148.88Y90.189
X148.894Y90.157
X148.906Y90.126
X148.917Y90.095
X148.928Y90.063
X148.938Y90.031
X148.947Y89.998
X148.956Y89.964
X148.964Y89.93
X148.972Y89.896
X148.978Y89.861
X148.984Y89.827
X148.989Y89.792
X148.993Y89.754
X148.997Y89.715
X148.999Y89.677
X149Y89.638
X149.001Y89.6
X149.001Y0
X149.001Y-0.035
X148.999Y-0.071
X148.997Y-0.107
X148.994Y-0.143
X148.99Y-0.178
X148.985Y-0.214
X148.98Y-0.25
X148.973Y-0.285
X148.966Y-0.322
X148.957Y-0.358
X148.948Y-0.394
X148.938Y-0.429
X148.927Y-0.465
X148.915Y-0.5
X148.902Y-0.535
X148.888Y-0.569
X148.874Y-0.603
X148.859Y-0.637
X148.842Y-0.671
X148.825Y-0.704
X148.808Y-0.736
X148.789Y-0.768
X148.77Y-0.8
X148.749Y-0.831
X148.728Y-0.862
X148.707Y-0.892
X148.684Y-0.921
X148.661Y-0.95
X148.637Y-0.979
X148.613Y-1.006
X148.587Y-1.034
X148.561Y-1.061
X148.534Y-1.087
X148.507Y-1.112
X148.479Y-1.137
X148.451Y-1.161
X148.422Y-1.184
X148.392Y-1.206
X148.362Y-1.228
X148.331Y-1.249
X148.3Y-1.269
X148.268Y-1.289
X148.236Y-1.307
X148.203Y-1.325
X148.17Y-1.342
X148.137Y-1.358
X148.103Y-1.374
X148.068Y-1.388
X148.034Y-1.402
X147.999Y-1.415
X147.964Y-1.427
X147.928Y-1.438
X147.892Y-1.448
X147.856Y-1.457
X147.82Y-1.466
X147.783Y-1.473
X147.748Y-1.479
X147.713Y-1.485
X147.678Y-1.49
X147.642Y-1.493
X147.607Y-1.496
X147.571Y-1.498
X147.536Y-1.5
X147.5Y-1.5
X16Y-1.5
X15.963Y-1.5
X15.926Y-1.498
X14.358Y-1.421
X14.316Y-1.419
X14.281Y-1.415
X14.246Y-1.412
X14.211Y-1.407
X12.658Y-1.176
X12.627Y-1.171
X12.595Y-1.166
X12.554Y-1.157
X12.514Y-1.148
X10.991Y-0.766
X10.96Y-0.758
X10.929Y-0.749
X10.898Y-0.74
X10.85Y-0.723
X9.371Y-0.194
X9.335Y-0.181
X9.3Y-0.167
X9.267Y-0.153
X9.235Y-0.138
X7.816Y0.532
X7.785Y0.547
X7.754Y0.563
X7.724Y0.58
X7.686Y0.602
X6.339Y1.409
X6.305Y1.43
X6.275Y1.45
X6.246Y1.47
X6.217Y1.491
X4.956Y2.426
X4.929Y2.446
X4.903Y2.467
X4.878Y2.488
X4.842Y2.52
X3.678Y3.574
X3.654Y3.596
X3.627Y3.623
X3.6Y3.65
X3.574Y3.678
X2.52Y4.842
X2.499Y4.865
X2.479Y4.888
X2.46Y4.912
X2.426Y4.955
X1.491Y6.217
X1.47Y6.246
X1.45Y6.275
X1.43Y6.305
X1.409Y6.339
X0.602Y7.686
G0Z2
X-0.262Y7.183
G1Z-12F150
X-0.286Y7.225F300
X-0.305Y7.26
X-0.318Y7.283
X-0.336Y7.318
X-0.348Y7.341
X-0.371Y7.388
X-1.047Y8.818
X-1.071Y8.872
X-1.095Y8.927
X-1.118Y8.986
X-1.136Y9.034
X-1.669Y10.524
X-1.689Y10.583
X-1.707Y10.641
X-1.724Y10.7
X-1.736Y10.748
X-2.12Y12.28
X-2.131Y12.329
X-2.14Y12.368
X-2.145Y12.394
X-2.153Y12.433
X-2.157Y12.459
X-2.166Y12.512
X-2.398Y14.076
X-2.405Y14.135
X-2.412Y14.193
X-2.417Y14.254
X-2.42Y14.309
X-2.498Y15.889
X-2.5Y15.951
X-2.5Y16
X-2.5Y89.612
X-2.499Y89.671
X-2.497Y89.73
X-2.493Y89.789
X-2.488Y89.847
X-2.481Y89.906
X-2.473Y89.964
X-2.464Y90.023
X-2.453Y90.081
X-2.441Y90.14
X-2.427Y90.2
X-2.411Y90.26
X-2.394Y90.32
X-2.376Y90.379
X-2.355Y90.438
X-2.334Y90.496
X-2.311Y90.554
X-2.286Y90.611
X-2.261Y90.668
X-2.233Y90.723
X-2.205Y90.779
X-2.175Y90.833
X-2.144Y90.887
X-2.111Y90.939
X-2.077Y90.992
X-2.042Y91.043
X-2.005Y91.093
X-1.968Y91.142
X-1.929Y91.191
X-1.889Y91.238
X-1.847Y91.285
X-1.805Y91.33
X-1.761Y91.374
X-1.717Y91.418
X-1.671Y91.46
X-1.624Y91.501
X-1.577Y91.54
X-1.528Y91.579
X-1.478Y91.616
X-1.428Y91.652
X-1.376Y91.688
X-1.324Y91.721
X-1.272Y91.753
X-1.219Y91.783
X-1.165Y91.812
X-1.11Y91.84
X-1.055Y91.867
X-0.999Y91.892
X-0.943Y91.916
X-0.886Y91.938
X-0.828Y91.959
X-0.77Y91.979
X-0.712Y91.997
X-0.653Y92.014
X-0.594Y92.029
X-0.534Y92.043
X-0.474Y92.055
X-0.414Y92.066
X-0.353Y92.076
X-0.292Y92.084
X-0.231Y92.09
X-0.17Y92.095
X-0.109Y92.098
X-0.048Y92.1
X0Y92.101
X147.512Y92.101
X147.574Y92.1
X147.636Y92.097
X147.697Y92.093
X147.759Y92.087
X147.82Y92.08
X147.881Y92.072
X147.942Y92.062
X148.003Y92.05
X148.062Y92.037
X148.121Y92.022
X148.18Y92.007
X148.239Y91.989
X148.297Y91.971
X148.354Y91.951
X148.411Y91.929
X148.468Y91.906
X148.523Y91.882
X148.579Y91.856
X148.633Y91.829
X148.687Y91.801
X148.741Y91.771
X148.793Y91.741
X148.845Y91.708
X148.896Y91.675
X148.946Y91.64
X148.995Y91.605
X149.044Y91.568
X149.092Y91.529
X149.138Y91.49
X149.184Y91.449
X149.229Y91.407
X149.272Y91.364
X149.315Y91.321
X149.356Y91.276
X149.397Y91.23
X149.436Y91.183
X149.474Y91.135
X149.511Y91.086
X149.547Y91.037
X149.581Y90.986
X149.615Y90.935
X149.647Y90.883
X149.677Y90.831
X149.705Y90.78
X149.732Y90.729
X149.757Y90.677
X149.781Y90.625
X149.804Y90.572
X149.826Y90.518
X149.846Y90.466
X149.865Y90.414
X149.882Y90.361
X149.899Y90.307
X149.915Y90.251
X149.929Y90.195
X149.942Y90.138
X149.954Y90.081
X149.965Y90.024
X149.974Y89.966
X149.982Y89.907
X149.989Y89.843
X149.994Y89.779
X149.998Y89.715
X150Y89.651
X150.001Y89.6
X150.001Y-0.011
X150Y-0.071
X149.997Y-0.131
X149.994Y-0.191
X149.988Y-0.25
X149.981Y-0.31
X149.973Y-0.369
X149.964Y-0.428
X149.953Y-0.488
X149.94Y-0.549
X149.925Y-0.609
X149.91Y-0.669
X149.892Y-0.728
X149.874Y-0.787
X149.853Y-0.845
X149.832Y-0.903
X149.809Y-0.961
X149.784Y-1.017
X149.758Y-1.074
X149.731Y-1.129
X149.702Y-1.184
X149.673Y-1.238
X149.641Y-1.291
X149.609Y-1.344
X149.575Y-1.395
X149.54Y-1.446
X149.503Y-1.496
X149.466Y-1.545
X149.427Y-1.594
X149.387Y-1.641
X149.346Y-1.687
X149.303Y-1.732
X149.259Y-1.776
X149.215Y-1.82
X149.169Y-1.862
X149.122Y-1.902
X149.075Y-1.942
X149.026Y-1.98
X148.976Y-2.018
X148.926Y-2.054
X148.874Y-2.088
X148.822Y-2.122
X148.769Y-2.154
X148.715Y-2.185
X148.661Y-2.214
X148.606Y-2.242
X148.55Y-2.269
X148.493Y-2.294
X148.436Y-2.318
X148.378Y-2.341
X148.32Y-2.362
X148.261Y-2.382
X148.201Y-2.4
X148.142Y-2.416
X148.082Y-2.431
X148.021Y-2.445
X147.96Y-2.457
X147.902Y-2.468
X147.843Y-2.476
X147.784Y-2.484
X147.725Y-2.49
X147.666Y-2.495
X147.607Y-2.498
X147.547Y-2.5
X147.5Y-2.5
X15.988Y-2.5
X15.926Y-2.499
X15.877Y-2.497
X14.295Y-2.419
X14.228Y-2.415
X14.17Y-2.409
X14.111Y-2.402
X14.065Y-2.396
X12.501Y-2.164
X12.448Y-2.155
X12.393Y-2.145
X12.352Y-2.137
X12.325Y-2.131
X12.271Y-2.118
X10.737Y-1.734
X10.686Y-1.72
X10.634Y-1.705
X10.593Y-1.692
X10.513Y-1.665
X9.022Y-1.132
X8.963Y-1.109
X8.904Y-1.085
X8.85Y-1.062
X8.808Y-1.042
X7.378Y-0.366
X7.326Y-0.34
X7.275Y-0.314
X7.225Y-0.286
X7.172Y-0.255
X5.814Y0.558
X5.758Y0.593
X5.708Y0.626
X5.66Y0.66
X5.621Y0.688
X4.351Y1.63
X4.307Y1.663
X4.264Y1.698
X4.23Y1.726
X4.17Y1.779
X2.999Y2.84
X2.957Y2.879
X2.912Y2.924
X2.868Y2.969
X2.833Y3.007
X1.772Y4.178
X1.738Y4.216
X1.705Y4.255
X1.679Y4.287
X1.623Y4.36
X0.681Y5.631
X0.646Y5.679
X0.612Y5.728
X0.579Y5.779
X0.551Y5.825
X-0.262Y7.183
G0Z2
X0.602Y7.686
G1Z-12F150
X0.587Y7.711F300
X0.568Y7.746
X0.55Y7.78
X0.532Y7.816
X-0.138Y9.235
X-0.153Y9.267
X-0.167Y9.3
X-0.181Y9.335
X-0.194Y9.371
X-0.723Y10.85
X-0.735Y10.885
X-0.746Y10.92
X-0.757Y10.955
X-0.766Y10.991
X-1.148Y12.514
X-1.154Y12.541
X-1.163Y12.58
X-1.17Y12.619
X-1.176Y12.658
X-1.407Y14.211
X-1.412Y14.246
X-1.415Y14.281
X-1.419Y14.317
X-1.421Y14.358
X-1.498Y15.926
X-1.5Y15.963
X-1.5Y16
Y89.6
X-1.5Y89.635
X-1.498Y89.671
X-1.496Y89.706
X-1.493Y89.741
X-1.49Y89.777
X-1.485Y89.812
X-1.48Y89.847
X-1.473Y89.881
X-1.466Y89.917
X-1.458Y89.953
X-1.449Y89.989
X-1.439Y90.025
X-1.428Y90.061
X-1.416Y90.096
X-1.403Y90.131
X-1.389Y90.166
X-1.375Y90.2
X-1.36Y90.234
X-1.343Y90.267
X-1.326Y90.301
X-1.309Y90.333
X-1.29Y90.366
X-1.271Y90.398
X-1.25Y90.429
X-1.229Y90.46
X-1.208Y90.49
X-1.185Y90.52
X-1.162Y90.549
X-1.138Y90.577
X-1.113Y90.605
X-1.088Y90.633
X-1.062Y90.659
X-1.035Y90.686
X-1.008Y90.711
X-0.98Y90.736
X-0.952Y90.76
X-0.923Y90.783
X-0.893Y90.806
X-0.863Y90.827
X-0.831Y90.849
X-0.8Y90.869
X-0.769Y90.888
X-0.737Y90.907
X-0.705Y90.924
X-0.672Y90.941
X-0.639Y90.957
X-0.606Y90.973
X-0.572Y90.987
X-0.538Y91.001
X-0.504Y91.014
X-0.469Y91.025
X-0.434Y91.037
X-0.398Y91.047
X-0.363Y91.056
X-0.327Y91.065
X-0.291Y91.072
X-0.255Y91.079
X-0.219Y91.085
X-0.182Y91.09
X-0.146Y91.094
X-0.109Y91.097
X-0.073Y91.099
X-0.036Y91.1
X0Y91.101
X147.5
X147.537Y91.1
X147.574Y91.099
X147.611Y91.097
X147.648Y91.094
X147.685Y91.09
X147.721Y91.085
X147.758Y91.079
X147.795Y91.072
X147.83Y91.064
X147.866Y91.056
X147.901Y91.046
X147.936Y91.036
X147.971Y91.025
X148.006Y91.013
X148.04Y91
X148.074Y90.987
X148.108Y90.972
X148.141Y90.957
X148.174Y90.941
X148.206Y90.924
X148.238Y90.907
X148.27Y90.888
X148.301Y90.869
X148.332Y90.849
X148.362Y90.829
X148.391Y90.807
X148.421Y90.785
X148.45Y90.762
X148.478Y90.739
X148.505Y90.714
X148.532Y90.69
X148.559Y90.664
X148.584Y90.638
X148.609Y90.611
X148.634Y90.584
X148.657Y90.556
X148.68Y90.527
X148.703Y90.498
X148.724Y90.468
X148.745Y90.438
X148.765Y90.407
X148.785Y90.376
X148.803Y90.345
X148.82Y90.314
X148.836Y90.284
X148.852Y90.253
X148.866Y90.221
X148.88Y90.189
X148.894Y90.157
X148.906Y90.126
X148.917Y90.095
X148.928Y90.063
X148.938Y90.031
X148.947Y89.998
X148.956Y89.964
X148.964Y89.93
X148.972Y89.896
X148.978Y89.861
X148.984Y89.827
X148.989Y89.792
X148.993Y89.754
X148.997Y89.715
X148.999Y89.677
X149Y89.638
X149.001Y89.6
X149.001Y0
X149.001Y-0.035
X148.999Y-0.071
X148.997Y-0.107
X148.994Y-0.143
X148.99Y-0.178
X148.985Y-0.214
X148.98Y-0.25
X148.973Y-0.285
X148.966Y-0.322
X148.957Y-0.358
X148.948Y-0.394
X148.938Y-0.429
X148.927Y-0.465
X148.915Y-0.5
X148.902Y-0.535
X148.888Y-0.569
X148.874Y-0.603
X148.859Y-0.637
X148.842Y-0.671
X148.825Y-0.704
X148.808Y-0.736
X148.789Y-0.768
X148.77Y-0.8
X148.749Y-0.831
X148.728Y-0.862
X148.707Y-0.892
X148.684Y-0.921
X148.661Y-0.95
X148.637Y-0.979
X148.613Y-1.006
X148.587Y-1.034
X148.561Y-1.061
X148.534Y-1.087
X148.507Y-1.112
X148.479Y-1.137
X148.451Y-1.161
X148.422Y-1.184
X148.392Y-1.206
X148.362Y-1.228
X148.331Y-1.249
X148.3Y-1.269
X148.268Y-1.289
X148.236Y-1.307
X148.203Y-1.325
X148.17Y-1.342
X148.137Y-1.358
X148.103Y-1.374
X148.068Y-1.388
X148.034Y-1.402
X147.999Y-1.415
X147.964Y-1.427
X147.928Y-1.438
X147.892Y-1.448
X147.856Y-1.457
X147.82Y-1.466
X147.783Y-1.473
X147.748Y-1.479
X147.713Y-1.485
X147.678Y-1.49
X147.642Y-1.493
X147.607Y-1.496
X147.571Y-1.498
X147.536Y-1.5
X147.5Y-1.5
X16Y-1.5
X15.963Y-1.5
X15.926Y-1.498
X14.358Y-1.421
X14.316Y-1.419
X14.281Y-1.415
X14.246Y-1.412
X14.211Y-1.407
X12.658Y-1.176
X12.627Y-1.171
X12.595Y-1.166
X12.554Y-1.157
X12.514Y-1.148
X10.991Y-0.766
X10.96Y-0.758
X10.929Y-0.749
X10.898Y-0.74
X10.85Y-0.723
X9.371Y-0.194
X9.335Y-0.181
X9.3Y-0.167
X9.267Y-0.153
X9.235Y-0.138
X7.816Y0.532
X7.785Y0.547
X7.754Y0.563
X7.724Y0.58
X7.686Y0.602
X6.339Y1.409
X6.305Y1.43
X6.275Y1.45
X6.246Y1.47
X6.217Y1.491
X4.956Y2.426
X4.929Y2.446
X4.903Y2.467
X4.878Y2.488
X4.842Y2.52
X3.678Y3.574
X3.654Y3.596
X3.627Y3.623
X3.6Y3.65
X3.574Y3.678
X2.52Y4.842
X2.499Y4.865
X2.479Y4.888
X2.46Y4.912
X2.426Y4.955
X1.491Y6.217
X1.47Y6.246
X1.45Y6.275
X1.43Y6.305
X1.409Y6.339
X0.602Y7.686
G0Z2
X-0.262Y7.183
G1Z-13F150
X-0.286Y7.225F300
X-0.305Y7.26
X-0.318Y7.283
X-0.336Y7.318
X-0.348Y7.341
X-0.371Y7.388
X-1.047Y8.818
X-1.071Y8.872
X-1.095Y8.927
X-1.118Y8.986
X-1.136Y9.034
X-1.669Y10.524
X-1.689Y10.583
X-1.707Y10.641
X-1.724Y10.7
X-1.736Y10.748
X-2.12Y12.28
X-2.131Y12.329
X-2.14Y12.368
X-2.145Y12.394
X-2.153Y12.433
X-2.157Y12.459
X-2.166Y12.512
X-2.398Y14.076
X-2.405Y14.135
X-2.412Y14.193
X-2.417Y14.254
X-2.42Y14.309
X-2.498Y15.889
X-2.5Y15.951
X-2.5Y16
X-2.5Y89.612
X-2.499Y89.671
X-2.497Y89.73
X-2.493Y89.789
X-2.488Y89.847
X-2.481Y89.906
X-2.473Y89.964
X-2.464Y90.023
X-2.453Y90.081
X-2.441Y90.14
X-2.427Y90.2
X-2.411Y90.26
X-2.394Y90.32
X-2.376Y90.379
X-2.355Y90.438
X-2.334Y90.496
X-2.311Y90.554
X-2.286Y90.611
X-2.261Y90.668
X-2.233Y90.723
X-2.205Y90.779
X-2.175Y90.833
X-2.144Y90.887
X-2.111Y90.939
X-2.077Y90.992
X-2.042Y91.043
X-2.005Y91.093
X-1.968Y91.142
X-1.929Y91.191
X-1.889Y91.238
X-1.847Y91.285
X-1.805Y91.33
X-1.761Y91.374
X-1.717Y91.418
X-1.671Y91.46
X-1.624Y91.501
X-1.577Y91.54
X-1.528Y91.579
X-1.478Y91.616
X-1.428Y91.652
X-1.376Y91.688
X-1.324Y91.721
X-1.272Y91.753
X-1.219Y91.783
X-1.165Y91.812
X-1.11Y91.84
X-1.055Y91.867
X-0.999Y91.892
X-0.943Y91.916
X-0.886Y91.938
X-0.828Y91.959
X-0.77Y91.979
X-0.712Y91.997
X-0.653Y92.014
X-0.594Y92.029
X-0.534Y92.043
X-0.474Y92.055
X-0.414Y92.066
X-0.353Y92.076
X-0.292Y92.084
X-0.231Y92.09
X-0.17Y92.095
X-0.109Y92.098
X-0.048Y92.1
X0Y92.101
X147.512Y92.101
X147.574Y92.1
X147.636Y92.097
X147.697Y92.093
X147.759Y92.087
X147.82Y92.08
X147.881Y92.072
X147.942Y92.062
X148.003Y92.05
X148.062Y92.037
X148.121Y92.022
X148.18Y92.007
X148.239Y91.989
X148.297Y91.971
X148.354Y91.951
X148.411Y91.929
X148.468Y91.906
X148.523Y91.882
X148.579Y91.856
X148.633Y91.829
X148.687Y91.801
X148.741Y91.771
X148.793Y91.741
X148.845Y91.708
X148.896Y91.675
X148.946Y91.64
X148.995Y91.605
X149.044Y91.568
X149.092Y91.529
X149.138Y91.49
X149.184Y91.449
X149.229Y91.407
X149.272Y91.364
X149.315Y91.321
X149.356Y91.276
X149.397Y91.23
X149.436Y91.183
X149.474Y91.135
X149.511Y91.086
X149.547Y91.037
X149.581Y90.986
X149.615Y90.935
X149.647Y90.883
X149.677Y90.831
X149.705Y90.78
X149.732Y90.729
X149.757Y90.677
X149.781Y90.625
X149.804Y90.572
X149.826Y90.518
X149.846Y90.466
X149.865Y90.414
X149.882Y90.361
X149.899Y90.307
X149.915Y90.251
X149.929Y90.195
X149.942Y90.138
X149.954Y90.081
X149.965Y90.024
X149.974Y89.966
X149.982Y89.907
X149.989Y89.843
X149.994Y89.779
X149.998Y89.715
X150Y89.651
X150.001Y89.6
X150.001Y-0.011
X150Y-0.071
X149.997Y-0.131
X149.994Y-0.191
X149.988Y-0.25
X149.981Y-0.31
X149.973Y-0.369
X149.964Y-0.428
X149.953Y-0.488
X149.94Y-0.549
X149.925Y-0.609
X149.91Y-0.669
X149.892Y-0.728
X149.874Y-0.787
X149.853Y-0.845
X149.832Y-0.903
X149.809Y-0.961
X149.784Y-1.017
X149.758Y-1.074
X149.731Y-1.129
X149.702Y-1.184
X149.673Y-1.238
X149.641Y-1.291
X149.609Y-1.344
X149.575Y-1.395
X149.54Y-1.446
X149.503Y-1.496
X149.466Y-1.545
X149.427Y-1.594
X149.387Y-1.641
X149.346Y-1.687
X149.303Y-1.732
X149.259Y-1.776
X149.215Y-1.82
X149.169Y-1.862
X149.122Y-1.902
X149.075Y-1.942
X149.026Y-1.98
X148.976Y-2.018
X148.926Y-2.054
X148.874Y-2.088
X148.822Y-2.122
X148.769Y-2.154
X148.715Y-2.185
X148.661Y-2.214
X148.606Y-2.242
X148.55Y-2.269
X148.493Y-2.294
X148.436Y-2.318
X148.378Y-2.341
X148.32Y-2.362
X148.261Y-2.382
X148.201Y-2.4
X148.142Y-2.416
X148.082Y-2.431
X148.021Y-2.445
X147.96Y-2.457
X147.902Y-2.468
X147.843Y-2.476
X147.784Y-2.484
X147.725Y-2.49
X147.666Y-2.495
X147.607Y-2.498
X147.547Y-2.5
X147.5Y-2.5
X15.988Y-2.5
X15.926Y-2.499
X15.877Y-2.497
X14.295Y-2.419
X14.228Y-2.415
X14.17Y-2.409
X14.111Y-2.402
X14.065Y-2.396
X12.501Y-2.164
X12.448Y-2.155
X12.393Y-2.145
X12.352Y-2.137
X12.325Y-2.131
X12.271Y-2.118
X10.737Y-1.734
X10.686Y-1.72
X10.634Y-1.705
X10.593Y-1.692
X10.513Y-1.665
X9.022Y-1.132
X8.963Y-1.109
X8.904Y-1.085
X8.85Y-1.062
X8.808Y-1.042
X7.378Y-0.366
X7.326Y-0.34
X7.275Y-0.314
X7.225Y-0.286
X7.172Y-0.255
X5.814Y0.558
X5.758Y0.593
X5.708Y0.626
X5.66Y0.66
X5.621Y0.688
X4.351Y1.63
X4.307Y1.663
X4.264Y1.698
X4.23Y1.726
X4.17Y1.779
X2.999Y2.84
X2.957Y2.879
X2.912Y2.924
X2.868Y2.969
X2.833Y3.007
X1.772Y4.178
X1.738Y4.216
X1.705Y4.255
X1.679Y4.287
X1.623Y4.36
X0.681Y5.631
X0.646Y5.679
X0.612Y5.728
X0.579Y5.779
X0.551Y5.825
X-0.262Y7.183
G0Z2
X0.602Y7.686
G1Z-13F150
X0.587Y7.711F300
X0.568Y7.746
X0.55Y7.78
X0.532Y7.816
X-0.138Y9.235
X-0.153Y9.267
X-0.167Y9.3
X-0.181Y9.335
X-0.194Y9.371
X-0.723Y10.85
X-0.735Y10.885
X-0.746Y10.92
X-0.757Y10.955
X-0.766Y10.991
X-1.148Y12.514
X-1.154Y12.541
X-1.163Y12.58
X-1.17Y12.619
X-1.176Y12.658
X-1.407Y14.211
X-1.412Y14.246
X-1.415Y14.281
X-1.419Y14.317
X-1.421Y14.358
X-1.498Y15.926
X-1.5Y15.963
X-1.5Y16
Y89.6
X-1.5Y89.635
X-1.498Y89.671
X-1.496Y89.706
X-1.493Y89.741
X-1.49Y89.777
X-1.485Y89.812
X-1.48Y89.847
X-1.473Y89.881
X-1.466Y89.917
X-1.458Y89.953
X-1.449Y89.989
X-1.439Y90.025
X-1.428Y90.061
X-1.416Y90.096
X-1.403Y90.131
X-1.389Y90.166
X-1.375Y90.2
X-1.36Y90.234
X-1.343Y90.267
X-1.326Y90.301
X-1.309Y90.333
X-1.29Y90.366
X-1.271Y90.398
X-1.25Y90.429
X-1.229Y90.46
X-1.208Y90.49
X-1.185Y90.52
X-1.162Y90.549
X-1.138Y90.577
X-1.113Y90.605
X-1.088Y90.633
X-1.062Y90.659
X-1.035Y90.686
X-1.008Y90.711
X-0.98Y90.736
X-0.952Y90.76
X-0.923Y90.783
X-0.893Y90.806
X-0.863Y90.827
X-0.831Y90.849
X-0.8Y90.869
X-0.769Y90.888
X-0.737Y90.907
X-0.705Y90.924
X-0.672Y90.941
X-0.639Y90.957
X-0.606Y90.973
X-0.572Y90.987
X-0.538Y91.001
X-0.504Y91.014
X-0.469Y91.025
X-0.434Y91.037
X-0.398Y91.047
X-0.363Y91.056
X-0.327Y91.065
X-0.291Y91.072
X-0.255Y91.079
X-0.219Y91.085
X-0.182Y91.09
X-0.146Y91.094
X-0.109Y91.097
X-0.073Y91.099
X-0.036Y91.1
X0Y91.101
X147.5
X147.537Y91.1
X147.574Y91.099
X147.611Y91.097
X147.648Y91.094
X147.685Y91.09
X147.721Y91.085
X147.758Y91.079
X147.795Y91.072
X147.83Y91.064
X147.866Y91.056
X147.901Y91.046
X147.936Y91.036
X147.971Y91.025
X148.006Y91.013
X148.04Y91
X148.074Y90.987
X148.108Y90.972
X148.141Y90.957
X148.174Y90.941
X148.206Y90.924
X148.238Y90.907
X148.27Y90.888
X148.301Y90.869
X148.332Y90.849
X148.362Y90.829
X148.391Y90.807
X148.421Y90.785
X148.45Y90.762
X148.478Y90.739
X148.505Y90.714
X148.532Y90.69
X148.559Y90.664
X148.584Y90.638
X148.609Y90.611
X148.634Y90.584
X148.657Y90.556
X148.68Y90.527
X148.703Y90.498
X148.724Y90.468
X148.745Y90.438
X148.765Y90.407
X148.785Y90.376
X148.803Y90.345
X148.82Y90.314
X148.836Y90.284
X148.852Y90.253
X148.866Y90.221
X148.88Y90.189
X148.894Y90.157
X148.906Y90.126
X148.917Y90.095
X148.928Y90.063
X148.938Y90.031
X148.947Y89.998
X148.956Y89.964
X148.964Y89.93
X148.972Y89.896
X148.978Y89.861
X148.984Y89.827
X148.989Y89.792
X148.993Y89.754
X148.997Y89.715
X148.999Y89.677
X149Y89.638
X149.001Y89.6
X149.001Y0
X149.001Y-0.035
X148.999Y-0.071
X148.997Y-0.107
X148.994Y-0.143
X148.99Y-0.178
X148.985Y-0.214
X148.98Y-0.25
X148.973Y-0.285
X148.966Y-0.322
X148.957Y-0.358
X148.948Y-0.394
X148.938Y-0.429
X148.927Y-0.465
X148.915Y-0.5
X148.902Y-0.535
X148.888Y-0.569
X148.874Y-0.603
X148.859Y-0.637
X148.842Y-0.671
X148.825Y-0.704
X148.808Y-0.736
X148.789Y-0.768
X148.77Y-0.8
X148.749Y-0.831
X148.728Y-0.862
X148.707Y-0.892
X148.684Y-0.921
X148.661Y-0.95
X148.637Y-0.979
X148.613Y-1.006
X148.587Y-1.034
X148.561Y-1.061
X148.534Y-1.087
X148.507Y-1.112
X148.479Y-1.137
X148.451Y-1.161
X148.422Y-1.184
X148.392Y-1.206
X148.362Y-1.228
X148.331Y-1.249
X148.3Y-1.269
X148.268Y-1.289
X148.236Y-1.307
X148.203Y-1.325
X148.17Y-1.342
X148.137Y-1.358
X148.103Y-1.374
X148.068Y-1.388
X148.034Y-1.402
X147.999Y-1.415
X147.964Y-1.427
X147.928Y-1.438
X147.892Y-1.448
X147.856Y-1.457
X147.82Y-1.466
X147.783Y-1.473
X147.748Y-1.479
X147.713Y-1.485
X147.678Y-1.49
X147.642Y-1.493
X147.607Y-1.496
X147.571Y-1.498
X147.536Y-1.5
X147.5Y-1.5
X16Y-1.5
X15.963Y-1.5
X15.926Y-1.498
X14.358Y-1.421
X14.316Y-1.419
X14.281Y-1.415
X14.246Y-1.412
X14.211Y-1.407
X12.658Y-1.176
X12.627Y-1.171
X12.595Y-1.166
X12.554Y-1.157
X12.514Y-1.148
X10.991Y-0.766
X10.96Y-0.758
X10.929Y-0.749
X10.898Y-0.74
X10.85Y-0.723
X9.371Y-0.194
X9.335Y-0.181
X9.3Y-0.167
X9.267Y-0.153
X9.235Y-0.138
X7.816Y0.532
X7.785Y0.547
X7.754Y0.563
X7.724Y0.58
X7.686Y0.602
X6.339Y1.409
X6.305Y1.43
X6.275Y1.45
X6.246Y1.47
X6.217Y1.491
X4.956Y2.426
X4.929Y2.446
X4.903Y2.467
X4.878Y2.488
X4.842Y2.52
X3.678Y3.574
X3.654Y3.596
X3.627Y3.623
X3.6Y3.65
X3.574Y3.678
X2.52Y4.842
X2.499Y4.865
X2.479Y4.888
X2.46Y4.912
X2.426Y4.955
X1.491Y6.217
X1.47Y6.246
X1.45Y6.275
X1.43Y6.305
X1.409Y6.339
X0.602Y7.686
G0Z2
(Tool: D = 3.0 mm  type END flutes 2)
S12000M03
G00 Z2.0

X112.671Y76.331
G1Z-2F200
X112.72Y76.271F400
X112.78Y76.223
X112.848Y76.186
X112.922Y76.164
X112.999Y76.156
X113.076Y76.164
X113.149Y76.186
X113.217Y76.223
X113.277Y76.272
X113.326Y76.331
X113.363Y76.399
X113.385Y76.473
X113.392Y76.55
X113.385Y76.627
X113.362Y76.701
X113.326Y76.769
X113.277Y76.828
X113.217Y76.877
X113.149Y76.914
X113.076Y76.936
X112.999Y76.944
X112.922Y76.936
X112.848Y76.914
X112.78Y76.877
X112.72Y76.828
X112.671Y76.769
X112.635Y76.701
X112.613Y76.627
X112.605Y76.55
X112.613Y76.473
X112.635Y76.399
X112.671Y76.331
Z-4F200
X112.72Y76.271F400
X112.78Y76.223
X112.848Y76.186
X112.922Y76.164
X112.999Y76.156
X113.076Y76.164
X113.149Y76.186
X113.217Y76.223
X113.277Y76.272
X113.326Y76.331
X113.363Y76.399
X113.385Y76.473
X113.392Y76.55
X113.385Y76.627
X113.362Y76.701
X113.326Y76.769
X113.277Y76.828
X113.217Y76.877
X113.149Y76.914
X113.076Y76.936
X112.999Y76.944
X112.922Y76.936
X112.848Y76.914
X112.78Y76.877
X112.72Y76.828
X112.671Y76.769
X112.635Y76.701
X112.613Y76.627
X112.605Y76.55
X112.613Y76.473
X112.635Y76.399
X112.671Y76.331
Z-6F200
X112.72Y76.271F400
X112.78Y76.223
X112.848Y76.186
X112.922Y76.164
X112.999Y76.156
X113.076Y76.164
X113.149Y76.186
X113.217Y76.223
X113.277Y76.272
X113.326Y76.331
X113.363Y76.399
X113.385Y76.473
X113.392Y76.55
X113.385Y76.627
X113.362Y76.701
X113.326Y76.769
X113.277Y76.828
X113.217Y76.877
X113.149Y76.914
X113.076Y76.936
X112.999Y76.944
X112.922Y76.936
X112.848Y76.914
X112.78Y76.877
X112.72Y76.828
X112.671Y76.769
X112.635Y76.701
X112.613Y76.627
X112.605Y76.55
X112.613Y76.473
X112.635Y76.399
X112.671Y76.331
Z-7F200
X112.72Y76.271F400
X112.78Y76.223
X112.848Y76.186
X112.922Y76.164
X112.999Y76.156
X113.076Y76.164
X113.149Y76.186
X113.217Y76.223
X113.277Y76.272
X113.326Y76.331
X113.363Y76.399
X113.385Y76.473
X113.392Y76.55
X113.385Y76.627
X113.362Y76.701
X113.326Y76.769
X113.277Y76.828
X113.217Y76.877
X113.149Y76.914
X113.076Y76.936
X112.999Y76.944
X112.922Y76.936
X112.848Y76.914
X112.78Y76.877
X112.72Y76.828
X112.671Y76.769
X112.635Y76.701
X112.613Y76.627
X112.605Y76.55
X112.613Y76.473
X112.635Y76.399
X112.671Y76.331
G0Z2
 
