(Created with grbl post processor 2023/10/15 23:44)
G21
(G-code generated with BlenderCAM and NC library)
G17G90
(Tool: D = 3.0 mm  type END flutes 2)
S12000M03
G00 Z2.0

G0X0Y0Z2
X3.982Y44.748
G1Z-0.2F150
Y44.948F300
Y45.148
Y45.348
Y45.548
Y45.748
Y45.948
Y46.148
Y46.348
Y46.548
Y46.748
Y46.948
Y47.148
Y47.348
Y47.548
Y47.748
Y47.948
Y48.148
Y48.348
Y48.548
Y48.748
Y48.948
Y49.148
Y49.348
Y49.548
Y49.748
Y49.948
Y50.148
Y50.348
Y50.548
Y50.748
Y50.948
Y51.148
Y51.348
Y51.548
Y51.748
Y51.948
Y52.148
Y52.348
Y52.548
Y52.748
Y52.948
Y53.148
Y53.348
Y53.548
Y53.748
Y53.948
Y54.148
Y54.348
Y54.548
Y54.748
Y54.948
Y55.148
Y55.248
Y55.048
Y54.848
Y54.648
Y54.448
Y54.248
Y54.048
Y53.848
Y53.648
Y53.448
Y53.248
Y53.048
Y52.848
Y52.648
Y52.448
Y52.248
Y52.048
Y51.848
Y51.648
Y51.448
Y51.248
Y51.048
Y50.848
Y50.648
Y50.448
Y50.248
Y50.048
Y49.848
Y49.648
Y49.448
Y49.248
Y49.048
Y48.848
Y48.648
Y48.448
Y48.248
Y48.048
Y47.848
Y47.648
Y47.448
Y47.248
Y47.048
Y46.848
Y46.648
Y46.448
Y46.248
Y46.048
Y45.848
Y45.648
Y45.448
Y45.248
Y45.048
Y44.848
Y44.748
G0Z2
X143.514Y76.789
G1Z-0.2F150
Y76.589F300
Y76.389
Y76.189
Y75.989
Y75.789
Y75.589
Y75.389
Y75.189
Y74.989
Y74.789
Y74.589
Y74.389
Y74.189
Y73.989
Y73.789
Y73.589
Y73.389
Y73.189
Y72.989
Y72.789
Y72.589
Y72.389
Y72.189
Y71.989
Y71.789
Y71.589
Y71.389
Y71.189
Y70.989
Y70.789
Y70.589
Y70.389
Y70.189
Y69.989
Y69.789
Y69.589
Y69.389
Y69.189
Y68.989
Y68.789
Y68.589
Y68.389
Y68.189
Y67.989
Y67.789
Y67.589
Y67.389
Y67.189
Y66.989
Y66.789
Y66.589
Y66.389
Y66.189
Y65.989
Y65.789
Y65.589
Y65.389
Y65.189
Y64.989
Y64.789
Y64.589
Y64.389
Y64.189
Y63.989
Y63.789
Y63.589
Y63.389
Y63.289
G0Z2
(Tool: D = 3.0 mm  type END flutes 2)
S12000M03
G00 Z2.0

X105.403Y34.799
G1Z-1.2F200
X107.305Y34.799F400
Y54.801
X105.403
Y34.799
X104.403Y33.799
X108.305
Y55.801
X104.403
Y33.799
X103.403Y32.799
X109.305
Y56.801
X103.403
X103.403Y32.799
X102.403Y31.799
X110.305
X110.305Y57.801
X102.403
Y31.799
X101.403Y30.799
X111.305
Y58.801
X101.403
Y30.799
X100.403Y29.799
X112.305Y29.799
Y59.801
X100.403
Y29.799
X99.403Y28.799
X113.305Y28.799
X113.305Y60.801
X99.403
X99.403Y28.799
X98.403Y27.799
X114.305Y27.799
X114.305Y61.801
X98.403Y61.801
Y27.799
X97.403Y26.799
X115.305Y26.799
Y62.801
X97.403
Y26.799
X96.403Y25.799
X116.305Y25.799
Y63.801
X96.403
Y25.799
X95.403Y24.799
X117.305Y24.799
X117.305Y64.801
X95.403Y64.801
X95.403Y24.799
X94.403Y23.799
X118.305Y23.799
Y65.801
X94.403
Y23.799
X93.403Y22.799
X119.305Y22.799
Y66.801
X93.403
Y22.799
X92.403Y21.799
X120.305Y21.799
Y67.801
X92.403
X92.403Y21.799
X91.403Y20.799
X121.305Y20.799
X121.305Y68.801
X91.403Y68.801
X91.403Y20.799
X90.518Y19.799
X122.305Y19.799
Y69.801
X90.403
Y19.914
X90.413Y19.809
X90.518Y19.799
X90.469Y18.799
X123.305Y18.799
Y70.801
X89.403
Y19.865
X89.467Y19.213
X89.492Y19.129
X89.533Y19.052
X89.589Y18.985
X89.656Y18.93
X89.733Y18.888
X89.817Y18.863
X90.469Y18.799
X90.42Y17.799
X124.305Y17.799
X124.305Y71.801
X88.403Y71.801
X88.403Y19.816
X88.481Y19.017
X88.564Y18.745
X88.698Y18.494
X88.878Y18.274
X89.098Y18.094
X89.349Y17.96
X89.621Y17.878
X90.42Y17.799
X90.37Y16.799
X125.305Y16.799
Y72.801
X87.403Y72.801
X87.403Y19.767
X87.496Y18.821
X87.636Y18.36
X87.862Y17.936
X88.168Y17.564
X88.54Y17.259
X88.964Y17.032
X89.425Y16.892
X90.37Y16.799
X90.321Y15.799
X126.305Y15.799
X126.305Y73.801
X86.403
Y19.717
X86.51Y18.625
X86.707Y17.976
X87.027Y17.378
X87.457Y16.853
X87.982Y16.423
X88.58Y16.103
X89.229Y15.907
X90.321Y15.799
X90.272Y14.799
X127.305Y14.799
X127.305Y74.801
X85.403
Y19.668
X85.525Y18.429
X85.779Y17.591
X86.192Y16.819
X86.747Y16.143
X87.423Y15.588
X88.195Y15.175
X89.033Y14.921
X90.272Y14.799
X90.223Y13.799
X128.305Y13.799
Y75.801
X84.403Y75.801
X84.403Y19.619
X84.539Y18.233
X84.851Y17.207
X85.356Y16.261
X86.036Y15.432
X86.865Y14.752
X87.811Y14.247
X88.837Y13.935
X90.223Y13.799
X90.174Y12.799
X129.305Y12.799
Y76.801
X83.403Y76.801
X83.403Y19.57
X83.554Y18.037
X83.922Y16.822
X84.521Y15.703
X85.326Y14.722
X86.307Y13.917
X87.426Y13.318
X88.641Y12.95
X90.174Y12.799
X90.125Y11.799
X130.305Y11.799
Y77.801
X82.403
Y19.521
X82.568Y17.841
X82.994Y16.438
X83.685Y15.145
X84.615Y14.011
X85.749Y13.081
X87.042Y12.39
X88.445Y11.964
X90.125Y11.799
X90.076Y10.799
X131.305Y10.799
Y78.801
X81.403
Y19.472
X81.583Y17.645
X82.066Y16.053
X82.85Y14.586
X83.905Y13.301
X85.19Y12.246
X86.657Y11.462
X88.249Y10.979
X90.076Y10.799
X90.027Y9.799
X132.181Y9.799
X132.294Y9.81
X132.305Y9.923
Y79.677
X132.294Y79.79
X132.181Y79.801
X80.527Y79.801
X80.414Y79.79
X80.403Y79.677
X80.403Y19.423
X80.597Y17.449
X81.137Y15.669
X82.014Y14.028
X83.194Y12.59
X84.632Y11.41
X86.273Y10.533
X88.053Y9.993
X90.027Y9.799
X89.977Y8.799
X132.23Y8.799
X132.498Y8.825
X132.684Y8.882
X132.856Y8.974
X133.006Y9.097
X133.13Y9.248
X133.222Y9.42
X133.278Y9.606
X133.305Y9.874
X133.305Y79.726
X133.278Y79.994
X133.222Y80.18
X133.13Y80.352
X133.006Y80.503
X132.856Y80.626
X132.684Y80.718
X132.498Y80.775
X132.23Y80.801
X80.477Y80.801
X80.21Y80.775
X80.023Y80.718
X79.852Y80.626
X79.701Y80.503
X79.577Y80.352
X79.486Y80.18
X79.429Y79.994
X79.403Y79.726
X79.403Y19.374
X79.612Y17.253
X80.209Y15.284
X81.179Y13.47
X82.484Y11.88
X84.074Y10.575
X85.888Y9.605
X87.857Y9.008
X89.977Y8.799
G0Z2
 
