(Created with grbl post processor 2023/10/15 23:44)
G21
(G-code generated with BlenderCAM and NC library)
G17G90
(Tool: D = 1.5 mm  type END flutes 2)
S12000M03
G00 Z2.0

G0X0Y0Z2
X14.188Y3.423
G1Z-1.513F75
X14.367Y3.513Z-1.512F150
X14.546Y3.602Z-1.511
X14.725Y3.692Z-1.509
X14.904Y3.781Z-1.508
X15.083Y3.87Z-1.507
X15.262Y3.96Z-1.505
X15.44Y4.049Z-1.504
X15.619Y4.139Z-1.503
X15.798Y4.228Z-1.501
X15.977Y4.318Z-1.5
X16.026Y4.342Z-1.5
X16.205Y4.432
X16.384Y4.521
X16.563Y4.611
X16.742Y4.7
X16.921Y4.789
X17.099Y4.879
X17.278Y4.968
X17.457Y5.058
X17.636Y5.147
X17.815Y5.237
X17.994Y5.326
X18.173Y5.416
X18.352Y5.505
X18.531Y5.594
X18.709Y5.684
X18.888Y5.773
X19.067Y5.863
X19.246Y5.952
X19.425Y6.042
X19.604Y6.131
X19.783Y6.221
X19.962Y6.31
X20.141Y6.399
X20.319Y6.489
X20.498Y6.578
X20.677Y6.668
X20.856Y6.757
X21.035Y6.847
X21.214Y6.936
X21.393Y7.025
X21.572Y7.115
X21.751Y7.204
X21.929Y7.294
X22.108Y7.383
X22.287Y7.473
X22.466Y7.562
X22.645Y7.652
X22.824Y7.741
X23.003Y7.83
X23.182Y7.92
X23.36Y8.009
X23.539Y8.099
X23.718Y8.188
X23.897Y8.278
X24.076Y8.367
X24.255Y8.457
X24.434Y8.546
X24.613Y8.635
X24.792Y8.725
X24.97Y8.814
X25.149Y8.904
X25.328Y8.993
X25.507Y9.083
X25.686Y9.172
X25.865Y9.262
X26.044Y9.351
X26.223Y9.44
X26.263Y9.461
G0Z2
X24.027Y13.933
G1Z-1.5F75
X23.848Y13.843F150
X23.669Y13.754
X23.49Y13.664
X23.311Y13.575
X23.133Y13.486
X22.954Y13.396
X22.775Y13.307
X22.596Y13.217
X22.417Y13.128
X22.238Y13.038
X22.059Y12.949
X21.88Y12.859
X21.701Y12.77
X21.523Y12.681
X21.344Y12.591
X21.165Y12.502
X20.986Y12.412
X20.807Y12.323
X20.628Y12.233
X20.449Y12.144
X20.27Y12.055
X20.092Y11.965
X19.913Y11.876
X19.734Y11.786
X19.555Y11.697
X19.376Y11.607
X19.197Y11.518
X19.018Y11.428
X18.839Y11.339
X18.66Y11.25
X18.482Y11.16
X18.303Y11.071
X18.124Y10.981
X17.945Y10.892
X17.766Y10.802
X17.587Y10.713
X17.408Y10.623
X17.229Y10.534
X17.05Y10.445
X16.872Y10.355
X16.693Y10.266
X16.514Y10.176
X16.335Y10.087
X16.156Y9.997
X15.977Y9.908
X15.798Y9.818
X15.619Y9.729
X15.441Y9.64
X15.262Y9.55
X15.083Y9.461
X14.904Y9.371
X14.725Y9.282
X14.546Y9.192
X14.367Y9.103
X14.188Y9.013
X14.009Y8.924
X13.831Y8.835
X13.771Y8.805
X13.592Y8.715Z-1.5
X13.413Y8.626Z-1.501
X13.234Y8.537Z-1.501
X13.056Y8.447Z-1.502
X12.877Y8.358Z-1.503
X12.698Y8.268Z-1.503
X12.519Y8.179Z-1.504
X12.34Y8.089Z-1.504
X12.161Y8Z-1.505
X11.982Y7.91Z-1.506
X11.952Y7.895Z-1.506
G0Z2
X21.791Y18.405
G1Z-1.5F75
X21.612Y18.315F150
X21.433Y18.226
X21.254Y18.137
X21.075Y18.047
X20.897Y17.958
X20.718Y17.868
X20.539Y17.779
X20.36Y17.689
X20.181Y17.6
X20.002Y17.511
X19.823Y17.421
X19.644Y17.332
X19.465Y17.242
X19.287Y17.153
X19.108Y17.063
X18.929Y16.974
X18.75Y16.884
X18.571Y16.795
X18.392Y16.706
X18.213Y16.616
X18.034Y16.527
X17.855Y16.437
X17.677Y16.348
X17.498Y16.258
X17.319Y16.169
X17.14Y16.079
X16.961Y15.99
X16.782Y15.901
X16.603Y15.811
X16.424Y15.722
X16.245Y15.632
X16.067Y15.543
X15.888Y15.453
X15.709Y15.364
X15.53Y15.274
X15.351Y15.185
X15.172Y15.096
X14.993Y15.006
X14.814Y14.917
X14.636Y14.827
X14.457Y14.738
X14.278Y14.648
X14.099Y14.559
X13.92Y14.469
X13.741Y14.38
X13.562Y14.291
X13.383Y14.201
X13.204Y14.112
X13.026Y14.022
X12.847Y13.933
X12.668Y13.843
X12.489Y13.754
X12.31Y13.664
X12.131Y13.575
X11.952Y13.486
X11.773Y13.396
X11.594Y13.307
X11.516Y13.268
X11.337Y13.178Z-1.499
X11.158Y13.089Z-1.499
X10.979Y12.999Z-1.499
X10.801Y12.91Z-1.499
X10.622Y12.82Z-1.499
X10.443Y12.731Z-1.499
X10.264Y12.641Z-1.499
X10.085Y12.552Z-1.498
X9.906Y12.463Z-1.498
X9.727Y12.373Z-1.498
X9.716Y12.368Z-1.498
G0Z2
X19.555Y22.877
G1Z-1.5F75
X19.376Y22.788F150
X19.197Y22.698
X19.018Y22.609
X18.839Y22.519
X18.66Y22.43
X18.482Y22.34
X18.303Y22.251
X18.124Y22.162
X17.945Y22.072
X17.766Y21.983
X17.587Y21.893
X17.408Y21.804
X17.229Y21.714
X17.05Y21.625
X16.872Y21.535
X16.693Y21.446
X16.514Y21.357
X16.335Y21.267
X16.156Y21.178
X15.977Y21.088
X15.798Y20.999
X15.619Y20.909
X15.441Y20.82
X15.262Y20.73
X15.083Y20.641
X14.904Y20.552
X14.725Y20.462
X14.546Y20.373
X14.367Y20.283
X14.188Y20.194
X14.009Y20.104
X13.831Y20.015
X13.652Y19.925
X13.473Y19.836
X13.294Y19.747
X13.115Y19.657
X12.936Y19.568
X12.757Y19.478
X12.578Y19.389
X12.399Y19.299
X12.221Y19.21
X12.042Y19.12
X11.863Y19.031
X11.684Y18.942
X11.505Y18.852
X11.326Y18.763
X11.147Y18.673
X10.968Y18.584
X10.789Y18.494
X10.611Y18.405
X10.432Y18.315
X10.253Y18.226
X10.074Y18.137
X9.895Y18.047
X9.716Y17.958
X9.537Y17.868
X9.358Y17.779
X9.261Y17.73
X9.082Y17.641Z-1.499
X8.903Y17.551Z-1.498
X8.724Y17.462Z-1.497
X8.546Y17.372Z-1.496
X8.367Y17.283Z-1.495
X8.188Y17.194Z-1.494
X8.009Y17.104Z-1.493
X7.83Y17.015Z-1.492
X7.651Y16.925Z-1.491
X7.48Y16.84Z-1.491
G0Z2
X17.319Y27.349
G1Z-1.5F75
X17.14Y27.26F150
X16.961Y27.17
X16.782Y27.081
X16.603Y26.991
X16.424Y26.902
X16.246Y26.813
X16.067Y26.723
X15.888Y26.634
X15.709Y26.544
X15.53Y26.455
X15.351Y26.365
X15.172Y26.276
X14.993Y26.186
X14.814Y26.097
X14.636Y26.008
X14.457Y25.918
X14.278Y25.829
X14.099Y25.739
X13.92Y25.65
X13.741Y25.56
X13.562Y25.471
X13.383Y25.381
X13.204Y25.292
X13.026Y25.203
X12.847Y25.113
X12.668Y25.024
X12.489Y24.934
X12.31Y24.845
X12.131Y24.755
X11.952Y24.666
X11.773Y24.576
X11.594Y24.487
X11.416Y24.398
X11.237Y24.308
X11.058Y24.219
X10.879Y24.129
X10.7Y24.04
X10.521Y23.95
X10.342Y23.861
X10.163Y23.772
X9.985Y23.682
X9.806Y23.593
X9.627Y23.503
X9.448Y23.414
X9.269Y23.324
X9.09Y23.235
X8.911Y23.145
X8.732Y23.056
X8.553Y22.967
X8.375Y22.877
X8.196Y22.788
X8.017Y22.698
X7.838Y22.609
X7.659Y22.519
X7.48Y22.43
X7.301Y22.34
X7.122Y22.251
X7.006Y22.193
X6.827Y22.103Z-1.498
X6.648Y22.014Z-1.496
X6.469Y21.924Z-1.494
X6.29Y21.835Z-1.493
X6.112Y21.746Z-1.491
X5.933Y21.656Z-1.489
X5.754Y21.567Z-1.488
X5.575Y21.477Z-1.486
X5.396Y21.388Z-1.484
X5.244Y21.312Z-1.483
G0Z2
X15.083Y31.821
G1Z-1.5F75
X14.904Y31.732F150
X14.725Y31.642
X14.546Y31.553
X14.367Y31.464
X14.188Y31.374
X14.009Y31.285
X13.831Y31.195
X13.652Y31.106
X13.473Y31.016
X13.294Y30.927
X13.115Y30.837
X12.936Y30.748
X12.757Y30.659
X12.578Y30.569
X12.399Y30.48
X12.221Y30.39
X12.042Y30.301
X11.863Y30.211
X11.684Y30.122
X11.505Y30.032
X11.326Y29.943
X11.147Y29.854
X10.968Y29.764
X10.789Y29.675
X10.611Y29.585
X10.432Y29.496
X10.253Y29.406
X10.074Y29.317
X9.895Y29.228
X9.716Y29.138
X9.537Y29.049
X9.358Y28.959
X9.18Y28.87
X9.001Y28.78
X8.822Y28.691
X8.643Y28.601
X8.464Y28.512
X8.285Y28.423
X8.106Y28.333
X7.927Y28.244
X7.748Y28.154
X7.57Y28.065
X7.391Y27.975
X7.212Y27.886
X7.033Y27.796
X6.854Y27.707
X6.675Y27.618
X6.496Y27.528
X6.317Y27.439
X6.138Y27.349
X5.96Y27.26
X5.781Y27.17
X5.602Y27.081
X5.423Y26.991
X5.244Y26.902
X5.065Y26.813
X4.886Y26.723
X4.751Y26.655
X4.572Y26.566Z-1.497
X4.393Y26.477Z-1.495
X4.214Y26.387Z-1.492
X4.035Y26.298Z-1.49
X3.857Y26.208Z-1.487
X3.678Y26.119Z-1.485
X3.499Y26.029Z-1.482
X3.32Y25.94Z-1.48
X3.141Y25.851Z-1.477
X3.008Y25.784Z-1.475
G0Z2
(Tool: D = 1.5 mm  type END flutes 2)
S12000M03
G00 Z2.0

X27.699Y37.829
G1Z-2F100
X27.722Y37.812F200
X27.748Y37.801
X27.776Y37.794
X27.804Y37.793
X27.832Y37.798
X27.858Y37.808
X27.883Y37.824
X27.903Y37.843
X27.92Y37.866
X27.931Y37.892
X27.938Y37.92
X27.938Y37.948
X27.934Y37.976
X27.901Y38.06
X24.289Y45.285
X24.241Y45.361
X24.222Y45.382
X24.198Y45.398
X24.172Y45.41
X24.145Y45.416
X24.116Y45.417
X24.088Y45.412
X24.062Y45.402
X24.038Y45.387
X24.017Y45.367
X24.001Y45.344
X23.989Y45.318
X23.983Y45.29
X23.982Y45.262
X23.987Y45.234
X24.019Y45.15
X27.631Y37.925
X27.679Y37.849
X27.699Y37.829
X27.37Y37.449
X27.473Y37.376
X27.589Y37.324
X27.713Y37.296
X27.84Y37.292
X27.965Y37.314
X28.083Y37.359
X28.191Y37.427
X28.283Y37.514
X28.356Y37.617
X28.408Y37.733
X28.436Y37.857
X28.44Y37.984
X28.418Y38.109
X28.36Y38.262
X24.725Y45.531
X24.638Y45.669
X24.551Y45.761
X24.447Y45.835
X24.331Y45.887
X24.208Y45.915
X24.081Y45.918
X23.955Y45.897
X23.837Y45.851
X23.73Y45.784
X23.638Y45.696
X23.564Y45.593
X23.512Y45.477
X23.484Y45.353
X23.481Y45.226
X23.502Y45.101
X23.561Y44.948
X27.195Y37.68
X27.282Y37.541
X27.37Y37.449
G0Z2
X27.776Y52.776
G1Z-2F100
X27.804Y52.775F200
X27.832Y52.78
X27.859Y52.79
X27.883Y52.805
X27.903Y52.825
X27.92Y52.848
X27.931Y52.874
X27.938Y52.902
X27.938Y52.93
X27.934Y52.958
X27.901Y53.042
X24.289Y60.267
X24.241Y60.343
X24.222Y60.364
X24.198Y60.38
X24.172Y60.392
X24.145Y60.398
X24.116Y60.399
X24.088Y60.394
X24.062Y60.384
X24.038Y60.369
X24.017Y60.349
X24.001Y60.326
X23.989Y60.3
X23.983Y60.272
X23.982Y60.244
X23.987Y60.216
X24.019Y60.132
X27.631Y52.907
X27.679Y52.831
X27.699Y52.81
X27.722Y52.794
X27.748Y52.782
X27.776Y52.776
X27.713Y52.277
X27.84Y52.274
X27.965Y52.295
X28.083Y52.341
X28.191Y52.408
X28.283Y52.496
X28.356Y52.599
X28.408Y52.715
X28.436Y52.839
X28.44Y52.966
X28.418Y53.091
X28.36Y53.244
X24.725Y60.512
X24.638Y60.651
X24.551Y60.743
X24.447Y60.816
X24.331Y60.868
X24.207Y60.896
X24.081Y60.9
X23.956Y60.878
X23.837Y60.833
X23.73Y60.765
X23.638Y60.678
X23.564Y60.575
X23.512Y60.459
X23.484Y60.335
X23.481Y60.208
X23.502Y60.083
X23.561Y59.93
X27.195Y52.662
X27.282Y52.523
X27.37Y52.431
X27.473Y52.357
X27.589Y52.306
X27.713Y52.277
G0Z2
X47.107Y70.658
G1Z-2F100
X47.229Y70.551F200
X47.367Y70.421
X47.459Y70.33
X47.548Y70.237
X47.634Y70.142
X47.709Y70.056
X47.816Y70.178
X47.946Y70.317
X48.037Y70.408
X48.13Y70.497
X48.225Y70.584
X48.311Y70.658
X48.189Y70.765
X48.05Y70.895
X47.959Y70.986
X47.87Y71.079
X47.783Y71.174
X47.709Y71.26
X47.602Y71.138
X47.472Y70.999
X47.381Y70.908
X47.288Y70.819
X47.193Y70.732
X47.107Y70.658
X46.783Y70.277
X46.893Y70.181
X47.018Y70.063
X47.101Y69.981
X47.181Y69.897
X47.26Y69.811
X47.336Y69.723
X47.41Y69.633
X47.482Y69.541
X47.552Y69.447
X47.619Y69.352
X47.684Y69.255
X47.709Y69.217
X47.788Y69.336
X47.855Y69.432
X47.924Y69.526
X47.995Y69.618
X48.069Y69.708
X48.145Y69.796
X48.223Y69.883
X48.303Y69.967
X48.386Y70.05
X48.47Y70.131
X48.556Y70.209
X48.644Y70.285
X48.734Y70.359
X48.826Y70.431
X48.92Y70.501
X49.015Y70.568
X49.111Y70.633
X49.15Y70.658
X49.03Y70.737
X48.935Y70.804
X48.841Y70.873
X48.749Y70.945
X48.659Y71.018
X48.571Y71.094
X48.484Y71.172
X48.399Y71.253
X48.317Y71.335
X48.236Y71.419
X48.158Y71.505
X48.081Y71.594
X48.007Y71.683
X47.935Y71.775
X47.866Y71.869
X47.799Y71.964
X47.734Y72.061
X47.709Y72.099
X47.63Y71.98
X47.563Y71.884
X47.494Y71.79
X47.422Y71.698
X47.348Y71.608
X47.272Y71.52
X47.194Y71.433
X47.114Y71.349
X47.032Y71.266
X46.948Y71.185
X46.861Y71.107
X46.773Y71.031
X46.683Y70.957
X46.592Y70.885
X46.498Y70.815
X46.403Y70.748
X46.306Y70.683
X46.268Y70.658
X46.387Y70.579
X46.483Y70.512
X46.576Y70.443
X46.668Y70.371
X46.759Y70.298
X46.783Y70.277
X46.46Y69.896
X46.593Y69.777
X46.669Y69.705
X46.743Y69.632
X46.815Y69.557
X46.885Y69.479
X46.954Y69.401
X47.02Y69.32
X47.084Y69.238
X47.147Y69.154
X47.207Y69.069
X47.265Y68.983
X47.321Y68.895
X47.375Y68.805
X47.426Y68.715
X47.476Y68.623
X47.523Y68.53
X47.568Y68.436
X47.61Y68.34
X47.65Y68.244
X47.688Y68.147
X47.709Y68.09
X47.76Y68.226
X47.8Y68.323
X47.842Y68.418
X47.886Y68.513
X47.933Y68.606
X47.982Y68.698
X48.033Y68.789
X48.087Y68.878
X48.142Y68.967
X48.2Y69.054
X48.26Y69.139
X48.322Y69.223
X48.386Y69.305
X48.452Y69.386
X48.52Y69.465
X48.59Y69.543
X48.661Y69.618
X48.735Y69.692
X48.81Y69.764
X48.887Y69.834
X48.966Y69.903
X49.047Y69.969
X49.129Y70.033
X49.212Y70.096
X49.298Y70.156
X49.384Y70.214
X49.472Y70.27
X49.562Y70.324
X49.652Y70.376
X49.744Y70.425
X49.837Y70.472
X49.931Y70.517
X50.027Y70.559
X50.123Y70.6
X50.22Y70.637
X50.277Y70.658
X50.14Y70.709
X50.044Y70.749
X49.949Y70.791
X49.854Y70.836
X49.761Y70.882
X49.669Y70.931
X49.578Y70.982
X49.488Y71.036
X49.4Y71.091
X49.313Y71.149
X49.228Y71.209
X49.144Y71.271
X49.062Y71.335
X48.981Y71.401
X48.902Y71.469
X48.824Y71.539
X48.749Y71.611
X48.675Y71.684
X48.603Y71.76
X48.532Y71.837
X48.464Y71.915
X48.398Y71.996
X48.333Y72.078
X48.271Y72.162
X48.211Y72.247
X48.153Y72.333
X48.097Y72.421
X48.043Y72.511
X47.991Y72.601
X47.942Y72.693
X47.895Y72.786
X47.85Y72.88
X47.807Y72.976
X47.767Y73.072
X47.73Y73.169
X47.709Y73.226
X47.657Y73.09
X47.618Y72.993
X47.576Y72.898
X47.531Y72.803
X47.485Y72.71
X47.436Y72.618
X47.384Y72.527
X47.331Y72.438
X47.275Y72.349
X47.218Y72.262
X47.158Y72.177
X47.096Y72.093
X47.032Y72.011
X46.966Y71.93
X46.898Y71.851
X46.828Y71.773
X46.756Y71.698
X46.683Y71.624
X46.607Y71.552
X46.53Y71.482
X46.451Y71.413
X46.371Y71.347
X46.289Y71.283
X46.205Y71.22
X46.12Y71.16
X46.033Y71.102
X45.945Y71.046
X45.856Y70.992
X45.766Y70.94
X45.674Y70.891
X45.581Y70.844
X45.486Y70.799
X45.391Y70.757
X45.295Y70.717
X45.198Y70.679
X45.141Y70.658
X45.277Y70.607
X45.374Y70.567
X45.469Y70.525
X45.563Y70.48
X45.657Y70.434
X45.749Y70.385
X45.84Y70.334
X45.929Y70.28
X46.018Y70.225
X46.104Y70.167
X46.19Y70.107
X46.274Y70.045
X46.356Y69.981
X46.437Y69.915
X46.46Y69.896
X46.136Y69.515
X46.253Y69.411
X46.32Y69.348
X46.385Y69.283
X46.449Y69.216
X46.511Y69.148
X46.571Y69.079
X46.63Y69.008
X46.686Y68.935
X46.741Y68.861
X46.795Y68.786
X46.846Y68.71
X46.895Y68.632
X46.943Y68.554
X46.988Y68.474
X47.032Y68.393
X47.074Y68.31
X47.113Y68.227
X47.151Y68.143
X47.186Y68.058
X47.219Y67.973
X47.251Y67.886
X47.28Y67.799
X47.307Y67.711
X47.331Y67.622
X47.354Y67.533
X47.374Y67.443
X47.393Y67.353
X47.409Y67.262
X47.422Y67.171
X47.434Y67.08
X47.443Y66.988
X47.45Y66.897
X47.455Y66.805
X47.457Y66.713
X47.458Y66.658
X47.458Y63.507
X47.96Y63.508
X47.96Y66.694
X47.962Y66.786
X47.966Y66.878
X47.973Y66.97
X47.982Y67.061
X47.993Y67.153
X48.006Y67.244
X48.022Y67.334
X48.039Y67.425
X48.059Y67.514
X48.081Y67.604
X48.106Y67.693
X48.132Y67.781
X48.161Y67.868
X48.192Y67.955
X48.225Y68.041
X48.26Y68.126
X48.297Y68.21
X48.336Y68.293
X48.377Y68.376
X48.42Y68.457
X48.465Y68.537
X48.512Y68.616
X48.561Y68.694
X48.612Y68.771
X48.665Y68.846
X48.72Y68.92
X48.776Y68.993
X48.834Y69.064
X48.894Y69.134
X48.956Y69.202
X49.019Y69.269
X49.084Y69.334
X49.151Y69.398
X49.219Y69.46
X49.288Y69.52
X49.359Y69.579
X49.432Y69.636
X49.505Y69.691
X49.581Y69.744
X49.657Y69.795
X49.735Y69.845
X49.813Y69.892
X49.893Y69.938
X49.974Y69.981
X50.056Y70.023
X50.14Y70.062
X50.224Y70.1
X50.308Y70.135
X50.394Y70.169
X50.481Y70.2
X50.568Y70.229
X50.656Y70.256
X50.745Y70.281
X50.834Y70.303
X50.924Y70.324
X51.014Y70.342
X51.105Y70.358
X51.196Y70.372
X51.287Y70.383
X51.378Y70.392
X51.47Y70.399
X51.562Y70.404
X51.654Y70.407
X51.709Y70.407
X54.859Y70.407
X54.859Y70.909
X51.673Y70.909
X51.581Y70.911
X51.489Y70.916
X51.397Y70.922
X51.306Y70.931
X51.214Y70.942
X51.123Y70.955
X51.033Y70.971
X50.942Y70.988
X50.852Y71.008
X50.763Y71.031
X50.674Y71.055
X50.586Y71.081
X50.499Y71.11
X50.412Y71.141
X50.326Y71.174
X50.241Y71.209
X50.157Y71.246
X50.073Y71.285
X49.991Y71.326
X49.91Y71.369
X49.83Y71.414
X49.751Y71.462
X49.673Y71.511
X49.596Y71.562
X49.521Y71.614
X49.447Y71.669
X49.374Y71.725
X49.303Y71.784
X49.233Y71.844
X49.165Y71.905
X49.098Y71.968
X49.032Y72.033
X48.969Y72.1
X48.907Y72.168
X48.847Y72.237
X48.788Y72.308
X48.731Y72.381
X48.676Y72.455
X48.623Y72.53
X48.572Y72.606
X48.522Y72.684
X48.475Y72.763
X48.429Y72.842
X48.386Y72.924
X48.344Y73.006
X48.304Y73.089
X48.267Y73.173
X48.232Y73.258
X48.198Y73.343
X48.167Y73.43
X48.138Y73.517
X48.111Y73.605
X48.086Y73.694
X48.064Y73.783
X48.043Y73.873
X48.025Y73.963
X48.009Y74.054
X47.995Y74.145
X47.984Y74.236
X47.975Y74.328
X47.968Y74.419
X47.963Y74.511
X47.96Y74.603
X47.96Y74.658
X47.959Y77.809
X47.458Y77.808
X47.458Y74.622
X47.456Y74.53
X47.451Y74.438
X47.445Y74.346
X47.436Y74.255
X47.425Y74.164
X47.412Y74.072
X47.396Y73.982
X47.378Y73.891
X47.358Y73.802
X47.336Y73.712
X47.312Y73.624
X47.285Y73.535
X47.257Y73.448
X47.226Y73.361
X47.193Y73.275
X47.158Y73.19
X47.121Y73.106
X47.082Y73.023
X47.041Y72.94
X46.998Y72.859
X46.952Y72.779
X46.905Y72.7
X46.856Y72.622
X46.805Y72.545
X46.753Y72.47
X46.698Y72.396
X46.641Y72.323
X46.583Y72.252
X46.523Y72.182
X46.462Y72.114
X46.398Y72.047
X46.333Y71.982
X46.267Y71.918
X46.199Y71.856
X46.129Y71.796
X46.058Y71.737
X45.986Y71.68
X45.912Y71.625
X45.837Y71.572
X45.761Y71.521
X45.683Y71.471
X45.604Y71.424
X45.524Y71.378
X45.443Y71.335
X45.361Y71.293
X45.278Y71.254
X45.194Y71.216
X45.109Y71.181
X45.023Y71.147
X44.937Y71.116
X44.85Y71.087
X44.762Y71.06
X44.673Y71.035
X44.584Y71.013
X44.494Y70.992
X44.404Y70.974
X44.313Y70.958
X44.222Y70.944
X44.131Y70.933
X44.039Y70.924
X43.947Y70.917
X43.856Y70.912
X43.764Y70.909
X43.708Y70.909
X40.558Y70.909
X40.558Y70.407
X43.745Y70.407
X43.837Y70.405
X43.929Y70.4
X44.02Y70.394
X44.112Y70.385
X44.203Y70.374
X44.294Y70.361
X44.385Y70.345
X44.475Y70.328
X44.565Y70.308
X44.655Y70.285
X44.743Y70.261
X44.831Y70.235
X44.919Y70.206
X45.006Y70.175
X45.092Y70.142
X45.177Y70.107
X45.261Y70.07
X45.344Y70.031
X45.427Y69.99
X45.508Y69.947
X45.588Y69.902
X45.667Y69.854
X45.745Y69.805
X45.822Y69.755
X45.897Y69.702
X45.971Y69.647
X46.044Y69.591
X46.115Y69.532
X46.136Y69.515
X45.812Y69.134
X45.913Y69.045
X45.971Y68.99
X46.027Y68.933
X46.082Y68.876
X46.136Y68.817
X46.188Y68.757
X46.239Y68.695
X46.289Y68.632
X46.336Y68.569
X46.382Y68.503
X46.427Y68.437
X46.47Y68.37
X46.511Y68.302
X46.55Y68.232
X46.588Y68.162
X46.624Y68.091
X46.659Y68.019
X46.691Y67.946
X46.722Y67.873
X46.751Y67.798
X46.778Y67.723
X46.803Y67.648
X46.827Y67.571
X46.848Y67.495
X46.868Y67.417
X46.885Y67.34
X46.901Y67.261
X46.915Y67.183
X46.927Y67.104
X46.937Y67.025
X46.945Y66.945
X46.951Y66.866
X46.955Y66.786
X46.957Y66.707
X46.958Y66.657
X46.958Y63.007
X48.46Y63.008
X48.46Y66.688
X48.462Y66.767
X48.465Y66.847
X48.471Y66.927
X48.479Y67.006
X48.488Y67.085
X48.5Y67.164
X48.513Y67.243
X48.528Y67.321
X48.546Y67.399
X48.565Y67.476
X48.586Y67.553
X48.609Y67.63
X48.634Y67.705
X48.66Y67.781
X48.689Y67.855
X48.719Y67.929
X48.751Y68.002
X48.785Y68.074
X48.821Y68.145
X48.858Y68.216
X48.897Y68.285
X48.938Y68.354
X48.981Y68.421
X49.025Y68.488
X49.07Y68.553
X49.118Y68.617
X49.167Y68.68
X49.217Y68.742
X49.269Y68.803
X49.322Y68.862
X49.377Y68.92
X49.433Y68.977
X49.491Y69.032
X49.55Y69.085
X49.61Y69.138
X49.672Y69.188
X49.734Y69.238
X49.798Y69.285
X49.863Y69.332
X49.93Y69.376
X49.997Y69.419
X50.065Y69.46
X50.134Y69.5
X50.205Y69.537
X50.276Y69.573
X50.348Y69.608
X50.421Y69.64
X50.494Y69.671
X50.569Y69.7
X50.644Y69.727
X50.719Y69.752
X50.795Y69.776
X50.872Y69.797
X50.95Y69.817
X51.027Y69.835
X51.106Y69.85
X51.184Y69.864
X51.263Y69.876
X51.342Y69.886
X51.421Y69.894
X51.501Y69.9
X51.581Y69.904
X51.66Y69.907
X51.709Y69.907
X55.359Y69.908
X55.359Y71.409
X51.679Y71.409
X51.599Y71.411
X51.52Y71.415
X51.44Y71.42
X51.361Y71.428
X51.282Y71.437
X51.203Y71.449
X51.124Y71.462
X51.046Y71.478
X50.968Y71.495
X50.891Y71.514
X50.814Y71.535
X50.737Y71.558
X50.661Y71.583
X50.586Y71.609
X50.512Y71.638
X50.438Y71.668
X50.365Y71.7
X50.293Y71.734
X50.221Y71.77
X50.151Y71.807
X50.081Y71.846
X50.013Y71.887
X49.945Y71.93
X49.879Y71.974
X49.814Y72.02
X49.749Y72.067
X49.686Y72.116
X49.625Y72.166
X49.564Y72.218
X49.505Y72.272
X49.447Y72.326
X49.39Y72.383
X49.335Y72.44
X49.281Y72.499
X49.229Y72.559
X49.178Y72.621
X49.129Y72.684
X49.081Y72.748
X49.035Y72.813
X48.991Y72.879
X48.948Y72.946
X48.907Y73.014
X48.867Y73.084
X48.829Y73.154
X48.793Y73.225
X48.759Y73.297
X48.727Y73.37
X48.696Y73.443
X48.667Y73.518
X48.64Y73.593
X48.615Y73.668
X48.591Y73.745
X48.57Y73.821
X48.55Y73.899
X48.532Y73.977
X48.517Y74.055
X48.503Y74.133
X48.491Y74.212
X48.481Y74.291
X48.473Y74.371
X48.467Y74.45
X48.462Y74.53
X48.46Y74.609
X48.46Y74.659
X48.459Y78.309
X46.958Y78.308
X46.958Y74.628
X46.956Y74.549
X46.952Y74.469
X46.947Y74.389
X46.939Y74.31
X46.929Y74.231
X46.918Y74.152
X46.905Y74.073
X46.889Y73.995
X46.872Y73.917
X46.853Y73.84
X46.832Y73.763
X46.809Y73.686
X46.784Y73.611
X46.757Y73.535
X46.729Y73.461
X46.699Y73.387
X46.666Y73.314
X46.633Y73.242
X46.597Y73.171
X46.56Y73.1
X46.52Y73.031
X46.48Y72.962
X46.437Y72.895
X46.393Y72.828
X46.347Y72.763
X46.3Y72.699
X46.251Y72.636
X46.201Y72.574
X46.149Y72.513
X46.095Y72.454
X46.041Y72.396
X45.984Y72.34
X45.927Y72.284
X45.868Y72.231
X45.807Y72.178
X45.746Y72.128
X45.683Y72.078
X45.619Y72.031
X45.554Y71.985
X45.488Y71.94
X45.421Y71.897
X45.353Y71.856
X45.283Y71.816
X45.213Y71.779
X45.142Y71.743
X45.07Y71.708
X44.997Y71.676
X44.923Y71.645
X44.849Y71.616
X44.774Y71.589
X44.698Y71.564
X44.622Y71.54
X44.545Y71.519
X44.468Y71.499
X44.39Y71.482
X44.312Y71.466
X44.234Y71.452
X44.155Y71.44
X44.076Y71.43
X43.996Y71.422
X43.917Y71.416
X43.837Y71.412
X43.757Y71.409
X43.708Y71.409
X40.058Y71.408
X40.058Y69.907
X43.739Y69.907
X43.818Y69.905
X43.898Y69.901
X43.977Y69.896
X44.057Y69.888
X44.136Y69.879
X44.215Y69.867
X44.294Y69.854
X44.372Y69.838
X44.45Y69.821
X44.527Y69.802
X44.604Y69.781
X44.68Y69.758
X44.756Y69.733
X44.831Y69.707
X44.906Y69.678
X44.98Y69.648
X45.053Y69.616
X45.125Y69.582
X45.196Y69.546
X45.267Y69.509
X45.336Y69.47
X45.405Y69.429
X45.472Y69.386
X45.539Y69.342
X45.604Y69.296
X45.668Y69.249
X45.731Y69.2
X45.793Y69.15
X45.812Y69.134
X45.489Y68.752
X45.573Y68.678
X45.622Y68.632
X45.669Y68.584
X45.716Y68.536
X45.762Y68.486
X45.806Y68.435
X45.849Y68.383
X45.891Y68.33
X45.931Y68.276
X45.97Y68.221
X46.008Y68.165
X46.044Y68.108
X46.079Y68.05
X46.112Y67.991
X46.144Y67.932
X46.175Y67.872
X46.204Y67.811
X46.232Y67.749
X46.258Y67.687
X46.282Y67.624
X46.305Y67.561
X46.326Y67.497
X46.346Y67.432
X46.365Y67.367
X46.381Y67.302
X46.396Y67.236
X46.41Y67.17
X46.421Y67.103
X46.431Y67.037
X46.44Y66.97
X46.447Y66.903
X46.452Y66.835
X46.456Y66.768
X46.457Y66.7
X46.458Y66.657
X46.458Y62.507
X48.96Y62.508
X48.96Y66.682
X48.961Y66.749
X48.964Y66.816
X48.969Y66.884
X48.976Y66.951
X48.984Y67.018
X48.993Y67.085
X49.005Y67.151
X49.018Y67.218
X49.032Y67.283
X49.048Y67.349
X49.066Y67.414
X49.085Y67.479
X49.106Y67.543
X49.129Y67.606
X49.153Y67.669
X49.179Y67.732
X49.206Y67.794
X49.234Y67.855
X49.265Y67.915
X49.296Y67.975
X49.329Y68.034
X49.364Y68.092
X49.4Y68.149
X49.437Y68.205
X49.476Y68.26
X49.516Y68.315
X49.557Y68.368
X49.6Y68.42
X49.644Y68.472
X49.689Y68.522
X49.735Y68.571
X49.783Y68.619
X49.831Y68.665
X49.881Y68.711
X49.932Y68.755
X49.984Y68.798
X50.037Y68.84
X50.091Y68.88
X50.146Y68.919
X50.202Y68.957
X50.259Y68.993
X50.317Y69.028
X50.376Y69.062
X50.435Y69.094
X50.495Y69.124
X50.556Y69.153
X50.618Y69.181
X50.68Y69.207
X50.743Y69.231
X50.806Y69.254
X50.87Y69.276
X50.935Y69.295
X51Y69.314
X51.065Y69.33
X51.131Y69.345
X51.197Y69.359
X51.264Y69.371
X51.33Y69.381
X51.397Y69.389
X51.464Y69.396
X51.532Y69.401
X51.599Y69.405
X51.666Y69.407
X51.709Y69.407
X55.859Y69.408
X55.859Y71.909
X51.685Y71.909
X51.618Y71.911
X51.55Y71.914
X51.483Y71.918
X51.416Y71.925
X51.349Y71.933
X51.282Y71.943
X51.216Y71.954
X51.149Y71.967
X51.083Y71.981
X51.018Y71.998
X50.953Y72.015
X50.888Y72.035
X50.824Y72.056
X50.76Y72.078
X50.697Y72.102
X50.635Y72.128
X50.573Y72.155
X50.512Y72.184
X50.452Y72.214
X50.392Y72.245
X50.333Y72.278
X50.275Y72.313
X50.218Y72.349
X50.162Y72.386
X50.107Y72.425
X50.052Y72.465
X49.999Y72.506
X49.947Y72.549
X49.895Y72.593
X49.845Y72.638
X49.796Y72.684
X49.748Y72.732
X49.701Y72.781
X49.656Y72.83
X49.612Y72.881
X49.569Y72.933
X49.527Y72.986
X49.487Y73.04
X49.448Y73.096
X49.41Y73.151
X49.374Y73.208
X49.339Y73.266
X49.305Y73.325
X49.273Y73.384
X49.243Y73.444
X49.214Y73.505
X49.186Y73.567
X49.16Y73.629
X49.136Y73.692
X49.113Y73.755
X49.091Y73.819
X49.071Y73.884
X49.053Y73.949
X49.037Y74.014
X49.021Y74.08
X49.008Y74.146
X48.996Y74.213
X48.986Y74.279
X48.978Y74.346
X48.971Y74.414
X48.966Y74.481
X48.962Y74.548
X48.96Y74.616
X48.96Y74.659
X48.959Y78.809
X46.458Y78.808
X46.458Y74.634
X46.456Y74.567
X46.453Y74.5
X46.448Y74.432
X46.442Y74.365
X46.434Y74.298
X46.424Y74.231
X46.413Y74.165
X46.4Y74.099
X46.385Y74.033
X46.369Y73.967
X46.352Y73.902
X46.332Y73.837
X46.311Y73.773
X46.289Y73.71
X46.265Y73.647
X46.239Y73.584
X46.212Y73.522
X46.183Y73.461
X46.153Y73.401
X46.121Y73.341
X46.088Y73.282
X46.054Y73.224
X46.018Y73.167
X45.981Y73.111
X45.942Y73.056
X45.902Y73.001
X45.861Y72.948
X45.818Y72.896
X45.774Y72.844
X45.729Y72.794
X45.683Y72.745
X45.635Y72.697
X45.586Y72.651
X45.536Y72.605
X45.486Y72.561
X45.434Y72.518
X45.38Y72.476
X45.326Y72.436
X45.271Y72.397
X45.215Y72.359
X45.158Y72.323
X45.101Y72.288
X45.042Y72.254
X44.983Y72.222
X44.923Y72.192
X44.862Y72.163
X44.8Y72.135
X44.738Y72.109
X44.675Y72.085
X44.611Y72.062
X44.547Y72.04
X44.483Y72.021
X44.418Y72.002
X44.353Y71.986
X44.287Y71.971
X44.221Y71.957
X44.154Y71.946
X44.087Y71.935
X44.02Y71.927
X43.953Y71.92
X43.886Y71.915
X43.819Y71.911
X43.751Y71.909
X43.708Y71.909
X39.558Y71.908
X39.558Y69.407
X43.732Y69.407
X43.8Y69.405
X43.867Y69.402
X43.935Y69.398
X44.002Y69.391
X44.069Y69.383
X44.136Y69.374
X44.202Y69.362
X44.268Y69.349
X44.334Y69.335
X44.4Y69.319
X44.465Y69.301
X44.529Y69.281
X44.594Y69.26
X44.657Y69.238
X44.72Y69.214
X44.783Y69.188
X44.845Y69.161
X44.906Y69.132
X44.966Y69.102
X45.026Y69.071
X45.084Y69.038
X45.142Y69.003
X45.2Y68.967
X45.256Y68.93
X45.311Y68.891
X45.365Y68.851
X45.419Y68.81
X45.471Y68.767
X45.489Y68.752
X45.166Y68.371
X45.232Y68.312
X45.272Y68.274
X45.312Y68.235
X45.35Y68.195
X45.387Y68.154
X45.423Y68.113
X45.459Y68.07
X45.493Y68.027
X45.526Y67.983
X45.558Y67.938
X45.589Y67.892
X45.618Y67.845
X45.647Y67.798
X45.674Y67.75
X45.701Y67.702
X45.726Y67.652
X45.749Y67.603
X45.772Y67.552
X45.793Y67.501
X45.813Y67.45
X45.832Y67.398
X45.85Y67.346
X45.866Y67.293
X45.881Y67.24
X45.895Y67.186
X45.907Y67.132
X45.918Y67.078
X45.928Y67.024
X45.936Y66.969
X45.943Y66.914
X45.949Y66.86
X45.953Y66.804
X45.956Y66.749
X45.957Y66.694
X45.958Y66.657
X45.959Y62.007
X49.46Y62.008
X49.46Y66.675
X49.461Y66.731
X49.464Y66.786
X49.467Y66.841
X49.473Y66.896
X49.479Y66.951
X49.487Y67.005
X49.496Y67.06
X49.507Y67.114
X49.519Y67.168
X49.532Y67.221
X49.546Y67.275
X49.562Y67.328
X49.579Y67.38
X49.598Y67.432
X49.617Y67.484
X49.638Y67.535
X49.66Y67.586
X49.684Y67.636
X49.708Y67.685
X49.734Y67.734
X49.761Y67.782
X49.789Y67.829
X49.819Y67.876
X49.849Y67.922
X49.881Y67.967
X49.914Y68.012
X49.947Y68.056
X49.982Y68.098
X50.018Y68.14
X50.055Y68.181
X50.093Y68.222
X50.132Y68.261
X50.172Y68.299
X50.212Y68.336
X50.254Y68.373
X50.297Y68.408
X50.34Y68.442
X50.384Y68.475
X50.429Y68.507
X50.475Y68.538
X50.522Y68.568
X50.569Y68.596
X50.617Y68.624
X50.665Y68.65
X50.714Y68.675
X50.764Y68.699
X50.815Y68.721
X50.866Y68.743
X50.917Y68.763
X50.969Y68.782
X51.021Y68.799
X51.074Y68.815
X51.127Y68.83
X51.181Y68.844
X51.235Y68.856
X51.289Y68.867
X51.343Y68.877
X51.398Y68.885
X51.452Y68.892
X51.507Y68.898
X51.562Y68.902
X51.617Y68.905
X51.673Y68.907
X51.71Y68.907
X56.36Y68.908
X56.359Y72.409
X51.691Y72.409
X51.636Y72.41
X51.581Y72.413
X51.526Y72.417
X51.471Y72.422
X51.416Y72.428
X51.362Y72.436
X51.307Y72.445
X51.253Y72.456
X51.199Y72.468
X51.145Y72.481
X51.092Y72.496
X51.039Y72.511
X50.987Y72.528
X50.935Y72.547
X50.883Y72.566
X50.832Y72.587
X50.781Y72.61
X50.731Y72.633
X50.682Y72.658
X50.633Y72.683
X50.585Y72.71
X50.537Y72.739
X50.491Y72.768
X50.445Y72.798
X50.399Y72.83
X50.355Y72.863
X50.311Y72.897
X50.268Y72.931
X50.226Y72.967
X50.185Y73.004
X50.145Y73.042
X50.106Y73.081
X50.068Y73.121
X50.031Y73.162
X49.994Y73.203
X49.959Y73.246
X49.925Y73.289
X49.892Y73.333
X49.86Y73.378
X49.829Y73.424
X49.799Y73.471
X49.771Y73.518
X49.743Y73.566
X49.717Y73.614
X49.692Y73.664
X49.668Y73.713
X49.646Y73.764
X49.624Y73.815
X49.604Y73.866
X49.585Y73.918
X49.568Y73.971
X49.552Y74.023
X49.537Y74.076
X49.523Y74.13
X49.511Y74.184
X49.5Y74.238
X49.49Y74.292
X49.482Y74.347
X49.475Y74.402
X49.469Y74.457
X49.465Y74.512
X49.462Y74.567
X49.46Y74.622
X49.46Y74.659
X49.459Y79.309
X45.958Y79.308
X45.958Y74.641
X45.957Y74.585
X45.954Y74.53
X45.95Y74.475
X45.945Y74.42
X45.939Y74.365
X45.931Y74.311
X45.921Y74.256
X45.911Y74.202
X45.899Y74.148
X45.886Y74.095
X45.871Y74.041
X45.856Y73.988
X45.838Y73.936
X45.82Y73.884
X45.8Y73.832
X45.779Y73.781
X45.757Y73.731
X45.734Y73.681
X45.709Y73.631
X45.683Y73.582
X45.656Y73.534
X45.628Y73.487
X45.599Y73.44
X45.568Y73.394
X45.537Y73.349
X45.504Y73.304
X45.47Y73.26
X45.435Y73.218
X45.4Y73.176
X45.363Y73.135
X45.325Y73.094
X45.286Y73.055
X45.246Y73.017
X45.205Y72.98
X45.164Y72.943
X45.121Y72.908
X45.078Y72.874
X45.033Y72.841
X44.988Y72.809
X44.943Y72.778
X44.896Y72.748
X44.849Y72.72
X44.801Y72.692
X44.752Y72.666
X44.703Y72.641
X44.653Y72.617
X44.603Y72.595
X44.552Y72.573
X44.501Y72.553
X44.449Y72.535
X44.396Y72.517
X44.344Y72.501
X44.29Y72.486
X44.237Y72.472
X44.183Y72.46
X44.129Y72.449
X44.075Y72.439
X44.02Y72.431
X43.965Y72.424
X43.91Y72.418
X43.855Y72.414
X43.8Y72.411
X43.745Y72.409
X43.708Y72.409
X39.058Y72.408
X39.058Y68.907
X43.726Y68.907
X43.781Y68.906
X43.837Y68.903
X43.892Y68.899
X43.947Y68.894
X44.001Y68.888
X44.056Y68.88
X44.111Y68.871
X44.165Y68.86
X44.219Y68.848
X44.272Y68.835
X44.326Y68.821
X44.378Y68.805
X44.431Y68.788
X44.483Y68.769
X44.535Y68.75
X44.586Y68.729
X44.636Y68.706
X44.686Y68.683
X44.736Y68.658
X44.785Y68.633
X44.833Y68.606
X44.88Y68.577
X44.927Y68.548
X44.973Y68.518
X45.018Y68.486
X45.063Y68.453
X45.106Y68.419
X45.149Y68.385
X45.166Y68.371
X44.841Y67.99
X44.892Y67.945
X44.923Y67.916
X44.954Y67.886
X44.984Y67.855
X45.013Y67.823
X45.041Y67.791
X45.068Y67.758
X45.095Y67.724
X45.121Y67.69
X45.146Y67.655
X45.17Y67.619
X45.193Y67.583
X45.215Y67.546
X45.236Y67.509
X45.257Y67.471
X45.276Y67.433
X45.295Y67.394
X45.313Y67.355
X45.329Y67.316
X45.345Y67.276
X45.36Y67.235
X45.373Y67.194
X45.386Y67.153
X45.398Y67.112
X45.408Y67.071
X45.418Y67.029
X45.426Y66.987
X45.434Y66.944
X45.441Y66.902
X45.446Y66.859
X45.451Y66.817
X45.454Y66.774
X45.456Y66.731
X45.458Y66.688
X45.458Y66.657
X45.459Y61.507
X49.96Y61.508
X49.96Y66.669
X49.961Y66.712
X49.963Y66.755
X49.966Y66.798
X49.97Y66.841
X49.975Y66.883
X49.981Y66.926
X49.988Y66.968
X49.996Y67.01
X50.005Y67.052
X50.015Y67.094
X50.027Y67.136
X50.039Y67.177
X50.052Y67.218
X50.066Y67.258
X50.082Y67.298
X50.098Y67.338
X50.115Y67.377
X50.133Y67.416
X50.152Y67.455
X50.172Y67.493
X50.193Y67.53
X50.215Y67.567
X50.238Y67.604
X50.262Y67.639
X50.286Y67.675
X50.312Y67.709
X50.338Y67.743
X50.365Y67.777
X50.393Y67.809
X50.421Y67.841
X50.451Y67.872
X50.481Y67.903
X50.512Y67.933
X50.544Y67.962
X50.576Y67.99
X50.609Y68.017
X50.643Y68.044
X50.677Y68.07
X50.712Y68.095
X50.748Y68.119
X50.784Y68.142
X50.821Y68.164
X50.858Y68.186
X50.896Y68.206
X50.934Y68.226
X50.973Y68.244
X51.012Y68.262
X51.051Y68.278
X51.091Y68.294
X51.132Y68.309
X51.172Y68.322
X51.213Y68.335
X51.255Y68.347
X51.296Y68.357
X51.338Y68.367
X51.38Y68.376
X51.423Y68.383
X51.465Y68.39
X51.508Y68.395
X51.55Y68.4
X51.593Y68.403
X51.636Y68.405
X51.679Y68.407
X51.71Y68.407
X56.86Y68.408
X56.859Y72.909
X51.698Y72.909
X51.655Y72.91
X51.612Y72.912
X51.569Y72.915
X51.526Y72.919
X51.483Y72.924
X51.441Y72.93
X51.399Y72.937
X51.356Y72.945
X51.314Y72.954
X51.273Y72.965
X51.231Y72.976
X51.19Y72.988
X51.149Y73.001
X51.109Y73.016
X51.069Y73.031
X51.029Y73.047
X50.99Y73.064
X50.951Y73.082
X50.912Y73.101
X50.874Y73.121
X50.837Y73.142
X50.8Y73.164
X50.763Y73.187
X50.727Y73.211
X50.692Y73.235
X50.658Y73.261
X50.624Y73.287
X50.59Y73.314
X50.558Y73.342
X50.526Y73.371
X50.494Y73.4
X50.464Y73.43
X50.434Y73.461
X50.405Y73.493
X50.377Y73.525
X50.349Y73.558
X50.323Y73.592
X50.297Y73.626
X50.272Y73.661
X50.248Y73.697
X50.225Y73.733
X50.203Y73.77
X50.181Y73.807
X50.161Y73.845
X50.141Y73.883
X50.123Y73.922
X50.105Y73.961
X50.088Y74.001
X50.073Y74.041
X50.058Y74.081
X50.044Y74.122
X50.032Y74.163
X50.02Y74.204
X50.009Y74.246
X50Y74.287
X49.991Y74.329
X49.984Y74.372
X49.977Y74.414
X49.972Y74.457
X49.967Y74.499
X49.964Y74.542
X49.961Y74.585
X49.96Y74.628
X49.96Y74.659
X49.959Y79.809
X45.458Y79.808
X45.458Y74.647
X45.457Y74.604
X45.455Y74.561
X45.452Y74.518
X45.448Y74.475
X45.443Y74.433
X45.437Y74.39
X45.43Y74.348
X45.422Y74.306
X45.413Y74.264
X45.402Y74.222
X45.391Y74.181
X45.379Y74.139
X45.366Y74.098
X45.351Y74.058
X45.336Y74.018
X45.32Y73.978
X45.303Y73.939
X45.285Y73.9
X45.265Y73.861
X45.245Y73.823
X45.224Y73.786
X45.203Y73.749
X45.18Y73.713
X45.156Y73.677
X45.132Y73.641
X45.106Y73.607
X45.08Y73.573
X45.053Y73.539
X45.025Y73.507
X44.996Y73.475
X44.967Y73.444
X44.937Y73.413
X44.906Y73.383
X44.874Y73.354
X44.842Y73.326
X44.809Y73.299
X44.775Y73.272
X44.741Y73.246
X44.706Y73.221
X44.67Y73.197
X44.634Y73.174
X44.597Y73.152
X44.56Y73.13
X44.522Y73.11
X44.484Y73.091
X44.445Y73.072
X44.406Y73.054
X44.366Y73.038
X44.326Y73.022
X44.286Y73.007
X44.245Y72.994
X44.204Y72.981
X44.163Y72.969
X44.121Y72.959
X44.079Y72.949
X44.037Y72.94
X43.995Y72.933
X43.953Y72.926
X43.91Y72.921
X43.867Y72.916
X43.825Y72.913
X43.782Y72.911
X43.739Y72.909
X43.708Y72.909
X38.558Y72.908
X38.559Y68.407
X43.72Y68.407
X43.763Y68.406
X43.806Y68.404
X43.849Y68.401
X43.892Y68.397
X43.934Y68.392
X43.977Y68.386
X44.019Y68.379
X44.061Y68.371
X44.103Y68.362
X44.145Y68.352
X44.186Y68.34
X44.227Y68.328
X44.268Y68.315
X44.309Y68.301
X44.349Y68.285
X44.389Y68.269
X44.428Y68.252
X44.467Y68.234
X44.506Y68.215
X44.543Y68.195
X44.581Y68.174
X44.618Y68.152
X44.654Y68.129
X44.69Y68.105
X44.725Y68.081
X44.76Y68.055
X44.794Y68.029
X44.827Y68.002
X44.841Y67.99
X44.52Y67.608
X44.552Y67.579
X44.574Y67.558
X44.596Y67.537
X44.617Y67.515
X44.638Y67.492
X44.658Y67.469
X44.678Y67.445
X44.697Y67.421
X44.715Y67.397
X44.733Y67.372
X44.75Y67.346
X44.767Y67.321
X44.783Y67.294
X44.798Y67.268
X44.813Y67.241
X44.827Y67.214
X44.84Y67.186
X44.853Y67.158
X44.865Y67.13
X44.876Y67.101
X44.887Y67.072
X44.897Y67.043
X44.906Y67.014
X44.914Y66.985
X44.922Y66.955
X44.929Y66.925
X44.935Y66.895
X44.94Y66.865
X44.945Y66.835
X44.949Y66.804
X44.952Y66.774
X44.955Y66.743
X44.957Y66.712
X44.958Y66.682
X44.958Y66.657
X44.959Y61.007
X50.46Y61.008
X50.46Y66.663
X50.46Y66.694
X50.462Y66.724
X50.464Y66.755
X50.466Y66.786
X50.47Y66.816
X50.474Y66.846
X50.479Y66.877
X50.485Y66.907
X50.492Y66.937
X50.499Y66.967
X50.507Y66.996
X50.515Y67.026
X50.525Y67.055
X50.535Y67.084
X50.546Y67.113
X50.557Y67.141
X50.57Y67.169
X50.582Y67.197
X50.596Y67.224
X50.61Y67.252
X50.625Y67.278
X50.641Y67.305
X50.657Y67.331
X50.674Y67.357
X50.691Y67.382
X50.709Y67.406
X50.728Y67.431
X50.747Y67.455
X50.767Y67.478
X50.788Y67.501
X50.809Y67.523
X50.83Y67.545
X50.852Y67.566
X50.875Y67.587
X50.898Y67.607
X50.922Y67.627
X50.946Y67.646
X50.97Y67.665
X50.995Y67.682
X51.02Y67.7
X51.046Y67.716
X51.072Y67.732
X51.099Y67.748
X51.126Y67.762
X51.153Y67.776
X51.181Y67.79
X51.209Y67.802
X51.237Y67.814
X51.266Y67.825
X51.294Y67.836
X51.323Y67.846
X51.353Y67.855
X51.382Y67.863
X51.412Y67.871
X51.442Y67.878
X51.472Y67.884
X51.502Y67.89
X51.532Y67.894
X51.563Y67.898
X51.593Y67.902
X51.624Y67.904
X51.654Y67.906
X51.685Y67.907
X51.71Y67.907
X57.36Y67.908
X57.359Y73.409
X51.704Y73.409
X51.673Y73.41
X51.642Y73.411
X51.612Y73.413
X51.581Y73.416
X51.551Y73.419
X51.52Y73.423
X51.49Y73.429
X51.46Y73.434
X51.43Y73.441
X51.4Y73.448
X51.371Y73.456
X51.341Y73.465
X51.312Y73.474
X51.283Y73.484
X51.254Y73.495
X51.226Y73.507
X51.198Y73.519
X51.17Y73.532
X51.142Y73.545
X51.115Y73.56
X51.088Y73.574
X51.062Y73.59
X51.036Y73.606
X51.01Y73.623
X50.985Y73.641
X50.96Y73.659
X50.936Y73.677
X50.912Y73.697
X50.889Y73.716
X50.866Y73.737
X50.844Y73.758
X50.822Y73.779
X50.8Y73.801
X50.78Y73.824
X50.759Y73.847
X50.74Y73.871
X50.721Y73.895
X50.702Y73.919
X50.684Y73.944
X50.667Y73.97
X50.651Y73.995
X50.635Y74.022
X50.619Y74.048
X50.605Y74.075
X50.591Y74.102
X50.577Y74.13
X50.565Y74.158
X50.553Y74.186
X50.541Y74.215
X50.531Y74.244
X50.521Y74.273
X50.512Y74.302
X50.504Y74.331
X50.496Y74.361
X50.489Y74.391
X50.483Y74.421
X50.477Y74.451
X50.473Y74.482
X50.469Y74.512
X50.465Y74.542
X50.463Y74.573
X50.461Y74.604
X50.46Y74.634
X50.46Y74.659
X50.459Y80.309
X44.958Y80.308
X44.958Y74.653
X44.957Y74.622
X44.956Y74.592
X44.954Y74.561
X44.951Y74.53
X44.948Y74.5
X44.943Y74.47
X44.938Y74.439
X44.933Y74.409
X44.926Y74.379
X44.919Y74.349
X44.911Y74.32
X44.902Y74.29
X44.893Y74.261
X44.883Y74.232
X44.872Y74.203
X44.86Y74.175
X44.848Y74.147
X44.835Y74.119
X44.822Y74.092
X44.807Y74.064
X44.792Y74.038
X44.777Y74.011
X44.761Y73.985
X44.744Y73.96
X44.726Y73.934
X44.708Y73.91
X44.69Y73.885
X44.67Y73.861
X44.65Y73.838
X44.63Y73.815
X44.609Y73.793
X44.587Y73.771
X44.565Y73.75
X44.543Y73.729
X44.52Y73.709
X44.496Y73.689
X44.472Y73.67
X44.448Y73.651
X44.423Y73.634
X44.397Y73.616
X44.371Y73.6
X44.345Y73.584
X44.319Y73.568
X44.292Y73.554
X44.264Y73.54
X44.237Y73.527
X44.209Y73.514
X44.181Y73.502
X44.152Y73.491
X44.123Y73.48
X44.094Y73.47
X44.065Y73.461
X44.035Y73.453
X44.006Y73.445
X43.976Y73.438
X43.946Y73.432
X43.916Y73.426
X43.885Y73.422
X43.855Y73.418
X43.824Y73.414
X43.794Y73.412
X43.763Y73.41
X43.733Y73.409
X43.708Y73.409
X38.058Y73.408
X38.059Y67.907
X43.714Y67.907
X43.745Y67.906
X43.775Y67.905
X43.806Y67.903
X43.836Y67.9
X43.867Y67.897
X43.897Y67.893
X43.928Y67.888
X43.958Y67.882
X43.988Y67.875
X44.017Y67.868
X44.047Y67.86
X44.077Y67.851
X44.106Y67.842
X44.135Y67.832
X44.163Y67.821
X44.192Y67.81
X44.22Y67.797
X44.248Y67.784
X44.275Y67.771
X44.302Y67.757
X44.329Y67.742
X44.356Y67.726
X44.382Y67.71
X44.407Y67.693
X44.433Y67.675
X44.457Y67.657
X44.482Y67.639
X44.505Y67.619
X44.52Y67.608
X44.198Y67.225
X44.211Y67.213
X44.225Y67.2
X44.238Y67.187
X44.251Y67.174
X44.264Y67.161
X44.276Y67.147
X44.288Y67.133
X44.299Y67.118
X44.31Y67.104
X44.321Y67.089
X44.331Y67.074
X44.341Y67.058
X44.351Y67.043
X44.36Y67.027
X44.369Y67.011
X44.378Y66.994
X44.386Y66.978
X44.393Y66.961
X44.401Y66.944
X44.408Y66.927
X44.414Y66.91
X44.42Y66.892
X44.426Y66.875
X44.431Y66.857
X44.435Y66.839
X44.44Y66.821
X44.443Y66.803
X44.447Y66.785
X44.45Y66.767
X44.452Y66.749
X44.454Y66.731
X44.456Y66.712
X44.457Y66.694
X44.458Y66.676
X44.458Y66.657
X44.459Y60.507
X50.96Y60.508
Y66.657
X50.96Y66.675
X50.961Y66.694
X50.962Y66.712
X50.963Y66.731
X50.965Y66.749
X50.968Y66.767
X50.971Y66.785
X50.974Y66.803
X50.978Y66.821
X50.982Y66.839
X50.987Y66.857
X50.992Y66.875
X50.998Y66.892
X51.004Y66.91
X51.01Y66.927
X51.017Y66.944
X51.024Y66.961
X51.032Y66.978
X51.04Y66.994
X51.048Y67.011
X51.057Y67.027
X51.067Y67.043
X51.076Y67.058
X51.086Y67.074
X51.097Y67.089
X51.107Y67.104
X51.119Y67.118
X51.13Y67.133
X51.142Y67.147
X51.154Y67.161
X51.167Y67.174
X51.179Y67.187
X51.193Y67.2
X51.206Y67.213
X51.22Y67.225
X51.234Y67.237
X51.248Y67.248
X51.263Y67.259
X51.278Y67.27
X51.293Y67.281
X51.309Y67.291
X51.324Y67.3
X51.34Y67.31
X51.356Y67.318
X51.373Y67.327
X51.389Y67.335
X51.406Y67.343
X51.423Y67.35
X51.44Y67.357
X51.457Y67.363
X51.474Y67.369
X51.492Y67.375
X51.51Y67.38
X51.528Y67.385
X51.545Y67.389
X51.563Y67.393
X51.582Y67.396
X51.6Y67.399
X51.618Y67.401
X51.636Y67.403
X51.655Y67.405
X51.673Y67.406
X51.691Y67.407
X51.71Y67.407
X57.86Y67.408
X57.859Y73.909
X51.71
X51.691Y73.909
X51.673Y73.91
X51.655Y73.911
X51.636Y73.913
X51.618Y73.915
X51.6Y73.917
X51.582Y73.92
X51.564Y73.923
X51.546Y73.927
X51.528Y73.931
X51.51Y73.936
X51.492Y73.941
X51.475Y73.947
X51.457Y73.953
X51.44Y73.959
X51.423Y73.966
X51.406Y73.973
X51.389Y73.981
X51.373Y73.989
X51.356Y73.998
X51.34Y74.006
X51.324Y74.016
X51.309Y74.025
X51.293Y74.035
X51.278Y74.046
X51.263Y74.057
X51.248Y74.068
X51.234Y74.079
X51.22Y74.091
X51.206Y74.103
X51.193Y74.116
X51.18Y74.129
X51.167Y74.142
X51.154Y74.155
X51.142Y74.169
X51.13Y74.183
X51.119Y74.198
X51.107Y74.212
X51.097Y74.227
X51.086Y74.242
X51.076Y74.258
X51.067Y74.273
X51.057Y74.289
X51.048Y74.305
X51.04Y74.322
X51.032Y74.338
X51.024Y74.355
X51.017Y74.372
X51.01Y74.389
X51.004Y74.406
X50.998Y74.424
X50.992Y74.441
X50.987Y74.459
X50.982Y74.477
X50.978Y74.495
X50.974Y74.513
X50.971Y74.531
X50.968Y74.549
X50.965Y74.567
X50.963Y74.585
X50.962Y74.604
X50.961Y74.622
X50.96Y74.641
X50.96Y74.659
X50.959Y80.809
X44.458Y80.808
Y74.659
X44.458Y74.641
X44.457Y74.622
X44.456Y74.604
X44.454Y74.586
X44.452Y74.567
X44.45Y74.549
X44.447Y74.531
X44.443Y74.513
X44.44Y74.495
X44.435Y74.477
X44.431Y74.459
X44.426Y74.441
X44.42Y74.424
X44.414Y74.406
X44.408Y74.389
X44.401Y74.372
X44.393Y74.355
X44.386Y74.338
X44.378Y74.322
X44.369Y74.306
X44.36Y74.289
X44.351Y74.273
X44.341Y74.258
X44.331Y74.242
X44.321Y74.227
X44.31Y74.212
X44.299Y74.198
X44.288Y74.183
X44.276Y74.169
X44.264Y74.155
X44.251Y74.142
X44.238Y74.129
X44.225Y74.116
X44.212Y74.103
X44.198Y74.091
X44.184Y74.079
X44.169Y74.068
X44.155Y74.057
X44.14Y74.046
X44.125Y74.035
X44.109Y74.025
X44.093Y74.016
X44.078Y74.006
X44.061Y73.998
X44.045Y73.989
X44.029Y73.981
X44.012Y73.973
X43.995Y73.966
X43.978Y73.959
X43.961Y73.953
X43.943Y73.947
X43.926Y73.941
X43.908Y73.936
X43.89Y73.932
X43.872Y73.927
X43.854Y73.923
X43.836Y73.92
X43.818Y73.917
X43.8Y73.915
X43.781Y73.913
X43.763Y73.911
X43.745Y73.91
X43.726Y73.909
X43.708Y73.909
X37.558Y73.908
X37.559Y67.407
X43.708
X43.726Y67.407
X43.745Y67.406
X43.763Y67.405
X43.781Y67.403
X43.8Y67.401
X43.818Y67.399
X43.836Y67.396
X43.854Y67.393
X43.872Y67.389
X43.89Y67.385
X43.908Y67.38
X43.926Y67.375
X43.943Y67.369
X43.96Y67.363
X43.978Y67.357
X43.995Y67.35
X44.012Y67.343
X44.028Y67.335
X44.045Y67.327
X44.061Y67.318
X44.077Y67.31
X44.093Y67.3
X44.109Y67.291
X44.124Y67.281
X44.14Y67.27
X44.155Y67.259
X44.169Y67.248
X44.184Y67.237
X44.198Y67.225
G0Z2
X45.739Y26.59
G1Z-2F100
X45.715Y26.588F200
X45.691Y26.581
X45.669Y26.569
X45.65Y26.554
X45.635Y26.535
X45.623Y26.513
X45.616Y26.489
X45.614Y26.465
X45.616Y26.44
X45.623Y26.417
X45.635Y26.395
X45.65Y26.376
X45.669Y26.36
X45.691Y26.349
X45.715Y26.342
X45.739Y26.339
X45.764Y26.342
X45.787Y26.349
X45.809Y26.36
X45.828Y26.376
X45.844Y26.395
X45.855Y26.417
X45.862Y26.44
X45.865Y26.465
X45.862Y26.489
X45.855Y26.513
X45.844Y26.535
X45.828Y26.554
X45.809Y26.569
X45.787Y26.581
X45.764Y26.588
X45.739Y26.59
X45.739Y27.093
X45.617Y27.081
X45.499Y27.045
X45.39Y26.987
X45.295Y26.909
X45.217Y26.814
X45.159Y26.705
X45.123Y26.587
X45.111Y26.465
X45.123Y26.342
X45.159Y26.224
X45.217Y26.116
X45.295Y26.021
X45.39Y25.943
X45.499Y25.885
X45.617Y25.849
X45.739Y25.837
X45.862Y25.849
X45.98Y25.885
X46.088Y25.943
X46.183Y26.021
X46.261Y26.116
X46.319Y26.224
X46.355Y26.342
X46.367Y26.465
X46.355Y26.587
X46.319Y26.705
X46.261Y26.814
X46.183Y26.909
X46.088Y26.987
X45.979Y27.045
X45.862Y27.081
X45.739Y27.093
X45.739Y27.595
X45.519Y27.573
X45.307Y27.509
X45.111Y27.405
X44.94Y27.264
X44.799Y27.093
X44.695Y26.897
X44.63Y26.685
X44.609Y26.465
X44.63Y26.244
X44.695Y26.032
X44.799Y25.837
X44.94Y25.665
X45.111Y25.525
X45.307Y25.42
X45.519Y25.356
X45.739Y25.334
X45.96Y25.356
X46.172Y25.42
X46.367Y25.525
X46.539Y25.665
X46.679Y25.837
X46.784Y26.032
X46.848Y26.244
X46.87Y26.465
X46.848Y26.685
X46.784Y26.897
X46.679Y27.093
X46.538Y27.264
X46.367Y27.405
X46.172Y27.509
X45.96Y27.573
X45.739Y27.595
X45.739Y28.098
X45.421Y28.066
X45.114Y27.973
X44.832Y27.822
X44.585Y27.619
X44.381Y27.372
X44.231Y27.09
X44.138Y26.783
X44.106Y26.465
X44.138Y26.146
X44.231Y25.84
X44.382Y25.558
X44.585Y25.31
X44.832Y25.107
X45.114Y24.956
X45.421Y24.863
X45.739Y24.832
X46.058Y24.863
X46.364Y24.956
X46.646Y25.107
X46.894Y25.31
X47.097Y25.558
X47.248Y25.84
X47.341Y26.146
X47.372Y26.465
X47.341Y26.783
X47.248Y27.09
X47.097Y27.372
X46.894Y27.619
X46.646Y27.822
X46.364Y27.973
X46.058Y28.066
X45.739Y28.098
X45.739Y28.6
X45.323Y28.559
X44.922Y28.437
X44.553Y28.24
X44.229Y27.975
X43.964Y27.651
X43.766Y27.282
X43.645Y26.881
X43.604Y26.465
X43.645Y26.048
X43.766Y25.648
X43.964Y25.278
X44.229Y24.955
X44.553Y24.689
X44.922Y24.492
X45.323Y24.371
X45.739Y24.33
X46.156Y24.371
X46.556Y24.492
X46.925Y24.689
X47.249Y24.955
X47.515Y25.279
X47.712Y25.648
X47.833Y26.048
X47.874Y26.465
X47.833Y26.881
X47.712Y27.282
X47.515Y27.651
X47.249Y27.975
X46.925Y28.24
X46.556Y28.438
X46.156Y28.559
X45.739Y28.6
X45.739Y29.102
X45.225Y29.052
X44.73Y28.902
X44.274Y28.658
X43.874Y28.33
X43.546Y27.93
X43.302Y27.474
X43.152Y26.979
X43.101Y26.465
X43.152Y25.95
X43.302Y25.455
X43.546Y24.999
X43.874Y24.6
X44.274Y24.272
X44.73Y24.028
X45.225Y23.878
X45.739Y23.827
X46.254Y23.878
X46.749Y24.028
X47.205Y24.272
X47.604Y24.6
X47.932Y24.999
X48.176Y25.455
X48.326Y25.95
X48.377Y26.465
X48.326Y26.979
X48.176Y27.474
X47.932Y27.93
X47.604Y28.33
X47.205Y28.658
X46.749Y28.902
X46.254Y29.052
X45.739Y29.102
X45.739Y29.605
X45.127Y29.545
X44.537Y29.366
X43.995Y29.076
X43.519Y28.685
X43.128Y28.209
X42.838Y27.666
X42.659Y27.077
X42.599Y26.465
X42.659Y25.852
X42.838Y25.263
X43.128Y24.72
X43.519Y24.244
X43.995Y23.854
X44.538Y23.564
X45.127Y23.385
X45.739Y23.325
X46.352Y23.385
X46.941Y23.564
X47.484Y23.854
X47.96Y24.244
X48.35Y24.72
X48.64Y25.263
X48.819Y25.852
X48.879Y26.465
X48.819Y27.077
X48.64Y27.666
X48.35Y28.209
X47.96Y28.685
X47.484Y29.076
X46.941Y29.366
X46.352Y29.545
X45.739Y29.605
X45.739Y30.107
X45.028Y30.037
X44.345Y29.83
X43.715Y29.493
X43.163Y29.04
X42.71Y28.488
X42.374Y27.859
X42.167Y27.175
X42.097Y26.465
X42.167Y25.754
X42.374Y25.071
X42.711Y24.441
X43.164Y23.889
X43.716Y23.436
X44.345Y23.099
X45.029Y22.892
X45.739Y22.822
X46.45Y22.892
X47.133Y23.1
X47.763Y23.436
X48.315Y23.889
X48.768Y24.441
X49.104Y25.071
X49.312Y25.754
X49.382Y26.465
X49.312Y27.175
X49.104Y27.859
X48.768Y28.489
X48.315Y29.04
X47.763Y29.493
X47.133Y29.83
X46.45Y30.037
X45.739Y30.107
X45.739Y30.61
X44.93Y30.53
X44.153Y30.294
X43.436Y29.911
X42.808Y29.396
X42.293Y28.768
X41.91Y28.051
X41.674Y27.273
X41.594Y26.465
X41.674Y25.656
X41.91Y24.879
X42.293Y24.162
X42.808Y23.534
X43.436Y23.018
X44.153Y22.635
X44.931Y22.399
X45.739Y22.32
X46.548Y22.399
X47.325Y22.635
X48.042Y23.018
X48.67Y23.534
X49.186Y24.162
X49.569Y24.879
X49.804Y25.656
X49.884Y26.465
X49.804Y27.273
X49.569Y28.051
X49.186Y28.768
X48.67Y29.396
X48.042Y29.911
X47.325Y30.294
X46.548Y30.53
X45.739Y30.61
X45.739Y31.112
X44.832Y31.023
X43.961Y30.758
X43.157Y30.329
X42.453Y29.751
X41.875Y29.047
X41.446Y28.243
X41.181Y27.371
X41.092Y26.465
X41.181Y25.558
X41.446Y24.686
X41.875Y23.883
X42.453Y23.179
X43.157Y22.601
X43.961Y22.171
X44.833Y21.907
X45.739Y21.817
X46.646Y21.907
X47.518Y22.171
X48.321Y22.601
X49.025Y23.179
X49.603Y23.883
X50.033Y24.686
X50.297Y25.558
X50.387Y26.465
X50.297Y27.372
X50.033Y28.243
X49.603Y29.047
X49.025Y29.751
X48.321Y30.329
X47.518Y30.758
X46.646Y31.023
X45.739Y31.112
G0Z2
X52.747Y12.368
G1Z-2F100
X52.725Y12.356F200
X52.706Y12.341
X52.691Y12.322
X52.679Y12.3
X52.672Y12.276
X52.669Y12.252
X52.672Y12.227
X52.679Y12.204
X52.691Y12.182
X52.706Y12.163
X52.725Y12.147
X52.747Y12.136
X52.771Y12.129
X52.795Y12.126
X52.82Y12.129
X52.843Y12.136
X52.865Y12.147
X52.884Y12.163
X52.899Y12.182
X52.911Y12.204
X52.918Y12.227
X52.921Y12.252
X52.918Y12.276
X52.911Y12.3
X52.899Y12.322
X52.884Y12.341
X52.865Y12.356
X52.843Y12.368
X52.82Y12.375
X52.795Y12.378
X52.771Y12.375
X52.747Y12.368
X52.555Y12.832
X52.446Y12.774
X52.351Y12.696
X52.273Y12.601
X52.215Y12.492
X52.179Y12.374
X52.167Y12.252
X52.179Y12.129
X52.215Y12.012
X52.273Y11.903
X52.351Y11.808
X52.446Y11.73
X52.555Y11.672
X52.673Y11.636
X52.795Y11.624
X52.918Y11.636
X53.035Y11.672
X53.144Y11.73
X53.239Y11.808
X53.317Y11.903
X53.375Y12.012
X53.411Y12.129
X53.423Y12.252
X53.411Y12.374
X53.375Y12.492
X53.317Y12.601
X53.239Y12.696
X53.144Y12.774
X53.035Y12.832
X52.918Y12.868
X52.795Y12.88
X52.672Y12.868
X52.555Y12.832
X52.362Y13.296
X52.167Y13.192
X51.996Y13.051
X51.855Y12.88
X51.751Y12.684
X51.686Y12.472
X51.665Y12.252
X51.686Y12.031
X51.751Y11.819
X51.855Y11.624
X51.996Y11.453
X52.167Y11.312
X52.362Y11.208
X52.575Y11.143
X52.795Y11.121
X53.016Y11.143
X53.228Y11.208
X53.423Y11.312
X53.594Y11.453
X53.735Y11.624
X53.839Y11.819
X53.904Y12.031
X53.925Y12.252
X53.904Y12.472
X53.839Y12.685
X53.735Y12.88
X53.594Y13.051
X53.423Y13.192
X53.228Y13.296
X53.016Y13.361
X52.795Y13.382
X52.574Y13.361
X52.362Y13.296
X52.17Y13.76
X51.888Y13.61
X51.64Y13.407
X51.437Y13.159
X51.286Y12.877
X51.194Y12.57
X51.162Y12.252
X51.194Y11.933
X51.286Y11.627
X51.437Y11.345
X51.64Y11.097
X51.888Y10.894
X52.17Y10.743
X52.476Y10.65
X52.795Y10.619
X53.114Y10.65
X53.42Y10.743
X53.702Y10.894
X53.95Y11.097
X54.153Y11.345
X54.304Y11.627
X54.396Y11.933
X54.428Y12.252
X54.396Y12.571
X54.304Y12.877
X54.153Y13.159
X53.95Y13.407
X53.702Y13.61
X53.42Y13.76
X53.114Y13.853
X52.795Y13.885
X52.476Y13.853
X52.17Y13.76
X51.978Y14.225
X51.609Y14.027
X51.285Y13.762
X51.02Y13.438
X50.822Y13.069
X50.701Y12.668
X50.66Y12.252
X50.701Y11.835
X50.822Y11.435
X51.02Y11.066
X51.285Y10.742
X51.609Y10.476
X51.978Y10.279
X52.378Y10.158
X52.795Y10.117
X53.212Y10.158
X53.612Y10.279
X53.981Y10.477
X54.305Y10.742
X54.57Y11.066
X54.768Y11.435
X54.889Y11.835
X54.93Y12.252
X54.889Y12.669
X54.768Y13.069
X54.57Y13.438
X54.305Y13.762
X53.981Y14.027
X53.612Y14.225
X53.212Y14.346
X52.795Y14.387
X52.378Y14.346
X51.978Y14.225
X51.786Y14.689
X51.33Y14.445
X50.93Y14.117
X50.602Y13.717
X50.358Y13.261
X50.208Y12.766
X50.157Y12.252
X50.208Y11.737
X50.358Y11.242
X50.602Y10.786
X50.93Y10.387
X51.33Y10.059
X51.786Y9.815
X52.28Y9.665
X52.795Y9.614
X53.31Y9.665
X53.804Y9.815
X54.26Y10.059
X54.66Y10.387
X54.988Y10.787
X55.232Y11.243
X55.382Y11.737
X55.433Y12.252
X55.382Y12.767
X55.232Y13.261
X54.988Y13.717
X54.66Y14.117
X54.26Y14.445
X53.804Y14.689
X53.31Y14.839
X52.795Y14.89
X52.28Y14.839
X51.786Y14.689
X51.593Y15.153
X51.05Y14.863
X50.575Y14.472
X50.184Y13.996
X49.894Y13.454
X49.715Y12.864
X49.655Y12.252
X49.715Y11.639
X49.894Y11.05
X50.184Y10.507
X50.575Y10.031
X51.051Y9.641
X51.593Y9.351
X52.182Y9.172
X52.795Y9.112
X53.408Y9.172
X53.997Y9.351
X54.54Y9.641
X55.015Y10.032
X55.406Y10.507
X55.696Y11.05
X55.875Y11.639
X55.935Y12.252
X55.875Y12.865
X55.696Y13.454
X55.406Y13.997
X55.015Y14.472
X54.54Y14.863
X53.997Y15.153
X53.408Y15.332
X52.795Y15.392
X52.182Y15.332
X51.593Y15.153
X51.401Y15.617
X50.771Y15.281
X50.219Y14.828
X49.766Y14.276
X49.43Y13.646
X49.222Y12.962
X49.152Y12.252
X49.222Y11.541
X49.43Y10.858
X49.766Y10.228
X50.219Y9.676
X50.771Y9.223
X51.401Y8.887
X52.084Y8.679
X52.795Y8.609
X53.506Y8.679
X54.189Y8.887
X54.819Y9.223
X55.371Y9.676
X55.824Y10.228
X56.16Y10.858
X56.368Y11.541
X56.438Y12.252
X56.368Y12.963
X56.16Y13.646
X55.824Y14.276
X55.371Y14.828
X54.819Y15.281
X54.189Y15.617
X53.506Y15.824
X52.795Y15.894
X52.084Y15.824
X51.401Y15.617
X51.209Y16.081
X50.492Y15.698
X49.864Y15.183
X49.349Y14.555
X48.966Y13.838
X48.73Y13.06
X48.65Y12.252
X48.73Y11.443
X48.966Y10.666
X49.349Y9.949
X49.864Y9.321
X50.492Y8.805
X51.209Y8.422
X51.986Y8.187
X52.795Y8.107
X53.604Y8.187
X54.381Y8.423
X55.098Y8.806
X55.726Y9.321
X56.241Y9.949
X56.624Y10.666
X56.86Y11.443
X56.94Y12.252
X56.86Y13.061
X56.624Y13.838
X56.241Y14.555
X55.726Y15.183
X55.098Y15.698
X54.381Y16.081
X53.604Y16.317
X52.795Y16.397
X51.986Y16.317
X51.209Y16.081
X51.016Y16.545
X50.213Y16.116
X49.509Y15.538
X48.931Y14.834
X48.501Y14.03
X48.237Y13.158
X48.148Y12.252
X48.237Y11.345
X48.501Y10.473
X48.931Y9.67
X49.509Y8.966
X50.213Y8.388
X51.017Y7.958
X51.888Y7.694
X52.795Y7.605
X53.702Y7.694
X54.574Y7.958
X55.377Y8.388
X56.081Y8.966
X56.659Y9.67
X57.089Y10.474
X57.353Y11.345
X57.442Y12.252
X57.353Y13.159
X57.089Y14.03
X56.659Y14.834
X56.081Y15.538
X55.377Y16.116
X54.573Y16.546
X53.702Y16.81
X52.795Y16.899
X51.888Y16.81
X51.016Y16.545
G0Z2
X27.699Y37.829
G1Z-3F100
X27.722Y37.812F200
X27.748Y37.801
X27.776Y37.794
X27.804Y37.793
X27.832Y37.798
X27.858Y37.808
X27.883Y37.824
X27.903Y37.843
X27.92Y37.866
X27.931Y37.892
X27.938Y37.92
X27.938Y37.948
X27.934Y37.976
X27.901Y38.06
X24.289Y45.285
X24.241Y45.361
X24.222Y45.382
X24.198Y45.398
X24.172Y45.41
X24.145Y45.416
X24.116Y45.417
X24.088Y45.412
X24.062Y45.402
X24.038Y45.387
X24.017Y45.367
X24.001Y45.344
X23.989Y45.318
X23.983Y45.29
X23.982Y45.262
X23.987Y45.234
X24.019Y45.15
X27.631Y37.925
X27.679Y37.849
X27.699Y37.829
X27.37Y37.449
X27.473Y37.376
X27.589Y37.324
X27.713Y37.296
X27.84Y37.292
X27.965Y37.314
X28.083Y37.359
X28.191Y37.427
X28.283Y37.514
X28.356Y37.617
X28.408Y37.733
X28.436Y37.857
X28.44Y37.984
X28.418Y38.109
X28.36Y38.262
X24.725Y45.531
X24.638Y45.669
X24.551Y45.761
X24.447Y45.835
X24.331Y45.887
X24.208Y45.915
X24.081Y45.918
X23.955Y45.897
X23.837Y45.851
X23.73Y45.784
X23.638Y45.696
X23.564Y45.593
X23.512Y45.477
X23.484Y45.353
X23.481Y45.226
X23.502Y45.101
X23.561Y44.948
X27.195Y37.68
X27.282Y37.541
X27.37Y37.449
G0Z2
X27.776Y52.776
G1Z-3F100
X27.804Y52.775F200
X27.832Y52.78
X27.859Y52.79
X27.883Y52.805
X27.903Y52.825
X27.92Y52.848
X27.931Y52.874
X27.938Y52.902
X27.938Y52.93
X27.934Y52.958
X27.901Y53.042
X24.289Y60.267
X24.241Y60.343
X24.222Y60.364
X24.198Y60.38
X24.172Y60.392
X24.145Y60.398
X24.116Y60.399
X24.088Y60.394
X24.062Y60.384
X24.038Y60.369
X24.017Y60.349
X24.001Y60.326
X23.989Y60.3
X23.983Y60.272
X23.982Y60.244
X23.987Y60.216
X24.019Y60.132
X27.631Y52.907
X27.679Y52.831
X27.699Y52.81
X27.722Y52.794
X27.748Y52.782
X27.776Y52.776
X27.713Y52.277
X27.84Y52.274
X27.965Y52.295
X28.083Y52.341
X28.191Y52.408
X28.283Y52.496
X28.356Y52.599
X28.408Y52.715
X28.436Y52.839
X28.44Y52.966
X28.418Y53.091
X28.36Y53.244
X24.725Y60.512
X24.638Y60.651
X24.551Y60.743
X24.447Y60.816
X24.331Y60.868
X24.207Y60.896
X24.081Y60.9
X23.956Y60.878
X23.837Y60.833
X23.73Y60.765
X23.638Y60.678
X23.564Y60.575
X23.512Y60.459
X23.484Y60.335
X23.481Y60.208
X23.502Y60.083
X23.561Y59.93
X27.195Y52.662
X27.282Y52.523
X27.37Y52.431
X27.473Y52.357
X27.589Y52.306
X27.713Y52.277
G0Z2
X47.107Y70.658
G1Z-3F100
X47.229Y70.551F200
X47.367Y70.421
X47.459Y70.33
X47.548Y70.237
X47.634Y70.142
X47.709Y70.056
X47.816Y70.178
X47.946Y70.317
X48.037Y70.408
X48.13Y70.497
X48.225Y70.584
X48.311Y70.658
X48.189Y70.765
X48.05Y70.895
X47.959Y70.986
X47.87Y71.079
X47.783Y71.174
X47.709Y71.26
X47.602Y71.138
X47.472Y70.999
X47.381Y70.908
X47.288Y70.819
X47.193Y70.732
X47.107Y70.658
X46.783Y70.277
X46.893Y70.181
X47.018Y70.063
X47.101Y69.981
X47.181Y69.897
X47.26Y69.811
X47.336Y69.723
X47.41Y69.633
X47.482Y69.541
X47.552Y69.447
X47.619Y69.352
X47.684Y69.255
X47.709Y69.217
X47.788Y69.336
X47.855Y69.432
X47.924Y69.526
X47.995Y69.618
X48.069Y69.708
X48.145Y69.796
X48.223Y69.883
X48.303Y69.967
X48.386Y70.05
X48.47Y70.131
X48.556Y70.209
X48.644Y70.285
X48.734Y70.359
X48.826Y70.431
X48.92Y70.501
X49.015Y70.568
X49.111Y70.633
X49.15Y70.658
X49.03Y70.737
X48.935Y70.804
X48.841Y70.873
X48.749Y70.945
X48.659Y71.018
X48.571Y71.094
X48.484Y71.172
X48.399Y71.253
X48.317Y71.335
X48.236Y71.419
X48.158Y71.505
X48.081Y71.594
X48.007Y71.683
X47.935Y71.775
X47.866Y71.869
X47.799Y71.964
X47.734Y72.061
X47.709Y72.099
X47.63Y71.98
X47.563Y71.884
X47.494Y71.79
X47.422Y71.698
X47.348Y71.608
X47.272Y71.52
X47.194Y71.433
X47.114Y71.349
X47.032Y71.266
X46.948Y71.185
X46.861Y71.107
X46.773Y71.031
X46.683Y70.957
X46.592Y70.885
X46.498Y70.815
X46.403Y70.748
X46.306Y70.683
X46.268Y70.658
X46.387Y70.579
X46.483Y70.512
X46.576Y70.443
X46.668Y70.371
X46.759Y70.298
X46.783Y70.277
X46.46Y69.896
X46.593Y69.777
X46.669Y69.705
X46.743Y69.632
X46.815Y69.557
X46.885Y69.479
X46.954Y69.401
X47.02Y69.32
X47.084Y69.238
X47.147Y69.154
X47.207Y69.069
X47.265Y68.983
X47.321Y68.895
X47.375Y68.805
X47.426Y68.715
X47.476Y68.623
X47.523Y68.53
X47.568Y68.436
X47.61Y68.34
X47.65Y68.244
X47.688Y68.147
X47.709Y68.09
X47.76Y68.226
X47.8Y68.323
X47.842Y68.418
X47.886Y68.513
X47.933Y68.606
X47.982Y68.698
X48.033Y68.789
X48.087Y68.878
X48.142Y68.967
X48.2Y69.054
X48.26Y69.139
X48.322Y69.223
X48.386Y69.305
X48.452Y69.386
X48.52Y69.465
X48.59Y69.543
X48.661Y69.618
X48.735Y69.692
X48.81Y69.764
X48.887Y69.834
X48.966Y69.903
X49.047Y69.969
X49.129Y70.033
X49.212Y70.096
X49.298Y70.156
X49.384Y70.214
X49.472Y70.27
X49.562Y70.324
X49.652Y70.376
X49.744Y70.425
X49.837Y70.472
X49.931Y70.517
X50.027Y70.559
X50.123Y70.6
X50.22Y70.637
X50.277Y70.658
X50.14Y70.709
X50.044Y70.749
X49.949Y70.791
X49.854Y70.836
X49.761Y70.882
X49.669Y70.931
X49.578Y70.982
X49.488Y71.036
X49.4Y71.091
X49.313Y71.149
X49.228Y71.209
X49.144Y71.271
X49.062Y71.335
X48.981Y71.401
X48.902Y71.469
X48.824Y71.539
X48.749Y71.611
X48.675Y71.684
X48.603Y71.76
X48.532Y71.837
X48.464Y71.915
X48.398Y71.996
X48.333Y72.078
X48.271Y72.162
X48.211Y72.247
X48.153Y72.333
X48.097Y72.421
X48.043Y72.511
X47.991Y72.601
X47.942Y72.693
X47.895Y72.786
X47.85Y72.88
X47.807Y72.976
X47.767Y73.072
X47.73Y73.169
X47.709Y73.226
X47.657Y73.09
X47.618Y72.993
X47.576Y72.898
X47.531Y72.803
X47.485Y72.71
X47.436Y72.618
X47.384Y72.527
X47.331Y72.438
X47.275Y72.349
X47.218Y72.262
X47.158Y72.177
X47.096Y72.093
X47.032Y72.011
X46.966Y71.93
X46.898Y71.851
X46.828Y71.773
X46.756Y71.698
X46.683Y71.624
X46.607Y71.552
X46.53Y71.482
X46.451Y71.413
X46.371Y71.347
X46.289Y71.283
X46.205Y71.22
X46.12Y71.16
X46.033Y71.102
X45.945Y71.046
X45.856Y70.992
X45.766Y70.94
X45.674Y70.891
X45.581Y70.844
X45.486Y70.799
X45.391Y70.757
X45.295Y70.717
X45.198Y70.679
X45.141Y70.658
X45.277Y70.607
X45.374Y70.567
X45.469Y70.525
X45.563Y70.48
X45.657Y70.434
X45.749Y70.385
X45.84Y70.334
X45.929Y70.28
X46.018Y70.225
X46.104Y70.167
X46.19Y70.107
X46.274Y70.045
X46.356Y69.981
X46.437Y69.915
X46.46Y69.896
X46.136Y69.515
X46.253Y69.411
X46.32Y69.348
X46.385Y69.283
X46.449Y69.216
X46.511Y69.148
X46.571Y69.079
X46.63Y69.008
X46.686Y68.935
X46.741Y68.861
X46.795Y68.786
X46.846Y68.71
X46.895Y68.632
X46.943Y68.554
X46.988Y68.474
X47.032Y68.393
X47.074Y68.31
X47.113Y68.227
X47.151Y68.143
X47.186Y68.058
X47.219Y67.973
X47.251Y67.886
X47.28Y67.799
X47.307Y67.711
X47.331Y67.622
X47.354Y67.533
X47.374Y67.443
X47.393Y67.353
X47.409Y67.262
X47.422Y67.171
X47.434Y67.08
X47.443Y66.988
X47.45Y66.897
X47.455Y66.805
X47.457Y66.713
X47.458Y66.658
X47.458Y63.507
X47.96Y63.508
X47.96Y66.694
X47.962Y66.786
X47.966Y66.878
X47.973Y66.97
X47.982Y67.061
X47.993Y67.153
X48.006Y67.244
X48.022Y67.334
X48.039Y67.425
X48.059Y67.514
X48.081Y67.604
X48.106Y67.693
X48.132Y67.781
X48.161Y67.868
X48.192Y67.955
X48.225Y68.041
X48.26Y68.126
X48.297Y68.21
X48.336Y68.293
X48.377Y68.376
X48.42Y68.457
X48.465Y68.537
X48.512Y68.616
X48.561Y68.694
X48.612Y68.771
X48.665Y68.846
X48.72Y68.92
X48.776Y68.993
X48.834Y69.064
X48.894Y69.134
X48.956Y69.202
X49.019Y69.269
X49.084Y69.334
X49.151Y69.398
X49.219Y69.46
X49.288Y69.52
X49.359Y69.579
X49.432Y69.636
X49.505Y69.691
X49.581Y69.744
X49.657Y69.795
X49.735Y69.845
X49.813Y69.892
X49.893Y69.938
X49.974Y69.981
X50.056Y70.023
X50.14Y70.062
X50.224Y70.1
X50.308Y70.135
X50.394Y70.169
X50.481Y70.2
X50.568Y70.229
X50.656Y70.256
X50.745Y70.281
X50.834Y70.303
X50.924Y70.324
X51.014Y70.342
X51.105Y70.358
X51.196Y70.372
X51.287Y70.383
X51.378Y70.392
X51.47Y70.399
X51.562Y70.404
X51.654Y70.407
X51.709Y70.407
X54.859Y70.407
X54.859Y70.909
X51.673Y70.909
X51.581Y70.911
X51.489Y70.916
X51.397Y70.922
X51.306Y70.931
X51.214Y70.942
X51.123Y70.955
X51.033Y70.971
X50.942Y70.988
X50.852Y71.008
X50.763Y71.031
X50.674Y71.055
X50.586Y71.081
X50.499Y71.11
X50.412Y71.141
X50.326Y71.174
X50.241Y71.209
X50.157Y71.246
X50.073Y71.285
X49.991Y71.326
X49.91Y71.369
X49.83Y71.414
X49.751Y71.462
X49.673Y71.511
X49.596Y71.562
X49.521Y71.614
X49.447Y71.669
X49.374Y71.725
X49.303Y71.784
X49.233Y71.844
X49.165Y71.905
X49.098Y71.968
X49.032Y72.033
X48.969Y72.1
X48.907Y72.168
X48.847Y72.237
X48.788Y72.308
X48.731Y72.381
X48.676Y72.455
X48.623Y72.53
X48.572Y72.606
X48.522Y72.684
X48.475Y72.763
X48.429Y72.842
X48.386Y72.924
X48.344Y73.006
X48.304Y73.089
X48.267Y73.173
X48.232Y73.258
X48.198Y73.343
X48.167Y73.43
X48.138Y73.517
X48.111Y73.605
X48.086Y73.694
X48.064Y73.783
X48.043Y73.873
X48.025Y73.963
X48.009Y74.054
X47.995Y74.145
X47.984Y74.236
X47.975Y74.328
X47.968Y74.419
X47.963Y74.511
X47.96Y74.603
X47.96Y74.658
X47.959Y77.809
X47.458Y77.808
X47.458Y74.622
X47.456Y74.53
X47.451Y74.438
X47.445Y74.346
X47.436Y74.255
X47.425Y74.164
X47.412Y74.072
X47.396Y73.982
X47.378Y73.891
X47.358Y73.802
X47.336Y73.712
X47.312Y73.624
X47.285Y73.535
X47.257Y73.448
X47.226Y73.361
X47.193Y73.275
X47.158Y73.19
X47.121Y73.106
X47.082Y73.023
X47.041Y72.94
X46.998Y72.859
X46.952Y72.779
X46.905Y72.7
X46.856Y72.622
X46.805Y72.545
X46.753Y72.47
X46.698Y72.396
X46.641Y72.323
X46.583Y72.252
X46.523Y72.182
X46.462Y72.114
X46.398Y72.047
X46.333Y71.982
X46.267Y71.918
X46.199Y71.856
X46.129Y71.796
X46.058Y71.737
X45.986Y71.68
X45.912Y71.625
X45.837Y71.572
X45.761Y71.521
X45.683Y71.471
X45.604Y71.424
X45.524Y71.378
X45.443Y71.335
X45.361Y71.293
X45.278Y71.254
X45.194Y71.216
X45.109Y71.181
X45.023Y71.147
X44.937Y71.116
X44.85Y71.087
X44.762Y71.06
X44.673Y71.035
X44.584Y71.013
X44.494Y70.992
X44.404Y70.974
X44.313Y70.958
X44.222Y70.944
X44.131Y70.933
X44.039Y70.924
X43.947Y70.917
X43.856Y70.912
X43.764Y70.909
X43.708Y70.909
X40.558Y70.909
X40.558Y70.407
X43.745Y70.407
X43.837Y70.405
X43.929Y70.4
X44.02Y70.394
X44.112Y70.385
X44.203Y70.374
X44.294Y70.361
X44.385Y70.345
X44.475Y70.328
X44.565Y70.308
X44.655Y70.285
X44.743Y70.261
X44.831Y70.235
X44.919Y70.206
X45.006Y70.175
X45.092Y70.142
X45.177Y70.107
X45.261Y70.07
X45.344Y70.031
X45.427Y69.99
X45.508Y69.947
X45.588Y69.902
X45.667Y69.854
X45.745Y69.805
X45.822Y69.755
X45.897Y69.702
X45.971Y69.647
X46.044Y69.591
X46.115Y69.532
X46.136Y69.515
X45.812Y69.134
X45.913Y69.045
X45.971Y68.99
X46.027Y68.933
X46.082Y68.876
X46.136Y68.817
X46.188Y68.757
X46.239Y68.695
X46.289Y68.632
X46.336Y68.569
X46.382Y68.503
X46.427Y68.437
X46.47Y68.37
X46.511Y68.302
X46.55Y68.232
X46.588Y68.162
X46.624Y68.091
X46.659Y68.019
X46.691Y67.946
X46.722Y67.873
X46.751Y67.798
X46.778Y67.723
X46.803Y67.648
X46.827Y67.571
X46.848Y67.495
X46.868Y67.417
X46.885Y67.34
X46.901Y67.261
X46.915Y67.183
X46.927Y67.104
X46.937Y67.025
X46.945Y66.945
X46.951Y66.866
X46.955Y66.786
X46.957Y66.707
X46.958Y66.657
X46.958Y63.007
X48.46Y63.008
X48.46Y66.688
X48.462Y66.767
X48.465Y66.847
X48.471Y66.927
X48.479Y67.006
X48.488Y67.085
X48.5Y67.164
X48.513Y67.243
X48.528Y67.321
X48.546Y67.399
X48.565Y67.476
X48.586Y67.553
X48.609Y67.63
X48.634Y67.705
X48.66Y67.781
X48.689Y67.855
X48.719Y67.929
X48.751Y68.002
X48.785Y68.074
X48.821Y68.145
X48.858Y68.216
X48.897Y68.285
X48.938Y68.354
X48.981Y68.421
X49.025Y68.488
X49.07Y68.553
X49.118Y68.617
X49.167Y68.68
X49.217Y68.742
X49.269Y68.803
X49.322Y68.862
X49.377Y68.92
X49.433Y68.977
X49.491Y69.032
X49.55Y69.085
X49.61Y69.138
X49.672Y69.188
X49.734Y69.238
X49.798Y69.285
X49.863Y69.332
X49.93Y69.376
X49.997Y69.419
X50.065Y69.46
X50.134Y69.5
X50.205Y69.537
X50.276Y69.573
X50.348Y69.608
X50.421Y69.64
X50.494Y69.671
X50.569Y69.7
X50.644Y69.727
X50.719Y69.752
X50.795Y69.776
X50.872Y69.797
X50.95Y69.817
X51.027Y69.835
X51.106Y69.85
X51.184Y69.864
X51.263Y69.876
X51.342Y69.886
X51.421Y69.894
X51.501Y69.9
X51.581Y69.904
X51.66Y69.907
X51.709Y69.907
X55.359Y69.908
X55.359Y71.409
X51.679Y71.409
X51.599Y71.411
X51.52Y71.415
X51.44Y71.42
X51.361Y71.428
X51.282Y71.437
X51.203Y71.449
X51.124Y71.462
X51.046Y71.478
X50.968Y71.495
X50.891Y71.514
X50.814Y71.535
X50.737Y71.558
X50.661Y71.583
X50.586Y71.609
X50.512Y71.638
X50.438Y71.668
X50.365Y71.7
X50.293Y71.734
X50.221Y71.77
X50.151Y71.807
X50.081Y71.846
X50.013Y71.887
X49.945Y71.93
X49.879Y71.974
X49.814Y72.02
X49.749Y72.067
X49.686Y72.116
X49.625Y72.166
X49.564Y72.218
X49.505Y72.272
X49.447Y72.326
X49.39Y72.383
X49.335Y72.44
X49.281Y72.499
X49.229Y72.559
X49.178Y72.621
X49.129Y72.684
X49.081Y72.748
X49.035Y72.813
X48.991Y72.879
X48.948Y72.946
X48.907Y73.014
X48.867Y73.084
X48.829Y73.154
X48.793Y73.225
X48.759Y73.297
X48.727Y73.37
X48.696Y73.443
X48.667Y73.518
X48.64Y73.593
X48.615Y73.668
X48.591Y73.745
X48.57Y73.821
X48.55Y73.899
X48.532Y73.977
X48.517Y74.055
X48.503Y74.133
X48.491Y74.212
X48.481Y74.291
X48.473Y74.371
X48.467Y74.45
X48.462Y74.53
X48.46Y74.609
X48.46Y74.659
X48.459Y78.309
X46.958Y78.308
X46.958Y74.628
X46.956Y74.549
X46.952Y74.469
X46.947Y74.389
X46.939Y74.31
X46.929Y74.231
X46.918Y74.152
X46.905Y74.073
X46.889Y73.995
X46.872Y73.917
X46.853Y73.84
X46.832Y73.763
X46.809Y73.686
X46.784Y73.611
X46.757Y73.535
X46.729Y73.461
X46.699Y73.387
X46.666Y73.314
X46.633Y73.242
X46.597Y73.171
X46.56Y73.1
X46.52Y73.031
X46.48Y72.962
X46.437Y72.895
X46.393Y72.828
X46.347Y72.763
X46.3Y72.699
X46.251Y72.636
X46.201Y72.574
X46.149Y72.513
X46.095Y72.454
X46.041Y72.396
X45.984Y72.34
X45.927Y72.284
X45.868Y72.231
X45.807Y72.178
X45.746Y72.128
X45.683Y72.078
X45.619Y72.031
X45.554Y71.985
X45.488Y71.94
X45.421Y71.897
X45.353Y71.856
X45.283Y71.816
X45.213Y71.779
X45.142Y71.743
X45.07Y71.708
X44.997Y71.676
X44.923Y71.645
X44.849Y71.616
X44.774Y71.589
X44.698Y71.564
X44.622Y71.54
X44.545Y71.519
X44.468Y71.499
X44.39Y71.482
X44.312Y71.466
X44.234Y71.452
X44.155Y71.44
X44.076Y71.43
X43.996Y71.422
X43.917Y71.416
X43.837Y71.412
X43.757Y71.409
X43.708Y71.409
X40.058Y71.408
X40.058Y69.907
X43.739Y69.907
X43.818Y69.905
X43.898Y69.901
X43.977Y69.896
X44.057Y69.888
X44.136Y69.879
X44.215Y69.867
X44.294Y69.854
X44.372Y69.838
X44.45Y69.821
X44.527Y69.802
X44.604Y69.781
X44.68Y69.758
X44.756Y69.733
X44.831Y69.707
X44.906Y69.678
X44.98Y69.648
X45.053Y69.616
X45.125Y69.582
X45.196Y69.546
X45.267Y69.509
X45.336Y69.47
X45.405Y69.429
X45.472Y69.386
X45.539Y69.342
X45.604Y69.296
X45.668Y69.249
X45.731Y69.2
X45.793Y69.15
X45.812Y69.134
X45.489Y68.752
X45.573Y68.678
X45.622Y68.632
X45.669Y68.584
X45.716Y68.536
X45.762Y68.486
X45.806Y68.435
X45.849Y68.383
X45.891Y68.33
X45.931Y68.276
X45.97Y68.221
X46.008Y68.165
X46.044Y68.108
X46.079Y68.05
X46.112Y67.991
X46.144Y67.932
X46.175Y67.872
X46.204Y67.811
X46.232Y67.749
X46.258Y67.687
X46.282Y67.624
X46.305Y67.561
X46.326Y67.497
X46.346Y67.432
X46.365Y67.367
X46.381Y67.302
X46.396Y67.236
X46.41Y67.17
X46.421Y67.103
X46.431Y67.037
X46.44Y66.97
X46.447Y66.903
X46.452Y66.835
X46.456Y66.768
X46.457Y66.7
X46.458Y66.657
X46.458Y62.507
X48.96Y62.508
X48.96Y66.682
X48.961Y66.749
X48.964Y66.816
X48.969Y66.884
X48.976Y66.951
X48.984Y67.018
X48.993Y67.085
X49.005Y67.151
X49.018Y67.218
X49.032Y67.283
X49.048Y67.349
X49.066Y67.414
X49.085Y67.479
X49.106Y67.543
X49.129Y67.606
X49.153Y67.669
X49.179Y67.732
X49.206Y67.794
X49.234Y67.855
X49.265Y67.915
X49.296Y67.975
X49.329Y68.034
X49.364Y68.092
X49.4Y68.149
X49.437Y68.205
X49.476Y68.26
X49.516Y68.315
X49.557Y68.368
X49.6Y68.42
X49.644Y68.472
X49.689Y68.522
X49.735Y68.571
X49.783Y68.619
X49.831Y68.665
X49.881Y68.711
X49.932Y68.755
X49.984Y68.798
X50.037Y68.84
X50.091Y68.88
X50.146Y68.919
X50.202Y68.957
X50.259Y68.993
X50.317Y69.028
X50.376Y69.062
X50.435Y69.094
X50.495Y69.124
X50.556Y69.153
X50.618Y69.181
X50.68Y69.207
X50.743Y69.231
X50.806Y69.254
X50.87Y69.276
X50.935Y69.295
X51Y69.314
X51.065Y69.33
X51.131Y69.345
X51.197Y69.359
X51.264Y69.371
X51.33Y69.381
X51.397Y69.389
X51.464Y69.396
X51.532Y69.401
X51.599Y69.405
X51.666Y69.407
X51.709Y69.407
X55.859Y69.408
X55.859Y71.909
X51.685Y71.909
X51.618Y71.911
X51.55Y71.914
X51.483Y71.918
X51.416Y71.925
X51.349Y71.933
X51.282Y71.943
X51.216Y71.954
X51.149Y71.967
X51.083Y71.981
X51.018Y71.998
X50.953Y72.015
X50.888Y72.035
X50.824Y72.056
X50.76Y72.078
X50.697Y72.102
X50.635Y72.128
X50.573Y72.155
X50.512Y72.184
X50.452Y72.214
X50.392Y72.245
X50.333Y72.278
X50.275Y72.313
X50.218Y72.349
X50.162Y72.386
X50.107Y72.425
X50.052Y72.465
X49.999Y72.506
X49.947Y72.549
X49.895Y72.593
X49.845Y72.638
X49.796Y72.684
X49.748Y72.732
X49.701Y72.781
X49.656Y72.83
X49.612Y72.881
X49.569Y72.933
X49.527Y72.986
X49.487Y73.04
X49.448Y73.096
X49.41Y73.151
X49.374Y73.208
X49.339Y73.266
X49.305Y73.325
X49.273Y73.384
X49.243Y73.444
X49.214Y73.505
X49.186Y73.567
X49.16Y73.629
X49.136Y73.692
X49.113Y73.755
X49.091Y73.819
X49.071Y73.884
X49.053Y73.949
X49.037Y74.014
X49.021Y74.08
X49.008Y74.146
X48.996Y74.213
X48.986Y74.279
X48.978Y74.346
X48.971Y74.414
X48.966Y74.481
X48.962Y74.548
X48.96Y74.616
X48.96Y74.659
X48.959Y78.809
X46.458Y78.808
X46.458Y74.634
X46.456Y74.567
X46.453Y74.5
X46.448Y74.432
X46.442Y74.365
X46.434Y74.298
X46.424Y74.231
X46.413Y74.165
X46.4Y74.099
X46.385Y74.033
X46.369Y73.967
X46.352Y73.902
X46.332Y73.837
X46.311Y73.773
X46.289Y73.71
X46.265Y73.647
X46.239Y73.584
X46.212Y73.522
X46.183Y73.461
X46.153Y73.401
X46.121Y73.341
X46.088Y73.282
X46.054Y73.224
X46.018Y73.167
X45.981Y73.111
X45.942Y73.056
X45.902Y73.001
X45.861Y72.948
X45.818Y72.896
X45.774Y72.844
X45.729Y72.794
X45.683Y72.745
X45.635Y72.697
X45.586Y72.651
X45.536Y72.605
X45.486Y72.561
X45.434Y72.518
X45.38Y72.476
X45.326Y72.436
X45.271Y72.397
X45.215Y72.359
X45.158Y72.323
X45.101Y72.288
X45.042Y72.254
X44.983Y72.222
X44.923Y72.192
X44.862Y72.163
X44.8Y72.135
X44.738Y72.109
X44.675Y72.085
X44.611Y72.062
X44.547Y72.04
X44.483Y72.021
X44.418Y72.002
X44.353Y71.986
X44.287Y71.971
X44.221Y71.957
X44.154Y71.946
X44.087Y71.935
X44.02Y71.927
X43.953Y71.92
X43.886Y71.915
X43.819Y71.911
X43.751Y71.909
X43.708Y71.909
X39.558Y71.908
X39.558Y69.407
X43.732Y69.407
X43.8Y69.405
X43.867Y69.402
X43.935Y69.398
X44.002Y69.391
X44.069Y69.383
X44.136Y69.374
X44.202Y69.362
X44.268Y69.349
X44.334Y69.335
X44.4Y69.319
X44.465Y69.301
X44.529Y69.281
X44.594Y69.26
X44.657Y69.238
X44.72Y69.214
X44.783Y69.188
X44.845Y69.161
X44.906Y69.132
X44.966Y69.102
X45.026Y69.071
X45.084Y69.038
X45.142Y69.003
X45.2Y68.967
X45.256Y68.93
X45.311Y68.891
X45.365Y68.851
X45.419Y68.81
X45.471Y68.767
X45.489Y68.752
X45.166Y68.371
X45.232Y68.312
X45.272Y68.274
X45.312Y68.235
X45.35Y68.195
X45.387Y68.154
X45.423Y68.113
X45.459Y68.07
X45.493Y68.027
X45.526Y67.983
X45.558Y67.938
X45.589Y67.892
X45.618Y67.845
X45.647Y67.798
X45.674Y67.75
X45.701Y67.702
X45.726Y67.652
X45.749Y67.603
X45.772Y67.552
X45.793Y67.501
X45.813Y67.45
X45.832Y67.398
X45.85Y67.346
X45.866Y67.293
X45.881Y67.24
X45.895Y67.186
X45.907Y67.132
X45.918Y67.078
X45.928Y67.024
X45.936Y66.969
X45.943Y66.914
X45.949Y66.86
X45.953Y66.804
X45.956Y66.749
X45.957Y66.694
X45.958Y66.657
X45.959Y62.007
X49.46Y62.008
X49.46Y66.675
X49.461Y66.731
X49.464Y66.786
X49.467Y66.841
X49.473Y66.896
X49.479Y66.951
X49.487Y67.005
X49.496Y67.06
X49.507Y67.114
X49.519Y67.168
X49.532Y67.221
X49.546Y67.275
X49.562Y67.328
X49.579Y67.38
X49.598Y67.432
X49.617Y67.484
X49.638Y67.535
X49.66Y67.586
X49.684Y67.636
X49.708Y67.685
X49.734Y67.734
X49.761Y67.782
X49.789Y67.829
X49.819Y67.876
X49.849Y67.922
X49.881Y67.967
X49.914Y68.012
X49.947Y68.056
X49.982Y68.098
X50.018Y68.14
X50.055Y68.181
X50.093Y68.222
X50.132Y68.261
X50.172Y68.299
X50.212Y68.336
X50.254Y68.373
X50.297Y68.408
X50.34Y68.442
X50.384Y68.475
X50.429Y68.507
X50.475Y68.538
X50.522Y68.568
X50.569Y68.596
X50.617Y68.624
X50.665Y68.65
X50.714Y68.675
X50.764Y68.699
X50.815Y68.721
X50.866Y68.743
X50.917Y68.763
X50.969Y68.782
X51.021Y68.799
X51.074Y68.815
X51.127Y68.83
X51.181Y68.844
X51.235Y68.856
X51.289Y68.867
X51.343Y68.877
X51.398Y68.885
X51.452Y68.892
X51.507Y68.898
X51.562Y68.902
X51.617Y68.905
X51.673Y68.907
X51.71Y68.907
X56.36Y68.908
X56.359Y72.409
X51.691Y72.409
X51.636Y72.41
X51.581Y72.413
X51.526Y72.417
X51.471Y72.422
X51.416Y72.428
X51.362Y72.436
X51.307Y72.445
X51.253Y72.456
X51.199Y72.468
X51.145Y72.481
X51.092Y72.496
X51.039Y72.511
X50.987Y72.528
X50.935Y72.547
X50.883Y72.566
X50.832Y72.587
X50.781Y72.61
X50.731Y72.633
X50.682Y72.658
X50.633Y72.683
X50.585Y72.71
X50.537Y72.739
X50.491Y72.768
X50.445Y72.798
X50.399Y72.83
X50.355Y72.863
X50.311Y72.897
X50.268Y72.931
X50.226Y72.967
X50.185Y73.004
X50.145Y73.042
X50.106Y73.081
X50.068Y73.121
X50.031Y73.162
X49.994Y73.203
X49.959Y73.246
X49.925Y73.289
X49.892Y73.333
X49.86Y73.378
X49.829Y73.424
X49.799Y73.471
X49.771Y73.518
X49.743Y73.566
X49.717Y73.614
X49.692Y73.664
X49.668Y73.713
X49.646Y73.764
X49.624Y73.815
X49.604Y73.866
X49.585Y73.918
X49.568Y73.971
X49.552Y74.023
X49.537Y74.076
X49.523Y74.13
X49.511Y74.184
X49.5Y74.238
X49.49Y74.292
X49.482Y74.347
X49.475Y74.402
X49.469Y74.457
X49.465Y74.512
X49.462Y74.567
X49.46Y74.622
X49.46Y74.659
X49.459Y79.309
X45.958Y79.308
X45.958Y74.641
X45.957Y74.585
X45.954Y74.53
X45.95Y74.475
X45.945Y74.42
X45.939Y74.365
X45.931Y74.311
X45.921Y74.256
X45.911Y74.202
X45.899Y74.148
X45.886Y74.095
X45.871Y74.041
X45.856Y73.988
X45.838Y73.936
X45.82Y73.884
X45.8Y73.832
X45.779Y73.781
X45.757Y73.731
X45.734Y73.681
X45.709Y73.631
X45.683Y73.582
X45.656Y73.534
X45.628Y73.487
X45.599Y73.44
X45.568Y73.394
X45.537Y73.349
X45.504Y73.304
X45.47Y73.26
X45.435Y73.218
X45.4Y73.176
X45.363Y73.135
X45.325Y73.094
X45.286Y73.055
X45.246Y73.017
X45.205Y72.98
X45.164Y72.943
X45.121Y72.908
X45.078Y72.874
X45.033Y72.841
X44.988Y72.809
X44.943Y72.778
X44.896Y72.748
X44.849Y72.72
X44.801Y72.692
X44.752Y72.666
X44.703Y72.641
X44.653Y72.617
X44.603Y72.595
X44.552Y72.573
X44.501Y72.553
X44.449Y72.535
X44.396Y72.517
X44.344Y72.501
X44.29Y72.486
X44.237Y72.472
X44.183Y72.46
X44.129Y72.449
X44.075Y72.439
X44.02Y72.431
X43.965Y72.424
X43.91Y72.418
X43.855Y72.414
X43.8Y72.411
X43.745Y72.409
X43.708Y72.409
X39.058Y72.408
X39.058Y68.907
X43.726Y68.907
X43.781Y68.906
X43.837Y68.903
X43.892Y68.899
X43.947Y68.894
X44.001Y68.888
X44.056Y68.88
X44.111Y68.871
X44.165Y68.86
X44.219Y68.848
X44.272Y68.835
X44.326Y68.821
X44.378Y68.805
X44.431Y68.788
X44.483Y68.769
X44.535Y68.75
X44.586Y68.729
X44.636Y68.706
X44.686Y68.683
X44.736Y68.658
X44.785Y68.633
X44.833Y68.606
X44.88Y68.577
X44.927Y68.548
X44.973Y68.518
X45.018Y68.486
X45.063Y68.453
X45.106Y68.419
X45.149Y68.385
X45.166Y68.371
X44.841Y67.99
X44.892Y67.945
X44.923Y67.916
X44.954Y67.886
X44.984Y67.855
X45.013Y67.823
X45.041Y67.791
X45.068Y67.758
X45.095Y67.724
X45.121Y67.69
X45.146Y67.655
X45.17Y67.619
X45.193Y67.583
X45.215Y67.546
X45.236Y67.509
X45.257Y67.471
X45.276Y67.433
X45.295Y67.394
X45.313Y67.355
X45.329Y67.316
X45.345Y67.276
X45.36Y67.235
X45.373Y67.194
X45.386Y67.153
X45.398Y67.112
X45.408Y67.071
X45.418Y67.029
X45.426Y66.987
X45.434Y66.944
X45.441Y66.902
X45.446Y66.859
X45.451Y66.817
X45.454Y66.774
X45.456Y66.731
X45.458Y66.688
X45.458Y66.657
X45.459Y61.507
X49.96Y61.508
X49.96Y66.669
X49.961Y66.712
X49.963Y66.755
X49.966Y66.798
X49.97Y66.841
X49.975Y66.883
X49.981Y66.926
X49.988Y66.968
X49.996Y67.01
X50.005Y67.052
X50.015Y67.094
X50.027Y67.136
X50.039Y67.177
X50.052Y67.218
X50.066Y67.258
X50.082Y67.298
X50.098Y67.338
X50.115Y67.377
X50.133Y67.416
X50.152Y67.455
X50.172Y67.493
X50.193Y67.53
X50.215Y67.567
X50.238Y67.604
X50.262Y67.639
X50.286Y67.675
X50.312Y67.709
X50.338Y67.743
X50.365Y67.777
X50.393Y67.809
X50.421Y67.841
X50.451Y67.872
X50.481Y67.903
X50.512Y67.933
X50.544Y67.962
X50.576Y67.99
X50.609Y68.017
X50.643Y68.044
X50.677Y68.07
X50.712Y68.095
X50.748Y68.119
X50.784Y68.142
X50.821Y68.164
X50.858Y68.186
X50.896Y68.206
X50.934Y68.226
X50.973Y68.244
X51.012Y68.262
X51.051Y68.278
X51.091Y68.294
X51.132Y68.309
X51.172Y68.322
X51.213Y68.335
X51.255Y68.347
X51.296Y68.357
X51.338Y68.367
X51.38Y68.376
X51.423Y68.383
X51.465Y68.39
X51.508Y68.395
X51.55Y68.4
X51.593Y68.403
X51.636Y68.405
X51.679Y68.407
X51.71Y68.407
X56.86Y68.408
X56.859Y72.909
X51.698Y72.909
X51.655Y72.91
X51.612Y72.912
X51.569Y72.915
X51.526Y72.919
X51.483Y72.924
X51.441Y72.93
X51.399Y72.937
X51.356Y72.945
X51.314Y72.954
X51.273Y72.965
X51.231Y72.976
X51.19Y72.988
X51.149Y73.001
X51.109Y73.016
X51.069Y73.031
X51.029Y73.047
X50.99Y73.064
X50.951Y73.082
X50.912Y73.101
X50.874Y73.121
X50.837Y73.142
X50.8Y73.164
X50.763Y73.187
X50.727Y73.211
X50.692Y73.235
X50.658Y73.261
X50.624Y73.287
X50.59Y73.314
X50.558Y73.342
X50.526Y73.371
X50.494Y73.4
X50.464Y73.43
X50.434Y73.461
X50.405Y73.493
X50.377Y73.525
X50.349Y73.558
X50.323Y73.592
X50.297Y73.626
X50.272Y73.661
X50.248Y73.697
X50.225Y73.733
X50.203Y73.77
X50.181Y73.807
X50.161Y73.845
X50.141Y73.883
X50.123Y73.922
X50.105Y73.961
X50.088Y74.001
X50.073Y74.041
X50.058Y74.081
X50.044Y74.122
X50.032Y74.163
X50.02Y74.204
X50.009Y74.246
X50Y74.287
X49.991Y74.329
X49.984Y74.372
X49.977Y74.414
X49.972Y74.457
X49.967Y74.499
X49.964Y74.542
X49.961Y74.585
X49.96Y74.628
X49.96Y74.659
X49.959Y79.809
X45.458Y79.808
X45.458Y74.647
X45.457Y74.604
X45.455Y74.561
X45.452Y74.518
X45.448Y74.475
X45.443Y74.433
X45.437Y74.39
X45.43Y74.348
X45.422Y74.306
X45.413Y74.264
X45.402Y74.222
X45.391Y74.181
X45.379Y74.139
X45.366Y74.098
X45.351Y74.058
X45.336Y74.018
X45.32Y73.978
X45.303Y73.939
X45.285Y73.9
X45.265Y73.861
X45.245Y73.823
X45.224Y73.786
X45.203Y73.749
X45.18Y73.713
X45.156Y73.677
X45.132Y73.641
X45.106Y73.607
X45.08Y73.573
X45.053Y73.539
X45.025Y73.507
X44.996Y73.475
X44.967Y73.444
X44.937Y73.413
X44.906Y73.383
X44.874Y73.354
X44.842Y73.326
X44.809Y73.299
X44.775Y73.272
X44.741Y73.246
X44.706Y73.221
X44.67Y73.197
X44.634Y73.174
X44.597Y73.152
X44.56Y73.13
X44.522Y73.11
X44.484Y73.091
X44.445Y73.072
X44.406Y73.054
X44.366Y73.038
X44.326Y73.022
X44.286Y73.007
X44.245Y72.994
X44.204Y72.981
X44.163Y72.969
X44.121Y72.959
X44.079Y72.949
X44.037Y72.94
X43.995Y72.933
X43.953Y72.926
X43.91Y72.921
X43.867Y72.916
X43.825Y72.913
X43.782Y72.911
X43.739Y72.909
X43.708Y72.909
X38.558Y72.908
X38.559Y68.407
X43.72Y68.407
X43.763Y68.406
X43.806Y68.404
X43.849Y68.401
X43.892Y68.397
X43.934Y68.392
X43.977Y68.386
X44.019Y68.379
X44.061Y68.371
X44.103Y68.362
X44.145Y68.352
X44.186Y68.34
X44.227Y68.328
X44.268Y68.315
X44.309Y68.301
X44.349Y68.285
X44.389Y68.269
X44.428Y68.252
X44.467Y68.234
X44.506Y68.215
X44.543Y68.195
X44.581Y68.174
X44.618Y68.152
X44.654Y68.129
X44.69Y68.105
X44.725Y68.081
X44.76Y68.055
X44.794Y68.029
X44.827Y68.002
X44.841Y67.99
X44.52Y67.608
X44.552Y67.579
X44.574Y67.558
X44.596Y67.537
X44.617Y67.515
X44.638Y67.492
X44.658Y67.469
X44.678Y67.445
X44.697Y67.421
X44.715Y67.397
X44.733Y67.372
X44.75Y67.346
X44.767Y67.321
X44.783Y67.294
X44.798Y67.268
X44.813Y67.241
X44.827Y67.214
X44.84Y67.186
X44.853Y67.158
X44.865Y67.13
X44.876Y67.101
X44.887Y67.072
X44.897Y67.043
X44.906Y67.014
X44.914Y66.985
X44.922Y66.955
X44.929Y66.925
X44.935Y66.895
X44.94Y66.865
X44.945Y66.835
X44.949Y66.804
X44.952Y66.774
X44.955Y66.743
X44.957Y66.712
X44.958Y66.682
X44.958Y66.657
X44.959Y61.007
X50.46Y61.008
X50.46Y66.663
X50.46Y66.694
X50.462Y66.724
X50.464Y66.755
X50.466Y66.786
X50.47Y66.816
X50.474Y66.846
X50.479Y66.877
X50.485Y66.907
X50.492Y66.937
X50.499Y66.967
X50.507Y66.996
X50.515Y67.026
X50.525Y67.055
X50.535Y67.084
X50.546Y67.113
X50.557Y67.141
X50.57Y67.169
X50.582Y67.197
X50.596Y67.224
X50.61Y67.252
X50.625Y67.278
X50.641Y67.305
X50.657Y67.331
X50.674Y67.357
X50.691Y67.382
X50.709Y67.406
X50.728Y67.431
X50.747Y67.455
X50.767Y67.478
X50.788Y67.501
X50.809Y67.523
X50.83Y67.545
X50.852Y67.566
X50.875Y67.587
X50.898Y67.607
X50.922Y67.627
X50.946Y67.646
X50.97Y67.665
X50.995Y67.682
X51.02Y67.7
X51.046Y67.716
X51.072Y67.732
X51.099Y67.748
X51.126Y67.762
X51.153Y67.776
X51.181Y67.79
X51.209Y67.802
X51.237Y67.814
X51.266Y67.825
X51.294Y67.836
X51.323Y67.846
X51.353Y67.855
X51.382Y67.863
X51.412Y67.871
X51.442Y67.878
X51.472Y67.884
X51.502Y67.89
X51.532Y67.894
X51.563Y67.898
X51.593Y67.902
X51.624Y67.904
X51.654Y67.906
X51.685Y67.907
X51.71Y67.907
X57.36Y67.908
X57.359Y73.409
X51.704Y73.409
X51.673Y73.41
X51.642Y73.411
X51.612Y73.413
X51.581Y73.416
X51.551Y73.419
X51.52Y73.423
X51.49Y73.429
X51.46Y73.434
X51.43Y73.441
X51.4Y73.448
X51.371Y73.456
X51.341Y73.465
X51.312Y73.474
X51.283Y73.484
X51.254Y73.495
X51.226Y73.507
X51.198Y73.519
X51.17Y73.532
X51.142Y73.545
X51.115Y73.56
X51.088Y73.574
X51.062Y73.59
X51.036Y73.606
X51.01Y73.623
X50.985Y73.641
X50.96Y73.659
X50.936Y73.677
X50.912Y73.697
X50.889Y73.716
X50.866Y73.737
X50.844Y73.758
X50.822Y73.779
X50.8Y73.801
X50.78Y73.824
X50.759Y73.847
X50.74Y73.871
X50.721Y73.895
X50.702Y73.919
X50.684Y73.944
X50.667Y73.97
X50.651Y73.995
X50.635Y74.022
X50.619Y74.048
X50.605Y74.075
X50.591Y74.102
X50.577Y74.13
X50.565Y74.158
X50.553Y74.186
X50.541Y74.215
X50.531Y74.244
X50.521Y74.273
X50.512Y74.302
X50.504Y74.331
X50.496Y74.361
X50.489Y74.391
X50.483Y74.421
X50.477Y74.451
X50.473Y74.482
X50.469Y74.512
X50.465Y74.542
X50.463Y74.573
X50.461Y74.604
X50.46Y74.634
X50.46Y74.659
X50.459Y80.309
X44.958Y80.308
X44.958Y74.653
X44.957Y74.622
X44.956Y74.592
X44.954Y74.561
X44.951Y74.53
X44.948Y74.5
X44.943Y74.47
X44.938Y74.439
X44.933Y74.409
X44.926Y74.379
X44.919Y74.349
X44.911Y74.32
X44.902Y74.29
X44.893Y74.261
X44.883Y74.232
X44.872Y74.203
X44.86Y74.175
X44.848Y74.147
X44.835Y74.119
X44.822Y74.092
X44.807Y74.064
X44.792Y74.038
X44.777Y74.011
X44.761Y73.985
X44.744Y73.96
X44.726Y73.934
X44.708Y73.91
X44.69Y73.885
X44.67Y73.861
X44.65Y73.838
X44.63Y73.815
X44.609Y73.793
X44.587Y73.771
X44.565Y73.75
X44.543Y73.729
X44.52Y73.709
X44.496Y73.689
X44.472Y73.67
X44.448Y73.651
X44.423Y73.634
X44.397Y73.616
X44.371Y73.6
X44.345Y73.584
X44.319Y73.568
X44.292Y73.554
X44.264Y73.54
X44.237Y73.527
X44.209Y73.514
X44.181Y73.502
X44.152Y73.491
X44.123Y73.48
X44.094Y73.47
X44.065Y73.461
X44.035Y73.453
X44.006Y73.445
X43.976Y73.438
X43.946Y73.432
X43.916Y73.426
X43.885Y73.422
X43.855Y73.418
X43.824Y73.414
X43.794Y73.412
X43.763Y73.41
X43.733Y73.409
X43.708Y73.409
X38.058Y73.408
X38.059Y67.907
X43.714Y67.907
X43.745Y67.906
X43.775Y67.905
X43.806Y67.903
X43.836Y67.9
X43.867Y67.897
X43.897Y67.893
X43.928Y67.888
X43.958Y67.882
X43.988Y67.875
X44.017Y67.868
X44.047Y67.86
X44.077Y67.851
X44.106Y67.842
X44.135Y67.832
X44.163Y67.821
X44.192Y67.81
X44.22Y67.797
X44.248Y67.784
X44.275Y67.771
X44.302Y67.757
X44.329Y67.742
X44.356Y67.726
X44.382Y67.71
X44.407Y67.693
X44.433Y67.675
X44.457Y67.657
X44.482Y67.639
X44.505Y67.619
X44.52Y67.608
X44.198Y67.225
X44.211Y67.213
X44.225Y67.2
X44.238Y67.187
X44.251Y67.174
X44.264Y67.161
X44.276Y67.147
X44.288Y67.133
X44.299Y67.118
X44.31Y67.104
X44.321Y67.089
X44.331Y67.074
X44.341Y67.058
X44.351Y67.043
X44.36Y67.027
X44.369Y67.011
X44.378Y66.994
X44.386Y66.978
X44.393Y66.961
X44.401Y66.944
X44.408Y66.927
X44.414Y66.91
X44.42Y66.892
X44.426Y66.875
X44.431Y66.857
X44.435Y66.839
X44.44Y66.821
X44.443Y66.803
X44.447Y66.785
X44.45Y66.767
X44.452Y66.749
X44.454Y66.731
X44.456Y66.712
X44.457Y66.694
X44.458Y66.676
X44.458Y66.657
X44.459Y60.507
X50.96Y60.508
Y66.657
X50.96Y66.675
X50.961Y66.694
X50.962Y66.712
X50.963Y66.731
X50.965Y66.749
X50.968Y66.767
X50.971Y66.785
X50.974Y66.803
X50.978Y66.821
X50.982Y66.839
X50.987Y66.857
X50.992Y66.875
X50.998Y66.892
X51.004Y66.91
X51.01Y66.927
X51.017Y66.944
X51.024Y66.961
X51.032Y66.978
X51.04Y66.994
X51.048Y67.011
X51.057Y67.027
X51.067Y67.043
X51.076Y67.058
X51.086Y67.074
X51.097Y67.089
X51.107Y67.104
X51.119Y67.118
X51.13Y67.133
X51.142Y67.147
X51.154Y67.161
X51.167Y67.174
X51.179Y67.187
X51.193Y67.2
X51.206Y67.213
X51.22Y67.225
X51.234Y67.237
X51.248Y67.248
X51.263Y67.259
X51.278Y67.27
X51.293Y67.281
X51.309Y67.291
X51.324Y67.3
X51.34Y67.31
X51.356Y67.318
X51.373Y67.327
X51.389Y67.335
X51.406Y67.343
X51.423Y67.35
X51.44Y67.357
X51.457Y67.363
X51.474Y67.369
X51.492Y67.375
X51.51Y67.38
X51.528Y67.385
X51.545Y67.389
X51.563Y67.393
X51.582Y67.396
X51.6Y67.399
X51.618Y67.401
X51.636Y67.403
X51.655Y67.405
X51.673Y67.406
X51.691Y67.407
X51.71Y67.407
X57.86Y67.408
X57.859Y73.909
X51.71
X51.691Y73.909
X51.673Y73.91
X51.655Y73.911
X51.636Y73.913
X51.618Y73.915
X51.6Y73.917
X51.582Y73.92
X51.564Y73.923
X51.546Y73.927
X51.528Y73.931
X51.51Y73.936
X51.492Y73.941
X51.475Y73.947
X51.457Y73.953
X51.44Y73.959
X51.423Y73.966
X51.406Y73.973
X51.389Y73.981
X51.373Y73.989
X51.356Y73.998
X51.34Y74.006
X51.324Y74.016
X51.309Y74.025
X51.293Y74.035
X51.278Y74.046
X51.263Y74.057
X51.248Y74.068
X51.234Y74.079
X51.22Y74.091
X51.206Y74.103
X51.193Y74.116
X51.18Y74.129
X51.167Y74.142
X51.154Y74.155
X51.142Y74.169
X51.13Y74.183
X51.119Y74.198
X51.107Y74.212
X51.097Y74.227
X51.086Y74.242
X51.076Y74.258
X51.067Y74.273
X51.057Y74.289
X51.048Y74.305
X51.04Y74.322
X51.032Y74.338
X51.024Y74.355
X51.017Y74.372
X51.01Y74.389
X51.004Y74.406
X50.998Y74.424
X50.992Y74.441
X50.987Y74.459
X50.982Y74.477
X50.978Y74.495
X50.974Y74.513
X50.971Y74.531
X50.968Y74.549
X50.965Y74.567
X50.963Y74.585
X50.962Y74.604
X50.961Y74.622
X50.96Y74.641
X50.96Y74.659
X50.959Y80.809
X44.458Y80.808
Y74.659
X44.458Y74.641
X44.457Y74.622
X44.456Y74.604
X44.454Y74.586
X44.452Y74.567
X44.45Y74.549
X44.447Y74.531
X44.443Y74.513
X44.44Y74.495
X44.435Y74.477
X44.431Y74.459
X44.426Y74.441
X44.42Y74.424
X44.414Y74.406
X44.408Y74.389
X44.401Y74.372
X44.393Y74.355
X44.386Y74.338
X44.378Y74.322
X44.369Y74.306
X44.36Y74.289
X44.351Y74.273
X44.341Y74.258
X44.331Y74.242
X44.321Y74.227
X44.31Y74.212
X44.299Y74.198
X44.288Y74.183
X44.276Y74.169
X44.264Y74.155
X44.251Y74.142
X44.238Y74.129
X44.225Y74.116
X44.212Y74.103
X44.198Y74.091
X44.184Y74.079
X44.169Y74.068
X44.155Y74.057
X44.14Y74.046
X44.125Y74.035
X44.109Y74.025
X44.093Y74.016
X44.078Y74.006
X44.061Y73.998
X44.045Y73.989
X44.029Y73.981
X44.012Y73.973
X43.995Y73.966
X43.978Y73.959
X43.961Y73.953
X43.943Y73.947
X43.926Y73.941
X43.908Y73.936
X43.89Y73.932
X43.872Y73.927
X43.854Y73.923
X43.836Y73.92
X43.818Y73.917
X43.8Y73.915
X43.781Y73.913
X43.763Y73.911
X43.745Y73.91
X43.726Y73.909
X43.708Y73.909
X37.558Y73.908
X37.559Y67.407
X43.708
X43.726Y67.407
X43.745Y67.406
X43.763Y67.405
X43.781Y67.403
X43.8Y67.401
X43.818Y67.399
X43.836Y67.396
X43.854Y67.393
X43.872Y67.389
X43.89Y67.385
X43.908Y67.38
X43.926Y67.375
X43.943Y67.369
X43.96Y67.363
X43.978Y67.357
X43.995Y67.35
X44.012Y67.343
X44.028Y67.335
X44.045Y67.327
X44.061Y67.318
X44.077Y67.31
X44.093Y67.3
X44.109Y67.291
X44.124Y67.281
X44.14Y67.27
X44.155Y67.259
X44.169Y67.248
X44.184Y67.237
X44.198Y67.225
G0Z2
X45.739Y26.59
G1Z-3F100
X45.715Y26.588F200
X45.691Y26.581
X45.669Y26.569
X45.65Y26.554
X45.635Y26.535
X45.623Y26.513
X45.616Y26.489
X45.614Y26.465
X45.616Y26.44
X45.623Y26.417
X45.635Y26.395
X45.65Y26.376
X45.669Y26.36
X45.691Y26.349
X45.715Y26.342
X45.739Y26.339
X45.764Y26.342
X45.787Y26.349
X45.809Y26.36
X45.828Y26.376
X45.844Y26.395
X45.855Y26.417
X45.862Y26.44
X45.865Y26.465
X45.862Y26.489
X45.855Y26.513
X45.844Y26.535
X45.828Y26.554
X45.809Y26.569
X45.787Y26.581
X45.764Y26.588
X45.739Y26.59
X45.739Y27.093
X45.617Y27.081
X45.499Y27.045
X45.39Y26.987
X45.295Y26.909
X45.217Y26.814
X45.159Y26.705
X45.123Y26.587
X45.111Y26.465
X45.123Y26.342
X45.159Y26.224
X45.217Y26.116
X45.295Y26.021
X45.39Y25.943
X45.499Y25.885
X45.617Y25.849
X45.739Y25.837
X45.862Y25.849
X45.98Y25.885
X46.088Y25.943
X46.183Y26.021
X46.261Y26.116
X46.319Y26.224
X46.355Y26.342
X46.367Y26.465
X46.355Y26.587
X46.319Y26.705
X46.261Y26.814
X46.183Y26.909
X46.088Y26.987
X45.979Y27.045
X45.862Y27.081
X45.739Y27.093
X45.739Y27.595
X45.519Y27.573
X45.307Y27.509
X45.111Y27.405
X44.94Y27.264
X44.799Y27.093
X44.695Y26.897
X44.63Y26.685
X44.609Y26.465
X44.63Y26.244
X44.695Y26.032
X44.799Y25.837
X44.94Y25.665
X45.111Y25.525
X45.307Y25.42
X45.519Y25.356
X45.739Y25.334
X45.96Y25.356
X46.172Y25.42
X46.367Y25.525
X46.539Y25.665
X46.679Y25.837
X46.784Y26.032
X46.848Y26.244
X46.87Y26.465
X46.848Y26.685
X46.784Y26.897
X46.679Y27.093
X46.538Y27.264
X46.367Y27.405
X46.172Y27.509
X45.96Y27.573
X45.739Y27.595
X45.739Y28.098
X45.421Y28.066
X45.114Y27.973
X44.832Y27.822
X44.585Y27.619
X44.381Y27.372
X44.231Y27.09
X44.138Y26.783
X44.106Y26.465
X44.138Y26.146
X44.231Y25.84
X44.382Y25.558
X44.585Y25.31
X44.832Y25.107
X45.114Y24.956
X45.421Y24.863
X45.739Y24.832
X46.058Y24.863
X46.364Y24.956
X46.646Y25.107
X46.894Y25.31
X47.097Y25.558
X47.248Y25.84
X47.341Y26.146
X47.372Y26.465
X47.341Y26.783
X47.248Y27.09
X47.097Y27.372
X46.894Y27.619
X46.646Y27.822
X46.364Y27.973
X46.058Y28.066
X45.739Y28.098
X45.739Y28.6
X45.323Y28.559
X44.922Y28.437
X44.553Y28.24
X44.229Y27.975
X43.964Y27.651
X43.766Y27.282
X43.645Y26.881
X43.604Y26.465
X43.645Y26.048
X43.766Y25.648
X43.964Y25.278
X44.229Y24.955
X44.553Y24.689
X44.922Y24.492
X45.323Y24.371
X45.739Y24.33
X46.156Y24.371
X46.556Y24.492
X46.925Y24.689
X47.249Y24.955
X47.515Y25.279
X47.712Y25.648
X47.833Y26.048
X47.874Y26.465
X47.833Y26.881
X47.712Y27.282
X47.515Y27.651
X47.249Y27.975
X46.925Y28.24
X46.556Y28.438
X46.156Y28.559
X45.739Y28.6
X45.739Y29.102
X45.225Y29.052
X44.73Y28.902
X44.274Y28.658
X43.874Y28.33
X43.546Y27.93
X43.302Y27.474
X43.152Y26.979
X43.101Y26.465
X43.152Y25.95
X43.302Y25.455
X43.546Y24.999
X43.874Y24.6
X44.274Y24.272
X44.73Y24.028
X45.225Y23.878
X45.739Y23.827
X46.254Y23.878
X46.749Y24.028
X47.205Y24.272
X47.604Y24.6
X47.932Y24.999
X48.176Y25.455
X48.326Y25.95
X48.377Y26.465
X48.326Y26.979
X48.176Y27.474
X47.932Y27.93
X47.604Y28.33
X47.205Y28.658
X46.749Y28.902
X46.254Y29.052
X45.739Y29.102
X45.739Y29.605
X45.127Y29.545
X44.537Y29.366
X43.995Y29.076
X43.519Y28.685
X43.128Y28.209
X42.838Y27.666
X42.659Y27.077
X42.599Y26.465
X42.659Y25.852
X42.838Y25.263
X43.128Y24.72
X43.519Y24.244
X43.995Y23.854
X44.538Y23.564
X45.127Y23.385
X45.739Y23.325
X46.352Y23.385
X46.941Y23.564
X47.484Y23.854
X47.96Y24.244
X48.35Y24.72
X48.64Y25.263
X48.819Y25.852
X48.879Y26.465
X48.819Y27.077
X48.64Y27.666
X48.35Y28.209
X47.96Y28.685
X47.484Y29.076
X46.941Y29.366
X46.352Y29.545
X45.739Y29.605
X45.739Y30.107
X45.028Y30.037
X44.345Y29.83
X43.715Y29.493
X43.163Y29.04
X42.71Y28.488
X42.374Y27.859
X42.167Y27.175
X42.097Y26.465
X42.167Y25.754
X42.374Y25.071
X42.711Y24.441
X43.164Y23.889
X43.716Y23.436
X44.345Y23.099
X45.029Y22.892
X45.739Y22.822
X46.45Y22.892
X47.133Y23.1
X47.763Y23.436
X48.315Y23.889
X48.768Y24.441
X49.104Y25.071
X49.312Y25.754
X49.382Y26.465
X49.312Y27.175
X49.104Y27.859
X48.768Y28.489
X48.315Y29.04
X47.763Y29.493
X47.133Y29.83
X46.45Y30.037
X45.739Y30.107
X45.739Y30.61
X44.93Y30.53
X44.153Y30.294
X43.436Y29.911
X42.808Y29.396
X42.293Y28.768
X41.91Y28.051
X41.674Y27.273
X41.594Y26.465
X41.674Y25.656
X41.91Y24.879
X42.293Y24.162
X42.808Y23.534
X43.436Y23.018
X44.153Y22.635
X44.931Y22.399
X45.739Y22.32
X46.548Y22.399
X47.325Y22.635
X48.042Y23.018
X48.67Y23.534
X49.186Y24.162
X49.569Y24.879
X49.804Y25.656
X49.884Y26.465
X49.804Y27.273
X49.569Y28.051
X49.186Y28.768
X48.67Y29.396
X48.042Y29.911
X47.325Y30.294
X46.548Y30.53
X45.739Y30.61
X45.739Y31.112
X44.832Y31.023
X43.961Y30.758
X43.157Y30.329
X42.453Y29.751
X41.875Y29.047
X41.446Y28.243
X41.181Y27.371
X41.092Y26.465
X41.181Y25.558
X41.446Y24.686
X41.875Y23.883
X42.453Y23.179
X43.157Y22.601
X43.961Y22.171
X44.833Y21.907
X45.739Y21.817
X46.646Y21.907
X47.518Y22.171
X48.321Y22.601
X49.025Y23.179
X49.603Y23.883
X50.033Y24.686
X50.297Y25.558
X50.387Y26.465
X50.297Y27.372
X50.033Y28.243
X49.603Y29.047
X49.025Y29.751
X48.321Y30.329
X47.518Y30.758
X46.646Y31.023
X45.739Y31.112
G0Z2
X52.747Y12.368
G1Z-3F100
X52.725Y12.356F200
X52.706Y12.341
X52.691Y12.322
X52.679Y12.3
X52.672Y12.276
X52.669Y12.252
X52.672Y12.227
X52.679Y12.204
X52.691Y12.182
X52.706Y12.163
X52.725Y12.147
X52.747Y12.136
X52.771Y12.129
X52.795Y12.126
X52.82Y12.129
X52.843Y12.136
X52.865Y12.147
X52.884Y12.163
X52.899Y12.182
X52.911Y12.204
X52.918Y12.227
X52.921Y12.252
X52.918Y12.276
X52.911Y12.3
X52.899Y12.322
X52.884Y12.341
X52.865Y12.356
X52.843Y12.368
X52.82Y12.375
X52.795Y12.378
X52.771Y12.375
X52.747Y12.368
X52.555Y12.832
X52.446Y12.774
X52.351Y12.696
X52.273Y12.601
X52.215Y12.492
X52.179Y12.374
X52.167Y12.252
X52.179Y12.129
X52.215Y12.012
X52.273Y11.903
X52.351Y11.808
X52.446Y11.73
X52.555Y11.672
X52.673Y11.636
X52.795Y11.624
X52.918Y11.636
X53.035Y11.672
X53.144Y11.73
X53.239Y11.808
X53.317Y11.903
X53.375Y12.012
X53.411Y12.129
X53.423Y12.252
X53.411Y12.374
X53.375Y12.492
X53.317Y12.601
X53.239Y12.696
X53.144Y12.774
X53.035Y12.832
X52.918Y12.868
X52.795Y12.88
X52.672Y12.868
X52.555Y12.832
X52.362Y13.296
X52.167Y13.192
X51.996Y13.051
X51.855Y12.88
X51.751Y12.684
X51.686Y12.472
X51.665Y12.252
X51.686Y12.031
X51.751Y11.819
X51.855Y11.624
X51.996Y11.453
X52.167Y11.312
X52.362Y11.208
X52.575Y11.143
X52.795Y11.121
X53.016Y11.143
X53.228Y11.208
X53.423Y11.312
X53.594Y11.453
X53.735Y11.624
X53.839Y11.819
X53.904Y12.031
X53.925Y12.252
X53.904Y12.472
X53.839Y12.685
X53.735Y12.88
X53.594Y13.051
X53.423Y13.192
X53.228Y13.296
X53.016Y13.361
X52.795Y13.382
X52.574Y13.361
X52.362Y13.296
X52.17Y13.76
X51.888Y13.61
X51.64Y13.407
X51.437Y13.159
X51.286Y12.877
X51.194Y12.57
X51.162Y12.252
X51.194Y11.933
X51.286Y11.627
X51.437Y11.345
X51.64Y11.097
X51.888Y10.894
X52.17Y10.743
X52.476Y10.65
X52.795Y10.619
X53.114Y10.65
X53.42Y10.743
X53.702Y10.894
X53.95Y11.097
X54.153Y11.345
X54.304Y11.627
X54.396Y11.933
X54.428Y12.252
X54.396Y12.571
X54.304Y12.877
X54.153Y13.159
X53.95Y13.407
X53.702Y13.61
X53.42Y13.76
X53.114Y13.853
X52.795Y13.885
X52.476Y13.853
X52.17Y13.76
X51.978Y14.225
X51.609Y14.027
X51.285Y13.762
X51.02Y13.438
X50.822Y13.069
X50.701Y12.668
X50.66Y12.252
X50.701Y11.835
X50.822Y11.435
X51.02Y11.066
X51.285Y10.742
X51.609Y10.476
X51.978Y10.279
X52.378Y10.158
X52.795Y10.117
X53.212Y10.158
X53.612Y10.279
X53.981Y10.477
X54.305Y10.742
X54.57Y11.066
X54.768Y11.435
X54.889Y11.835
X54.93Y12.252
X54.889Y12.669
X54.768Y13.069
X54.57Y13.438
X54.305Y13.762
X53.981Y14.027
X53.612Y14.225
X53.212Y14.346
X52.795Y14.387
X52.378Y14.346
X51.978Y14.225
X51.786Y14.689
X51.33Y14.445
X50.93Y14.117
X50.602Y13.717
X50.358Y13.261
X50.208Y12.766
X50.157Y12.252
X50.208Y11.737
X50.358Y11.242
X50.602Y10.786
X50.93Y10.387
X51.33Y10.059
X51.786Y9.815
X52.28Y9.665
X52.795Y9.614
X53.31Y9.665
X53.804Y9.815
X54.26Y10.059
X54.66Y10.387
X54.988Y10.787
X55.232Y11.243
X55.382Y11.737
X55.433Y12.252
X55.382Y12.767
X55.232Y13.261
X54.988Y13.717
X54.66Y14.117
X54.26Y14.445
X53.804Y14.689
X53.31Y14.839
X52.795Y14.89
X52.28Y14.839
X51.786Y14.689
X51.593Y15.153
X51.05Y14.863
X50.575Y14.472
X50.184Y13.996
X49.894Y13.454
X49.715Y12.864
X49.655Y12.252
X49.715Y11.639
X49.894Y11.05
X50.184Y10.507
X50.575Y10.031
X51.051Y9.641
X51.593Y9.351
X52.182Y9.172
X52.795Y9.112
X53.408Y9.172
X53.997Y9.351
X54.54Y9.641
X55.015Y10.032
X55.406Y10.507
X55.696Y11.05
X55.875Y11.639
X55.935Y12.252
X55.875Y12.865
X55.696Y13.454
X55.406Y13.997
X55.015Y14.472
X54.54Y14.863
X53.997Y15.153
X53.408Y15.332
X52.795Y15.392
X52.182Y15.332
X51.593Y15.153
X51.401Y15.617
X50.771Y15.281
X50.219Y14.828
X49.766Y14.276
X49.43Y13.646
X49.222Y12.962
X49.152Y12.252
X49.222Y11.541
X49.43Y10.858
X49.766Y10.228
X50.219Y9.676
X50.771Y9.223
X51.401Y8.887
X52.084Y8.679
X52.795Y8.609
X53.506Y8.679
X54.189Y8.887
X54.819Y9.223
X55.371Y9.676
X55.824Y10.228
X56.16Y10.858
X56.368Y11.541
X56.438Y12.252
X56.368Y12.963
X56.16Y13.646
X55.824Y14.276
X55.371Y14.828
X54.819Y15.281
X54.189Y15.617
X53.506Y15.824
X52.795Y15.894
X52.084Y15.824
X51.401Y15.617
X51.209Y16.081
X50.492Y15.698
X49.864Y15.183
X49.349Y14.555
X48.966Y13.838
X48.73Y13.06
X48.65Y12.252
X48.73Y11.443
X48.966Y10.666
X49.349Y9.949
X49.864Y9.321
X50.492Y8.805
X51.209Y8.422
X51.986Y8.187
X52.795Y8.107
X53.604Y8.187
X54.381Y8.423
X55.098Y8.806
X55.726Y9.321
X56.241Y9.949
X56.624Y10.666
X56.86Y11.443
X56.94Y12.252
X56.86Y13.061
X56.624Y13.838
X56.241Y14.555
X55.726Y15.183
X55.098Y15.698
X54.381Y16.081
X53.604Y16.317
X52.795Y16.397
X51.986Y16.317
X51.209Y16.081
X51.016Y16.545
X50.213Y16.116
X49.509Y15.538
X48.931Y14.834
X48.501Y14.03
X48.237Y13.158
X48.148Y12.252
X48.237Y11.345
X48.501Y10.473
X48.931Y9.67
X49.509Y8.966
X50.213Y8.388
X51.017Y7.958
X51.888Y7.694
X52.795Y7.605
X53.702Y7.694
X54.574Y7.958
X55.377Y8.388
X56.081Y8.966
X56.659Y9.67
X57.089Y10.474
X57.353Y11.345
X57.442Y12.252
X57.353Y13.159
X57.089Y14.03
X56.659Y14.834
X56.081Y15.538
X55.377Y16.116
X54.573Y16.546
X53.702Y16.81
X52.795Y16.899
X51.888Y16.81
X51.016Y16.545
G0Z2
(Tool: D = 1.5 mm  type END flutes 2)
S12000M03
G00 Z2.0

X106.015Y41.789
G1Z-3.076F100
X106.785Y41.789F200
Y47.811
X106.015Y47.811
X106.015Y41.789
X105.515Y41.289
X107.285Y41.289
Y48.311
X105.515Y48.311
X105.515Y41.289
X105.015Y40.789
X107.785Y40.789
Y48.811
X105.015Y48.811
X105.015Y40.789
X104.515Y40.289
X108.285Y40.289
Y49.311
X104.515Y49.311
X104.515Y40.289
X104.015Y39.789
X108.785Y39.789
Y49.811
X104.015Y49.811
X104.015Y39.789
X103.515Y39.289
X109.285Y39.289
Y50.311
X103.515Y50.311
X103.515Y39.289
X103.015Y38.789
X109.785Y38.789
Y50.811
X103.015Y50.811
X103.015Y38.789
X102.515Y38.289
X110.285Y38.289
Y51.311
X102.515Y51.311
X102.515Y38.289
X102.015Y37.789
X110.785Y37.789
Y51.811
X102.015Y51.811
X102.015Y37.789
X101.515Y37.289
X111.285Y37.289
Y52.311
X101.515Y52.311
X101.515Y37.289
X101.015Y36.789
X111.785Y36.789
Y52.811
X101.015Y52.811
X101.015Y36.789
X100.515Y36.289
X112.285Y36.289
Y53.311
X100.515Y53.311
X100.515Y36.289
X100.015Y35.789
X112.785Y35.789
Y53.811
X100.015Y53.811
X100.015Y35.789
X99.515Y35.289
X113.285Y35.289
Y54.311
X99.515Y54.311
X99.515Y35.289
X99.015Y34.789
X113.785Y34.789
Y54.811
X99.015Y54.811
X99.015Y34.789
X98.515Y34.289
X114.285Y34.289
Y55.311
X98.515Y55.311
X98.515Y34.289
X98.015Y33.789
X114.785Y33.789
Y55.811
X98.015Y55.811
X98.015Y33.789
X97.515Y33.289
X115.285Y33.289
Y56.311
X97.515Y56.311
X97.515Y33.289
X97.015Y32.789
X115.785Y32.789
Y56.811
X97.015Y56.811
X97.015Y32.789
X96.515Y32.289
X116.285Y32.289
Y57.311
X96.515Y57.311
X96.515Y32.289
X96.015Y31.789
X116.785Y31.789
Y57.811
X96.015Y57.811
X96.015Y31.789
X95.515Y31.289
X117.285Y31.289
Y58.311
X95.515Y58.311
X95.515Y31.289
X95.015Y30.789
X117.785Y30.789
Y58.811
X95.015Y58.811
X95.015Y30.789
X94.515Y30.289
X118.285Y30.289
Y59.311
X94.515Y59.311
X94.515Y30.289
X94.015Y29.789
X118.785Y29.789
Y59.811
X94.015Y59.811
X94.015Y29.789
X93.515Y29.289
X119.285Y29.289
Y60.311
X93.515Y60.311
X93.515Y29.289
X93.015Y28.789
X119.785Y28.789
Y60.811
X93.015Y60.811
X93.015Y28.789
X92.515Y28.289
X120.285Y28.289
Y61.311
X92.515Y61.31
X92.515Y28.289
X92.015Y27.789
X120.785Y27.789
Y61.811
X92.015Y61.81
X92.015Y27.789
X91.515Y27.289
X121.285Y27.289
Y62.311
X91.515Y62.31
X91.515Y27.289
X91.015Y26.789
X121.785Y26.789
Y62.811
X91.015Y62.81
X91.015Y26.789
X90.515Y26.289
X122.285Y26.289
Y63.311
X90.515Y63.31
X90.515Y26.289
X90.015Y25.789
X122.785Y25.789
Y63.811
X90.015Y63.81
X90.015Y25.789
X89.515Y25.289
X123.285Y25.289
Y64.311
X89.515Y64.31
X89.515Y25.289
X89.016Y24.789
X123.785Y24.789
Y64.811
X89.015Y64.81
X89.016Y24.789
X88.516Y24.289
X124.285Y24.289
Y65.311
X88.515Y65.31
X88.516Y24.289
X88.016Y23.789
X124.785Y23.789
Y65.811
X88.015Y65.81
X88.016Y23.789
X87.516Y23.289
X125.285Y23.289
Y66.311
X87.515Y66.31
X87.516Y23.289
X87.016Y22.789
X125.785Y22.789
Y66.811
X87.015Y66.81
X87.016Y22.789
X86.516Y22.289
X126.285Y22.289
Y67.311
X86.515Y67.31
X86.516Y22.289
X86.016Y21.789
X126.785Y21.789
Y67.811
X86.015Y67.81
X86.016Y21.789
X85.516Y21.289
X127.285Y21.289
Y68.311
X85.515Y68.31
X85.516Y21.289
X85.016Y20.789
X127.785Y20.79
Y68.811
X85.015Y68.81
X85.016Y20.789
X84.516Y20.289
X128.285Y20.29
Y69.311
X84.515Y69.31
X84.516Y20.289
X84.016Y19.789
X128.785Y19.79
Y69.811
X84.015Y69.81
X84.016Y19.789
X83.516Y19.289
X129.285Y19.29
Y70.311
X83.515Y70.31
X83.516Y19.289
G0Z2
 
