(Created with grbl post processor 2023/10/15 23:44)
G21
(G-code generated with BlenderCAM and NC library)
G17G90
(Tool: D = 6.0 mm  type VCARVE flutes 2)
S12000M03
G00 Z2.0

G0X0Y0Z2
X4.331Y4.333
G1Z-6.412F150
X4.197Y4.481Z-6.423F300
X4.063Y4.629Z-6.434
X3.929Y4.777Z-6.446
X3.795Y4.925Z-6.457
X3.661Y5.073Z-6.468
X3.527Y5.221Z-6.479
X3.393Y5.369Z-6.49
X3.259Y5.517Z-6.501
X3.244Y5.533Z-6.502
X3.125Y5.693Z-6.506
X3.006Y5.854Z-6.51
X2.887Y6.014Z-6.514
X2.768Y6.175Z-6.518
X2.649Y6.336Z-6.521
X2.53Y6.496Z-6.525
X2.411Y6.657Z-6.529
X2.292Y6.817Z-6.533
X2.28Y6.833Z-6.533
X2.177Y7.004Z-6.529
X2.075Y7.176Z-6.526
X1.972Y7.347Z-6.522
X1.869Y7.519Z-6.519
X1.766Y7.69Z-6.515
X1.663Y7.862Z-6.511
X1.561Y8.033Z-6.508
X1.458Y8.205Z-6.504
X1.448Y8.221Z-6.504
X1.363Y8.402Z-6.493
X1.277Y8.582Z-6.482
X1.192Y8.763Z-6.471
X1.106Y8.943Z-6.46
X1.021Y9.124Z-6.449
X0.936Y9.304Z-6.438
X0.85Y9.485Z-6.427
X0.765Y9.665Z-6.416
X0.756Y9.684Z-6.415
X0.689Y9.871Z-6.392
X0.622Y10.058Z-6.368
X0.555Y10.245Z-6.345
X0.488Y10.432Z-6.322
X0.421Y10.619Z-6.299
X0.354Y10.806Z-6.276
X0.287Y10.993Z-6.253
X0.22Y11.18Z-6.23
X0.21Y11.208Z-6.226
X0.162Y11.401Z-6.202
X0.114Y11.593Z-6.178
X0.066Y11.786Z-6.153
X0.017Y11.978Z-6.129
X-0.03Y12.171Z-6.104
X-0.078Y12.364Z-6.08
X-0.126Y12.556Z-6.056
X-0.175Y12.749Z-6.031
X-0.182Y12.779Z-6.027
X-0.211Y12.974Z-5.996
X-0.24Y13.169Z-5.964
X-0.269Y13.365Z-5.932
X-0.298Y13.56Z-5.901
X-0.327Y13.755Z-5.869
X-0.356Y13.951Z-5.837
X-0.385Y14.146Z-5.805
X-0.414Y14.341Z-5.774
X-0.42Y14.38Z-5.768
X-0.43Y14.576Z-5.729
X-0.439Y14.772Z-5.69
X-0.449Y14.968Z-5.651
X-0.458Y15.164Z-5.612
X-0.468Y15.359Z-5.573
X-0.478Y15.555Z-5.534
X-0.487Y15.751Z-5.496
X-0.497Y15.947Z-5.457
X-0.499Y15.986Z-5.449
X-0.499Y16.181Z-5.406
X-0.499Y16.377Z-5.363
X-0.499Y16.572Z-5.32
X-0.499Y16.767Z-5.277
X-0.499Y16.963Z-5.235
X-0.499Y17.158Z-5.192
X-0.499Y17.353Z-5.149
X-0.499Y17.549Z-5.106
X-0.499Y17.744Z-5.063
X-0.499Y17.939Z-5.02
X-0.499Y18.135Z-4.977
X-0.499Y18.33Z-4.934
X-0.499Y18.485Z-4.9
Y18.683Z-4.873
Y18.882Z-4.846
Y19.08Z-4.819
X-0.499Y19.278Z-4.792
Y19.476Z-4.765
Y19.674Z-4.738
Y19.872Z-4.711
Y20.07Z-4.684
Y20.269Z-4.657
Y20.467Z-4.63
X-0.499Y20.665Z-4.603
Y20.863Z-4.576
Y21.061Z-4.549
Y21.259Z-4.521
Y21.458Z-4.494
Y21.656Z-4.467
Y21.854Z-4.44
X-0.499Y22.052Z-4.413
Y22.25Z-4.386
Y22.448Z-4.359
Y22.647Z-4.332
Y22.845Z-4.305
Y23.043Z-4.278
X-0.499Y23.241Z-4.251
Y23.439Z-4.224
Y23.637Z-4.197
Y23.836Z-4.17
Y24.034Z-4.143
Y24.232Z-4.116
Y24.43Z-4.088
X-0.499Y24.628Z-4.061
Y24.826Z-4.034
Y25.024Z-4.007
Y25.223Z-3.98
Y25.421Z-3.953
Y25.619Z-3.926
Y25.817Z-3.899
X-0.499Y26.015Z-3.872
Y26.213Z-3.845
Y26.412Z-3.818
Y26.61Z-3.791
Y26.808Z-3.764
Y27.006Z-3.737
Y27.204Z-3.71
X-0.499Y27.402Z-3.683
Y27.601Z-3.655
Y27.799Z-3.628
Y27.997Z-3.601
Y28.195Z-3.574
Y28.393Z-3.547
Y28.591Z-3.52
X-0.499Y28.79Z-3.493
Y28.988Z-3.466
Y29.186Z-3.439
Y29.384Z-3.412
Y29.582Z-3.385
Y29.78Z-3.358
Y29.979Z-3.331
X-0.499Y30.177Z-3.304
Y30.375Z-3.277
Y30.573Z-3.249
Y30.771Z-3.222
Y30.969Z-3.195
Y31.167Z-3.168
X-0.499Y31.366Z-3.141
Y31.564Z-3.114
Y31.762Z-3.087
Y31.96Z-3.06
Y32.158Z-3.033
Y32.356Z-3.006
Y32.555Z-2.979
X-0.499Y32.753Z-2.952
Y32.951Z-2.925
Y33.149Z-2.898
Y33.347Z-2.871
Y33.545Z-2.844
Y33.744Z-2.816
Y33.942Z-2.789
X-0.499Y34.14Z-2.762
Y34.338Z-2.735
Y34.536Z-2.708
Y34.734Z-2.681
Y34.933Z-2.654
Y35.131Z-2.627
Y35.329Z-2.6
X-0.499Y35.527Z-2.573
Y35.725Z-2.546
Y35.923Z-2.519
Y36.065Z-2.499
Y36.265
Y36.465
Y36.665
X-0.499Y36.865
Y37.065
Y37.265
Y37.465
Y37.665
Y37.865
X-0.499Y38.065
Y38.265
Y38.465
Y38.665
Y38.865
Y39.065
Y39.265
X-0.499Y39.465
Y39.665
Y39.865
Y40.065
Y40.265
Y40.465
Y40.665
X-0.499Y40.865
Y41.065
Y41.265
Y41.465
Y41.665
Y41.865
X-0.499Y42.065
Y42.265
Y42.465
Y42.665
Y42.865
Y43.065
Y43.265
X-0.499Y43.465
Y43.665
Y43.865
Y44.065
Y44.265
Y44.465
X-0.499Y44.665
Y44.865
Y45.065
Y45.265
Y45.465
Y45.665
Y45.865
X-0.499Y46.065
Y46.265
Y46.465
Y46.665
Y46.865
Y47.065
Y47.265
X-0.499Y47.465
Y47.665
Y47.865
Y48.065
Y48.265
Y48.465
X-0.499Y48.665
Y48.865
Y49.065
Y49.265
Y49.465
Y49.665
Y49.865
X-0.499Y50.065
Y50.265
Y50.465
Y50.665
Y50.865
Y51.065
X-0.499Y51.265
Y51.465
Y51.665
Y51.865
Y52.065
Y52.265
Y52.465
X-0.499Y52.665
Y52.865
Y53.065
Y53.265
Y53.465
Y53.665
X-0.499Y53.865
Y54.065
Y54.265
Y54.465
Y54.665
Y54.865
Y55.065
X-0.499Y55.265
Y55.465
Y55.665
Y55.865
Y56.065
Y56.265
Y56.465
X-0.499Y56.665
Y56.865
Y57.065
Y57.265
Y57.465
Y57.665
X-0.499Y57.865
Y58.065
Y58.265
Y58.465
Y58.665
Y58.865
Y59.065
X-0.499Y59.265
Y59.465
Y59.665
Y59.865
Y60.065
Y60.265
X-0.499Y60.465
Y60.665
Y60.865
Y61.065
Y61.265
Y61.465
Y61.665
X-0.499Y61.865
Y62.065
Y62.265
Y62.465
Y62.665
Y62.865
Y63.065
X-0.499Y63.265
Y63.465
Y63.665
Y63.865
Y64.065
Y64.265
X-0.499Y64.465
Y64.665
Y64.865
Y65.065
Y65.265
Y65.465
Y65.665
X-0.499Y65.865
Y66.065
Y66.265
Y66.465
Y66.665
Y66.865
X-0.499Y67.065
Y67.265
Y67.465
Y67.665
Y67.865
Y68.065
Y68.265
X-0.499Y68.465
Y68.665
Y68.865
Y69.065
Y69.265
Y69.465
Y69.665
X-0.499Y69.865
Y70.065
Y70.265
Y70.465
Y70.665
Y70.865
X-0.499Y71.065
Y71.265
Y71.465
Y71.665
Y71.865
Y72.065
Y72.265
X-0.499Y72.465
Y72.665
Y72.865
Y73.065
Y73.265
Y73.465
X-0.499Y73.665
Y73.865
Y74.065
Y74.265
Y74.465
Y74.665
Y74.865
X-0.499Y75.065
Y75.265
Y75.465
Y75.665
Y75.865
Y76.065
X-0.499Y76.265
Y76.465
Y76.665
Y76.865
Y77.065
Y77.265
Y77.465
X-0.499Y77.665
Y77.865
Y78.065
Y78.265
Y78.465
Y78.665
Y78.865
X-0.499Y79.065
Y79.265
Y79.465
Y79.665
Y79.865
Y80.065
X-0.499Y80.265
Y80.465
Y80.665
Y80.865
Y81.065
Y81.265
Y81.465
X-0.499Y81.665
Y81.865
Y82.065
Y82.265
Y82.465
Y82.665
X-0.499Y82.865
Y83.065
Y83.265
Y83.465
Y83.665
Y83.865
Y84.065
X-0.499Y84.265
Y84.465
Y84.665
Y84.865
Y85.065
Y85.265
Y85.465
X-0.499Y85.665
Y85.865
Y86.065
Y86.265
Y86.465
Y86.665
X-0.499Y86.865
Y87.065
Y87.265
Y87.465
Y87.665
Y87.865
Y88.065
X-0.499Y88.265
Y88.465
Y88.665
Y88.865
Y89.065
Y89.265
X-0.499Y89.465
Y89.665
Y89.865
Y90.065
Y90.1
X-0.299
X-0.099
X0.1
X0.3
X0.5
X0.7
X0.9
X1.1
X1.3
X1.5
X1.7
X1.9
X2.1
X2.3
X2.5
X2.7
X2.9
X3.1
X3.3
X3.5
X3.7
X3.9
X4.1
X4.3
X4.5
X4.7
X4.9
X5.1
X5.3
X5.5
X5.7
X5.9
X6.1
X6.3
X6.5
X6.7
X6.9
X7.1
X7.3
X7.5
X7.7
X7.9
X8.1
X8.3
X8.5
X8.7
X8.9
X9.1
X9.3
X9.5
X9.7
X9.9
X10.1
X10.3
X10.5
X10.7
X10.9
X11.1
X11.3
X11.5
X11.7
X11.9
X12.1
X12.3
X12.5
X12.7
X12.9
X13.1
X13.3
X13.5
X13.7
X13.9
X14.1
X14.3
X14.5
X14.7
X14.9
X15.1
X15.3
X15.5
X15.7
X15.9
X16.1
X16.3
X16.5
X16.7
X16.9
X17.1
X17.3
X17.5
X17.7
X17.9
X18.1
X18.3
X18.5
X18.7
X18.9
X19.1
X19.3
X19.5
X19.7
X19.9
X20.1
X20.3
X20.5
X20.7
X20.9
X21.1
X21.3
X21.5
X21.7
X21.9
X22.1
X22.3
X22.5
X22.7
X22.9
X23.1
X23.3
X23.5
X23.7
X23.9
X24.1
X24.3
X24.5
X24.7
X24.9
X25.1
X25.3
X25.5
X25.7
X25.9
X26.1
X26.3
X26.5
X26.7
X26.9
X27.1
X27.3
X27.5
X27.7
X27.9
X28.1
X28.3
X28.5
X28.7
X28.9
X29.1
X29.3
X29.5
X29.7
X29.9
X30.1
X30.3
X30.5
X30.7
X30.9
X31.1
X31.3
X31.5
X31.7
X31.9
X32.1
X32.3
X32.5
X32.7
X32.9
X33.1
X33.3
X33.5
X33.7
X33.9
X34.1
X34.3
X34.5
X34.7
X34.9
X35.1
X35.3
X35.5
X35.7
X35.9
X36.1
X36.3
X36.5
X36.7
X36.9
X37.1
X37.3
X37.5
X37.7
X37.9
X38.1
X38.3
X38.5
X38.7
X38.9
X39.1
X39.3
X39.5
X39.7
X39.9
X40.1
X40.3
X40.5
X40.7
X40.9
X41.1
X41.3
X41.5
X41.7
X41.9
X42.1
X42.3
X42.5
X42.7
X42.9
X43.1
X43.3
X43.5
X43.7
X43.9
X44.1
X44.3
X44.5
X44.7
X44.9
X45.1
X45.3
X45.5
X45.7
X45.9
X46.1
X46.3
X46.5
X46.7
X46.9
X47.1
X47.3
X47.5
X47.7
X47.9
X48.1
X48.3
X48.5
X48.7
X48.9
X49.1
X49.3
X49.5
X49.7
X49.9
X50.1
X50.3
X50.5
X50.7
X50.9
X51.1
X51.3
X51.5
X51.7
X51.9
X52.1
X52.3
X52.5
X52.7
X52.9
X53.1
X53.3
X53.5
X53.7
X53.9
X54.1
X54.3
X54.5
X54.7
X54.9
X55.1
X55.3
X55.5
X55.7
X55.9
X56.1
X56.3
X56.5
X56.7
X56.9
X57.1
X57.3
X57.5
X57.7
X57.9
X58.1
X58.3
X58.5
X58.7
X58.9
X59.1
X59.3
X59.5
X59.7
X59.9
X60.1
X60.3
X60.5
X60.7
X60.9
X61.1
X61.3
X61.5
X61.7
X61.9
X62.1
X62.3
X62.5
X62.7
X62.9
X63.1
X63.3
X63.5
X63.7
X63.9
X64.1
X64.3
X64.5
X64.7
X64.9
X65.1
X65.3
X65.5
X65.7
X65.9
X66.1
X66.3
X66.5
X66.7
X66.9
X67.1
X67.3
X67.5
X67.7
X67.9
X68.1
X68.3
X68.5
X68.7
X68.9
X69.1
X69.3
X69.5
X69.7
X69.9
X70.1
X70.3
X70.5
X70.7
X70.9
X71.1
X71.3
X71.5
X71.7
X71.9
X72.1
X72.3
X72.5
X72.7
X72.9
X73.1
X73.3
X73.5
X73.7
X73.9Y90.1
X74.1
X74.3
X74.5
X74.7
X74.9
X75.1
X75.3
X75.5
X75.7
X75.9
X76.1
X76.3
X76.5
X76.7
X76.9
X77.1
X77.3
X77.5
X77.7
X77.9
X78.1
X78.3
X78.5
X78.7
X78.9
X79.1
X79.3
X79.5
X79.7
X79.9
X80.1
X80.3
X80.5
X80.7
X80.9
X81.1
X81.3
X81.5
X81.7
X81.9
X82.1
X82.3
X82.5
X82.7
X82.9
X83.1
X83.3
X83.5
X83.7
X83.9
X84.1
X84.3
X84.5
X84.7
X84.9
X85.1
X85.3
X85.5
X85.7
X85.9
X86.1
X86.3
X86.5
X86.7
X86.9
X87.1
X87.3
X87.5
X87.7
X87.9
X88.1
X88.3
X88.5
X88.7
X88.9
X89.1
X89.3
X89.5
X89.7
X89.9
X90.1
X90.3
X90.5
X90.7
X90.9
X91.1
X91.3
X91.5
X91.7
X91.9
X92.1
X92.3
X92.5
X92.7
X92.9
X93.1
X93.3
X93.5
X93.7
X93.9
X94.1
X94.3
X94.5
X94.7
X94.9
X95.1
X95.3
X95.5
X95.7
X95.9
X96.1
X96.3
X96.5
X96.7
X96.9
X97.1
X97.3
X97.5
X97.7
X97.9
X98.1
X98.3
X98.5
X98.7
X98.9
X99.1
X99.3
X99.5
X99.7
X99.9
X100.1
X100.3
X100.5
X100.7
X100.9
X101.1
X101.3
X101.5
X101.7
X101.9
X102.1
X102.3
X102.5
X102.7
X102.9
X103.1
X103.3
X103.5
X103.7
X103.9
X104.1
X104.3
X104.5
X104.7
X104.9
X105.1
X105.3
X105.5
X105.7
X105.9
X106.1
X106.3
X106.5
X106.7
X106.9
X107.1
X107.3
X107.5
X107.7
X107.9
X108.1
X108.3
X108.5
X108.7
X108.9
X109.1
X109.3
X109.5
X109.7
X109.9
X110.1
X110.3
X110.5
X110.7
X110.9
X111.1
X111.3
X111.5
X111.7
X111.9
X112.1
X112.3
X112.5
X112.7
X112.9
X113.1
X113.3
X113.5
X113.7
X113.9
X114.1
X114.3
X114.5
X114.7
X114.9
X115.1
X115.3
X115.5
X115.7
X115.9
X116.1
X116.3
X116.5
X116.7
X116.9
X117.1
X117.3
X117.5
X117.7
X117.9
X118.1
X118.3
X118.5
X118.7
X118.9
X119.1
X119.3
X119.5
X119.7
X119.9
X120.1
X120.3
X120.5
X120.7
X120.9
X121.1
X121.3
X121.5
X121.7
X121.9
X122.1
X122.3
X122.5
X122.7
X122.9
X123.1
X123.3
X123.5
X123.7
X123.9
X124.1
X124.3
X124.5
X124.7
X124.9
X125.1
X125.3
X125.5
X125.7
X125.9
X126.1
X126.3
X126.5
X126.7
X126.9
X127.1
X127.3
X127.5
X127.7
X127.9
X128.1
X128.3
X128.5
X128.7
X128.9
X129.1
X129.3
X129.5
X129.7
X129.9
X130.1
X130.3
X130.5
X130.7
X130.9
X131.1
X131.3
X131.5
X131.7
X131.9
X132.1
X132.3
X132.5
X132.7
X132.9
X133.1
X133.3
X133.5
X133.7
X133.9
X134.1
X134.3
X134.5
X134.7
X134.9
X135.1
X135.3
X135.5
X135.7
X135.9
X136.1
X136.3
X136.5
X136.7
X136.9
X137.1
X137.3
X137.5
X137.7
X137.9
X138.1
X138.3
X138.5
X138.7
X138.9
X139.1
X139.3
X139.5
X139.7
X139.9
X140.1
X140.3
X140.5
X140.7
X140.9
X141.1
X141.3
X141.5
X141.7
X141.9
X142.1
X142.3
X142.5
X142.7
X142.9
X143.1
X143.3
X143.5
X143.7
X143.9
X144.1
X144.3
X144.5
X144.7
X144.9
X145.1
X145.3
X145.5
X145.7
X145.9
X146.1
X146.3
X146.5
X146.7
X146.9
X147.1
X147.3
X147.5
X147.7
X147.9
X148
Y89.9
Y89.7
Y89.5
Y89.3
Y89.1
Y88.9
Y88.7
Y88.5
Y88.3
Y88.1
Y87.9
Y87.7
Y87.5
Y87.3
Y87.1
Y86.9
Y86.7
Y86.5
Y86.3
Y86.1
Y85.9
Y85.7
Y85.5
Y85.3
Y85.1
Y84.9
Y84.7
Y84.5
Y84.3
Y84.1
Y83.9
Y83.7
Y83.5
Y83.3
Y83.1
Y82.9
Y82.7
Y82.5
Y82.3
Y82.1
Y81.9
Y81.7
Y81.5
Y81.3
Y81.1
Y80.9
Y80.7
Y80.5
Y80.3
Y80.1
Y79.9
Y79.7
Y79.5
Y79.3
Y79.1
Y78.9
Y78.7
Y78.5
Y78.3
Y78.1
Y77.9
Y77.7
Y77.5
Y77.3
Y77.1
Y76.9
Y76.7
Y76.5
Y76.3
Y76.1
Y75.9
Y75.7
Y75.5
Y75.3
Y75.1
Y74.9
Y74.7
Y74.5
Y74.3
Y74.1
Y73.9
Y73.7
Y73.5
Y73.3
Y73.1
Y72.9
Y72.7
Y72.5
Y72.3
Y72.1
Y71.9
Y71.7
Y71.5
Y71.3
Y71.1
Y70.9
Y70.7
Y70.5
Y70.3
Y70.1
Y69.9
Y69.7
Y69.5
Y69.3
Y69.1
Y68.9
Y68.7
Y68.5
Y68.3
Y68.1
Y67.9
Y67.7
Y67.5
Y67.3
Y67.1
Y66.9
Y66.7
Y66.5
Y66.3
Y66.1
Y65.9
Y65.7
Y65.5
Y65.3
Y65.1
Y64.9
Y64.7
Y64.5
Y64.3
Y64.1
Y63.9
Y63.7
Y63.5
Y63.3
Y63.1
Y62.9
Y62.7
Y62.5
Y62.3
Y62.1
Y61.9
Y61.7
Y61.5
Y61.3
Y61.1
Y60.9
Y60.7
Y60.5
Y60.3
Y60.1
Y59.9
Y59.7
Y59.5
Y59.3
Y59.1
Y58.9
Y58.7
Y58.5
Y58.3
Y58.1
Y57.9
Y57.7
Y57.5
Y57.3
Y57.1
Y56.9
Y56.7
Y56.5
Y56.3
Y56.1
Y55.9
Y55.7
Y55.5
Y55.3
Y55.1
Y54.9
Y54.7
Y54.5
Y54.3
Y54.1
Y53.9
Y53.7
Y53.5
Y53.3
Y53.1
Y52.9
Y52.7
Y52.5
Y52.3
Y52.1
Y51.9
Y51.7
Y51.5
Y51.3
Y51.1
Y50.9
Y50.7
Y50.5
Y50.3
Y50.1
Y49.9
Y49.7
Y49.5
Y49.3
Y49.1
Y48.9
Y48.7
Y48.5
Y48.3
Y48.1
Y47.9
Y47.7
Y47.5
Y47.3
Y47.1
Y46.9
Y46.7
Y46.5
Y46.3
Y46.1
Y45.9
Y45.7
Y45.5
Y45.3
Y45.1
Y44.9
Y44.7
Y44.5
Y44.3
Y44.1
Y43.9
Y43.7
Y43.5
Y43.3
Y43.1
Y42.9
Y42.7
Y42.5
Y42.3
Y42.1
Y41.9
Y41.7
Y41.5
Y41.3
Y41.1
Y40.9
Y40.7
Y40.5
Y40.3
Y40.1
Y39.9
Y39.7
Y39.5
Y39.3
Y39.1
Y38.9
Y38.7
Y38.5
Y38.3
Y38.1
Y37.9
Y37.7
Y37.5
Y37.3
Y37.1
Y36.9
Y36.7
Y36.5
Y36.3
Y36.1
Y35.9
Y35.7
Y35.5
Y35.3
Y35.1
Y34.9
Y34.7
Y34.5
Y34.3
Y34.1
Y33.9
Y33.7
Y33.5
Y33.3
Y33.1
Y32.9
Y32.7
Y32.5
Y32.3
Y32.1
Y31.9
Y31.7
Y31.5
Y31.3
Y31.1
Y30.9
Y30.7
Y30.5
Y30.3
Y30.1
Y29.9
Y29.7
Y29.5
Y29.3
Y29.1
Y28.9
Y28.7
Y28.5
Y28.3
Y28.1
Y27.9
Y27.7
Y27.5
Y27.3
Y27.1
Y26.9
Y26.7
Y26.5
Y26.3
Y26.1
Y25.9
Y25.7
Y25.5
Y25.3
Y25.1
Y24.9
Y24.7
Y24.5
Y24.3
Y24.1
Y23.9
Y23.7
Y23.5
Y23.3
Y23.1
Y22.9
Y22.7
Y22.5
Y22.3
Y22.1
Y21.9
Y21.7
Y21.5
Y21.3
Y21.1
Y20.9
Y20.7
Y20.5
Y20.3
Y20.1
Y19.9
Y19.7
Y19.5
Y19.3
Y19.1
Y18.9
Y18.7
Y18.5
Y18.3
Y18.1
Y17.9
Y17.7
Y17.5
Y17.3
Y17.1
Y16.9
Y16.7
Y16.5
Y16.3
Y16.1
Y15.9
Y15.7
Y15.5
Y15.3
Y15.1
Y14.9
Y14.7
Y14.5
Y14.3
Y14.1
Y13.9
Y13.7
Y13.5
Y13.3
Y13.1
Y12.9
Y12.7
Y12.5
Y12.3
Y12.1
Y11.9
Y11.7
Y11.5
Y11.3
Y11.1
Y10.9
Y10.7
Y10.5
Y10.3
Y10.1
Y9.9
Y9.7
Y9.5
Y9.3
Y9.1
Y8.9
Y8.7
Y8.5
Y8.3
Y8.1
Y7.9
Y7.7
Y7.5
Y7.3
Y7.1
Y6.9
Y6.7
Y6.5
Y6.3
Y6.1
Y5.9
Y5.7
Y5.5
Y5.3
Y5.1
Y4.9
Y4.7
Y4.5
Y4.3
Y4.1
Y3.9
Y3.7
Y3.5
Y3.3
Y3.1
Y2.9
Y2.7
Y2.5
Y2.3
Y2.1
Y1.9
Y1.7
Y1.5
Y1.3
Y1.1
Y0.9
Y0.7
Y0.5
Y0.3
Y0.1
Y-0.099
Y-0.299
Y-0.499
X147.8
X147.6
X147.4
X147.2
X147
X146.8
X146.6
X146.4
X146.2
X146
X145.8Y-0.499
X145.6
X145.4
X145.2
X145
X144.8
X144.6
X144.4
X144.2
X144
X143.8
X143.6
X143.4
X143.2
X143
X142.8
X142.6
X142.4
X142.2
X142
X141.8
X141.6Y-0.499
X141.4
X141.2
X141
X140.8
X140.6
X140.4
X140.2
X140
X139.8
X139.6
X139.4
X139.2
X139
X138.8
X138.6
X138.4
X138.2
X138
X137.8
X137.6
X137.4Y-0.499
X137.2
X137
X136.8
X136.6
X136.4
X136.2
X136
X135.8
X135.6
X135.4
X135.2
X135
X134.8
X134.6
X134.4
X134.2
X134
X133.8
X133.6
X133.4
X133.2Y-0.499
X133
X132.8
X132.6
X132.4
X132.2
X132
X131.8
X131.6
X131.4
X131.2
X131
X130.8
X130.6
X130.4
X130.2
X130
X129.8
X129.6
X129.4
X129.2
X129Y-0.499
X128.8
X128.6
X128.4
X128.2
X128
X127.8
X127.6
X127.4
X127.2
X127
X126.8
X126.6
X126.4
X126.2
X126
X125.8
X125.6
X125.4
X125.2
X125
X124.8Y-0.499
X124.6
X124.4
X124.2
X124
X123.8
X123.6
X123.4
X123.2
X123
X122.8
X122.6
X122.4
X122.2
X122
X121.8
X121.6
X121.4
X121.2
X121
X120.8
X120.6Y-0.499
X120.4
X120.2
X120
X119.8
X119.6
X119.4
X119.2
X119
X118.8
X118.6
X118.4
X118.2
X118
X117.8
X117.6
X117.4
X117.2
X117
X116.8
X116.6Y-0.499
X116.4
X116.2
X116
X115.8
X115.6
X115.4
X115.2
X115
X114.8
X114.6
X114.4
X114.2
X114
X113.8
X113.6
X113.4
X113.2
X113
X112.8
X112.6
X112.4Y-0.499
X112.2
X112
X111.8
X111.6
X111.4
X111.2
X111
X110.8
X110.6
X110.4
X110.2
X110
X109.8
X109.6
X109.4
X109.2
X109
X108.8
X108.6
X108.4
X108.2Y-0.499
X108
X107.8
X107.6
X107.4
X107.2
X107
X106.8
X106.6
X106.4
X106.2
X106
X105.8
X105.6
X105.4
X105.2
X105
X104.8
X104.6
X104.4
X104.2
X104Y-0.499
X103.8
X103.6
X103.4
X103.2
X103
X102.8
X102.6
X102.4
X102.2
X102
X101.8
X101.6
X101.4
X101.2
X101
X100.8
X100.6
X100.4
X100.2
X100
X99.8Y-0.499
X99.6
X99.4
X99.2
X99
X98.8
X98.6
X98.4
X98.2
X98
X97.8
X97.6
X97.4
X97.2
X97
X96.8
X96.6
X96.4
X96.2
X96
X95.8
X95.6Y-0.499
X95.4
X95.2
X95
X94.8
X94.6
X94.4
X94.2
X94
X93.8
X93.6
X93.4
X93.2
X93
X92.8
X92.6
X92.4
X92.2
X92
X91.8
X91.6
X91.4Y-0.499
X91.2
X91
X90.8
X90.6
X90.4
X90.2
X90
X89.8
X89.6
X89.4
X89.2
X89
X88.8
X88.6
X88.4
X88.2
X88
X87.8
X87.6
X87.4
X87.2Y-0.499
X87
X86.8
X86.6
X86.4
X86.2
X86
X85.8
X85.6
X85.4
X85.2
X85
X84.8
X84.6
X84.4
X84.2
X84
X83.8
X83.6
X83.4
X83.2
X83Y-0.499
X82.8
X82.6
X82.4
X82.2
X82
X81.8
X81.6
X81.4
X81.2
X81
X80.8
X80.6
X80.4
X80.2
X80
X79.8
X79.6
X79.4
X79.2
X79
X78.8Y-0.499
X78.6
X78.4
X78.2
X78
X77.8
X77.6
X77.4
X77.2
X77
X76.8
X76.6
X76.4
X76.2
X76
X75.8
X75.6
X75.4
X75.2
X75
X74.8
X74.6Y-0.499
X74.4
X74.2
X74
X73.8
X73.6
X73.4
X73.2
X73
X72.8
X72.6
X72.4
X72.2
X72
X71.8
X71.6
X71.4
X71.2
X71
X70.8
X70.6
X70.4Y-0.499
X70.2
X70
X69.8
X69.6
X69.4
X69.2
X69
X68.8
X68.6
X68.4
X68.2
X68
X67.8
X67.6
X67.4
X67.2
X67
X66.8
X66.6
X66.4
X66.2Y-0.499
X66
X65.8
X65.6
X65.4
X65.2
X65
X64.8
X64.6
X64.4
X64.2
X64
X63.8
X63.6
X63.4
X63.2
X63
X62.8
X62.6
X62.4
X62.2
X62Y-0.499
X61.8
X61.6
X61.4
X61.2
X61
X60.8
X60.6
X60.4
X60.2
X60
X59.8
X59.6
X59.4
X59.2
X59
X58.8
X58.6
X58.4
X58.2
X58
X57.8Y-0.499
X57.6
X57.4
X57.2
X57
X56.8
X56.6
X56.4
X56.2
X56
X55.8
X55.6
X55.4
X55.2
X55
X54.8
X54.6
X54.4
X54.2
X54
X53.8Y-0.499
X53.6
X53.4
X53.2
X53
X52.8
X52.6
X52.4
X52.2
X52
X51.8
X51.6
X51.4
X51.2
X51
X50.8
X50.6
X50.4
X50.2
X50
X49.8
X49.6Y-0.499
X49.4
X49.2
X49
X48.8
X48.6
X48.4
X48.2
X48
X47.8
X47.6
X47.4
X47.2
X47
X46.8
X46.6
X46.4
X46.2
X46
X45.8
X45.6
X45.4Y-0.499
X45.2
X45
X44.8
X44.6
X44.4
X44.2
X44
X43.8
X43.6
X43.4
X43.2
X43
X42.8
X42.6
X42.4
X42.2
X42
X41.8
X41.6
X41.4
X41.2Y-0.499
X41
X40.8
X40.6
X40.4
X40.2
X40
X39.8
X39.6
X39.4
X39.2
X39
X38.8
X38.6
X38.4
X38.2
X38
X37.8
X37.6
X37.4
X37.2
X37Y-0.499
X36.8
X36.6
X36.4
X36.2
X36
X35.8
X35.6
X35.4
X35.2
X35
X34.8
X34.6
X34.4
X34.2
X34
X33.8
X33.6
X33.4
X33.2
X33
X32.8Y-0.499
X32.6
X32.4
X32.2
X32
X31.8
X31.6
X31.4
X31.2
X31
X30.8
X30.6
X30.4
X30.2
X30
X29.8
X29.6
X29.4
X29.2
X29
X28.8
X28.6Y-0.499
X28.4
X28.2
X28
X27.8
X27.6
X27.4
X27.2
X27
X26.8
X26.6
X26.4
X26.2
X26
X25.8
X25.6
X25.4
X25.2
X25
X24.8
X24.6
X24.4Y-0.499
X24.2
X24
X23.8
X23.6
X23.4
X23.2
X23
X22.8
X22.6
X22.4
X22.2
X22
X21.8
X21.6
X21.4
X21.2
X21
X20.8
X20.6
X20.4
X20.2Y-0.499
X20
X19.8
X19.6
X19.4
X19.2
X19
X18.8
X18.6
X18.4
X18.224
X18.034Y-0.499Z-2.562
X17.844Y-0.499Z-2.625
X17.654Y-0.499Z-2.688
X17.464Y-0.499Z-2.751
X17.275Y-0.499Z-2.813
X17.085Y-0.499Z-2.876
X16.895Y-0.499Z-2.939
X16.705Y-0.499Z-3.002
X16.515Y-0.499Z-3.065
X16.325Y-0.499Z-3.127
X16.135Y-0.499Z-3.19
X15.985Y-0.499Z-3.24
X15.8Y-0.49Z-3.315
X15.615Y-0.481Z-3.39
X15.429Y-0.472Z-3.465
X15.244Y-0.462Z-3.54
X15.059Y-0.453Z-3.615
X14.874Y-0.444Z-3.69
X14.689Y-0.435Z-3.765
X14.504Y-0.426Z-3.84
X14.377Y-0.42Z-3.892
X14.191Y-0.392Z-3.961
X14.005Y-0.364Z-4.03
X13.82Y-0.337Z-4.099
X13.634Y-0.309Z-4.168
X13.448Y-0.282Z-4.237
X13.263Y-0.254Z-4.306
X13.077Y-0.226Z-4.375
X12.891Y-0.199Z-4.444
X12.776Y-0.182Z-4.487
X12.591Y-0.135Z-4.55
X12.407Y-0.089Z-4.613
X12.223Y-0.043Z-4.675
X12.039Y0.002Z-4.738
X11.854Y0.049Z-4.8
X11.67Y0.095Z-4.863
X11.486Y0.141Z-4.926
X11.302Y0.187Z-4.988
X11.205Y0.211Z-5.021
X11.025Y0.276Z-5.077
X10.844Y0.341Z-5.133
X10.663Y0.405Z-5.19
X10.483Y0.47Z-5.246
X10.302Y0.535Z-5.302
X10.121Y0.599Z-5.358
X10.037Y0.63Z-5.384
X9.854Y0.695Z-5.433
X9.682Y0.757Z-5.48
X9.505Y0.841Z-5.518
X9.327Y0.925Z-5.556
X9.15Y1.009Z-5.594
X8.972Y1.093Z-5.632
X8.795Y1.177Z-5.671
X8.617Y1.261Z-5.709
X8.44Y1.345Z-5.747
X8.262Y1.429Z-5.785
X8.219Y1.449Z-5.794
X8.05Y1.551Z-5.826
X7.88Y1.652Z-5.858
X7.711Y1.754Z-5.89
X7.542Y1.855Z-5.922
X7.372Y1.957Z-5.954
X7.203Y2.058Z-5.986
X7.034Y2.16Z-6.018
X6.864Y2.261Z-6.05
X6.831Y2.281Z-6.056
X6.671Y2.4Z-6.082
X6.512Y2.518Z-6.107
X6.353Y2.636Z-6.132
X6.193Y2.754Z-6.158
X6.034Y2.872Z-6.183
X5.875Y2.991Z-6.208
X5.715Y3.109Z-6.234
X5.556Y3.227Z-6.259
X5.531Y3.246Z-6.263
X5.383Y3.38Z-6.281
X5.236Y3.513Z-6.3
X5.088Y3.647Z-6.318
X4.94Y3.781Z-6.336
X4.793Y3.915Z-6.355
X4.645Y4.048Z-6.373
X4.498Y4.182Z-6.391
X4.35Y4.316Z-6.41
X4.331Y4.333Z-6.412
G0Z2
 
