(Created with grbl post processor 2023/10/16 22:15)
G21
(G-code generated with BlenderCAM and NC library)
G17G90
(Tool: D = 1.0 mm  type END flutes 2)
S12000M03
G00 Z2.0

G0X0Y0Z2
X0.209Y44.968
G1Z-5.056F50
X0.209Z-4.856F100
X0.209Z-4.656
X0.209Z-4.456
X0.209Y44.968Z-4.256
X0.209Z-4.056
X0.209Z-3.856
X0.209Z-3.656
X0.209Z-3.456
X0.209Z-3.256
X0.209Z-3.056
X0.209Z-2.856
X0.209Y44.968Z-2.656
X0.209Z-2.456
X0.209Z-2.256
X0.209Z-2.1
X0.351Z-1.958
X0.492Z-1.817
X0.633Z-1.675
X0.775Z-1.534
X0.916Z-1.392
X1.058Z-1.251
X1.199Z-1.11
X1.34Z-0.968
X1.482Z-0.827
X1.623Z-0.685
X1.765Z-0.544
X1.906Z-0.402
X2.048Z-0.261
X2.109Z-0.2
X2.309Z-0.2
X2.509Z-0.2
X2.709Y44.968Z-0.2
X2.909Z-0.2
X2.937Z-0.2
G0Z2
X0.209Y46.718
G1Z-5.056F50
X0.209Z-4.856F100
X0.209Z-4.656
X0.209Z-4.456
X0.209Y46.718Z-4.256
X0.209Z-4.056
X0.209Z-3.856
X0.209Z-3.656
X0.209Z-3.456
X0.209Z-3.256
X0.209Z-3.056
X0.209Z-2.856
X0.209Y46.718Z-2.656
X0.209Z-2.456
X0.209Z-2.256
X0.209Z-2.1
X0.351Z-1.958
X0.492Z-1.817
X0.633Z-1.675
X0.775Z-1.534
X0.916Z-1.392
X1.058Z-1.251
X1.199Z-1.11
X1.34Z-0.968
X1.482Z-0.827
X1.623Z-0.685
X1.765Z-0.544
X1.906Z-0.402
X2.048Z-0.261
X2.109Z-0.2
X2.309Z-0.2
X2.509Z-0.2
X2.709Y46.718Z-0.2
X2.909Z-0.2
X2.937Z-0.2
G0Z2
X0.209Y48.468
G1Z-5.056F50
X0.209Z-4.856F100
X0.209Z-4.656
X0.209Z-4.456
X0.209Y48.468Z-4.256
X0.209Z-4.056
X0.209Z-3.856
X0.209Z-3.656
X0.209Z-3.456
X0.209Z-3.256
X0.209Z-3.056
X0.209Z-2.856
X0.209Y48.468Z-2.656
X0.209Z-2.456
X0.209Z-2.256
X0.209Z-2.1
X0.351Z-1.958
X0.492Z-1.817
X0.633Z-1.675
X0.775Z-1.534
X0.916Z-1.392
X1.058Z-1.251
X1.199Z-1.11
X1.34Z-0.968
X1.482Z-0.827
X1.623Z-0.685
X1.765Z-0.544
X1.906Z-0.402
X2.048Z-0.261
X2.109Z-0.2
X2.309Z-0.2
X2.509Z-0.2
X2.709Y48.468Z-0.2
X2.909Z-0.2
X2.937Z-0.2
G0Z2
X139.316Y89.1
G1Z-6F50
Z-5.8F100
Z-5.6
Z-5.4
Z-5.2
Z-5
Z-4.8
Z-4.6
Z-4.4
Z-4.2
Z-4
Z-3.8
Z-3.6
Z-3.4
Z-3.2
Z-3
Z-2.8
Z-2.6
Z-2.4
Y88.959Z-2.258
Y88.817Z-2.117
Y88.676Z-1.975
Y88.534Z-1.834
Y88.393Z-1.692
Y88.251Z-1.551
Y88.11Z-1.41
Y87.969Z-1.268
Y87.827Z-1.127
Y87.686Z-0.985
Y87.544Z-0.844
Y87.403Z-0.702
Y87.261Z-0.561
Y87.2Z-0.5
Y87
Y86.8
Y86.6
Y86.4
Y86.2
Y86
Y85.8
Y85.6
Y85.4
Y85.2
Y85
Y84.8
Y84.6
Y84.4
Y84.2
Y84
Y83.8
Y83.6
Y83.4
Y83.2
Y83
Y82.8
Y82.6
Y82.4
Y82.2
Y82
Y81.8
Y81.6
Y81.4
Y81.2
Y81
Y80.8
Y80.6
Y80.4
Y80.2
Y80
Y79.8
Y79.6
Y79.4
Y79.2
Y79
Y78.8
Y78.6
Y78.4
Y78.2
Y78
Y77.8
Y77.6
Y77.4
Y77.2
Y77
Y76.8
Y76.6
Y76.4
Y76.2
Y76
Y75.8
Y75.6
Y75.4
Y75.2
Y75
Y74.8
Y74.6
Y74.4
Y74.2
Y74
Y73.8
Y73.6
Y73.4
Y73.2
Y73
Y72.8
Y72.6
Y72.4
Y72.2
Y72
Y71.8
Y71.6
Y71.4
Y71.2
Y71
Y70.8
Y70.6
Y70.4
Y70.2
Y70
Y69.8
Y69.6
Y69.4
Y69.2
Y69
Y68.8
Y68.6
Y68.4
Y68.2
Y68
Y67.8
Y67.6
Y67.4
Y67.2
Y67
Y66.8
Y66.6
Y66.4
Y66.2
Y66
Y65.8
Y65.6
Y65.4
Y65.2
Y65
Y64.8
Y64.6
Y64.4
Y64.2
Y64
Y63.8
Y63.6
Y63.4
Y63.2
Y63
Y62.8
Y62.6
Y62.4
Y62.2
Y62
Y61.8
Y61.6
Y61.4
Y61.2
Y61
Y60.8
Y60.6
Y60.4
Y60.2
Y60
Y59.8
Y59.6
Y59.4
Y59.2
Y59
Y58.8
Y58.6
Y58.4
Y58.2
Y58
Y57.8
Y57.6
Y57.4
Y57.2
Y57
Y56.8
Y56.6
Y56.4
Y56.2
Y56
Y55.8
Y55.6
Y55.4
Y55.2
Y55
Y54.8
Y54.6
Y54.4
Y54.2
Y54
Y53.8
Y53.6
Y53.4
Y53.2
Y53
Y52.8
Y52.6
Y52.4
Y52.2
Y52
Y51.8
Y51.6
Y51.4
Y51.2
Y51
Y50.8
Y50.6
Y50.4
Y50.2
Y50
Y49.8
Y49.6
Y49.4
Y49.2
Y49
Y48.8
Y48.6
Y48.4
Y48.2
Y48
Y47.8
Y47.6
Y47.4
Y47.2
Y47
Y46.8
Y46.6
Y46.4
Y46.2
Y46
Y45.8
Y45.6
Y45.4
Y45.2
Y45
Y44.8
Y44.6
Y44.4
Y44.2
Y44
Y43.8
Y43.6
Y43.4
Y43.2
Y43
Y42.8
Y42.6
Y42.4
Y42.2
Y42
Y41.8
Y41.6
Y41.4
Y41.2
Y41
Y40.8
Y40.6
Y40.4
Y40.2
Y40
Y39.8
Y39.6
Y39.4
Y39.2
Y39
Y38.8
Y38.6
Y38.4
Y38.2
Y38
Y37.8
Y37.6
Y37.4
Y37.2
Y37
Y36.8
Y36.6
Y36.4
Y36.2
Y36
Y35.8
Y35.6
Y35.4
Y35.2
Y35
Y34.8
Y34.6
Y34.4
Y34.2
Y34
Y33.8
Y33.6
Y33.4
Y33.2
Y33
Y32.8
Y32.6
Y32.4
Y32.2
Y32
Y31.8
Y31.6
Y31.4
Y31.2
Y31
Y30.8
Y30.6
Y30.4
Y30.2
Y30
Y29.8
Y29.6
Y29.4
Y29.2
Y29
Y28.8
Y28.6
Y28.4
Y28.2
Y28
Y27.8
Y27.6
Y27.4
Y27.2
Y27
Y26.8
Y26.6
Y26.4
Y26.2
Y26
Y25.8
Y25.6
Y25.4
Y25.2
Y25
Y24.8
Y24.6
Y24.4
Y24.2
Y24
Y23.8
Y23.6
Y23.4
Y23.2
Y23
Y22.8
Y22.6
Y22.4
Y22.2
Y22
Y21.8
Y21.6
Y21.4
Y21.2
Y21
Y20.8
Y20.6
Y20.4
Y20.2
Y20
Y19.8
Y19.6
Y19.4
Y19.2
Y19
Y18.8
Y18.6
Y18.4
Y18.2
Y18
Y17.8
Y17.6
Y17.4
Y17.2
Y17
Y16.8
Y16.6
Y16.4
Y16.2
Y16
Y15.8
Y15.6
Y15.4
Y15.2
Y15
Y14.8
Y14.6
Y14.4
Y14.2
Y14
Y13.8
Y13.6
Y13.4
Y13.2
Y13
Y12.8
Y12.6
Y12.4
Y12.2
Y12
Y11.8
Y11.6
Y11.4
Y11.2
Y11
Y10.8
Y10.6
Y10.4
Y10.2
Y10
Y9.8
Y9.6
Y9.4
Y9.2
Y9
Y8.8
Y8.6
Y8.4
Y8.2
Y8
Y7.8
Y7.6
Y7.4
Y7.2
Y7
Y6.8
Y6.6
Y6.4
Y6.2
Y6
Y5.8
Y5.6
Y5.4
Y5.2
Y5
Y4.8
Y4.6
Y4.4
Y4.2
Y4
Y3.8
Y3.6
Y3.4
Y3.2
Y3
Y2.8
Y2.6
Y2.4
Y2.258Z-0.641F50
Y2.117Z-0.782
Y1.976Z-0.924
Y1.834Z-1.065
Y1.693Z-1.207
Y1.551Z-1.348
Y1.41Z-1.489
Y1.269Z-1.631
Y1.127Z-1.772
Y0.986Z-1.914
Y0.844Z-2.055
Y0.703Z-2.197
Y0.561Z-2.338
Y0.5Z-2.4
Z-2.6
Z-2.8
Z-3
Z-3.2
Z-3.4
Z-3.6
Z-3.8
Z-4
Z-4.2
Z-4.4
Z-4.6
Z-4.8
Z-5
Z-5.2
Z-5.4
Z-5.6
Z-5.8
Z-6
G0Z2
X146.996Y7.8
G1Z-6
Z-5.8F100
Y7.8Z-5.6
Z-5.4
Y7.8Z-5.2
Z-5
Y7.8Z-4.8
Z-4.6
Y7.8Z-4.4
Z-4.2
Z-4
Y7.8Z-3.8
Z-3.6
Y7.8Z-3.4
Z-3.2
Y7.8Z-3
Z-2.8
Y7.8Z-2.6
Z-2.4
Z-2.399
X146.854Y7.8Z-2.258
X146.713Z-2.117
X146.571Y7.8Z-1.975
X146.43Z-1.834
X146.289Y7.8Z-1.692
X146.147Y7.8Z-1.551
X146.006Z-1.41
X145.864Y7.8Z-1.268
X145.723Z-1.127
X145.581Y7.8Z-0.985
X145.44Y7.8Z-0.844
X145.299Z-0.702
X145.157Y7.8Z-0.561
X145.096Z-0.499
X144.896Z-0.499
X144.696Y7.8Z-0.499
X144.496Z-0.499
X144.296Z-0.499
X144.096Z-0.499
X143.896Y7.8Z-0.499
X143.696Z-0.499
X143.496Z-0.5
X143.296Z-0.5
X143.096Y7.8Z-0.5
X142.896Z-0.5
X142.696Z-0.5
X142.496Y7.8Z-0.5
X142.296Z-0.5
X142.096Z-0.5
X141.896Z-0.5
X141.696Y7.8Z-0.5
X141.496Z-0.5
X141.296Z-0.5
X141.096Y7.8Z-0.5
X140.896Z-0.5
X140.696Z-0.5
X140.496Z-0.5
X140.296Y7.8Z-0.5
X140.096Z-0.5
X139.896Z-0.5
X139.696Z-0.5
X139.496Y7.8Z-0.5
X139.317Z-0.5
G0Z2
X147.302Y73.3
G1Z-6F50
Z-5.8F100
Z-5.6
Z-5.4
Z-5.2
Z-5
Z-4.8
Z-4.6
Z-4.4
Z-4.2
Y73.3Z-4
Z-3.8
Z-3.6
Z-3.4
Z-3.2
Z-3
Z-2.8
Z-2.6
Z-2.4
Z-2.2
Z-2.099
X147.16Z-1.958
X147.019Z-1.817
X146.877Z-1.675
X146.736Z-1.534
X146.595Z-1.392
X146.453Z-1.251
X146.312Z-1.11
X146.17Z-0.968
X146.029Z-0.827
X145.888Z-0.685
X145.746Z-0.544
X145.605Z-0.402
X145.463Z-0.261
X145.402Z-0.199
X145.202Z-0.199
X145.002Z-0.2
X144.802Z-0.2
X144.602Z-0.2
X144.574Z-0.2
G0Z2
X147.302Y75.05
G1Z-6F50
Z-5.8F100
Z-5.6
Z-5.4
Z-5.2
Z-5
Z-4.8
Z-4.6
Z-4.4
Z-4.2
Y75.05Z-4
Z-3.8
Z-3.6
Z-3.4
Z-3.2
Z-3
Z-2.8
Z-2.6
Z-2.4
Z-2.2
Z-2.099
X147.16Z-1.958
X147.019Z-1.817
X146.877Z-1.675
X146.736Z-1.534
X146.595Z-1.392
X146.453Z-1.251
X146.312Z-1.11
X146.17Z-0.968
X146.029Z-0.827
X145.888Z-0.685
X145.746Z-0.544
X145.605Z-0.402
X145.463Z-0.261
X145.402Z-0.199
X145.202Z-0.199
X145.002Z-0.2
X144.802Z-0.2
X144.602Z-0.2
X144.574Z-0.2
G0Z2
X147.302Y76.8
G1Z-6F50
Z-5.8F100
Z-5.6
Z-5.4
Z-5.2
Z-5
Z-4.8
Z-4.6
Z-4.4
Z-4.2
Z-4
Z-3.8
Z-3.6
Z-3.4
Z-3.2
Z-3
Z-2.8
Z-2.6
Z-2.4
Z-2.2
Z-2.099
X147.16Z-1.958
X147.019Z-1.817
X146.877Z-1.675
X146.736Z-1.534
X146.595Z-1.392
X146.453Z-1.251
X146.312Y76.8Z-1.11
X146.17Z-0.968
X146.029Z-0.827
X145.888Z-0.685
X145.746Z-0.544
X145.605Z-0.402
X145.463Z-0.261
X145.402Z-0.199
X145.202Z-0.199
X145.002Z-0.2
X144.802Y76.8Z-0.2
X144.602Z-0.2
X144.574Z-0.2
G0Z2
X146.996Y81.8
G1Z-6F50
Z-5.8F100
Z-5.6
Z-5.4
Z-5.2
Z-5
Z-4.8
Z-4.6
Z-4.4
Z-4.2
Y81.8Z-4
Z-3.8
Z-3.6
Z-3.4
Z-3.2
Z-3
Z-2.8
Z-2.6
Z-2.4
Z-2.399
X146.854Z-2.258
X146.713Z-2.117
X146.571Z-1.975
X146.43Z-1.834
X146.289Z-1.692
X146.147Z-1.551
X146.006Z-1.41
X145.864Z-1.268
X145.723Z-1.127
X145.581Z-0.985
X145.44Z-0.844
X145.299Z-0.702
X145.157Z-0.561
X145.096Z-0.499
X144.896Z-0.499
X144.696Z-0.499
X144.496Z-0.499
X144.296Z-0.499
X144.096Z-0.499
X143.896Z-0.499
X143.696Z-0.499
X143.496Z-0.5
X143.296Z-0.5
X143.096Z-0.5
X142.896Z-0.5
X142.696Z-0.5
X142.496Z-0.5
X142.296Z-0.5
X142.096Z-0.5
X141.896Z-0.5
X141.696Z-0.5
X141.496Z-0.5
X141.296Z-0.5
X141.096Z-0.5
X140.896Z-0.5
X140.696Z-0.5
X140.496Z-0.5
X140.296Z-0.5
X140.096Z-0.5
X139.896Z-0.5
X139.696Z-0.5
X139.496Z-0.5
X139.344Z-0.5
G0Z2
 
