(Created with grbl post processor 2023/10/13 00:47)
G21
(G-code generated with BlenderCAM and NC library)
G17G90
(Tool: D = 1.6 mm  type VCARVE flutes 2)
S12000M03
G00 Z4.0

G0X0Y0Z4
X35.553Y22.448
G1Z-0.042F150
X35.579Y22.446Z-0.117
X35.596Y22.438Z-0.165
X35.609Y22.437Z-0.204
X35.638Y22.429Z-0.285
X35.639Y22.428Z-0.29
X35.668Y22.421Z-0.372
X35.677Y22.418Z-0.396
X35.698Y22.414Z-0.456
X35.716Y22.408Z-0.506
X35.728Y22.406Z-0.541
X35.754Y22.399Z-0.615
X35.758Y22.398Z-0.627
X35.788Y22.39Z-0.711
X35.792Y22.389Z-0.721
X35.818Y22.383Z-0.796
X35.828Y22.38Z-0.824
X35.848Y22.375Z-0.881
X35.864Y22.37Z-0.925
X35.882Y22.366Z-0.976
X35.882Y22.352Z-0.95F300
X35.883Y22.325Z-0.906
X35.886Y22.298Z-0.867
X35.889Y22.273Z-0.832
X35.893Y22.249Z-0.803
X35.899Y22.225Z-0.778
X35.905Y22.202Z-0.757
X35.912Y22.18Z-0.741
X35.92Y22.159Z-0.729
X35.929Y22.139Z-0.72
X35.935Y22.126Z-0.717
X35.939Y22.119Z-0.715
X35.949Y22.1Z-0.713
X35.953Y22.092Z-0.714
X35.959Y22.081Z-0.714
X35.963Y22.074Z-0.715
X35.97Y22.063Z-0.717
X35.977Y22.052Z-0.719
X35.981Y22.045Z-0.721
X35.985Y22.039Z-0.723
X35.989Y22.033Z-0.724
X35.993Y22.027Z-0.725
X36.001Y22.015Z-0.729
X36.004Y22.009Z-0.73
X36.008Y22.004Z-0.731
X36.011Y21.998Z-0.732
X36.015Y21.992Z-0.733
X36.018Y21.987Z-0.734
X36.022Y21.981Z-0.735
X36.033Y21.962Z-0.736
X36.035Y21.957Z-0.735
X36.036Y21.956Z-0.735
X36.044Y21.942Z-0.735
X36.045Y21.939Z-0.734
X36.047Y21.935Z-0.734
X36.051Y21.927Z-0.732
X36.054Y21.921Z-0.731
X36.055Y21.92Z-0.731
X36.059Y21.912Z-0.729
X36.063Y21.903Z-0.727
X36.072Y21.886Z-0.725
X36.076Y21.879Z-0.725
X36.082Y21.868Z-0.724
X36.085Y21.863Z-0.724
X36.111Y21.813Z-0.721
X36.156Y21.727Z-0.713
X36.211Y21.619Z-0.701
X36.23Y21.581Z-0.698
X36.238Y21.567Z-0.697
X36.24Y21.563Z-0.697
X36.247Y21.55Z-0.696
X36.25Y21.544Z-0.696
X36.256Y21.532Z-0.695
X36.259Y21.525Z-0.695
X36.265Y21.514Z-0.695
X36.269Y21.505Z-0.694
X36.274Y21.496Z-0.694
X36.279Y21.486Z-0.694
X36.283Y21.479Z-0.694
X36.29Y21.466Z-0.694
X36.292Y21.461Z-0.695
X36.3Y21.446Z-0.695
X36.301Y21.444Z-0.696
X36.311Y21.426Z-0.697
X36.32Y21.409Z-0.698
X36.321Y21.406Z-0.698
X36.329Y21.392Z-0.7
X36.332Y21.386Z-0.701
X36.339Y21.375Z-0.702
X36.344Y21.365Z-0.704
X36.348Y21.358Z-0.706
X36.355Y21.344Z-0.708
X36.357Y21.341Z-0.709
X36.368Y21.323Z-0.713
X36.377Y21.308Z-0.718
X36.38Y21.302Z-0.719
X36.389Y21.287Z-0.725
X36.398Y21.273Z-0.73
X36.412Y21.252Z-0.736
X36.421Y21.239Z-0.74
X36.435Y21.222Z-0.744
X36.444Y21.211Z-0.746
X36.458Y21.195Z-0.749
X36.473Y21.181Z-0.75
X36.487Y21.167Z-0.751
X36.497Y21.158Z-0.751
X36.513Y21.146Z-0.751
X36.53Y21.134Z-0.751
X36.547Y21.122Z-0.751
X36.565Y21.111Z-0.752
X36.585Y21.101Z-0.752
X36.605Y21.091Z-0.754
X36.627Y21.082Z-0.757
X36.649Y21.074Z-0.762
X36.657Y21.071Z-0.764
X36.673Y21.066Z-0.769
X36.682Y21.063Z-0.771
X36.698Y21.059Z-0.778
X36.725Y21.053Z-0.791
X36.752Y21.048Z-0.806
X36.769Y21.046Z-0.818F150
X36.78Y21.045Z-0.821F300
X36.802Y21.046Z-0.829
X36.833Y21.047Z-0.844
X36.892Y21.056Z-0.874
X36.899Y21.06Z-0.872
X36.921Y21.072Z-0.861
X36.937Y21.082Z-0.852
X36.958Y21.063Z-0.747
X37.006Y21.02Z-0.507
X37.052Y20.975Z-0.266
X36.937Y21.082Z-0.852F150
X36.948Y21.093Z-0.836F300
X36.966Y21.113Z-0.804
X36.975Y21.123Z-0.787
X36.984Y21.135Z-0.771
X36.993Y21.148Z-0.755
X37.003Y21.162Z-0.739
X37.013Y21.178Z-0.723
X37.025Y21.198Z-0.705
X37.034Y21.213Z-0.693
X37.038Y21.219Z-0.689
X37.048Y21.238Z-0.678
X37.054Y21.247Z-0.674
X37.06Y21.258Z-0.67
X37.064Y21.267Z-0.668
X37.07Y21.277Z-0.667
X37.076Y21.289Z-0.667
X37.081Y21.298Z-0.667
X37.086Y21.309Z-0.67
X37.092Y21.32Z-0.674
X37.098Y21.332Z-0.679
X37.104Y21.344Z-0.687
X37.108Y21.352Z-0.693F150
X37.111Y21.357Z-0.697
X37.117Y21.371Z-0.709
X37.124Y21.385Z-0.725
X37.132Y21.401Z-0.746
X37.141Y21.418Z-0.771
X37.15Y21.436Z-0.799
X37.159Y21.453Z-0.831
X37.169Y21.472Z-0.868
X37.175Y21.483Z-0.891
X37.187Y21.483Z-0.868F300
X37.207Y21.483Z-0.832
X37.227Y21.482Z-0.8
X37.246Y21.482Z-0.772
X37.265Y21.481Z-0.746
X37.284Y21.481Z-0.727
X37.303Y21.482Z-0.713
X37.32Y21.483Z-0.704
X37.338Y21.484Z-0.7
X37.355Y21.486Z-0.701
X37.384Y21.488Z-0.708
X37.417Y21.489Z-0.72
X37.465Y21.493Z-0.732
X37.475Y21.494Z-0.735
X37.485Y21.495Z-0.739
X37.495Y21.496Z-0.744
X37.504Y21.498Z-0.751F150
X37.513Y21.499Z-0.757
X37.522Y21.501Z-0.764
X37.53Y21.503Z-0.772
X37.546Y21.506Z-0.788
X37.56Y21.51Z-0.804
X37.578Y21.516Z-0.826
X37.609Y21.529Z-0.867
X37.619Y21.535Z-0.878
X37.629Y21.542Z-0.884F300
X37.637Y21.549Z-0.888
X37.646Y21.557Z-0.892
X37.66Y21.569Z-0.895
X37.678Y21.587Z-0.897
X37.701Y21.612Z-0.899
X37.716Y21.629Z-0.901
X37.733Y21.65Z-0.903
X37.74Y21.659Z-0.904
X37.758Y21.647Z-0.822
X37.815Y21.612Z-0.575
X37.886Y21.564Z-0.257
G0Z4
X37.45Y21.593
G1Z-0.356F150
X37.464Y21.493Z-0.731
X37.412Y21.365Z-0.257F300
X37.417Y21.489Z-0.72F150
X37.441Y21.683Z-0.021F300
X37.588Y21.52Z-0.84F150
G0Z4
X37.328Y21.671
G1Z-0.001
X37.331Y21.658Z-0.05
X37.343Y21.583Z-0.335
X37.358Y21.486Z-0.702
G0Z4
X36.733Y20.867
G1Z-0.144
X36.746Y20.93Z-0.383
X36.75Y20.95Z-0.458
X36.76Y20.999Z-0.642
X36.766Y21.03Z-0.761
X36.769Y21.046Z-0.818
G0Z4
X35.882Y22.366
G1Z-0.976
X35.895Y22.381Z-0.958F300
X35.911Y22.396Z-0.94
X35.927Y22.411Z-0.926
X35.944Y22.426Z-0.913
X35.96Y22.439Z-0.904
X35.97Y22.447Z-0.9
X35.977Y22.452Z-0.896
X35.983Y22.456Z-0.895
X35.995Y22.465Z-0.891
X36.006Y22.473Z-0.888
X36.012Y22.478Z-0.887
X36.018Y22.481Z-0.886
X36.03Y22.49Z-0.884
X36.041Y22.497Z-0.884
X36.048Y22.502Z-0.883
X36.052Y22.504Z-0.883
X36.064Y22.512Z-0.883
X36.067Y22.513Z-0.883
X36.076Y22.519Z-0.883
X36.085Y22.525Z-0.883
X36.088Y22.527Z-0.883
X36.101Y22.534Z-0.884
X36.104Y22.536Z-0.884
X36.114Y22.542Z-0.885
X36.122Y22.548Z-0.885
X36.127Y22.55Z-0.886
X36.141Y22.559Z-0.887
X36.155Y22.567Z-0.889
X36.16Y22.57Z-0.889
X36.17Y22.576Z-0.89
X36.191Y22.588Z-0.892
X36.198Y22.592Z-0.892
X36.203Y22.595Z-0.893
X36.216Y22.603Z-0.895
X36.226Y22.608Z-0.896
X36.235Y22.614Z-0.897
X36.249Y22.621Z-0.9
X36.254Y22.624Z-0.901
X36.261Y22.627Z-0.903
X36.274Y22.634Z-0.906
X36.285Y22.64Z-0.91
X36.293Y22.644Z-0.912
X36.31Y22.652Z-0.919
X36.313Y22.654Z-0.92
X36.323Y22.658Z-0.925
X36.333Y22.663Z-0.929
X36.353Y22.671Z-0.94
X36.373Y22.679Z-0.954F150
X36.394Y22.687Z-0.969
X36.415Y22.693Z-0.987
X36.436Y22.7Z-1.008
X36.457Y22.705Z-1.03
X36.479Y22.71Z-1.056
X36.501Y22.714Z-1.083
X36.507Y22.715Z-1.091
X36.517Y22.695Z-1.027F300
X36.528Y22.674Z-0.963
X36.533Y22.664Z-0.932
X36.541Y22.649Z-0.889
X36.547Y22.637Z-0.855
X36.552Y22.627Z-0.828
X36.562Y22.608Z-0.782
X36.571Y22.591Z-0.742
X36.58Y22.576Z-0.71
X36.588Y22.56Z-0.681
X36.593Y22.552Z-0.668
X36.599Y22.541Z-0.652
X36.604Y22.531Z-0.64
X36.61Y22.52Z-0.627
X36.616Y22.509Z-0.617
X36.622Y22.498Z-0.608
X36.627Y22.489Z-0.603
X36.634Y22.477Z-0.597
X36.642Y22.463Z-0.592
X36.648Y22.451Z-0.589
X36.655Y22.437Z-0.588
X36.667Y22.415Z-0.587
X36.712Y22.334Z-0.591
X36.729Y22.305Z-0.591
X36.751Y22.267Z-0.589
X36.779Y22.221Z-0.583
X36.786Y22.209Z-0.583
X36.79Y22.201Z-0.584
X36.792Y22.196Z-0.585
X36.799Y22.184Z-0.586
X36.802Y22.178Z-0.585
X36.805Y22.172Z-0.586
X36.812Y22.159Z-0.586
X36.813Y22.156Z-0.586
X36.818Y22.147Z-0.586
X36.824Y22.134Z-0.586
X36.83Y22.123Z-0.586
X36.835Y22.113Z-0.585
X36.836Y22.111Z-0.585
X36.842Y22.099Z-0.585
X36.845Y22.091Z-0.584
X36.848Y22.087Z-0.584
X36.854Y22.075Z-0.583
X36.856Y22.07Z-0.582
X36.859Y22.064Z-0.582
X36.865Y22.052Z-0.581
X36.866Y22.05Z-0.58
X36.871Y22.04Z-0.579
X36.875Y22.03Z-0.578
X36.876Y22.028Z-0.578
X36.882Y22.017Z-0.577
X36.885Y22.01Z-0.575
X36.887Y22.005Z-0.575
X36.893Y21.994Z-0.574
X36.894Y21.99Z-0.573
X36.898Y21.982Z-0.572
X36.904Y21.97Z-0.571
X36.909Y21.959Z-0.57
X36.912Y21.952Z-0.568
X36.915Y21.947Z-0.568
X36.92Y21.936Z-0.567
X36.921Y21.933Z-0.566
X36.926Y21.924Z-0.566
X36.93Y21.915Z-0.565
X36.931Y21.913Z-0.565
X36.937Y21.901Z-0.564
X36.939Y21.897Z-0.563
X36.942Y21.89Z-0.563
X36.947Y21.88Z-0.563
X36.948Y21.878Z-0.563
X36.954Y21.867Z-0.563
X36.956Y21.863Z-0.562
X36.959Y21.855Z-0.563
X36.964Y21.846Z-0.563
X36.965Y21.844Z-0.563
X36.971Y21.832Z-0.564
X36.972Y21.829Z-0.563
X36.977Y21.821Z-0.564
X36.98Y21.813Z-0.565
X36.983Y21.809Z-0.566
X36.989Y21.797Z-0.567
X36.995Y21.785Z-0.57
X36.997Y21.782Z-0.57
X37.005Y21.766Z-0.574
X37.013Y21.751Z-0.579
X37.021Y21.736Z-0.585
X37.029Y21.722Z-0.591
X37.037Y21.708Z-0.599
X37.045Y21.693Z-0.607
X37.054Y21.679Z-0.617F150
X37.063Y21.664Z-0.629
X37.071Y21.651Z-0.64
X37.079Y21.638Z-0.652
X37.087Y21.624Z-0.666
X37.095Y21.61Z-0.682
X37.104Y21.597Z-0.699
X37.113Y21.582Z-0.718
X37.122Y21.568Z-0.738
X37.131Y21.553Z-0.761
X37.14Y21.538Z-0.786
X37.15Y21.523Z-0.813
X37.16Y21.506Z-0.843
X37.175Y21.483Z-0.891
G0Z4
X36.507Y22.715
G1Z-1.091
X36.518Y22.727Z-1.072F300
X36.533Y22.743Z-1.05
X36.549Y22.757Z-1.031
X36.565Y22.772Z-1.014
X36.581Y22.785Z-1
X36.598Y22.798Z-0.989
X36.615Y22.81Z-0.98
X36.632Y22.821Z-0.973
X36.649Y22.832Z-0.968
X36.667Y22.843Z-0.964
X36.672Y22.846Z-0.964
X36.705Y22.799Z-0.752
X36.745Y22.745Z-0.5
X36.774Y22.706Z-0.318
X36.672Y22.846Z-0.964F150
X36.684Y22.854Z-0.959F300
X36.694Y22.86Z-0.955
X36.701Y22.865Z-0.952
X36.707Y22.868Z-0.95
X36.718Y22.876Z-0.946
X36.72Y22.877Z-0.945
X36.733Y22.885Z-0.94
X36.735Y22.886Z-0.939
X36.745Y22.893Z-0.935
X36.751Y22.897Z-0.933
X36.758Y22.901Z-0.93
X36.768Y22.907Z-0.926
X36.77Y22.909Z-0.926
X36.783Y22.916Z-0.921
X36.785Y22.918Z-0.92
X36.795Y22.924Z-0.917
X36.802Y22.928Z-0.915
X36.807Y22.931Z-0.913
X36.818Y22.937Z-0.909
X36.845Y22.952Z-0.903
X36.86Y22.961Z-0.901
X36.87Y22.967Z-0.901
X36.883Y22.974Z-0.901
X36.897Y22.982Z-0.903
X36.906Y22.987Z-0.904
X36.915Y22.992Z-0.907
X36.932Y23.001Z-0.913
X36.95Y23.009Z-0.92
X36.967Y23.018Z-0.93
X36.984Y23.025Z-0.941F150
X37Y23.032Z-0.953
X37.017Y23.039Z-0.967
X37.041Y23.048Z-0.99
X37.064Y23.055Z-1.014
X37.093Y23.064Z-1.046
X37.125Y23.07Z-1.085
X37.164Y23.076Z-1.133
X37.194Y23.054Z-1.088F300
X37.216Y23.035Z-1.052
X37.236Y23.016Z-1.02
X37.252Y23.001Z-0.997
X37.268Y22.983Z-0.975
X37.279Y22.971Z-0.961
X37.29Y22.958Z-0.948
X37.296Y22.951Z-0.942
X37.307Y22.938Z-0.931
X37.314Y22.928Z-0.924
X37.324Y22.916Z-0.916
X37.333Y22.903Z-0.908
X37.343Y22.89Z-0.902
X37.351Y22.877Z-0.896
X37.36Y22.864Z-0.891
X37.368Y22.851Z-0.887
X37.376Y22.838Z-0.883
X37.384Y22.825Z-0.879
X37.392Y22.812Z-0.876
X37.4Y22.798Z-0.873
X37.408Y22.784Z-0.871
X37.424Y22.757Z-0.866
X37.447Y22.715Z-0.861
X37.499Y22.616Z-0.85
X37.507Y22.601Z-0.849
X37.519Y22.578Z-0.845
X37.522Y22.573Z-0.844
X37.524Y22.57Z-0.843
X37.544Y22.533Z-0.836
X37.545Y22.53Z-0.836
X37.553Y22.516Z-0.833
X37.576Y22.472Z-0.825
X37.592Y22.443Z-0.82
X37.615Y22.4Z-0.814
X37.63Y22.37Z-0.811
X37.645Y22.341Z-0.808
X37.659Y22.311Z-0.807
X37.674Y22.281Z-0.806
X37.689Y22.251Z-0.806
X37.703Y22.221Z-0.808
X37.71Y22.206Z-0.809
X37.717Y22.19Z-0.811
X37.724Y22.175Z-0.813
X37.731Y22.16Z-0.816
X37.738Y22.144Z-0.819
X37.751Y22.113Z-0.827
X37.757Y22.098Z-0.832
X37.764Y22.082Z-0.837
X37.77Y22.066Z-0.843
X37.776Y22.051Z-0.85
X37.782Y22.035Z-0.857
X37.788Y22.019Z-0.865
X37.796Y21.996Z-0.878
X37.801Y21.98Z-0.886
X37.804Y21.965Z-0.892
X37.808Y21.947Z-0.898
X37.811Y21.93Z-0.902
X37.812Y21.913Z-0.905
X37.813Y21.897Z-0.906
X37.812Y21.879Z-0.905
X37.811Y21.86Z-0.904
X37.807Y21.833Z-0.9
X37.802Y21.81Z-0.896
X37.797Y21.79Z-0.894
X37.791Y21.77Z-0.891
X37.786Y21.755Z-0.89
X37.781Y21.741Z-0.89
X37.774Y21.725Z-0.89
X37.767Y21.709Z-0.892
X37.759Y21.693Z-0.895
X37.745Y21.668Z-0.901
X37.74Y21.659Z-0.904
G0Z4
X37.164Y23.076
G1Z-1.133F150
X37.175Y23.115Z-1.004F300
X37.175Y23.132Z-0.94
X37.18Y23.127Z-0.958F150
X37.182Y23.13Z-0.944F300
X37.18Y23.126Z-0.962F150
G0Z4
X43.686Y9.029
G1Z-0.006
X43.808Y8.716Z-1.258
X43.821Y8.72Z-1.262F300
X43.849Y8.727Z-1.267
X43.885Y8.733Z-1.273
X43.929Y8.737Z-1.279
X43.967Y8.739Z-1.284
X44.005Y8.738Z-1.29
X44.039Y8.735Z-1.294
X44.071Y8.729Z-1.297
X44.09Y8.725Z-1.298
X44.105Y8.721Z-1.298
X44.115Y8.718Z-1.296
X44.131Y8.742Z-1.188
X44.152Y8.768Z-1.065
X44.164Y8.783Z-0.995
X44.115Y8.718Z-1.296F150
X44.143Y8.7Z-1.264F300
X44.171Y8.679Z-1.231
X44.193Y8.661Z-1.205
X44.215Y8.641Z-1.178
X44.23Y8.626Z-1.16
X44.253Y8.603Z-1.133
X44.267Y8.586Z-1.115
X44.29Y8.559Z-1.089
X44.304Y8.541Z-1.072
X44.318Y8.521Z-1.057
X44.325Y8.511Z-1.049
X44.332Y8.5Z-1.042
X44.346Y8.479Z-1.029
X44.36Y8.456Z-1.017
X44.366Y8.446Z-1.012
X44.373Y8.435Z-1.007
X44.379Y8.423Z-1.002
X44.392Y8.4Z-0.994
X44.404Y8.376Z-0.988
X44.416Y8.351Z-0.982
X44.428Y8.326Z-0.978
X44.439Y8.301Z-0.976
X44.457Y8.262Z-0.974
X44.479Y8.213Z-0.971
X44.492Y8.187Z-0.968
X44.525Y8.127Z-0.955
X44.553Y8.077Z-0.946
X44.568Y8.05Z-0.942
X44.584Y8.024Z-0.94
X44.6Y7.996Z-0.938
X44.621Y7.96Z-0.937
X44.636Y7.934Z-0.939
X44.652Y7.905Z-0.941
X44.664Y7.884Z-0.944
X44.684Y7.846Z-0.95
X44.697Y7.821Z-0.956
X44.71Y7.796Z-0.963
X44.728Y7.759Z-0.974
X44.734Y7.747Z-0.979
X44.744Y7.722Z-0.989
X44.759Y7.686Z-1.005
X44.769Y7.662Z-1.016
X44.781Y7.627Z-1.036
X44.788Y7.604Z-1.049
X44.795Y7.581Z-1.063F150
X44.8Y7.559Z-1.078
X44.807Y7.526Z-1.1
X44.811Y7.505Z-1.115
X44.815Y7.474Z-1.137
X44.818Y7.445Z-1.158
X44.819Y7.418Z-1.179
X44.819Y7.392Z-1.199
X44.818Y7.367Z-1.217
X44.817Y7.356Z-1.224
X44.815Y7.342Z-1.235
X44.813Y7.33Z-1.243
X44.811Y7.317Z-1.251
X44.809Y7.309Z-1.256
X44.805Y7.296Z-1.264F300
X44.799Y7.276Z-1.274
X44.796Y7.267Z-1.279
X44.788Y7.246Z-1.287
X44.781Y7.232Z-1.291
X44.772Y7.216Z-1.295
X44.766Y7.206Z-1.297
X44.754Y7.187Z-1.3
X44.74Y7.168Z-1.301
X44.733Y7.16Z-1.302
X44.723Y7.148Z-1.302
X44.714Y7.138Z-1.302
X44.711Y7.134Z-1.302
X44.704Y7.127Z-1.302
X44.694Y7.116Z-1.302
X44.687Y7.11Z-1.303
X44.682Y7.106Z-1.302
X44.67Y7.095Z-1.302
X44.662Y7.087Z-1.303
X44.658Y7.084Z-1.303
X44.645Y7.073Z-1.303
X44.636Y7.066Z-1.304
X44.631Y7.062Z-1.304
X44.616Y7.051Z-1.305
X44.609Y7.046Z-1.306
X44.601Y7.04Z-1.307
X44.585Y7.03Z-1.309
X44.582Y7.028Z-1.31
X44.568Y7.019Z-1.311
X44.554Y7.011Z-1.314
X44.551Y7.009Z-1.315
X44.533Y6.998Z-1.318
X44.526Y6.994Z-1.32
X44.515Y6.988Z-1.322
X44.477Y6.969Z-1.332
X44.468Y6.964Z-1.336
X44.458Y6.959Z-1.339
X44.446Y6.954Z-1.343
X44.436Y6.949Z-1.346
X44.425Y6.945Z-1.35
X44.417Y6.941Z-1.353
X44.404Y6.936Z-1.358
X44.396Y6.932Z-1.36
X44.384Y6.927Z-1.366
X44.373Y6.923Z-1.369
X44.358Y6.917Z-1.376
X44.353Y6.915Z-1.378
X44.339Y6.909Z-1.384
X44.331Y6.907Z-1.387
X44.314Y6.9Z-1.394
X44.309Y6.898Z-1.397
X44.291Y6.892Z-1.405
X44.287Y6.89Z-1.407
X44.27Y6.885Z-1.415
X44.264Y6.883Z-1.417
X44.176Y6.854Z-1.458
X44.172Y6.852Z-1.46
X44.149Y6.845Z-1.471
X44.126Y6.838Z-1.485
X44.102Y6.832Z-1.502F150
X44.077Y6.827Z-1.521
X44.053Y6.822Z-1.544
X44.027Y6.818Z-1.569
X44.002Y6.815Z-1.598
X43.974Y6.812Z-1.632
G0Z4
X43.641Y6.529
G1Z-1.092
X43.652Y6.536Z-1.115
X43.669Y6.546Z-1.146
X43.689Y6.56Z-1.18
X43.711Y6.576Z-1.216
X43.742Y6.599Z-1.262
X43.795Y6.641Z-1.337
X43.842Y6.682Z-1.405
X43.888Y6.725Z-1.476
X43.921Y6.757Z-1.53
X43.939Y6.776Z-1.564
X43.958Y6.795Z-1.599
X43.974Y6.812Z-1.632
G0Z4
X43.612Y6.461
G1Z-0.822
X43.62Y6.476Z-0.887
X43.633Y6.506Z-1.005
X43.641Y6.529Z-1.092
X43.529Y6.51Z-0.733F300
X43.56Y6.515Z-0.844F150
X43.585Y6.519Z-0.925
X43.614Y6.524Z-1.014
X43.641Y6.529Z-1.092
G0Z4
X42.842Y8.205
G1Z-0.885
X42.866Y8.257Z-1.084
X42.89Y8.306Z-1.257
X42.894Y8.314Z-1.284
X42.898Y8.322Z-1.27F300
X42.904Y8.334Z-1.242
X42.915Y8.335Z-1.256F150
X42.93Y8.338Z-1.273
X42.947Y8.341Z-1.29
X42.964Y8.345Z-1.307
X42.983Y8.35Z-1.323
X42.992Y8.353Z-1.331
X43.003Y8.356Z-1.338
X43.013Y8.359Z-1.345
X43.024Y8.362Z-1.352
X43.239Y8.435Z-1.403F300
X43.294Y8.422Z-1.525F150
X43.299Y8.41Z-1.574
X43.31Y8.381Z-1.574F300
X43.321Y8.353Z-1.506
X43.331Y8.327Z-1.445
X43.34Y8.303Z-1.392
X43.348Y8.28Z-1.345
X43.356Y8.257Z-1.304
X43.364Y8.232Z-1.262
X43.373Y8.204Z-1.222
X43.381Y8.177Z-1.189
X43.388Y8.151Z-1.164
X43.398Y8.111Z-1.133
X43.405Y8.086Z-1.115
X43.411Y8.067Z-1.102
X43.418Y8.045Z-1.089
X43.425Y8.023Z-1.076
X43.434Y7.999Z-1.063
X43.443Y7.973Z-1.052
X43.454Y7.944Z-1.04
X43.458Y7.934Z-1.036
X43.47Y7.904Z-1.027
X43.475Y7.893Z-1.024
X43.492Y7.852Z-1.015
X43.498Y7.838Z-1.012
X43.513Y7.807Z-1.008
X43.523Y7.785Z-1.006
X43.539Y7.751Z-1.003
X43.557Y7.715Z-1.003
X43.575Y7.68Z-1.004
X43.593Y7.646Z-1.006
X43.602Y7.629Z-1.007
X43.608Y7.616Z-1.008
X43.611Y7.612Z-1.008
X43.617Y7.6Z-1.009
X43.651Y7.537Z-1.016
X43.66Y7.52Z-1.018
X43.669Y7.504Z-1.019
X43.672Y7.498Z-1.019
X43.678Y7.488Z-1.019
X43.681Y7.483Z-1.019
X43.686Y7.473Z-1.02
X43.694Y7.459Z-1.019
X43.703Y7.444Z-1.019
X43.718Y7.417Z-1.017
X43.737Y7.385Z-1.014
X43.739Y7.382Z-1.013
X43.745Y7.372Z-1.012
X43.746Y7.369Z-1.011
X43.752Y7.358Z-1.01
X43.754Y7.356Z-1.009
X43.756Y7.352Z-1.009
X43.761Y7.343Z-1.007
X43.764Y7.338Z-1.007
X43.768Y7.33Z-1.006
X43.771Y7.324Z-1.005
X43.781Y7.306Z-1.002
X43.783Y7.302Z-1.002
X43.787Y7.294Z-1
X43.79Y7.286Z-0.999
X43.792Y7.283Z-0.999
X43.794Y7.279Z-0.998
X43.802Y7.261Z-0.996
X43.809Y7.244Z-0.994
X43.811Y7.24Z-0.994
X43.813Y7.234Z-0.993
X43.814Y7.23Z-0.992
X43.816Y7.225Z-0.992
X43.818Y7.221Z-0.991
X43.82Y7.215Z-0.991
X43.826Y7.195Z-0.988
X43.829Y7.184Z-0.986
X43.831Y7.173Z-0.985
X43.834Y7.162Z-0.985
X43.837Y7.15Z-0.987
X43.841Y7.139Z-0.99
X43.844Y7.128Z-0.994
X43.848Y7.115Z-1.001
X43.851Y7.104Z-1.009F150
X43.855Y7.091Z-1.02
X43.859Y7.079Z-1.032
X43.863Y7.067Z-1.046
X43.868Y7.054Z-1.063
X43.873Y7.041Z-1.08
X43.878Y7.028Z-1.101
X43.883Y7.014Z-1.124
X43.888Y7.001Z-1.148
X43.901Y6.968Z-1.214
X43.914Y6.938Z-1.283
X43.928Y6.906Z-1.362
X43.943Y6.874Z-1.451
X43.96Y6.84Z-1.549
X43.974Y6.812Z-1.632
G0Z4
X43.294Y8.422
G1Z-1.525
X43.308Y8.431Z-1.513F300
X43.331Y8.446Z-1.493
X43.353Y8.46Z-1.474
X43.373Y8.474Z-1.455
X43.392Y8.487Z-1.437
X43.41Y8.5Z-1.418
X43.427Y8.512Z-1.4
X43.444Y8.524Z-1.381
X43.46Y8.536Z-1.363
X43.475Y8.547Z-1.346
X43.49Y8.558Z-1.329
X43.504Y8.57Z-1.312
X43.518Y8.581Z-1.295
X43.531Y8.592Z-1.277
X43.545Y8.603Z-1.259
X43.558Y8.614Z-1.24
X43.571Y8.625Z-1.221
X43.583Y8.636Z-1.202
X43.596Y8.647Z-1.182
X43.621Y8.67Z-1.14
X43.638Y8.673Z-1.154F150
X43.654Y8.677Z-1.167
X43.67Y8.68Z-1.179
X43.686Y8.684Z-1.19
X43.702Y8.687Z-1.201
X43.717Y8.691Z-1.211
X43.731Y8.695Z-1.22
X43.746Y8.698Z-1.229F300
X43.761Y8.703Z-1.237
X43.776Y8.707Z-1.244
X43.79Y8.711Z-1.251
X43.808Y8.716Z-1.258
G0Z4
X42.843Y8.208
G1Z-0.897F150
X42.844Y8.208Z-0.899
G0Z4
X42.717Y8.44
G1Z-0.57
X42.904Y8.334Z-1.242
G0Z4
X25.671Y34.823
G1Z-0.536
X25.673Y34.822Z-0.527F300
X25.672Y34.822Z-0.53F150
X25.594Y34.866Z-0.743
X25.598Y34.877Z-0.788
X25.609Y34.866Z-0.757F300
X25.626Y34.853Z-0.705
X25.647Y34.838Z-0.631
X25.671Y34.823Z-0.536
G0Z4
X25.084Y35.505
G1Z-1.442F150
X25.107Y35.494Z-1.384F300
X25.125Y35.484Z-1.34
X25.143Y35.475Z-1.298
X25.16Y35.465Z-1.258
X25.177Y35.455Z-1.22
X25.193Y35.445Z-1.184
X25.209Y35.434Z-1.15
X25.224Y35.423Z-1.119
X25.238Y35.412Z-1.089
X25.253Y35.401Z-1.062
X25.266Y35.389Z-1.037
X25.279Y35.377Z-1.014
X25.292Y35.365Z-0.993
X25.304Y35.352Z-0.974
X25.316Y35.34Z-0.958
X25.327Y35.327Z-0.944
X25.338Y35.313Z-0.932
X25.348Y35.3Z-0.922
X25.358Y35.286Z-0.914
X25.367Y35.272Z-0.908
X25.376Y35.257Z-0.905
X25.384Y35.243Z-0.904
X25.391Y35.228Z-0.905
X25.397Y35.217Z-0.906
X25.399Y35.213Z-0.907
X25.403Y35.204Z-0.908
X25.437Y35.137Z-0.915
X25.456Y35.103Z-0.917
X25.471Y35.075Z-0.916
X25.487Y35.048Z-0.914
X25.505Y35.018Z-0.908
X25.516Y35Z-0.903
X25.523Y34.988Z-0.898
X25.535Y34.969Z-0.889
X25.547Y34.95Z-0.877
X25.559Y34.931Z-0.862
X25.565Y34.922Z-0.854
X25.573Y34.91Z-0.841
X25.583Y34.896Z-0.822
X25.594Y34.882Z-0.8
X25.598Y34.877Z-0.789
G0Z4
X24.135Y34.97
G1Z-1.039F150
X24.159Y34.981Z-1.044F300
X24.207Y35.005Z-1.051
X24.281Y35.045Z-1.059
X24.304Y35.058Z-1.063
X24.696Y35.266Z-1.146
X24.748Y35.294Z-1.157
X24.781Y35.311Z-1.166
X24.806Y35.324Z-1.174
X24.829Y35.337Z-1.184
X24.853Y35.35Z-1.195
X24.877Y35.364Z-1.209
X24.901Y35.378Z-1.225
X24.913Y35.386Z-1.234F150
X24.937Y35.401Z-1.254
X24.949Y35.409Z-1.265
X24.973Y35.425Z-1.289
X24.986Y35.434Z-1.303
X24.997Y35.441Z-1.316
X25.022Y35.459Z-1.347
X25.048Y35.478Z-1.384
X25.059Y35.486Z-1.4
X25.07Y35.495Z-1.419
X25.084Y35.505Z-1.442
G0Z4
X24.863Y36.276
G1Z-0.749
X24.867Y36.268Z-0.76
X24.874Y36.256Z-0.776
X24.877Y36.249Z-0.783
X24.882Y36.241Z-0.791
X24.886Y36.232Z-0.798
X24.893Y36.218Z-0.808
X24.9Y36.203Z-0.817F300
X24.908Y36.187Z-0.826
X24.919Y36.165Z-0.835
X24.935Y36.129Z-0.847
X24.956Y36.082Z-0.861
X24.969Y36.053Z-0.871
X24.976Y36.037Z-0.876
X24.982Y36.022Z-0.882
X24.989Y36.007Z-0.888
X24.995Y35.992Z-0.894
X25.001Y35.977Z-0.901
X25.007Y35.961Z-0.908
X25.013Y35.946Z-0.916
X25.018Y35.93Z-0.925
X25.029Y35.899Z-0.944F150
X25.034Y35.883Z-0.955
X25.039Y35.867Z-0.967
X25.043Y35.851Z-0.979
X25.048Y35.835Z-0.993
X25.052Y35.818Z-1.007
X25.056Y35.802Z-1.022
X25.06Y35.786Z-1.038
X25.063Y35.769Z-1.055
X25.067Y35.752Z-1.074
X25.07Y35.735Z-1.093
X25.072Y35.718Z-1.114
X25.075Y35.701Z-1.136
X25.079Y35.665Z-1.183
X25.082Y35.63Z-1.234
X25.083Y35.61Z-1.265
X25.083Y35.594Z-1.291
X25.084Y35.575Z-1.32
X25.084Y35.534Z-1.39
X25.084Y35.505Z-1.442
G0Z4
X24.863Y36.276
G1Z-0.749
X24.867Y36.308Z-0.638F300
X24.867Y36.311Z-0.627
X24.867Y36.307Z-0.642F150
X24.819Y36.3Z-0.579F300
X24.835Y36.291Z-0.644F150
X24.863Y36.276Z-0.749
G0Z4
X23.661Y36.803
G1Z-1.318
X23.674Y36.803Z-1.291F300
X23.71Y36.804Z-1.225
X23.744Y36.804Z-1.169
X23.777Y36.802Z-1.122
X23.809Y36.8Z-1.085
X23.84Y36.797Z-1.057
X23.871Y36.793Z-1.037
X23.901Y36.788Z-1.026
X23.958Y36.778Z-1.019
X24.021Y36.774Z-1.01
X24.049Y36.775Z-1.008
X24.073Y36.778Z-1.009
X24.094Y36.781Z-1.013
X24.114Y36.785Z-1.018
X24.143Y36.793Z-1.03
X24.185Y36.809Z-1.055
X24.234Y36.837Z-1.091F150
X24.244Y36.844Z-1.097F300
X24.256Y36.854Z-1.105
X24.266Y36.863Z-1.113
X24.275Y36.872Z-1.12
X24.282Y36.88Z-1.125
X24.288Y36.887Z-1.13
X24.293Y36.894Z-1.133
X24.297Y36.9Z-1.136
X24.3Y36.906Z-1.138
X24.303Y36.911Z-1.14
X24.306Y36.916Z-1.141
X24.309Y36.922Z-1.141
X24.311Y36.928Z-1.141
X24.314Y36.934Z-1.141
X24.316Y36.941Z-1.14
X24.318Y36.948Z-1.139
X24.321Y36.957Z-1.137
X24.323Y36.966Z-1.135
X24.324Y36.976Z-1.132
X24.326Y36.988Z-1.129
X24.327Y37Z-1.126
X24.328Y37.014Z-1.122
X24.328Y37.028Z-1.118
X24.328Y37.037Z-1.117
X24.328Y37.044Z-1.114
X24.327Y37.054Z-1.112
X24.327Y37.06Z-1.109
X24.326Y37.071Z-1.107
X24.326Y37.077Z-1.104
X24.325Y37.088Z-1.101
X24.324Y37.096Z-1.097
X24.323Y37.105Z-1.095
X24.322Y37.115Z-1.09
X24.321Y37.121Z-1.088
X24.32Y37.135Z-1.083
X24.319Y37.138Z-1.082
X24.316Y37.155Z-1.074
X24.314Y37.171Z-1.068
X24.313Y37.176Z-1.065
X24.311Y37.187Z-1.061
X24.309Y37.198Z-1.056
X24.308Y37.203Z-1.054
X24.304Y37.221Z-1.046
X24.3Y37.236Z-1.04
X24.299Y37.244Z-1.036
X24.297Y37.252Z-1.034
X24.293Y37.268Z-1.026
X24.289Y37.283Z-1.02
X24.287Y37.291Z-1.016
X24.284Y37.299Z-1.013
X24.28Y37.315Z-1.006
X24.275Y37.33Z-1
X24.273Y37.339Z-0.995
X24.271Y37.346Z-0.993
X24.266Y37.361Z-0.987
X24.265Y37.364Z-0.985
X24.261Y37.376Z-0.981
X24.257Y37.389Z-0.975
X24.256Y37.392Z-0.975
X24.25Y37.407Z-0.969
X24.248Y37.414Z-0.965
X24.245Y37.422Z-0.963
X24.239Y37.438Z-0.956
X24.234Y37.452Z-0.952
X24.229Y37.464Z-0.947
X24.228Y37.467Z-0.946
X24.222Y37.481Z-0.941
X24.22Y37.489Z-0.938
X24.216Y37.496Z-0.936
X24.21Y37.511Z-0.931
X24.209Y37.514Z-0.929
X24.204Y37.525Z-0.926
X24.199Y37.539Z-0.921
X24.192Y37.554Z-0.917
X24.188Y37.563Z-0.914
X24.185Y37.569Z-0.913
X24.179Y37.583Z-0.909
X24.177Y37.588Z-0.907
X24.172Y37.597Z-0.905
X24.166Y37.613Z-0.9
X24.159Y37.626Z-0.897
X24.154Y37.637Z-0.894
X24.152Y37.64Z-0.894
X24.146Y37.654Z-0.891
X24.142Y37.661Z-0.888
X24.139Y37.668Z-0.888
X24.132Y37.682Z-0.884
X24.13Y37.685Z-0.883
X24.125Y37.696Z-0.882
X24.119Y37.709Z-0.879
X24.11Y37.724Z-0.877
X24.107Y37.732Z-0.875
X24.103Y37.738Z-0.875
X24.096Y37.751Z-0.873
X24.094Y37.755Z-0.872
X24.089Y37.765Z-0.871
X24.082Y37.777Z-0.869
X24.074Y37.793Z-0.868
X24.07Y37.8Z-0.867
X24.067Y37.806Z-0.867
X24.059Y37.82Z-0.866
X24.058Y37.822Z-0.865
X24.052Y37.833Z-0.865
X24.046Y37.843Z-0.864
X24.044Y37.847Z-0.865
X24.036Y37.861Z-0.865
X24.034Y37.864Z-0.864
X24.029Y37.874Z-0.864
X24.023Y37.885Z-0.864
X24.021Y37.888Z-0.865
X24.014Y37.901Z-0.865
X24.011Y37.906Z-0.865
X24.006Y37.915Z-0.866
X24Y37.926Z-0.867
X23.998Y37.928Z-0.867
X23.991Y37.941Z-0.869
X23.988Y37.946Z-0.869
X23.976Y37.967Z-0.872
X23.898Y37.92Z-0.532
X23.976Y37.967Z-0.872F150
G0Z4
X23.681Y38.31
G1Z-1.237
X23.693Y38.304Z-1.222F300
X23.722Y38.287Z-1.179
X23.743Y38.272Z-1.144
X23.768Y38.252Z-1.104
X23.786Y38.236Z-1.074
X23.806Y38.218Z-1.043
X23.819Y38.204Z-1.023
X23.832Y38.19Z-1.003
X23.844Y38.176Z-0.984
X23.857Y38.16Z-0.967
X23.869Y38.145Z-0.951
X23.881Y38.128Z-0.936
X23.893Y38.112Z-0.923
X23.904Y38.095Z-0.911
X23.915Y38.077Z-0.901
X23.927Y38.057Z-0.892
X23.936Y38.042Z-0.886
X23.952Y38.013Z-0.878
X23.965Y37.987Z-0.874
X23.976Y37.967Z-0.872
G0Z4
X23.681Y38.31
G1Z-1.237F150
X23.694Y38.328Z-1.156F300
G0Z4
X23.07Y37.916
G1Z-1.693F150
X23.079Y37.898Z-1.646F300
X23.089Y37.879Z-1.596
X23.093Y37.869Z-1.571
X23.109Y37.838Z-1.493
X23.119Y37.816Z-1.442
X23.127Y37.8Z-1.403
X23.145Y37.764Z-1.325
X23.153Y37.746Z-1.287
X23.164Y37.725Z-1.244
X23.177Y37.698Z-1.194
X23.184Y37.683Z-1.166
X23.194Y37.664Z-1.131
X23.206Y37.639Z-1.09
X23.213Y37.625Z-1.069
X23.22Y37.611Z-1.047
X23.234Y37.584Z-1.008
X23.241Y37.57Z-0.99
X23.248Y37.557Z-0.974
X23.261Y37.532Z-0.943
X23.268Y37.518Z-0.927
X23.274Y37.507Z-0.916
X23.287Y37.482Z-0.892
X23.295Y37.466Z-0.878
X23.3Y37.458Z-0.871
X23.304Y37.45Z-0.865
X23.313Y37.433Z-0.852
X23.325Y37.41Z-0.837
X23.33Y37.4Z-0.831
X23.337Y37.387Z-0.824
X23.35Y37.364Z-0.814
X23.357Y37.35Z-0.809
X23.363Y37.341Z-0.806
X23.366Y37.334Z-0.805
X23.375Y37.318Z-0.801
X23.384Y37.301Z-0.798
X23.388Y37.295Z-0.797
X23.393Y37.285Z-0.797
X23.4Y37.272Z-0.797
X23.411Y37.252Z-0.798
X23.413Y37.249Z-0.798
X23.42Y37.236Z-0.8
X23.426Y37.227Z-0.802
X23.429Y37.22Z-0.804
X23.439Y37.203Z-0.808
X23.451Y37.181Z-0.817
X23.457Y37.17Z-0.821
X23.464Y37.158Z-0.828
X23.476Y37.137Z-0.84
X23.477Y37.135Z-0.842
X23.485Y37.121Z-0.851F150
X23.49Y37.111Z-0.858
X23.494Y37.104Z-0.864
X23.504Y37.087Z-0.878
X23.517Y37.064Z-0.899
X23.523Y37.052Z-0.911
X23.531Y37.04Z-0.924
X23.544Y37.015Z-0.953
X23.554Y36.999Z-0.973
X23.558Y36.99Z-0.985
X23.564Y36.98Z-0.998
X23.573Y36.965Z-1.021
X23.587Y36.938Z-1.061
X23.596Y36.922Z-1.087
X23.602Y36.911Z-1.105
X23.607Y36.902Z-1.122
X23.619Y36.88Z-1.16
X23.634Y36.854Z-1.212
X23.643Y36.836Z-1.248
X23.65Y36.823Z-1.274
X23.661Y36.803Z-1.318
G0Z4
X23.426Y36.394
G1Z-1.085
X23.434Y36.401Z-1.091F300
X23.447Y36.416Z-1.099
X23.459Y36.429Z-1.105
X23.478Y36.452Z-1.113
X23.498Y36.478Z-1.12
X23.515Y36.502Z-1.125
X23.541Y36.545Z-1.134
X23.56Y36.582Z-1.14
X23.576Y36.617Z-1.145
X23.58Y36.628Z-1.146
X23.585Y36.64Z-1.147
X23.59Y36.653Z-1.151
X23.595Y36.665Z-1.156
X23.6Y36.678Z-1.163
X23.608Y36.696Z-1.175F150
X23.618Y36.719Z-1.196
X23.629Y36.741Z-1.222
X23.64Y36.764Z-1.254
X23.653Y36.788Z-1.291
X23.661Y36.803Z-1.318
G0Z4
X23.413Y36.32
G1Z-0.861
X23.42Y36.354Z-0.971
X23.425Y36.388Z-1.071
X23.426Y36.394Z-1.085
X23.412Y36.313Z-0.833F300
X23.413Y36.32Z-0.861F150
X23.412Y36.311Z-0.827F300
X23.403Y36.303Z-0.787
X23.413Y36.32Z-0.861F150
G0Z4
X23.054Y36.393
G1Z-0.011
X23.062Y36.393Z-0.034
X23.064Y36.394Z-0.039
X23.071Y36.394Z-0.058
X23.074Y36.395Z-0.067
X23.08Y36.395Z-0.084
X23.084Y36.396Z-0.095
X23.089Y36.396Z-0.11
X23.094Y36.396Z-0.123
X23.176Y36.399Z-0.356
X23.426Y36.394Z-1.085
G0Z4
X23.833Y35.124
G1Z-0.025
X23.843Y35.117Z-0.063
X23.851Y35.113Z-0.092
X23.855Y35.109Z-0.11
X23.868Y35.102Z-0.154
X23.87Y35.101Z-0.16
X23.88Y35.095Z-0.197
X23.889Y35.09Z-0.226
X23.893Y35.087Z-0.241
X23.917Y35.073Z-0.327
X23.954Y35.053Z-0.454
X24.012Y35.023Z-0.649
X24.054Y35.003Z-0.787
X24.106Y34.981Z-0.952
X24.135Y34.97Z-1.039
X24.116Y34.925Z-0.892F300
X24.116Y34.92Z-0.875
X24.116Y34.925Z-0.895F150
X24.132Y34.963Z-1.019
X24.135Y34.97Z-1.039
X24.107Y34.906Z-0.818F300
X24.116Y34.925Z-0.892F150
G0Z4
X22.648Y37.71
G1Z-0.718
X22.673Y37.776Z-0.974
X22.687Y37.794Z-1.04
X22.706Y37.81Z-1.1
X22.719Y37.819Z-1.13
X22.752Y37.836Z-1.187
X22.827Y37.865Z-1.296
X22.874Y37.88Z-1.368
X22.912Y37.891Z-1.43
X22.952Y37.901Z-1.498
X22.987Y37.906Z-1.553
X23.006Y37.909Z-1.582
X23.026Y37.911Z-1.617
X23.047Y37.914Z-1.652
X23.07Y37.916Z-1.693
X23.081Y37.931Z-1.669F300
X23.093Y37.947Z-1.643
X23.105Y37.963Z-1.618
X23.117Y37.979Z-1.594
X23.13Y37.995Z-1.571
X23.142Y38.01Z-1.549
X23.155Y38.025Z-1.527
X23.168Y38.04Z-1.506
X23.181Y38.055Z-1.487
X23.194Y38.069Z-1.468
X23.221Y38.097Z-1.432
X23.249Y38.124Z-1.4
X23.277Y38.15Z-1.371
X23.305Y38.174Z-1.344
X23.334Y38.197Z-1.321
X23.349Y38.209Z-1.31
X23.362Y38.218Z-1.3
X23.391Y38.238Z-1.282
X23.405Y38.247Z-1.274
X23.419Y38.256Z-1.267
X23.433Y38.264Z-1.261
X23.447Y38.271Z-1.256
X23.461Y38.278Z-1.252
X23.474Y38.284Z-1.249
X23.488Y38.29Z-1.247
X23.501Y38.295Z-1.246
X23.514Y38.299Z-1.245
X23.526Y38.303Z-1.245
X23.538Y38.306Z-1.245
X23.55Y38.309Z-1.246
X23.572Y38.314Z-1.247
X23.592Y38.316Z-1.249
X23.609Y38.318Z-1.251
X23.625Y38.318Z-1.252
X23.637Y38.318Z-1.252
X23.649Y38.317Z-1.251
X23.661Y38.316Z-1.248
X23.671Y38.314Z-1.244
X23.677Y38.312Z-1.24
X23.681Y38.31Z-1.237
G0Z4
X22.902Y37.974
G1Z-1.167F150
X22.952Y37.901Z-1.498
X22.916Y37.934Z-1.32F300
X22.945Y37.899Z-1.486F150
X22.895Y37.959Z-1.196F300
X22.876Y38.012Z-0.996
X22.902Y37.974Z-1.167F150
X22.865Y38.007Z-0.987F300
X22.946Y37.899Z-1.488F150
X22.867Y38.023Z-0.944F300
X22.876Y38.012Z-0.996F150
X22.868Y38.024Z-0.942F300
X22.876Y38.012Z-0.996F150
X22.859Y38.031Z-0.902F300
X22.902Y37.974Z-1.167F150
X22.849Y38.034Z-0.87F300
X22.948Y37.9Z-1.492F150
X22.847Y38.052Z-0.81F300
X22.868Y38.024Z-0.942F150
X22.822Y38.06Z-0.731F300
X22.916Y37.934Z-1.32F150
X22.798Y38.086Z-0.601F300
X22.865Y37.996Z-1.019F150
X22.815Y38.103Z-0.587F300
X22.868Y38.024Z-0.942F150
X22.791Y38.097Z-0.552F300
X22.895Y37.959Z-1.196F150
X22.802Y38.122Z-0.501F300
X22.815Y38.103Z-0.587F150
X22.8Y38.123Z-0.495F300
X22.815Y38.103Z-0.587F150
X22.718Y38.173Z-0.16F300
X22.783Y38.096Z-0.536F150
X22.808Y38.064Z-0.688
X22.865Y37.996Z-1.019
G0Z4
X22.743Y38.202
G1Z-0.131
X22.802Y38.122Z-0.501
X22.71Y38.183Z-0.114F300
X22.718Y38.173Z-0.16F150
X22.698Y38.199Z-0.039F300
X22.713Y38.178Z-0.135F150
X22.718Y38.173Z-0.16
X22.698Y38.199Z-0.039F300
X22.731Y38.22Z-0.052
X22.799Y38.128Z-0.476F150
X22.802Y38.122Z-0.501
X22.731Y38.22Z-0.052F300
G0Z4
X22.65Y37.714
G1Z-0.733F150
X22.651Y37.716Z-0.745
G0Z4
X22.192Y38.489
G1Z-0.712
X22.208Y38.539Z-0.901
X22.23Y38.586Z-1.058
X22.248Y38.622Z-1.166
X22.25Y38.626Z-1.175
X22.296Y38.665Z-1.246
X22.327Y38.694Z-1.299
X22.356Y38.723Z-1.354
X22.38Y38.748Z-1.404
X22.392Y38.761Z-1.43
X22.415Y38.787Z-1.484
X22.439Y38.814Z-1.541
X22.45Y38.828Z-1.571
X22.477Y38.861Z-1.641
G0Z4
X22.397Y39.054
G1Z-1.278
X22.405Y39.032Z-1.308
X22.412Y39.013Z-1.336
X22.418Y38.997Z-1.362
X22.422Y38.988Z-1.377
X22.433Y38.96Z-1.427
X22.444Y38.933Z-1.479
X22.449Y38.92Z-1.505
X22.457Y38.903Z-1.543
X22.468Y38.878Z-1.599
X22.477Y38.861Z-1.641
G0Z4
X22.397Y39.054
G1Z-1.278
X22.425Y39.086Z-1.124F300
X22.464Y39.13Z-0.911
X22.487Y39.157Z-0.783
X22.531Y39.206Z-0.548
X22.547Y39.224Z-0.464
X22.564Y39.242Z-0.378
X22.579Y39.258Z-0.304
X22.589Y39.27Z-0.252
X22.602Y39.284Z-0.187
X22.609Y39.291Z-0.156
X22.612Y39.295Z-0.139
X22.622Y39.305Z-0.095
X22.624Y39.309Z-0.08
X22.631Y39.315Z-0.052
X22.637Y39.324Z-0.019
G0Z4
X21.923Y38.716
G1Z-0.035F150
X21.93Y38.71Z-0.069
X21.94Y38.705Z-0.108
X21.953Y38.7Z-0.152
X21.971Y38.695Z-0.211
X21.982Y38.691Z-0.249
X21.995Y38.686Z-0.296
X22.01Y38.682Z-0.348
X22.026Y38.677Z-0.401
X22.04Y38.673Z-0.45
X22.054Y38.668Z-0.501
X22.07Y38.664Z-0.554
X22.087Y38.66Z-0.612
X22.115Y38.653Z-0.709
X22.144Y38.646Z-0.811
X22.161Y38.643Z-0.868
X22.199Y38.634Z-0.999
X22.235Y38.628Z-1.126
X22.25Y38.626Z-1.175
X22.194Y38.493Z-0.73F300
X22.194Y38.495Z-0.736F150
G0Z4
X21.619Y39.812
G1Z-0.15
X21.632Y39.777Z-0.011F300
X21.621Y39.806Z-0.126F150
G0Z4
X21.521Y40.041
G1Z-1.078
X21.53Y39.888Z-0.525F300
X21.538Y39.794Z-0.185
X21.541Y39.768Z-0.091
X21.54Y39.752Z-0.032
X21.543Y39.745Z-0.008
G0Z4
X21.521Y40.041
G1Z-1.078F150
X21.535Y40.049Z-1.087F300
X21.539Y40.038Z-1.046
X21.535Y40.049Z-1.087F150
X21.536Y40.049Z-1.088F300
X21.619Y39.812Z-0.15
G0Z4
X21.536Y40.049
G1Z-1.088F150
X21.553Y40.058Z-1.098F300
X21.566Y40.063Z-1.107F150
X21.58Y40.069Z-1.117
X21.603Y40.077Z-1.135
X21.619Y40.083Z-1.147
X21.652Y40.092Z-1.178
X21.67Y40.096Z-1.194
X21.697Y40.102Z-1.223
X21.715Y40.105Z-1.243
X21.743Y40.109Z-1.277
X21.763Y40.111Z-1.301
X21.792Y40.114Z-1.341
X21.812Y40.115Z-1.369
X21.842Y40.117Z-1.415
X21.862Y40.117Z-1.446
X21.871Y40.099Z-1.397F300
X21.887Y40.065Z-1.313
X21.904Y40.03Z-1.233
X21.915Y40.007Z-1.182
X21.919Y39.997Z-1.163
X21.927Y39.981Z-1.13
X21.934Y39.967Z-1.104
X21.939Y39.957Z-1.085
X21.947Y39.939Z-1.053
X21.96Y39.912Z-1.01
X21.972Y39.886Z-0.972
X21.98Y39.871Z-0.952
X21.984Y39.862Z-0.939
X21.989Y39.852Z-0.927
X21.996Y39.837Z-0.91
X22.008Y39.813Z-0.885
X22.019Y39.79Z-0.862
X22.026Y39.777Z-0.85
X22.031Y39.766Z-0.842
X22.035Y39.758Z-0.836
X22.042Y39.743Z-0.824
X22.052Y39.722Z-0.811
X22.054Y39.719Z-0.809
X22.061Y39.705Z-0.801
X22.065Y39.696Z-0.797
X22.07Y39.687Z-0.792
X22.077Y39.673Z-0.786
X22.078Y39.669Z-0.785
X22.087Y39.651Z-0.779
X22.088Y39.649Z-0.778
X22.096Y39.634Z-0.774
X22.1Y39.625Z-0.772
X22.105Y39.616Z-0.77
X22.112Y39.601Z-0.768
X22.113Y39.598Z-0.768
X22.122Y39.581Z-0.766
X22.124Y39.577Z-0.766
X22.131Y39.563Z-0.766
X22.136Y39.553Z-0.766
X22.14Y39.545Z-0.766
X22.148Y39.529Z-0.768
X22.157Y39.51Z-0.771
X22.16Y39.504Z-0.772
X22.166Y39.492Z-0.775
X22.172Y39.48Z-0.779
X22.175Y39.475Z-0.781
X22.184Y39.457Z-0.787
X22.185Y39.455Z-0.788
X22.193Y39.439Z-0.794
X22.197Y39.43Z-0.799
X22.202Y39.422Z-0.803
X22.21Y39.404Z-0.813
X22.219Y39.386Z-0.824
X22.223Y39.379Z-0.829
X22.228Y39.368Z-0.836F150
X22.236Y39.353Z-0.848
X22.237Y39.35Z-0.85
X22.249Y39.326Z-0.869
X22.256Y39.314Z-0.88
X22.263Y39.3Z-0.894
X22.265Y39.296Z-0.898
X22.277Y39.273Z-0.922
X22.284Y39.259Z-0.938
X22.291Y39.246Z-0.954
X22.306Y39.218Z-0.99
X22.315Y39.202Z-1.012
X22.321Y39.189Z-1.031
X22.337Y39.16Z-1.077
X22.348Y39.141Z-1.109
X22.354Y39.13Z-1.128
X22.36Y39.119Z-1.149
X22.372Y39.099Z-1.187
X22.39Y39.066Z-1.253
X22.397Y39.054Z-1.278
G0Z4
X21.862Y40.117
G1Z-1.446
X21.884Y40.143Z-1.397F300
X21.901Y40.164Z-1.361
X21.909Y40.173Z-1.344
X21.926Y40.191Z-1.314
X21.943Y40.209Z-1.286
X21.951Y40.218Z-1.273
X21.967Y40.235Z-1.248
X21.984Y40.251Z-1.226
X22.001Y40.267Z-1.206
X22.009Y40.274Z-1.196
X22.026Y40.289Z-1.179
X22.043Y40.303Z-1.164
X22.06Y40.316Z-1.15
X22.069Y40.323Z-1.144
X22.086Y40.335Z-1.133
X22.103Y40.347Z-1.124
X22.111Y40.353Z-1.12
X22.128Y40.364Z-1.113
X22.137Y40.369Z-1.11
X22.154Y40.378Z-1.105
X22.17Y40.387Z-1.102
X22.179Y40.392Z-1.1
X22.195Y40.4Z-1.099
X22.203Y40.403Z-1.098
X22.228Y40.414Z-1.098
X22.251Y40.422Z-1.099
X22.274Y40.429Z-1.102
X22.302Y40.437Z-1.106
X22.329Y40.442Z-1.111
X22.359Y40.446Z-1.116
X22.374Y40.447Z-1.118
X22.391Y40.447Z-1.119
X22.405Y40.447Z-1.119
X22.416Y40.446Z-1.118
X22.426Y40.445Z-1.117
X22.438Y40.443Z-1.114
X22.447Y40.441Z-1.112
X22.461Y40.437Z-1.106
X22.469Y40.435Z-1.103
X22.486Y40.428Z-1.094
X22.505Y40.421Z-1.083
X22.515Y40.416Z-1.076
X22.521Y40.413Z-1.072
X22.525Y40.411Z-1.069
X22.538Y40.404Z-1.06
X22.547Y40.399Z-1.053
X22.553Y40.395Z-1.049
X22.558Y40.392Z-1.044
X22.568Y40.386Z-1.037
X22.582Y40.376Z-1.025
X22.608Y40.357Z-1.004
X22.633Y40.337Z-0.983
X22.646Y40.325Z-0.972
X22.655Y40.316Z-0.965
X22.659Y40.313Z-0.961
X22.666Y40.306Z-0.956
X22.672Y40.3Z-0.95
X22.676Y40.296Z-0.947
X22.686Y40.286Z-0.938
X22.696Y40.276Z-0.93
X22.698Y40.273Z-0.928
X22.705Y40.266Z-0.923
X22.711Y40.259Z-0.917
X22.714Y40.255Z-0.915
X22.724Y40.244Z-0.907
X22.732Y40.235Z-0.901
X22.737Y40.229Z-0.896
X22.74Y40.225Z-0.894
X22.75Y40.213Z-0.887
X22.757Y40.204Z-0.882
X22.763Y40.197Z-0.877
X22.765Y40.194Z-0.876
X22.772Y40.184Z-0.871
X22.775Y40.18Z-0.868
X22.78Y40.173Z-0.866
X22.788Y40.163Z-0.86
X22.794Y40.153Z-0.856
X22.8Y40.145Z-0.852
X22.808Y40.133Z-0.848
X22.812Y40.127Z-0.845
X22.815Y40.122Z-0.844
X22.821Y40.112Z-0.841
X22.823Y40.109Z-0.839
X22.828Y40.102Z-0.838
X22.834Y40.091Z-0.834
X22.84Y40.081Z-0.833
X22.845Y40.072Z-0.83
X22.852Y40.059Z-0.829
X22.856Y40.052Z-0.828
X22.858Y40.048Z-0.828
X22.866Y40.033Z-0.827
X22.871Y40.022Z-0.827
X22.876Y40.013Z-0.826
X22.88Y40.003Z-0.826
X22.885Y39.994Z-0.825
X22.89Y39.985Z-0.825
X22.895Y39.974Z-0.824
X22.899Y39.966Z-0.824
X22.905Y39.954Z-0.823
X22.91Y39.944Z-0.823
X22.915Y39.934Z-0.822
X22.919Y39.925Z-0.822
X22.924Y39.915Z-0.821
X22.93Y39.902Z-0.821
X22.934Y39.895Z-0.82
X22.939Y39.883Z-0.82
X22.943Y39.876Z-0.819
X22.948Y39.865Z-0.82
X22.952Y39.856Z-0.819
X22.959Y39.842Z-0.819
X22.961Y39.837Z-0.818
X22.968Y39.823Z-0.818
X22.971Y39.817Z-0.818
X22.976Y39.805Z-0.818
X22.98Y39.798Z-0.818
X22.985Y39.786Z-0.818
X22.989Y39.779Z-0.818
X22.996Y39.763Z-0.818
X22.998Y39.758Z-0.818
X23.005Y39.743Z-0.819
X23.007Y39.741Z-0.819
X23.012Y39.73Z-0.82
X23.015Y39.722Z-0.82
X23.021Y39.709Z-0.822
X23.024Y39.704Z-0.822
X23.031Y39.688Z-0.825
X23.032Y39.685Z-0.825
X23.045Y39.657Z-0.832
X23.055Y39.632Z-0.839
X23.071Y39.596Z-0.852
X23.081Y39.571Z-0.863
X23.089Y39.548Z-0.874
X23.102Y39.513Z-0.892
X23.114Y39.478Z-0.91
X23.127Y39.434Z-0.935
X23.141Y39.38Z-0.967
X23.147Y39.351Z-0.982
X23.154Y39.314Z-1
X23.156Y39.299Z-1.006
X23.159Y39.28Z-1.014
X23.16Y39.26Z-1.023
X23.159Y39.241Z-1.031
X23.157Y39.219Z-1.04
X23.155Y39.204Z-1.046
X23.151Y39.19Z-1.051
X23.147Y39.176Z-1.055
X23.141Y39.161Z-1.058
X23.133Y39.145Z-1.06
X23.126Y39.133Z-1.062
X23.117Y39.118Z-1.065
X23.105Y39.102Z-1.068
X23.093Y39.087Z-1.072
X23.086Y39.079Z-1.074
X23.078Y39.071Z-1.077
X23.071Y39.064Z-1.081
X23.063Y39.056Z-1.084
X23.054Y39.048Z-1.088
X23.045Y39.041Z-1.093
X23.036Y39.034Z-1.098
X23.026Y39.026Z-1.104
X23.016Y39.019Z-1.111
X23.006Y39.012Z-1.118F150
X22.995Y39.005Z-1.126
X22.983Y38.999Z-1.135
X22.964Y38.988Z-1.151
X22.951Y38.981Z-1.16
X22.93Y38.97Z-1.174F300
X22.883Y38.945Z-1.201
X22.872Y38.94Z-1.207
X22.859Y38.934Z-1.215
X22.831Y38.921Z-1.232
X22.817Y38.916Z-1.241F150
X22.803Y38.91Z-1.251
X22.786Y38.904Z-1.264
X22.772Y38.899Z-1.274
X22.757Y38.895Z-1.286
X22.742Y38.89Z-1.3
X22.725Y38.886Z-1.316
X22.711Y38.882Z-1.329
X22.695Y38.879Z-1.345
X22.679Y38.875Z-1.362
X22.662Y38.872Z-1.38
X22.642Y38.869Z-1.404
X22.629Y38.867Z-1.419
X22.612Y38.865Z-1.44
X22.591Y38.863Z-1.468
X22.578Y38.862Z-1.486
X22.56Y38.861Z-1.511
X22.543Y38.86Z-1.536
X22.525Y38.86Z-1.563
X22.489Y38.86Z-1.62
X22.477Y38.861Z-1.641
G0Z4
X21.369Y39.998
G1Z-0.674
X21.39Y40.005Z-0.753
X21.411Y40.012Z-0.823
X21.437Y40.021Z-0.902
X21.455Y40.027Z-0.95
X21.473Y40.031Z-0.991
X21.505Y40.038Z-1.051
X21.521Y40.041Z-1.078
G0Z4
X20.609Y41.128
G1Z-0.016
X20.61Y41.134Z-0.036
X20.613Y41.14Z-0.058
X20.617Y41.147Z-0.083
X20.619Y41.15Z-0.09
X20.621Y41.154Z-0.106
X20.624Y41.161Z-0.129
X20.628Y41.168Z-0.154
X20.631Y41.175Z-0.176
X20.637Y41.186Z-0.213
X20.642Y41.196Z-0.246
X20.646Y41.204Z-0.272
X20.712Y41.34Z-0.707
X20.752Y41.42Z-0.944
X20.765Y41.442Z-1.006
X20.772Y41.453Z-1.036
X20.776Y41.456Z-1.042
X20.784Y41.463Z-1.053
X20.794Y41.469Z-1.062
X20.802Y41.474Z-1.069
X20.811Y41.48Z-1.075
X20.82Y41.485Z-1.081F300
X20.829Y41.49Z-1.086
X20.834Y41.494Z-1.088
X20.838Y41.496Z-1.09
X20.847Y41.501Z-1.094
X20.866Y41.511Z-1.1
X20.869Y41.513Z-1.1
X20.875Y41.516Z-1.102
X20.882Y41.519Z-1.103
X20.885Y41.521Z-1.104
X20.904Y41.531Z-1.107
X20.91Y41.534Z-1.107
X20.914Y41.536Z-1.108
X20.934Y41.546Z-1.109
X20.94Y41.55Z-1.109
X20.944Y41.552Z-1.11
X20.964Y41.562Z-1.109
X20.985Y41.572Z-1.108
X20.99Y41.575Z-1.108
X20.995Y41.577Z-1.108
X21.016Y41.588Z-1.106
X21.037Y41.598Z-1.103
X21.043Y41.602Z-1.102
X21.048Y41.604Z-1.102
X21.059Y41.609Z-1.101
X21.062Y41.611Z-1.1
X21.07Y41.615Z-1.099
X21.101Y41.63Z-1.094
X21.103Y41.631Z-1.094
X21.114Y41.637Z-1.092
X21.12Y41.64Z-1.091
X21.125Y41.642Z-1.091
X21.137Y41.648Z-1.089
X21.14Y41.65Z-1.088
X21.18Y41.67Z-1.083
X21.194Y41.677Z-1.081
X21.222Y41.691Z-1.078
X21.237Y41.699Z-1.077
X21.244Y41.702Z-1.076
X21.264Y41.712Z-1.074
X21.285Y41.723Z-1.074
X21.306Y41.734Z-1.075
X21.329Y41.746Z-1.077
X21.35Y41.757Z-1.08
X21.372Y41.768Z-1.085
X21.395Y41.78Z-1.092
X21.418Y41.791Z-1.102
X21.441Y41.803Z-1.115
X21.453Y41.809Z-1.122
X21.465Y41.815Z-1.13F150
X21.49Y41.827Z-1.149
X21.506Y41.834Z-1.163
X21.517Y41.84Z-1.174
X21.528Y41.845Z-1.185
X21.542Y41.852Z-1.201
X21.552Y41.857Z-1.212
X21.57Y41.866Z-1.234
X21.59Y41.875Z-1.26
X21.603Y41.881Z-1.28
X21.617Y41.888Z-1.301
X21.631Y41.894Z-1.324
X21.646Y41.901Z-1.349
X21.665Y41.91Z-1.382
X21.677Y41.916Z-1.404
X21.701Y41.927Z-1.452
X21.71Y41.931Z-1.468
X21.737Y41.912Z-1.41F300
X21.763Y41.894Z-1.357
X21.788Y41.875Z-1.307
X21.812Y41.856Z-1.26
X21.836Y41.836Z-1.216
X21.847Y41.826Z-1.195
X21.858Y41.816Z-1.175
X21.869Y41.806Z-1.155
X21.892Y41.784Z-1.116
X21.912Y41.764Z-1.084
X21.933Y41.743Z-1.052
X21.953Y41.721Z-1.023
X21.972Y41.698Z-0.996
X21.991Y41.675Z-0.972
X21.999Y41.664Z-0.962
X22.008Y41.653Z-0.951
X22.017Y41.641Z-0.941
X22.026Y41.629Z-0.932
X22.044Y41.604Z-0.914
X22.055Y41.589Z-0.906
X22.072Y41.565Z-0.894
X22.095Y41.53Z-0.882
X22.137Y41.465Z-0.862
X22.155Y41.436Z-0.852
X22.168Y41.416Z-0.842
X22.179Y41.399Z-0.832
X22.186Y41.388Z-0.823
X22.194Y41.375Z-0.81
X22.201Y41.364Z-0.797
X22.209Y41.355Z-0.781
X22.222Y41.34Z-0.744
X22.239Y41.324Z-0.687
X22.253Y41.308Z-0.618
X22.255Y41.307Z-0.612
X22.254Y41.308Z-0.616F150
X22.254Y41.307Z-0.612F300
X22.253Y41.309Z-0.622F150
X22.254Y41.306Z-0.61F300
G0Z4
X20.771Y41.453
G1Z-1.033F150
X20.772Y41.453Z-1.036
G0Z4
X21.306Y42.872
G1Z-0.025
X21.315Y42.864Z-0.063
X21.325Y42.859Z-0.096
X21.328Y42.857Z-0.108
X21.34Y42.849Z-0.148
X21.343Y42.848Z-0.156
X21.352Y42.842Z-0.187
X21.358Y42.838Z-0.207
X21.364Y42.835Z-0.227
X21.373Y42.83Z-0.254
X21.376Y42.827Z-0.265
X21.4Y42.812Z-0.339
X21.417Y42.801Z-0.393
X21.434Y42.789Z-0.444
X21.447Y42.779Z-0.48
X21.458Y42.771Z-0.51
X21.47Y42.76Z-0.543
X21.479Y42.751Z-0.568
X21.487Y42.742Z-0.587
X21.495Y42.733Z-0.604
X21.502Y42.723Z-0.621
X21.51Y42.711Z-0.637
X21.516Y42.702Z-0.648
X21.526Y42.686Z-0.664
X21.536Y42.667Z-0.68
X21.543Y42.653Z-0.691
X21.554Y42.631Z-0.706
X21.565Y42.605Z-0.722F300
X21.59Y42.549Z-0.754
X21.606Y42.507Z-0.777
X21.624Y42.461Z-0.804
X21.633Y42.436Z-0.82F150
X21.642Y42.409Z-0.839
X21.651Y42.381Z-0.86
X21.66Y42.353Z-0.882
X21.668Y42.325Z-0.906
X21.672Y42.311Z-0.919
X21.676Y42.296Z-0.933
X21.683Y42.268Z-0.961
X21.686Y42.253Z-0.977
X21.689Y42.239Z-0.993
X21.695Y42.209Z-1.026
X21.697Y42.195Z-1.044
X21.702Y42.165Z-1.082
X21.704Y42.15Z-1.102
X21.707Y42.12Z-1.145
X21.709Y42.104Z-1.168
X21.711Y42.073Z-1.215
X21.712Y42.042Z-1.266
X21.712Y42.01Z-1.321
X21.712Y41.978Z-1.378
X21.711Y41.946Z-1.439
X21.71Y41.931Z-1.468
G0Z4
X19.942Y42.887
G1Z-0.34
X19.979Y42.994Z-0.759
X19.991Y43.03Z-0.901
X19.997Y43.029Z-0.902F300
X20Y43.029Z-0.902
X20.008Y43.028Z-0.903
X20.014Y43.028Z-0.904
X20.018Y43.027Z-0.904
X20.029Y43.027Z-0.904
X20.038Y43.027Z-0.904
X20.044Y43.027Z-0.905
X20.047Y43.027Z-0.904
X20.059Y43.028Z-0.904
X20.076Y43.029Z-0.903
X20.085Y43.031Z-0.902
X20.09Y43.032Z-0.902
X20.095Y43.032Z-0.901
X20.106Y43.035Z-0.899
X20.114Y43.037Z-0.898
X20.132Y43.042Z-0.894
X20.137Y43.044Z-0.893
X20.142Y43.046Z-0.892
X20.152Y43.05Z-0.89
X20.161Y43.053Z-0.887
X20.167Y43.056Z-0.886
X20.179Y43.062Z-0.882
X20.182Y43.064Z-0.882
X20.189Y43.067Z-0.88
X20.207Y43.078Z-0.874
X20.212Y43.081Z-0.874
X20.217Y43.084Z-0.872
X20.235Y43.097Z-0.867
X20.24Y43.102Z-0.865
X20.243Y43.104Z-0.864
X20.254Y43.113Z-0.862
X20.26Y43.119Z-0.86
X20.266Y43.125Z-0.858
X20.268Y43.127Z-0.858
X20.276Y43.135Z-0.856
X20.279Y43.138Z-0.855
X20.284Y43.144Z-0.854
X20.299Y43.161Z-0.85
X20.302Y43.166Z-0.85
X20.305Y43.17Z-0.849
X20.318Y43.189Z-0.847
X20.322Y43.195Z-0.846
X20.324Y43.198Z-0.846
X20.329Y43.207Z-0.845
X20.331Y43.211Z-0.845
X20.334Y43.217Z-0.844
X20.343Y43.236Z-0.843
X20.346Y43.242Z-0.843
X20.347Y43.245Z-0.842
X20.351Y43.255Z-0.841
X20.352Y43.259Z-0.842
X20.354Y43.264Z-0.841
X20.358Y43.275Z-0.84
X20.36Y43.282Z-0.839
X20.362Y43.292Z-0.839
X20.366Y43.309Z-0.837
X20.368Y43.325Z-0.834
X20.37Y43.342Z-0.83
X20.37Y43.358Z-0.825
X20.37Y43.368Z-0.82
X20.369Y43.375Z-0.817
X20.368Y43.383Z-0.811
X20.363Y43.409Z-0.792
X20.359Y43.422Z-0.784
X20.358Y43.428Z-0.779
X20.355Y43.437Z-0.774
X20.353Y43.447Z-0.768
X20.351Y43.453Z-0.766
X20.348Y43.465Z-0.759
X20.342Y43.483Z-0.751
X20.337Y43.497Z-0.746
X20.336Y43.501Z-0.744
X20.332Y43.511Z-0.74
X20.33Y43.518Z-0.738
X20.327Y43.526Z-0.736
X20.324Y43.535Z-0.733
X20.321Y43.54Z-0.732
X20.317Y43.552Z-0.729
X20.316Y43.555Z-0.729
X20.31Y43.568Z-0.726
X20.31Y43.57Z-0.726
X20.303Y43.584Z-0.724
X20.298Y43.595Z-0.724
X20.194Y43.542Z-0.287
X20.298Y43.595Z-0.724F150
G0Z4
X20.206Y43.777
G1Z-0.726
X20.228Y43.734Z-0.727F300
X20.23Y43.731Z-0.726
X20.237Y43.717Z-0.726
X20.239Y43.713Z-0.727
X20.251Y43.688Z-0.726
X20.253Y43.684Z-0.727
X20.259Y43.674Z-0.726
X20.262Y43.667Z-0.726
X20.27Y43.651Z-0.726
X20.278Y43.636Z-0.726
X20.281Y43.63Z-0.725
X20.287Y43.618Z-0.725
X20.288Y43.615Z-0.725
X20.293Y43.604Z-0.725
X20.298Y43.595Z-0.724
G0Z4
X19.686Y43.51
G1Z-0.418F150
X19.684Y43.489Z-0.462
X19.682Y43.466Z-0.508
X19.682Y43.443Z-0.549
X19.682Y43.421Z-0.587
X19.683Y43.399Z-0.622
X19.685Y43.378Z-0.652
X19.689Y43.357Z-0.679
X19.692Y43.337Z-0.702
X19.697Y43.317Z-0.721
X19.703Y43.298Z-0.736
X19.709Y43.28Z-0.747
X19.716Y43.262Z-0.755F300
X19.724Y43.245Z-0.759
X19.733Y43.228Z-0.76
X19.742Y43.212Z-0.755
X19.752Y43.197Z-0.752
X19.763Y43.183Z-0.751
X19.774Y43.17Z-0.752
X19.786Y43.157Z-0.756
X19.798Y43.145Z-0.761
X19.808Y43.136Z-0.767
X19.811Y43.133Z-0.769
X19.818Y43.127Z-0.774
X19.824Y43.123Z-0.777
X19.828Y43.119Z-0.78F150
X19.836Y43.113Z-0.785F300
X19.839Y43.111Z-0.787F150
X19.85Y43.103Z-0.795F300
X19.862Y43.094Z-0.803
X19.872Y43.087Z-0.811F150
X19.875Y43.085Z-0.812F300
X19.883Y43.08Z-0.819F150
X19.887Y43.077Z-0.822F300
X19.895Y43.073Z-0.828F150
X19.9Y43.07Z-0.831F300
X19.907Y43.066Z-0.837F150
X19.913Y43.063Z-0.841
X19.919Y43.06Z-0.846
X19.925Y43.056Z-0.85
X19.932Y43.053Z-0.856
X19.937Y43.051Z-0.86
X19.945Y43.047Z-0.866
X19.95Y43.045Z-0.869
X19.958Y43.042Z-0.876
X19.962Y43.04Z-0.878
X19.985Y43.032Z-0.896
X19.991Y43.03Z-0.901
G0Z4
X19.686Y43.51
G1Z-0.418
X19.774Y43.558Z-0.043F300
X19.775Y43.559Z-0.041
X20.206Y43.777Z-0.726F150
G0Z4
X19.937Y44.329
G1Z-0.748
X19.945Y44.311Z-0.746F300
X19.962Y44.269Z-0.742
X19.997Y44.193Z-0.733
X20.029Y44.126Z-0.726
X20.056Y44.072Z-0.723
X20.06Y44.062Z-0.723
X20.083Y44.017Z-0.721
X20.206Y43.777Z-0.726
G0Z4
X19.937Y44.329
G1Z-0.748F150
X19.936Y44.332Z-0.748F300
X19.932Y44.342Z-0.749
X19.929Y44.352Z-0.75
X19.925Y44.362Z-0.753
X19.922Y44.372Z-0.756
X19.92Y44.382Z-0.76
X19.918Y44.392Z-0.764
X19.916Y44.402Z-0.77
X19.914Y44.412Z-0.776F150
X19.913Y44.421Z-0.782
X19.912Y44.431Z-0.789
X19.911Y44.44Z-0.796
X19.911Y44.449Z-0.803
X19.911Y44.466Z-0.819
X19.911Y44.483Z-0.834
X19.913Y44.498Z-0.85
X19.916Y44.519Z-0.873
X19.922Y44.541Z-0.899
X19.928Y44.559Z-0.919
X19.935Y44.575Z-0.936
X19.94Y44.584Z-0.945
X19.945Y44.59Z-0.95
X19.955Y44.603Z-0.959F300
X19.968Y44.617Z-0.969
X19.983Y44.63Z-0.979
X20Y44.643Z-0.989
X20.012Y44.651Z-0.996
X20.025Y44.659Z-1.003
X20.041Y44.666Z-1.011
X20.048Y44.644Z-0.923
X20.041Y44.666Z-1.011F150
X20.052Y44.671Z-1.016F300
X20.066Y44.677Z-1.022
X20.074Y44.681Z-1.025
X20.088Y44.686Z-1.028
X20.098Y44.69Z-1.03
X20.115Y44.696Z-1.032
X20.121Y44.698Z-1.032
X20.139Y44.703Z-1.031
X20.146Y44.705Z-1.031
X20.172Y44.712Z-1.026
X20.185Y44.715Z-1.021
X20.198Y44.718Z-1.017
X20.204Y44.72Z-1.014
X20.23Y44.724Z-1.001
X20.254Y44.727Z-0.985
X20.276Y44.73Z-0.968
X20.298Y44.731Z-0.947
X20.319Y44.731Z-0.925
X20.333Y44.731Z-0.908
X20.347Y44.73Z-0.891
X20.361Y44.727Z-0.874
X20.375Y44.724Z-0.857
X20.389Y44.72Z-0.839
X20.405Y44.715Z-0.819
X20.416Y44.71Z-0.805
X20.426Y44.705Z-0.791
X20.437Y44.7Z-0.778
X20.448Y44.694Z-0.766
X20.458Y44.688Z-0.755
X20.469Y44.681Z-0.744
X20.479Y44.674Z-0.734
X20.489Y44.666Z-0.726
X20.499Y44.658Z-0.718
X20.508Y44.649Z-0.711
X20.518Y44.64Z-0.706
X20.527Y44.631Z-0.702
X20.535Y44.621Z-0.699
X20.543Y44.61Z-0.698
X20.551Y44.599Z-0.698
X20.568Y44.573Z-0.702
X20.584Y44.548Z-0.704
X20.603Y44.517Z-0.706
X20.623Y44.484Z-0.706
X20.647Y44.44Z-0.705
X20.666Y44.406Z-0.703
X20.694Y44.354Z-0.698
X20.728Y44.289Z-0.69
X20.834Y44.077Z-0.657
X20.885Y43.977Z-0.644
X20.903Y43.941Z-0.641
X20.929Y43.891Z-0.637
X20.963Y43.828Z-0.635
X20.983Y43.793Z-0.634
X20.993Y43.773Z-0.633
X20.998Y43.764Z-0.633
X21.003Y43.754Z-0.632
X21.008Y43.744Z-0.63
X21.012Y43.734Z-0.626
X21.016Y43.723Z-0.621
X21.019Y43.713Z-0.615
X21.022Y43.703Z-0.607
X21.025Y43.692Z-0.599
X21.028Y43.682Z-0.589
X21.03Y43.671Z-0.577
X21.032Y43.66Z-0.565
X21.034Y43.649Z-0.551
X21.035Y43.638Z-0.537
X21.036Y43.627Z-0.521
X21.036Y43.616Z-0.504
X21.037Y43.605Z-0.486
X21.037Y43.594Z-0.467
X21.037Y43.583Z-0.447
X21.036Y43.572Z-0.426
X21.035Y43.561Z-0.405
X21.034Y43.55Z-0.382
X21.032Y43.533Z-0.346
X21.046Y43.524Z-0.378F150
X21.056Y43.518Z-0.398
X21.065Y43.512Z-0.418
X21.074Y43.505Z-0.436
X21.082Y43.499Z-0.453
X21.091Y43.492Z-0.469
X21.099Y43.485Z-0.484
X21.107Y43.478Z-0.497
X21.114Y43.471Z-0.51
X21.122Y43.463Z-0.521
X21.129Y43.456Z-0.524F300
X21.142Y43.44Z-0.456
X21.154Y43.424Z-0.387
X21.164Y43.408Z-0.316
X21.174Y43.39Z-0.245
X21.182Y43.373Z-0.173
X21.189Y43.354Z-0.101
X21.191Y43.345Z-0.065
G0Z4
X19.937Y44.329
G1Z-0.748F150
X20.125Y44.4Z-0.001F300
X20.04Y44.666Z-1.011F150
G0Z4
X19.176Y44.276
G1Z-0.556
X19.19Y44.259Z-0.629
X19.204Y44.241Z-0.686
X19.213Y44.229Z-0.714
X19.222Y44.217Z-0.735
X19.233Y44.201Z-0.755
X19.24Y44.188Z-0.767
X19.246Y44.179Z-0.774
X19.254Y44.164Z-0.782F300
X19.263Y44.148Z-0.787
X19.268Y44.138Z-0.789
X19.277Y44.121Z-0.79
X19.285Y44.103Z-0.79
X19.303Y44.066Z-0.786
X19.353Y43.961Z-0.766
X19.362Y43.941Z-0.764
X19.364Y43.936Z-0.763
X19.378Y43.907Z-0.761
X19.38Y43.902Z-0.76
X19.383Y43.896Z-0.76
X19.394Y43.872Z-0.759
X19.396Y43.866Z-0.759
X19.399Y43.86Z-0.759
X19.405Y43.848Z-0.759
X19.411Y43.835Z-0.759
X19.413Y43.831Z-0.759
X19.417Y43.822Z-0.759
X19.422Y43.813Z-0.759
X19.423Y43.809Z-0.76
X19.43Y43.795Z-0.76
X19.436Y43.782Z-0.761
X19.439Y43.776Z-0.762
X19.443Y43.769Z-0.763
X19.448Y43.758Z-0.763
X19.45Y43.755Z-0.764
X19.457Y43.74Z-0.765
X19.464Y43.727Z-0.767
X19.466Y43.722Z-0.768
X19.476Y43.704Z-0.769
X19.486Y43.686Z-0.765
X19.498Y43.669Z-0.758
X19.51Y43.652Z-0.747
X19.523Y43.635Z-0.732
X19.538Y43.619Z-0.712
X19.553Y43.604Z-0.689
X19.569Y43.589Z-0.662
X19.586Y43.575Z-0.632
X19.604Y43.561Z-0.597
X19.623Y43.548Z-0.559
X19.643Y43.535Z-0.517
X19.663Y43.523Z-0.472
X19.686Y43.51Z-0.418
G0Z4
X19.175Y44.276
G1Z-0.553F150
X19.176Y44.276Z-0.556
X19.175Y44.277Z-0.551F300
X19.176Y44.276Z-0.556F150
G0Z4
X23.983Y49.192
G1Z-0.403
X24.011Y49.218Z-0.545
X24.044Y49.244Z-0.703
X24.051Y49.25Z-0.724
X24.072Y49.265Z-0.76
X24.093Y49.28Z-0.794
X24.114Y49.293Z-0.824
X24.135Y49.306Z-0.851
X24.154Y49.317Z-0.873
X24.166Y49.323Z-0.886
X24.172Y49.324Z-0.883F300
X24.179Y49.324Z-0.877
X24.187Y49.324Z-0.87
X24.195Y49.324Z-0.863
X24.204Y49.324Z-0.854
X24.214Y49.324Z-0.843
X24.224Y49.323Z-0.832
X24.235Y49.322Z-0.818
X24.246Y49.321Z-0.803
X24.263Y49.318Z-0.78
X24.276Y49.333Z-0.821F150
X24.284Y49.342Z-0.847
X24.294Y49.352Z-0.872
X24.303Y49.361Z-0.898
X24.314Y49.371Z-0.924
X24.325Y49.381Z-0.95
X24.336Y49.391Z-0.975
X24.348Y49.4Z-1
X24.361Y49.41Z-1.024
X24.374Y49.42Z-1.048
X24.388Y49.43Z-1.07
X24.402Y49.439Z-1.092
X24.431Y49.459Z-1.136
X24.446Y49.468Z-1.158
X24.475Y49.486Z-1.197
X24.477Y49.488Z-1.198F300
X24.494Y49.498Z-1.186
X24.51Y49.508Z-1.175
X24.526Y49.518Z-1.165
X24.543Y49.528Z-1.155
X24.56Y49.538Z-1.146
X24.578Y49.548Z-1.138
X24.595Y49.558Z-1.132
X24.614Y49.568Z-1.126
X24.631Y49.578Z-1.122
X24.65Y49.588Z-1.119
X24.669Y49.598Z-1.117
X24.687Y49.609Z-1.117
X24.707Y49.619Z-1.119
X24.726Y49.63Z-1.122
X24.746Y49.641Z-1.128
X24.767Y49.651Z-1.135
X24.778Y49.657Z-1.14
X24.787Y49.663Z-1.145
X24.809Y49.674Z-1.158
X24.819Y49.679Z-1.165F150
X24.83Y49.685Z-1.174
X24.853Y49.697Z-1.192
X24.863Y49.702Z-1.202
X24.878Y49.71Z-1.217
X24.9Y49.722Z-1.241
X24.91Y49.727Z-1.252
X24.926Y49.735Z-1.273
X24.95Y49.748Z-1.306
X24.961Y49.753Z-1.322
X24.979Y49.762Z-1.35
X24.998Y49.771Z-1.381
X25.005Y49.775Z-1.394
X25.017Y49.781Z-1.415
X25.038Y49.792Z-1.454
X25.066Y49.806Z-1.509
X25.076Y49.811Z-1.528
X25.095Y49.797Z-1.484F300
X25.112Y49.786Z-1.448
X25.128Y49.774Z-1.412
X25.144Y49.762Z-1.378
X25.175Y49.738Z-1.313
X25.19Y49.725Z-1.282
X25.205Y49.713Z-1.252
X25.219Y49.7Z-1.224
X25.234Y49.686Z-1.195
X25.247Y49.674Z-1.171
X25.261Y49.661Z-1.146
X25.274Y49.648Z-1.123
X25.287Y49.635Z-1.1
X25.299Y49.621Z-1.08
X25.312Y49.608Z-1.06
X25.324Y49.594Z-1.041
X25.335Y49.58Z-1.024
X25.347Y49.566Z-1.008
X25.358Y49.552Z-0.994
X25.369Y49.537Z-0.981
X25.379Y49.523Z-0.968
X25.39Y49.508Z-0.956
X25.4Y49.494Z-0.945
X25.41Y49.479Z-0.935
X25.42Y49.464Z-0.925
X25.429Y49.449Z-0.916
X25.449Y49.419Z-0.899
X25.468Y49.389Z-0.882
X25.481Y49.368Z-0.871
X25.489Y49.356Z-0.865
X25.505Y49.332Z-0.854
X25.531Y49.293Z-0.836
X25.546Y49.27Z-0.824
X25.56Y49.249Z-0.811
X25.574Y49.229Z-0.797
X25.586Y49.211Z-0.781
X25.594Y49.198Z-0.769
X25.599Y49.191Z-0.76
X25.607Y49.178Z-0.743
X25.613Y49.167Z-0.727
X25.616Y49.163Z-0.72
X25.648Y49.151Z-0.598
X25.65Y49.15Z-0.589
X25.616Y49.163Z-0.72F150
X25.619Y49.139Z-0.654F300
X25.622Y49.124Z-0.608
X25.627Y49.091Z-0.496
G0Z4
X24.001Y49.403
G1Z-0.609F150
X24.029Y49.388Z-0.727
X24.086Y49.36Z-0.961
X24.104Y49.352Z-1.029
X24.109Y49.35Z-1.034
X24.166Y49.323Z-0.886F300
G0Z4
X24.89Y50.608
G1Z-0.778F150
X24.894Y50.598Z-0.797
X24.901Y50.586Z-0.816
X24.906Y50.575Z-0.828
X24.912Y50.561Z-0.84
X24.918Y50.55Z-0.847
X24.926Y50.533Z-0.856F300
X24.934Y50.514Z-0.862
X24.948Y50.483Z-0.87
X24.981Y50.408Z-0.882
X24.988Y50.391Z-0.886
X24.99Y50.387Z-0.887
X24.995Y50.374Z-0.891
X25.001Y50.358Z-0.896
X25.008Y50.341Z-0.901
X25.014Y50.325Z-0.908
X25.019Y50.308Z-0.916
X25.025Y50.291Z-0.924
X25.03Y50.274Z-0.933
X25.036Y50.257Z-0.944F150
X25.04Y50.24Z-0.955
X25.045Y50.223Z-0.968
X25.049Y50.205Z-0.982
X25.053Y50.187Z-0.996
X25.057Y50.17Z-1.012
X25.061Y50.152Z-1.03
X25.064Y50.134Z-1.048
X25.067Y50.116Z-1.067
X25.069Y50.097Z-1.088
X25.072Y50.079Z-1.11
X25.074Y50.06Z-1.133
X25.077Y50.023Z-1.182
X25.078Y50.004Z-1.209
X25.079Y49.985Z-1.237
X25.08Y49.966Z-1.265
X25.08Y49.946Z-1.295
X25.08Y49.927Z-1.326
X25.08Y49.907Z-1.358
X25.079Y49.868Z-1.426
X25.078Y49.848Z-1.461
X25.076Y49.811Z-1.528
G0Z4
X24.89Y50.608
G1Z-0.778
X24.89Y50.61Z-0.769F300
X24.89Y50.608Z-0.778F150
X24.89Y50.608Z-0.777F300
X24.89Y50.612Z-0.764
X24.886Y50.613Z-0.758
X24.89Y50.608Z-0.777F150
X24.885Y50.615Z-0.752F300
X24.884Y50.615Z-0.751
X24.885Y50.614Z-0.755F150
X24.884Y50.614Z-0.752F300
X24.886Y50.613Z-0.758F150
X24.885Y50.615Z-0.75F300
X24.885Y50.614Z-0.754F150
X24.884Y50.615Z-0.749F300
X24.883Y50.616Z-0.746
X24.885Y50.615Z-0.752F150
X24.883Y50.616Z-0.744F300
X24.884Y50.615Z-0.749F150
X24.882Y50.617Z-0.741F300
X24.884Y50.615Z-0.751F150
X24.884Y50.616Z-0.748F300
X24.881Y50.617Z-0.738
X24.885Y50.615Z-0.753F150
X24.884Y50.619Z-0.735F300
X24.885Y50.614Z-0.756F150
X24.883Y50.617Z-0.741F300
X24.884Y50.616Z-0.748F150
X24.883Y50.62Z-0.73F300
X24.885Y50.615Z-0.753F150
X24.88Y50.62Z-0.727F300
X24.884Y50.616Z-0.746F150
X24.88Y50.622Z-0.719F300
X24.884Y50.615Z-0.749F150
X24.877Y50.623Z-0.709F300
X24.884Y50.615Z-0.749F150
G0Z4
X24.529Y51.299
G1Z-0.687
X24.531Y51.295Z-0.672F300
X24.529Y51.298Z-0.686F150
X24.53Y51.296Z-0.675F300
G0Z4
X23.418Y50.813
G1Z-0.553F150
X23.421Y50.809Z-0.547F300
X23.43Y50.8Z-0.531
X23.441Y50.788Z-0.51
X23.455Y50.774Z-0.479
X23.473Y50.757Z-0.44
X23.494Y50.739Z-0.391
X23.518Y50.722Z-0.332
X23.544Y50.705Z-0.265
X23.571Y50.693Z-0.187
X23.596Y50.686Z-0.094
X23.61Y50.665Z-0.023
G0Z4
X23.411Y50.779
G1Z-0.624F150
X23.418Y50.813Z-0.553F300
X23.417Y50.818Z-0.549
X23.415Y50.829Z-0.54
X23.414Y50.841Z-0.527
X23.414Y50.848Z-0.518
X23.414Y50.856Z-0.509
X23.413Y50.865Z-0.497
X23.413Y50.874Z-0.485
X23.414Y50.883Z-0.47
X23.414Y50.893Z-0.454
X23.416Y50.908Z-0.43
X23.401Y50.916Z-0.469F150
X23.392Y50.922Z-0.493
X23.382Y50.928Z-0.518
X23.372Y50.935Z-0.542
X23.363Y50.942Z-0.566
X23.353Y50.95Z-0.589
X23.343Y50.958Z-0.612
X23.333Y50.966Z-0.635
X23.323Y50.975Z-0.656
X23.314Y50.984Z-0.677
X23.304Y50.994Z-0.697
X23.295Y51.004Z-0.715
X23.285Y51.015Z-0.732
X23.277Y51.026Z-0.747
X23.268Y51.037Z-0.762
X23.26Y51.049Z-0.774
X23.252Y51.061Z-0.785
X23.244Y51.073Z-0.795
X23.237Y51.086Z-0.802F300
X23.228Y51.102Z-0.81
X23.219Y51.122Z-0.814
X23.21Y51.142Z-0.822
X23.203Y51.162Z-0.826
X23.196Y51.183Z-0.827
X23.19Y51.205Z-0.823
X23.186Y51.228Z-0.816
X23.182Y51.251Z-0.805
X23.179Y51.274Z-0.79
X23.176Y51.299Z-0.77
X23.175Y51.324Z-0.747
X23.175Y51.349Z-0.719
X23.176Y51.375Z-0.688
X23.178Y51.401Z-0.652
X23.181Y51.428Z-0.613
X23.184Y51.452Z-0.574
X23.163Y51.467Z-0.633F150
X23.144Y51.481Z-0.683
X23.127Y51.496Z-0.729
X23.11Y51.511Z-0.773
X23.094Y51.526Z-0.813
X23.079Y51.542Z-0.849
X23.065Y51.558Z-0.883
X23.051Y51.574Z-0.913
X23.039Y51.59Z-0.939
X23.027Y51.607Z-0.963
X23.016Y51.624Z-0.983
X23.006Y51.641Z-1
X22.997Y51.658Z-1.013
X22.988Y51.675Z-1.024F300
X22.981Y51.693Z-1.032
X22.974Y51.71Z-1.036
X22.969Y51.727Z-1.038
X22.964Y51.744Z-1.042
X22.959Y51.761Z-1.047
X22.956Y51.778Z-1.053
X22.953Y51.794Z-1.06
X22.951Y51.81Z-1.069
X22.95Y51.826Z-1.078
X22.949Y51.841Z-1.087F150
X22.949Y51.856Z-1.097
X22.949Y51.87Z-1.108
X22.95Y51.883Z-1.118
X22.951Y51.896Z-1.128
X22.952Y51.909Z-1.138
X22.954Y51.921Z-1.148
X22.959Y51.943Z-1.167
X22.965Y51.962Z-1.185
X22.971Y51.98Z-1.2
X22.978Y51.996Z-1.214
X22.986Y52.011Z-1.226
X22.994Y52.025Z-1.237
X22.999Y52.032Z-1.242
X23.004Y52.039Z-1.246F300
X23.009Y52.046Z-1.249
X23.016Y52.054Z-1.25
X23.022Y52.061Z-1.251
X23.029Y52.069Z-1.25
X23.039Y52.078Z-1.247
X23.048Y52.086Z-1.242
X23.057Y52.094Z-1.235
X23.069Y52.102Z-1.224
X23.082Y52.111Z-1.21
X23.097Y52.12Z-1.191
X23.114Y52.129Z-1.168
X23.132Y52.138Z-1.14
X23.152Y52.147Z-1.106
X23.178Y52.157Z-1.06
X23.187Y52.171Z-1.07F150
X23.195Y52.183Z-1.077F300
X23.204Y52.195Z-1.084
X23.213Y52.207Z-1.089
X23.222Y52.219Z-1.093
X23.232Y52.231Z-1.095
X23.243Y52.243Z-1.096
X23.253Y52.255Z-1.096
X23.259Y52.261Z-1.095
X23.27Y52.273Z-1.092
X23.276Y52.278Z-1.091
X23.288Y52.29Z-1.086
X23.301Y52.301Z-1.079
X23.309Y52.308Z-1.074
X23.319Y52.316Z-1.067
X23.339Y52.331Z-1.05
X23.349Y52.338Z-1.043
X23.359Y52.345Z-1.037
X23.369Y52.352Z-1.033
X23.38Y52.358Z-1.029
X23.39Y52.364Z-1.026
X23.4Y52.37Z-1.023
X23.411Y52.375Z-1.022
X23.421Y52.381Z-1.022
X23.432Y52.385Z-1.022
X23.442Y52.39Z-1.024
X23.453Y52.394Z-1.026
X23.463Y52.398Z-1.029
X23.474Y52.402Z-1.032
X23.484Y52.406Z-1.036
X23.495Y52.409Z-1.041
X23.506Y52.412Z-1.046
X23.516Y52.414Z-1.052
X23.526Y52.417Z-1.059F150
X23.537Y52.419Z-1.066
X23.547Y52.421Z-1.073
X23.557Y52.422Z-1.081
X23.577Y52.425Z-1.097
X23.615Y52.428Z-1.131
X23.65Y52.429Z-1.161
X23.688Y52.429Z-1.191
X23.702Y52.428Z-1.201
X23.722Y52.426Z-1.213
X23.74Y52.424Z-1.224F300
X23.753Y52.422Z-1.23
X23.773Y52.419Z-1.238
X23.788Y52.415Z-1.243
X23.803Y52.411Z-1.246
X23.819Y52.405Z-1.247
X23.833Y52.4Z-1.247
X23.847Y52.394Z-1.242
X23.862Y52.385Z-1.234
X23.881Y52.372Z-1.22
X23.908Y52.353Z-1.196
X23.952Y52.316Z-1.152
X23.99Y52.278Z-1.11
X24.022Y52.245Z-1.076
X24.039Y52.226Z-1.059
X24.058Y52.203Z-1.04
X24.068Y52.191Z-1.032
X24.077Y52.179Z-1.023
X24.087Y52.167Z-1.016
X24.096Y52.155Z-1.008
X24.105Y52.142Z-1.002
X24.115Y52.13Z-0.995
X24.124Y52.117Z-0.989
X24.132Y52.105Z-0.984
X24.141Y52.092Z-0.979
X24.15Y52.079Z-0.974
X24.159Y52.066Z-0.97
X24.167Y52.053Z-0.967
X24.175Y52.039Z-0.963
X24.184Y52.026Z-0.96
X24.192Y52.012Z-0.958
X24.2Y51.999Z-0.956
X24.208Y51.985Z-0.954
X24.215Y51.971Z-0.953
X24.231Y51.943Z-0.951
X24.246Y51.916Z-0.95
X24.253Y51.902Z-0.95
X24.267Y51.873Z-0.95
X24.281Y51.845Z-0.952
X24.295Y51.816Z-0.954
X24.308Y51.788Z-0.956
X24.314Y51.773Z-0.958
X24.316Y51.77Z-0.958
X24.321Y51.759Z-0.959
X24.327Y51.745Z-0.961
X24.328Y51.741Z-0.961
X24.339Y51.716Z-0.964
X24.35Y51.692Z-0.966
X24.362Y51.662Z-0.968
X24.379Y51.622Z-0.97
X24.391Y51.592Z-0.969
X24.4Y51.573Z-0.968
X24.412Y51.544Z-0.965
X24.42Y51.525Z-0.962
X24.432Y51.498Z-0.956
X24.444Y51.473Z-0.948
X24.452Y51.456Z-0.941
X24.459Y51.441Z-0.934
X24.466Y51.426Z-0.926
X24.473Y51.413Z-0.918
X24.48Y51.4Z-0.909
X24.486Y51.389Z-0.899
X24.496Y51.371Z-0.881
X24.501Y51.362Z-0.869
X24.506Y51.352Z-0.85
X24.511Y51.34Z-0.823
X24.519Y51.321Z-0.769
X24.529Y51.299Z-0.687
G0Z4
X23.607Y53.276
G1Z-0.576F150
X23.608Y53.275Z-0.572F300
X23.544Y53.337Z-0.801F150
X23.552Y53.327Z-0.779F300
X23.562Y53.315Z-0.748
X23.577Y53.301Z-0.698
X23.594Y53.287Z-0.636
X23.607Y53.276Z-0.576
X23.435Y53.238Z-0.252
X23.481Y53.277Z-0.478F150
X23.521Y53.314Z-0.681
X23.544Y53.337Z-0.801
G0Z4
X22.93Y53.094
G1Z-0.685
X22.93Y53.093Z-0.679F300
X22.93Y53.093Z-0.68F150
X22.93Y53.093Z-0.679F300
X22.93Y53.089Z-0.666
X22.93Y53.093Z-0.679F150
X22.93Y53.09Z-0.671F300
X22.93Y53.093Z-0.68F150
X22.931Y53.09Z-0.669F300
X22.93Y53.093Z-0.681F150
X22.931Y53.09Z-0.667F300
X22.93Y53.094Z-0.685F150
G0Z4
X22.317Y53.035
G1Z-0.785
X22.319Y53.037Z-0.774F300
X22.317Y53.035Z-0.785F150
X22.323Y53.039Z-0.758F300
X22.297Y53.023Z-0.869F150
X22.306Y53.029Z-0.831F300
X22.297Y53.023Z-0.869F150
X22.317Y53.035Z-0.785F300
X22.266Y53.003Z-1.007F150
X22.274Y52.987Z-1.009F300
X22.282Y52.971Z-1.01
X22.295Y52.945Z-1.009
X22.303Y52.927Z-1.007
X22.312Y52.908Z-1.004
X22.32Y52.89Z-0.999
X22.325Y52.88Z-0.996
X22.335Y52.858Z-0.987
X22.341Y52.843Z-0.979
X22.349Y52.825Z-0.968
X22.353Y52.816Z-0.962
X22.357Y52.807Z-0.955
X22.365Y52.788Z-0.94
X22.372Y52.772Z-0.923
X22.379Y52.754Z-0.901
X22.384Y52.741Z-0.883
X22.387Y52.734Z-0.872
X22.402Y52.72Z-0.815
X22.422Y52.701Z-0.725
X22.435Y52.688Z-0.658
X22.361Y52.64Z-0.522
X22.363Y52.654Z-0.572F150
X22.366Y52.667Z-0.621
X22.372Y52.691Z-0.711
X22.382Y52.721Z-0.822
X22.387Y52.734Z-0.872
G0Z4
X22.266Y53.003
G1Z-1.007
X22.297Y53.023Z-0.869F300
G0Z4
X22.162Y53.201
G1Z-0.941F150
X22.165Y53.193Z-0.94F300
X22.17Y53.181Z-0.939
X22.174Y53.171Z-0.939
X22.179Y53.16Z-0.939
X22.189Y53.138Z-0.942
X22.195Y53.127Z-0.945
X22.2Y53.115Z-0.948
X22.206Y53.104Z-0.952
X22.213Y53.092Z-0.957
X22.226Y53.068Z-0.968
X22.24Y53.045Z-0.982
X22.266Y53.003Z-1.007
G0Z4
X22.162Y53.201
G1Z-0.941F150
X22.237Y53.232Z-0.641F300
X22.345Y53.276Z-0.206
X22.381Y53.289Z-0.065
X22.392Y53.292Z-0.024
G0Z4
X22.244Y53.794
G1Z-0.061F150
X22.249Y53.786Z-0.025F300
X22.547Y53.917Z-0.85F150
X22.55Y53.91Z-0.847F300
X22.552Y53.902Z-0.844
X22.553Y53.899Z-0.843
X22.561Y53.877Z-0.835
X22.573Y53.846Z-0.825
X22.577Y53.838Z-0.823
X22.578Y53.834Z-0.822
X22.591Y53.803Z-0.814
X22.595Y53.795Z-0.812
X22.596Y53.792Z-0.811
X22.603Y53.777Z-0.809
X22.605Y53.772Z-0.807
X22.607Y53.768Z-0.807
X22.614Y53.752Z-0.804
X22.628Y53.724Z-0.8
X22.642Y53.697Z-0.797
X22.643Y53.694Z-0.797
X22.651Y53.679Z-0.796
X22.653Y53.676Z-0.795
X22.661Y53.66Z-0.794
X22.662Y53.657Z-0.794
X22.67Y53.642Z-0.794
X22.672Y53.639Z-0.793
X22.68Y53.624Z-0.793
X22.682Y53.621Z-0.793
X22.69Y53.606Z-0.793
X22.691Y53.604Z-0.793
X22.7Y53.588Z-0.793
X22.701Y53.586Z-0.793
X22.739Y53.518Z-0.795
X22.745Y53.508Z-0.796
X22.749Y53.502Z-0.796
X22.75Y53.499Z-0.797
X22.755Y53.49Z-0.797
X22.758Y53.486Z-0.797
X22.76Y53.481Z-0.798
X22.765Y53.473Z-0.798
X22.767Y53.47Z-0.798
X22.77Y53.464Z-0.799
X22.776Y53.454Z-0.799
X22.78Y53.447Z-0.8
X22.789Y53.43Z-0.801
X22.793Y53.423Z-0.801
X22.799Y53.413Z-0.802
X22.802Y53.408Z-0.802
X22.804Y53.404Z-0.802
X22.808Y53.396Z-0.802
X22.81Y53.393Z-0.802
X22.813Y53.388Z-0.803
X22.818Y53.378Z-0.803
X22.821Y53.372Z-0.803
X22.825Y53.364Z-0.803
X22.831Y53.354Z-0.804
X22.833Y53.35Z-0.804
X22.837Y53.341Z-0.805
X22.84Y53.335Z-0.805
X22.843Y53.329Z-0.806
X22.846Y53.322Z-0.806
X22.848Y53.318Z-0.807
X22.852Y53.308Z-0.807
X22.856Y53.301Z-0.808
X22.858Y53.295Z-0.808
X22.861Y53.289Z-0.809
X22.864Y53.282Z-0.809
X22.868Y53.273Z-0.809
X22.872Y53.263Z-0.809
X22.874Y53.257Z-0.809
X22.876Y53.252Z-0.809
X22.879Y53.245Z-0.808
X22.882Y53.237Z-0.808
X22.884Y53.233Z-0.807
X22.885Y53.228Z-0.806
X22.888Y53.222Z-0.805
X22.891Y53.214Z-0.804
X22.894Y53.205Z-0.802
X22.896Y53.2Z-0.8
X22.897Y53.197Z-0.799
X22.901Y53.184Z-0.794
X22.905Y53.173Z-0.788
X22.908Y53.162Z-0.782
X22.911Y53.153Z-0.775
X22.914Y53.144Z-0.767
X22.917Y53.133Z-0.757
X22.92Y53.124Z-0.746
X22.925Y53.112Z-0.728
X22.929Y53.099Z-0.699
X22.93Y53.094Z-0.685
G0Z4
X22.545Y53.925
G1Z-0.852F150
X22.546Y53.922Z-0.851F300
X22.547Y53.917Z-0.85
G0Z4
X22.244Y53.794
G1Z-0.061F150
X22.545Y53.925Z-0.852
G0Z4
X22.392Y54.207
G1Z-1.393
X22.401Y54.193Z-1.351F300
X22.426Y54.159Z-1.246
X22.447Y54.127Z-1.159
X22.465Y54.097Z-1.086
X22.481Y54.069Z-1.025
X22.496Y54.043Z-0.975
X22.508Y54.017Z-0.934
X22.52Y53.992Z-0.903
X22.529Y53.968Z-0.879
X22.538Y53.945Z-0.862
X22.545Y53.925Z-0.852
G0Z4
X22.392Y54.207
G1Z-1.393F150
X22.417Y54.242Z-1.321F300
X22.431Y54.259Z-1.287
X22.445Y54.276Z-1.254
X22.459Y54.292Z-1.224
X22.474Y54.308Z-1.196
X22.489Y54.323Z-1.171
X22.505Y54.337Z-1.148
X22.521Y54.351Z-1.128
X22.532Y54.361Z-1.115
X22.545Y54.371Z-1.103
X22.552Y54.376Z-1.098
X22.559Y54.381Z-1.092
X22.566Y54.386Z-1.087
X22.573Y54.39Z-1.083
X22.58Y54.395Z-1.079
X22.588Y54.4Z-1.076
X22.595Y54.405Z-1.073
X22.603Y54.409Z-1.07
X22.611Y54.414Z-1.068
X22.619Y54.418Z-1.067
X22.627Y54.423Z-1.066
X22.635Y54.427Z-1.066
X22.643Y54.431Z-1.066
X22.652Y54.435Z-1.066
X22.66Y54.439Z-1.067
X22.669Y54.442Z-1.069
X22.678Y54.446Z-1.071
X22.687Y54.449Z-1.074
X22.696Y54.453Z-1.077
X22.705Y54.456Z-1.081
X22.714Y54.459Z-1.085
X22.723Y54.461Z-1.09
X22.732Y54.464Z-1.095
X22.741Y54.466Z-1.101F150
X22.75Y54.469Z-1.107
X22.768Y54.473Z-1.121
X22.786Y54.476Z-1.136
X22.804Y54.478Z-1.152
X22.822Y54.48Z-1.169
X22.864Y54.483Z-1.212
X22.906Y54.449Z-1.133F300
X22.942Y54.417Z-1.065
X22.964Y54.396Z-1.026
X22.981Y54.378Z-0.997
X22.998Y54.36Z-0.97
X23.009Y54.348Z-0.952
X23.019Y54.335Z-0.936
X23.035Y54.315Z-0.912
X23.05Y54.294Z-0.89
X23.065Y54.272Z-0.871
X23.074Y54.258Z-0.859
X23.088Y54.235Z-0.843
X23.097Y54.219Z-0.834
X23.11Y54.195Z-0.822
X23.119Y54.179Z-0.815
X23.127Y54.162Z-0.81
X23.14Y54.136Z-0.802
X23.156Y54.103Z-0.795
X23.172Y54.068Z-0.79
X23.193Y54.023Z-0.787
X23.207Y53.992Z-0.786
X23.225Y53.956Z-0.787
X23.237Y53.931Z-0.789
X23.244Y53.917Z-0.79
X23.257Y53.89Z-0.794
X23.277Y53.852Z-0.799
X23.299Y53.812Z-0.807
X23.405Y53.617Z-0.85
X23.433Y53.565Z-0.858
X23.446Y53.54Z-0.86
X23.466Y53.5Z-0.861
X23.477Y53.478Z-0.86
X23.487Y53.457Z-0.858
X23.494Y53.444Z-0.855
X23.503Y53.425Z-0.85
X23.512Y53.405Z-0.843
X23.52Y53.388Z-0.836
X23.528Y53.371Z-0.826
X23.534Y53.359Z-0.818
X23.544Y53.337Z-0.801
G0Z4
X22.864Y54.483
G1Z-1.212F150
X22.89Y54.552Z-0.992F300
X22.91Y54.603Z-0.813
X22.93Y54.658Z-0.613
X22.94Y54.689Z-0.493
G0Z4
X22.069Y54.038
G1Z-1.181F150
X22.244Y53.794Z-0.061F300
G0Z4
X22.069Y54.038
G1Z-1.181F150
X22.072Y54.041Z-1.184
X22.08Y54.05Z-1.194
X22.09Y54.06Z-1.203
X22.099Y54.07Z-1.211F300
X22.11Y54.079Z-1.217
X22.121Y54.089Z-1.222
X22.132Y54.098Z-1.225
X22.145Y54.107Z-1.226
X22.157Y54.116Z-1.227
X22.171Y54.125Z-1.23
X22.185Y54.134Z-1.234
X22.199Y54.142Z-1.239
X22.214Y54.15Z-1.245
X22.23Y54.157Z-1.252
X22.246Y54.165Z-1.261
X22.263Y54.172Z-1.272F150
X22.28Y54.178Z-1.284
X22.297Y54.184Z-1.298
X22.315Y54.19Z-1.313
X22.334Y54.195Z-1.33
X22.353Y54.199Z-1.349
X22.372Y54.203Z-1.37
X22.392Y54.207Z-1.393
G0Z4
X21.952Y53.606
G1Z-0.937
X21.99Y53.533Z-0.938F300
X22.09Y53.347Z-0.929
X22.113Y53.302Z-0.929
X22.135Y53.258Z-0.932
X22.162Y53.201Z-0.941
G0Z4
X21.952Y53.606
G1Z-0.937F150
X21.946Y53.619Z-0.936F300
X21.941Y53.631Z-0.937
X21.936Y53.643Z-0.938
X21.93Y53.66Z-0.941
X21.925Y53.676Z-0.945
X21.92Y53.7Z-0.953
X21.917Y53.717Z-0.958
X21.915Y53.735Z-0.967
X21.914Y53.753Z-0.976
X21.914Y53.769Z-0.985F150
X21.914Y53.785Z-0.995
X21.915Y53.8Z-1.006
X21.917Y53.815Z-1.016
X21.919Y53.828Z-1.026
X21.922Y53.841Z-1.036
X21.925Y53.853Z-1.046
X21.928Y53.864Z-1.055
X21.932Y53.875Z-1.064
X21.94Y53.895Z-1.081
X21.948Y53.913Z-1.097
X21.958Y53.929Z-1.113
X21.968Y53.945Z-1.127
X21.98Y53.961Z-1.142
X21.993Y53.976Z-1.157
X22Y53.983Z-1.164
X22.007Y53.99Z-1.171
X22.015Y53.998Z-1.176F300
X22.023Y54.005Z-1.18
X22.032Y54.012Z-1.183
X22.041Y54.019Z-1.184
X22.051Y54.026Z-1.184
X22.061Y54.033Z-1.183
X22.069Y54.038Z-1.181
G0Z4
X21.952Y53.606
G1Z-0.937F150
X22.14Y53.705Z-0.143F300
G0Z4
X21.347Y54.775
G1Z-0.845F150
X21.347Y54.778Z-0.854
X21.36Y54.768Z-0.82F300
X21.387Y54.752Z-0.746
X21.443Y54.721Z-0.58
X21.504Y54.688Z-0.389
X21.537Y54.67Z-0.283
X21.552Y54.662Z-0.234
X21.557Y54.658Z-0.217
X21.567Y54.653Z-0.184
X21.573Y54.65Z-0.165
X21.581Y54.645Z-0.14
X21.583Y54.644Z-0.132
X21.589Y54.641Z-0.114
X21.596Y54.637Z-0.089
X21.6Y54.635Z-0.077
X21.604Y54.632Z-0.062
X21.612Y54.628Z-0.038
X21.618Y54.626Z-0.014
X21.619Y54.623Z-0.01
G0Z4
X21.347Y54.777
G1Z-0.853F150
X21.347Y54.778Z-0.854
X21.343Y54.783Z-0.861
X21.339Y54.791Z-0.866
X21.334Y54.8Z-0.871F300
X21.327Y54.815Z-0.876
X21.322Y54.826Z-0.879
X21.314Y54.843Z-0.881
X21.306Y54.862Z-0.882
X21.29Y54.901Z-0.881
X21.257Y54.976Z-0.874
X21.239Y55.013Z-0.873
X21.233Y55.027Z-0.873
X21.232Y55.03Z-0.872
X21.2Y55.094Z-0.873
X21.177Y55.14Z-0.876
X21.162Y55.171Z-0.878
X21.14Y55.216Z-0.883
X21.129Y55.24Z-0.886
X21.119Y55.259Z-0.889
X21.115Y55.269Z-0.89
X21.106Y55.288Z-0.893
X21.1Y55.302Z-0.896
X21.093Y55.316Z-0.898
X21.087Y55.33Z-0.901
X21.081Y55.343Z-0.904
X21.069Y55.372Z-0.912
X21.065Y55.384Z-0.915
X21.06Y55.398Z-0.919
X21.05Y55.424Z-0.927
X21.048Y55.43Z-0.93
X21.042Y55.45Z-0.937
X21.04Y55.456Z-0.939
X21.038Y55.463Z-0.941
X21.031Y55.488Z-0.952
X21.03Y55.494Z-0.954
X21.028Y55.5Z-0.957
X21.022Y55.525Z-0.968
X21.02Y55.537Z-0.973
X21.019Y55.545Z-0.977
X21.018Y55.549Z-0.979
X21.017Y55.555Z-0.983
X21.016Y55.56Z-0.985
X21.015Y55.566Z-0.988
X21.014Y55.572Z-0.99
X21.014Y55.578Z-0.994
X21.013Y55.583Z-0.996
X21.012Y55.589Z-0.999
X21.012Y55.595Z-1.002
X21.011Y55.601Z-1.005
X21.011Y55.606Z-1.008
X21.01Y55.612Z-1.011
X21.01Y55.617Z-1.013
X21.009Y55.639Z-1.025
X21.009Y55.67Z-1.042
X21.01Y55.675Z-1.044F150
X21.01Y55.681Z-1.047F300
X21.012Y55.701Z-1.058
X21.014Y55.722Z-1.069
X21.015Y55.728Z-1.072
X21.016Y55.732Z-1.074
X21.02Y55.755Z-1.087
X21.022Y55.763Z-1.09
X21.023Y55.769Z-1.094
X21.024Y55.773Z-1.096
X21.031Y55.797Z-1.109
X21.034Y55.805Z-1.113
X21.041Y55.824Z-1.123
X21.045Y55.835Z-1.129
X21.054Y55.855Z-1.137
X21.06Y55.868Z-1.14
X21.065Y55.876Z-1.142
X21.073Y55.888Z-1.143
X21.076Y55.893Z-1.143
X21.09Y55.911Z-1.139
X21.103Y55.925Z-1.134
X21.119Y55.942Z-1.126
X21.136Y55.957Z-1.117
X21.148Y55.968Z-1.109
X21.169Y55.985Z-1.097
X21.201Y56.008Z-1.078
X21.229Y56.027Z-1.063
X21.248Y56.04Z-1.054
X21.28Y56.059Z-1.039
X21.325Y56.084Z-1.022
X21.349Y56.097Z-1.015
X21.376Y56.112Z-1.008
X21.399Y56.124Z-1.004
X21.425Y56.137Z-1
X21.452Y56.151Z-0.998
X21.48Y56.165Z-0.997
X21.507Y56.178Z-0.998
X21.565Y56.207Z-1.005
X21.661Y56.252Z-1.018
X21.697Y56.268Z-1.022
X21.72Y56.279Z-1.024
X21.742Y56.288Z-1.026
X21.745Y56.29Z-1.025
X21.753Y56.293Z-1.026
X21.76Y56.296Z-1.026
X21.763Y56.298Z-1.026
X21.783Y56.306Z-1.025
X21.788Y56.309Z-1.025
X21.792Y56.31Z-1.025
X21.81Y56.318Z-1.023
X21.827Y56.325Z-1.02
X21.83Y56.327Z-1.019
X21.835Y56.329Z-1.018
X21.852Y56.336Z-1.014
X21.863Y56.341Z-1.01
X21.878Y56.348Z-1.003
X21.889Y56.353Z-0.997
X21.902Y56.359Z-0.989
X21.912Y56.363Z-0.982
X21.923Y56.368Z-0.972
X21.941Y56.378Z-0.952
X21.949Y56.382Z-0.941
X21.95Y56.382Z-0.939
X21.989Y56.372Z-0.795
X21.987Y56.372Z-0.803F150
X21.989Y56.372Z-0.795F300
X21.95Y56.382Z-0.939F150
X21.962Y56.396Z-0.894F300
X21.976Y56.413Z-0.832
X21.987Y56.427Z-0.781
X21.998Y56.439Z-0.732
X22.016Y56.461Z-0.631
G0Z4
X21.614Y57.181
G1Z-0.627F150
X21.616Y57.179Z-0.618F300
X21.614Y57.181Z-0.627F150
X21.616Y57.179Z-0.615F300
X21.614Y57.181Z-0.629F150
X21.614Y57.181Z-0.626F300
X21.614Y57.181Z-0.629F150
G0Z4
X21.025Y56.97
G1Z-0.502
X21.027Y56.969Z-0.493F300
X21.025Y56.97Z-0.502F150
X21.027Y56.969Z-0.495F300
X21.024Y56.971Z-0.507F150
X20.971Y57.025Z-0.707
X20.983Y57.013Z-0.676F300
X21Y56.995Z-0.617
X21.024Y56.971Z-0.508
X20.86Y56.907Z-0.113
X20.877Y56.923Z-0.2F150
X20.894Y56.939Z-0.286
X20.908Y56.954Z-0.362
X20.927Y56.973Z-0.461
X20.953Y57.002Z-0.602
X20.971Y57.025Z-0.707
G0Z4
X20.475Y56.572
G1Z-0.511
X20.476Y56.57Z-0.506F300
X20.475Y56.572Z-0.511F150
X20.476Y56.571Z-0.508F300
G0Z4
X20.236Y57.713
G1Z-0.006F150
X20.281Y57.93Z-0.802
X20.308Y58.069Z-1.327
X20.394Y58.081Z-1.436
X20.422Y58.04Z-1.308F300
X20.449Y58.006Z-1.2
X20.479Y57.971Z-1.096
X20.508Y57.942Z-1.01
X20.52Y57.929Z-0.975
X20.532Y57.916Z-0.943
X20.543Y57.903Z-0.914
X20.553Y57.891Z-0.888
X20.563Y57.878Z-0.864
X20.572Y57.865Z-0.843
X20.581Y57.853Z-0.824
X20.589Y57.84Z-0.808
X20.597Y57.828Z-0.794
X20.604Y57.815Z-0.781
X20.611Y57.802Z-0.771
X20.617Y57.79Z-0.763
X20.623Y57.777Z-0.758
X20.634Y57.752Z-0.75
X20.644Y57.726Z-0.744
X20.656Y57.7Z-0.738
X20.667Y57.673Z-0.734
X20.679Y57.646Z-0.731
X20.698Y57.603Z-0.728
X20.709Y57.578Z-0.727
X20.722Y57.55Z-0.726
X20.747Y57.494Z-0.728
X20.786Y57.411Z-0.732
X20.847Y57.281Z-0.741
X20.868Y57.237Z-0.742
X20.895Y57.18Z-0.74
X20.923Y57.123Z-0.737
X20.933Y57.104Z-0.735
X20.942Y57.086Z-0.732
X20.952Y57.065Z-0.726
X20.96Y57.049Z-0.72
X20.965Y57.038Z-0.715
X20.971Y57.025Z-0.707
G0Z4
X20.463Y57.777
G1Z-0.374F150
X20.498Y57.951Z-1.038
X20.394Y58.081Z-1.436
X20.405Y58.096Z-1.407F300
X20.418Y58.112Z-1.376
X20.432Y58.127Z-1.346
X20.445Y58.142Z-1.319
X20.46Y58.157Z-1.292
X20.475Y58.171Z-1.268
X20.49Y58.185Z-1.246
X20.505Y58.198Z-1.226
X20.521Y58.211Z-1.208
X20.538Y58.223Z-1.192
X20.554Y58.235Z-1.179
X20.571Y58.246Z-1.168
X20.589Y58.256Z-1.159
X20.606Y58.266Z-1.153
X20.624Y58.275Z-1.149
X20.642Y58.284Z-1.148
X20.655Y58.289Z-1.149
X20.662Y58.292Z-1.15
X20.669Y58.296Z-1.151
X20.683Y58.301Z-1.155
X20.701Y58.307Z-1.161
X20.719Y58.314Z-1.169
X20.748Y58.324Z-1.184
X20.763Y58.328Z-1.192
X20.791Y58.336Z-1.211F150
X20.806Y58.339Z-1.221
X20.84Y58.346Z-1.247
X20.882Y58.351Z-1.283
X20.896Y58.353Z-1.295
X20.919Y58.339Z-1.26F300
X20.953Y58.315Z-1.203
X20.966Y58.304Z-1.181
X20.987Y58.287Z-1.145
X21.002Y58.273Z-1.12
X21.017Y58.259Z-1.096
X21.025Y58.251Z-1.083
X21.04Y58.235Z-1.059
X21.048Y58.227Z-1.046
X21.064Y58.209Z-1.023
X21.072Y58.2Z-1.012
X21.088Y58.181Z-0.991
X21.104Y58.161Z-0.971
X21.12Y58.14Z-0.954
X21.132Y58.124Z-0.942
X21.137Y58.118Z-0.938
X21.148Y58.102Z-0.929
X21.153Y58.095Z-0.925
X21.162Y58.081Z-0.918
X21.168Y58.072Z-0.915
X21.184Y58.048Z-0.906
X21.19Y58.039Z-0.904
X21.202Y58.02Z-0.9
X21.215Y57.997Z-0.89
X21.223Y57.981Z-0.885
X21.226Y57.976Z-0.882
X21.235Y57.957Z-0.877
X21.237Y57.954Z-0.876
X21.244Y57.94Z-0.872
X21.247Y57.933Z-0.87
X21.248Y57.93Z-0.869
X21.258Y57.911Z-0.864
X21.267Y57.89Z-0.86
X21.277Y57.869Z-0.856
X21.298Y57.825Z-0.849
X21.307Y57.805Z-0.846
X21.308Y57.802Z-0.847
X21.313Y57.791Z-0.845
X21.316Y57.783Z-0.844
X21.318Y57.78Z-0.844
X21.323Y57.768Z-0.843
X21.326Y57.761Z-0.842
X21.328Y57.757Z-0.842
X21.333Y57.746Z-0.841
X21.335Y57.74Z-0.84
X21.337Y57.735Z-0.84
X21.342Y57.724Z-0.839
X21.344Y57.718Z-0.839
X21.347Y57.713Z-0.839
X21.351Y57.702Z-0.838
X21.354Y57.697Z-0.837
X21.356Y57.692Z-0.837
X21.36Y57.682Z-0.837
X21.363Y57.675Z-0.836
X21.365Y57.672Z-0.836
X21.369Y57.662Z-0.835
X21.372Y57.654Z-0.834
X21.377Y57.643Z-0.834
X21.381Y57.633Z-0.833
X21.384Y57.626Z-0.833
X21.388Y57.617Z-0.833
X21.39Y57.611Z-0.832
X21.395Y57.602Z-0.831
X21.397Y57.595Z-0.831
X21.399Y57.59Z-0.83
X21.403Y57.583Z-0.83
X21.408Y57.57Z-0.829
X21.415Y57.554Z-0.828
X21.417Y57.549Z-0.827
X21.422Y57.54Z-0.828
X21.427Y57.529Z-0.827
X21.432Y57.518Z-0.828
X21.437Y57.509Z-0.828
X21.439Y57.504Z-0.829
X21.442Y57.497Z-0.829
X21.446Y57.49Z-0.829
X21.449Y57.484Z-0.829
X21.453Y57.477Z-0.83
X21.456Y57.47Z-0.829
X21.46Y57.463Z-0.83
X21.463Y57.456Z-0.83
X21.465Y57.452Z-0.83
X21.47Y57.443Z-0.83
X21.475Y57.434Z-0.829
X21.477Y57.43Z-0.83
X21.48Y57.423Z-0.83
X21.484Y57.416Z-0.829
X21.487Y57.41Z-0.829
X21.49Y57.404Z-0.829
X21.493Y57.398Z-0.828
X21.497Y57.391Z-0.827
X21.5Y57.385Z-0.827
X21.502Y57.381Z-0.826
X21.507Y57.373Z-0.825
X21.511Y57.365Z-0.823
X21.513Y57.36Z-0.822
X21.516Y57.354Z-0.821
X21.519Y57.349Z-0.819
X21.522Y57.343Z-0.818
X21.526Y57.337Z-0.816
X21.527Y57.333Z-0.814
X21.532Y57.326Z-0.812
X21.535Y57.318Z-0.809
X21.538Y57.314Z-0.808
X21.541Y57.309Z-0.805
X21.543Y57.304Z-0.802
X21.546Y57.298Z-0.8
X21.551Y57.29Z-0.794
X21.555Y57.283Z-0.79
X21.558Y57.277Z-0.786
X21.56Y57.273Z-0.783
X21.562Y57.269Z-0.78
X21.565Y57.264Z-0.775
X21.567Y57.259Z-0.772
X21.574Y57.246Z-0.759
X21.581Y57.234Z-0.745
X21.587Y57.223Z-0.73
X21.591Y57.216Z-0.72
X21.6Y57.198Z-0.69
X21.61Y57.185Z-0.649
X21.614Y57.181Z-0.629
G0Z4
X21.202Y58.02
G1Z-0.9F150
X21.231Y58.034Z-0.782F300
X21.281Y58.059Z-0.573
X21.319Y58.078Z-0.416
X21.36Y58.101Z-0.241
X21.376Y58.11Z-0.174
G0Z4
X20.896Y58.353
G1Z-1.295F150
X20.908Y58.395Z-1.153F300
X20.918Y58.444Z-0.98
X20.93Y58.496Z-0.786
X20.939Y58.529Z-0.66
X20.942Y58.537Z-0.628
G0Z4
X20.613Y59.163
G1Z-0.559F150
X20.614Y59.161Z-0.554F300
X20.614Y59.162Z-0.556F150
X20.58Y59.238Z-0.765
X20.584Y59.23Z-0.751F300
X20.593Y59.215Z-0.722
X20.601Y59.2Z-0.683
X20.606Y59.19Z-0.655
X20.613Y59.163Z-0.559
X20.44Y59.136Z-0.132
X20.456Y59.145Z-0.199F150
X20.472Y59.156Z-0.273
X20.49Y59.168Z-0.353
X20.508Y59.181Z-0.432
X20.525Y59.195Z-0.514
X20.538Y59.205Z-0.572
X20.565Y59.226Z-0.698
X20.58Y59.238Z-0.765
G0Z4
X20.244Y59.953
G1Z-0.742
X20.265Y59.912Z-0.736F300
X20.279Y59.884Z-0.732
X20.293Y59.856Z-0.73
X20.3Y59.841Z-0.729
X20.315Y59.812Z-0.728
X20.329Y59.783Z-0.729
X20.344Y59.754Z-0.731
X20.358Y59.724Z-0.736
X20.366Y59.709Z-0.739
X20.453Y59.537Z-0.783
X20.475Y59.492Z-0.792
X20.491Y59.457Z-0.797
X20.506Y59.424Z-0.8
X20.517Y59.402Z-0.802
X20.526Y59.38Z-0.801
X20.531Y59.37Z-0.801
X20.54Y59.349Z-0.8
X20.548Y59.329Z-0.797
X20.551Y59.322Z-0.796
X20.552Y59.319Z-0.795
X20.555Y59.31Z-0.793
X20.557Y59.304Z-0.792
X20.559Y59.3Z-0.791
X20.562Y59.291Z-0.789
X20.564Y59.286Z-0.787
X20.565Y59.283Z-0.786
X20.568Y59.274Z-0.783
X20.574Y59.259Z-0.776
X20.576Y59.251Z-0.773
X20.577Y59.247Z-0.77
X20.578Y59.245Z-0.769
X20.58Y59.238Z-0.765
G0Z4
X20.17Y59.914
G1Z-0.43F150
X20.244Y59.953Z-0.742
G0Z4
X18.705Y60.166
G1Z-0.17
X18.707Y60.147Z-0.242
X18.71Y60.128Z-0.311
X18.715Y60.111Z-0.376
X18.721Y60.095Z-0.439
X18.728Y60.079Z-0.499
X18.734Y60.067Z-0.543
X18.733Y60.052Z-0.598
X18.733Y60.047Z-0.606
X18.734Y60.035Z-0.62
X18.735Y60.024Z-0.632
X18.735Y60.018Z-0.637
X18.736Y60.012Z-0.643
X18.737Y60.006Z-0.647
X18.738Y60Z-0.651
X18.74Y59.994Z-0.655
X18.741Y59.987Z-0.658F300
X18.743Y59.981Z-0.661
X18.745Y59.975Z-0.663
X18.747Y59.968Z-0.664
X18.749Y59.962Z-0.666
X18.751Y59.955Z-0.666
X18.754Y59.949Z-0.666
X18.757Y59.942Z-0.665
X18.76Y59.935Z-0.663
X18.763Y59.929Z-0.661
X18.766Y59.922Z-0.658
X18.77Y59.915Z-0.655
X18.774Y59.909Z-0.651
X18.778Y59.902Z-0.646
X18.782Y59.895Z-0.64
X18.787Y59.889Z-0.633
X18.791Y59.882Z-0.626
X18.795Y59.876Z-0.619
X18.796Y59.866Z-0.629F150
X18.797Y59.858Z-0.637
X18.799Y59.849Z-0.643
X18.8Y59.841Z-0.649
X18.802Y59.832Z-0.655
X18.804Y59.824Z-0.659F300
X18.806Y59.815Z-0.663
X18.809Y59.806Z-0.666
X18.812Y59.798Z-0.668
X18.814Y59.789Z-0.67
X18.818Y59.781Z-0.67
X18.821Y59.772Z-0.67
X18.825Y59.763Z-0.669
X18.829Y59.755Z-0.667
X18.833Y59.746Z-0.664
X18.84Y59.732Z-0.657
X18.852Y59.712Z-0.643
X18.865Y59.693Z-0.623
X18.867Y59.69Z-0.619
X18.87Y59.669Z-0.639F150
X18.874Y59.644Z-0.656
X18.881Y59.62Z-0.667F300
X18.889Y59.596Z-0.669
X18.899Y59.572Z-0.668
X18.905Y59.559Z-0.663
X18.909Y59.548Z-0.667
X18.918Y59.522Z-0.667
X18.929Y59.498Z-0.663
X18.942Y59.473Z-0.649
X18.958Y59.45Z-0.626
X18.968Y59.437Z-0.609
X18.969Y59.424Z-0.621F150
X18.975Y59.396Z-0.641
X18.982Y59.368Z-0.651F300
X18.992Y59.341Z-0.65
X19.005Y59.315Z-0.644
X19.019Y59.29Z-0.627
X19.036Y59.266Z-0.6
X19.047Y59.253Z-0.58
X19.049Y59.24Z-0.591F150
X19.055Y59.211Z-0.609F300
X19.064Y59.183Z-0.616
X19.075Y59.157Z-0.61
X19.088Y59.131Z-0.607
X19.09Y59.129Z-0.608
X19.098Y59.116Z-0.608
X19.103Y59.107Z-0.607
X19.105Y59.103Z-0.608
X19.113Y59.091Z-0.609
X19.118Y59.083Z-0.608
X19.121Y59.078Z-0.61
X19.13Y59.065Z-0.611
X19.133Y59.059Z-0.61
X19.138Y59.052Z-0.612
X19.147Y59.039Z-0.613
X19.149Y59.037Z-0.612
X19.156Y59.026Z-0.614
X19.164Y59.014Z-0.615
X19.165Y59.013Z-0.615
X19.175Y59.001Z-0.617
X19.18Y58.993Z-0.617
X19.185Y58.988Z-0.619
X19.194Y58.975Z-0.62
X19.197Y58.972Z-0.62
X19.205Y58.962Z-0.622
X19.213Y58.951Z-0.622
X19.215Y58.949Z-0.623
X19.225Y58.937Z-0.625
X19.229Y58.932Z-0.625
X19.236Y58.925Z-0.627
X19.246Y58.913Z-0.627
X19.247Y58.912Z-0.628
X19.258Y58.9Z-0.63
X19.262Y58.895Z-0.629
X19.269Y58.888Z-0.631
X19.279Y58.878Z-0.631
X19.281Y58.876Z-0.632
X19.292Y58.865Z-0.633
X19.296Y58.861Z-0.633
X19.304Y58.853Z-0.635
X19.312Y58.846Z-0.634
X19.316Y58.842Z-0.635
X19.328Y58.831Z-0.635
X19.341Y58.821Z-0.637
X19.345Y58.817Z-0.636
X19.354Y58.81Z-0.637
X19.361Y58.805Z-0.636
X19.367Y58.8Z-0.637
X19.377Y58.793Z-0.636
X19.38Y58.791Z-0.637
X19.394Y58.781Z-0.636
X19.408Y58.772Z-0.636
X19.409Y58.772Z-0.635
X19.422Y58.764Z-0.635
X19.424Y58.763Z-0.634
X19.437Y58.756Z-0.634
X19.44Y58.754Z-0.633
X19.452Y58.748Z-0.632
X19.455Y58.747Z-0.631
X19.468Y58.741Z-0.63
X19.47Y58.741Z-0.629
X19.485Y58.735Z-0.627
X19.5Y58.73Z-0.624
X19.501Y58.73Z-0.624
X19.515Y58.726Z-0.62
X19.519Y58.725Z-0.62
X19.53Y58.723Z-0.617
X19.537Y58.721Z-0.616
X19.545Y58.72Z-0.613
X19.556Y58.719Z-0.611
X19.561Y58.718Z-0.609
X19.577Y58.718Z-0.605
X19.594Y58.718Z-0.6
X19.597Y58.718Z-0.6
X19.611Y58.719Z-0.595
X19.618Y58.72Z-0.595
X19.63Y58.721Z-0.591
X19.64Y58.723Z-0.59
X19.649Y58.725Z-0.587
X19.662Y58.729Z-0.586
X19.668Y58.73Z-0.583
X19.684Y58.736Z-0.583
X19.689Y58.737Z-0.582
X19.707Y58.745Z-0.582
X19.71Y58.746Z-0.582
X19.728Y58.756Z-0.584
X19.732Y58.758Z-0.584
X19.749Y58.768Z-0.589
X19.76Y58.776Z-0.592
X19.768Y58.782Z-0.595
X19.771Y58.784Z-0.596
X19.78Y58.792Z-0.599
X19.786Y58.798Z-0.602
X19.789Y58.801Z-0.602
X19.796Y58.809Z-0.605
X19.802Y58.815Z-0.608
X19.804Y58.817Z-0.608
X19.81Y58.825Z-0.61
X19.816Y58.833Z-0.612
X19.822Y58.841Z-0.614
X19.827Y58.85Z-0.616
X19.828Y58.852Z-0.616
X19.832Y58.858Z-0.617
X19.836Y58.867Z-0.618
X19.838Y58.872Z-0.618
X19.841Y58.876Z-0.618
X19.845Y58.886Z-0.618
X19.847Y58.892Z-0.619
X19.848Y58.895Z-0.619
X19.852Y58.906Z-0.618
X19.854Y58.912Z-0.618
X19.855Y58.916Z-0.618
X19.858Y58.927Z-0.617
X19.859Y58.933Z-0.617
X19.86Y58.938Z-0.616
X19.863Y58.95Z-0.615
X19.863Y58.954Z-0.614
X19.865Y58.963Z-0.613
X19.867Y58.976Z-0.611
X19.868Y58.988Z-0.609
X19.869Y58.998Z-0.608
X19.869Y59.002Z-0.607
X19.87Y59.02Z-0.604
X19.871Y59.03Z-0.602
X19.871Y59.045Z-0.599
X19.871Y59.06Z-0.596
X19.87Y59.066Z-0.594
X19.87Y59.075Z-0.592
X19.869Y59.09Z-0.589
X19.867Y59.106Z-0.589
X19.864Y59.122Z-0.591
X19.86Y59.138Z-0.595
X19.858Y59.144Z-0.597
X19.856Y59.153Z-0.6
X19.853Y59.163Z-0.603
X19.851Y59.169Z-0.604
X19.842Y59.201Z-0.613
X19.836Y59.219Z-0.617
X19.83Y59.237Z-0.62
X19.826Y59.25Z-0.622
X19.824Y59.254Z-0.623
X19.82Y59.266Z-0.624
X19.819Y59.271Z-0.625
X19.815Y59.282Z-0.627
X19.813Y59.288Z-0.628
X19.809Y59.298Z-0.629
X19.807Y59.304Z-0.63
X19.803Y59.314Z-0.631
X19.801Y59.32Z-0.632
X19.797Y59.33Z-0.632
X19.795Y59.336Z-0.633
X19.791Y59.346Z-0.634
X19.789Y59.351Z-0.634
X19.785Y59.361Z-0.635
X19.783Y59.367Z-0.636
X19.779Y59.377Z-0.636
X19.777Y59.381Z-0.637
X19.773Y59.392Z-0.637
X19.771Y59.396Z-0.638
X19.766Y59.407Z-0.638
X19.765Y59.41Z-0.639
X19.76Y59.422Z-0.639
X19.759Y59.425Z-0.639
X19.723Y59.505Z-0.643
X19.678Y59.601Z-0.647
X19.668Y59.623Z-0.649
X19.652Y59.656Z-0.653
X19.637Y59.688Z-0.659
X19.614Y59.74Z-0.672
X19.597Y59.781Z-0.685
X19.58Y59.821Z-0.699
X19.564Y59.861Z-0.714
X19.553Y59.892Z-0.727
X19.542Y59.923Z-0.741
X19.535Y59.942Z-0.751
X19.533Y59.947Z-0.753
X19.532Y59.953Z-0.756
X19.528Y59.964Z-0.761
X19.525Y59.975Z-0.766
X19.524Y59.981Z-0.768
X19.522Y59.986Z-0.771
X19.52Y59.998Z-0.775
X19.517Y60.009Z-0.781
X19.516Y60.014Z-0.782
X19.515Y60.021Z-0.785
X19.513Y60.031Z-0.789
X19.513Y60.033Z-0.79
X19.511Y60.045Z-0.795
X19.51Y60.047Z-0.795
X19.509Y60.057Z-0.8
X19.508Y60.064Z-0.801
X19.507Y60.07Z-0.804
X19.506Y60.08Z-0.808
X19.506Y60.083Z-0.809
X19.505Y60.096Z-0.814
X19.505Y60.11Z-0.819
X19.505Y60.112Z-0.82
X19.505Y60.123Z-0.825
X19.505Y60.128Z-0.827
X19.505Y60.138Z-0.831
X19.505Y60.144Z-0.833
X19.506Y60.153Z-0.837
X19.506Y60.159Z-0.84
X19.507Y60.168Z-0.844
X19.508Y60.174Z-0.846
X19.509Y60.184Z-0.851
X19.509Y60.189Z-0.853
X19.512Y60.201Z-0.859
X19.512Y60.203Z-0.86
X19.515Y60.218Z-0.868
X19.518Y60.231Z-0.874
X19.52Y60.236Z-0.877F150
X19.522Y60.244Z-0.882F300
X19.526Y60.257Z-0.889
X19.531Y60.269Z-0.897F150
X19.536Y60.281Z-0.904
X19.541Y60.292Z-0.912
X19.546Y60.302Z-0.92
X19.552Y60.312Z-0.927
X19.559Y60.323Z-0.936
X19.569Y60.338Z-0.946F300
X19.573Y60.344Z-0.95F150
X19.58Y60.353Z-0.956F300
X19.591Y60.366Z-0.963
X19.601Y60.376Z-0.969
X19.611Y60.385Z-0.972
X19.62Y60.392Z-0.974
X19.63Y60.399Z-0.974
X19.634Y60.402Z-0.974
X19.644Y60.407Z-0.972
X19.655Y60.412Z-0.968
X19.661Y60.414Z-0.965
X19.674Y60.419Z-0.958
X19.682Y60.421Z-0.954
X19.691Y60.423Z-0.948
X19.7Y60.425Z-0.942
X19.71Y60.427Z-0.935
X19.722Y60.428Z-0.926
X19.735Y60.429Z-0.917
X19.748Y60.43Z-0.907
X19.754Y60.43Z-0.904
X19.763Y60.43Z-0.896
X19.779Y60.429Z-0.885
X19.784Y60.428Z-0.882
X19.797Y60.427Z-0.873
X19.815Y60.425Z-0.861
X19.835Y60.421Z-0.849
X19.842Y60.419Z-0.845
X19.856Y60.416Z-0.837
X19.868Y60.412Z-0.832
X19.877Y60.409Z-0.827
X19.892Y60.403Z-0.821
X19.899Y60.401Z-0.817
X19.915Y60.394Z-0.813
X19.924Y60.39Z-0.81
X19.932Y60.386Z-0.808
X19.935Y60.384Z-0.807
X19.94Y60.382Z-0.805
X19.948Y60.377Z-0.802
X19.954Y60.373Z-0.801
X19.964Y60.367Z-0.797
X19.98Y60.356Z-0.792
X19.996Y60.344Z-0.787
X20.001Y60.339Z-0.786
X20.011Y60.331Z-0.782
X20.014Y60.328Z-0.782
X20.018Y60.324Z-0.78
X20.034Y60.309Z-0.775
X20.038Y60.304Z-0.774
X20.041Y60.301Z-0.773
X20.056Y60.284Z-0.769
X20.059Y60.281Z-0.768
X20.063Y60.276Z-0.767
X20.068Y60.269Z-0.766
X20.07Y60.267Z-0.765
X20.085Y60.248Z-0.761
X20.086Y60.246Z-0.761
X20.092Y60.238Z-0.76
X20.094Y60.234Z-0.759
X20.099Y60.228Z-0.758
X20.102Y60.223Z-0.757
X20.106Y60.218Z-0.756
X20.11Y60.211Z-0.756
X20.113Y60.207Z-0.755
X20.117Y60.2Z-0.754
X20.12Y60.196Z-0.753
X20.124Y60.189Z-0.753
X20.127Y60.185Z-0.752
X20.131Y60.177Z-0.751
X20.134Y60.174Z-0.751
X20.138Y60.166Z-0.75
X20.14Y60.162Z-0.749
X20.144Y60.155Z-0.749
X20.147Y60.15Z-0.748
X20.151Y60.144Z-0.748
X20.154Y60.139Z-0.747
X20.157Y60.133Z-0.747
X20.16Y60.126Z-0.746
X20.163Y60.122Z-0.746
X20.167Y60.114Z-0.745
X20.168Y60.111Z-0.745
X20.18Y60.089Z-0.744
X20.185Y60.08Z-0.744
X20.186Y60.076Z-0.743
X20.193Y60.063Z-0.743
X20.194Y60.06Z-0.743
X20.206Y60.036Z-0.742
X20.216Y60.014Z-0.742
X20.218Y60.009Z-0.742
X20.22Y60.006Z-0.742
X20.225Y59.996Z-0.742
X20.231Y59.982Z-0.742
X20.236Y59.971Z-0.742
X20.237Y59.968Z-0.742
X20.242Y59.958Z-0.742
X20.244Y59.953Z-0.742
G0Z4
X20.307Y58.068
G1Z-1.325F150
X20.308Y58.069Z-1.327
X20.307Y58.068Z-1.325F300
X20.298Y58.005Z-1.089
X20.311Y58.069Z-1.331F150
G0Z4
X20.236Y57.713
G1Z-0.006
X20.237Y57.713Z-0.003F300
X20.281Y57.93Z-0.802F150
G0Z4
X20.236Y57.713
G1Z-0.008
X20.307Y58.068Z-1.325
G0Z4
X20.236Y57.713
G1Z-0.008
X20.236Y57.713Z-0.006F300
X20.235Y57.713Z-0.01F150
X20.306Y58.068Z-1.325
G0Z4
X20.235Y57.713
G1Z-0.01
X20.236Y57.713Z-0.008F300
G0Z4
X19.965Y57.658
G1Z-1.039F150
X19.967Y57.649Z-1.039F300
X19.968Y57.642Z-1.039
X19.97Y57.637Z-1.038
X19.972Y57.627Z-1.038
X19.98Y57.596Z-1.037
X19.983Y57.583Z-1.035
X19.984Y57.58Z-1.035
X19.987Y57.569Z-1.034
X19.988Y57.565Z-1.034
X19.991Y57.554Z-1.033
X19.992Y57.55Z-1.033
X19.996Y57.539Z-1.032
X19.997Y57.535Z-1.031
X20Y57.524Z-1.03
X20.002Y57.52Z-1.03
X20.005Y57.508Z-1.028
X20.006Y57.506Z-1.028
X20.016Y57.477Z-1.025
X20.021Y57.462Z-1.024
X20.022Y57.46Z-1.023
X20.026Y57.448Z-1.022
X20.028Y57.444Z-1.021
X20.032Y57.434Z-1.02
X20.034Y57.427Z-1.019
X20.037Y57.42Z-1.019
X20.041Y57.411Z-1.017
X20.042Y57.406Z-1.017
X20.053Y57.379Z-1.014
X20.054Y57.377Z-1.014
X20.059Y57.366Z-1.013
X20.061Y57.36Z-1.012
X20.064Y57.352Z-1.011
X20.068Y57.342Z-1.01
X20.07Y57.339Z-1.01
X20.076Y57.325Z-1.008
X20.081Y57.313Z-1.007
X20.083Y57.308Z-1.006
X20.087Y57.3Z-1.005
X20.091Y57.29Z-1.004
X20.093Y57.287Z-1.004
X20.099Y57.273Z-1.002
X20.105Y57.261Z-1.001
X20.107Y57.255Z-1
X20.111Y57.248Z-0.999
X20.116Y57.238Z-0.998
X20.122Y57.223Z-0.996
X20.124Y57.22Z-0.996
X20.128Y57.211Z-0.995
X20.132Y57.202Z-0.993
X20.134Y57.199Z-0.993
X20.141Y57.185Z-0.991
X20.146Y57.174Z-0.99
X20.15Y57.167Z-0.989
X20.152Y57.162Z-0.989
X20.164Y57.138Z-0.985
X20.167Y57.132Z-0.984
X20.17Y57.126Z-0.984
X20.182Y57.103Z-0.98
X20.185Y57.097Z-0.979
X20.188Y57.091Z-0.978
X20.2Y57.068Z-0.974
X20.203Y57.063Z-0.973
X20.206Y57.056Z-0.972
X20.218Y57.033Z-0.968
X20.221Y57.029Z-0.967
X20.224Y57.022Z-0.966
X20.236Y56.999Z-0.961
X20.238Y56.995Z-0.96
X20.242Y56.988Z-0.958
X20.254Y56.966Z-0.953
X20.256Y56.962Z-0.952
X20.26Y56.955Z-0.95
X20.272Y56.933Z-0.944
X20.274Y56.929Z-0.943
X20.278Y56.922Z-0.941
X20.282Y56.913Z-0.938
X20.283Y56.911Z-0.937
X20.289Y56.9Z-0.934
X20.291Y56.897Z-0.933
X20.295Y56.889Z-0.93
X20.299Y56.881Z-0.927
X20.301Y56.878Z-0.927
X20.312Y56.856Z-0.918
X20.322Y56.839Z-0.912
X20.33Y56.824Z-0.906
X20.338Y56.809Z-0.899
X20.345Y56.794Z-0.892
X20.359Y56.769Z-0.88
X20.367Y56.754Z-0.872
X20.374Y56.739Z-0.863
X20.387Y56.714Z-0.846
X20.391Y56.706Z-0.839
X20.4Y56.691Z-0.821
X20.407Y56.68Z-0.806
X20.414Y56.668Z-0.786
X20.429Y56.647Z-0.745
X20.441Y56.629Z-0.703
X20.456Y56.605Z-0.635
X20.467Y56.585Z-0.566
X20.475Y56.572Z-0.511
G0Z4
X19.965Y57.658
G1Z-1.039F150
X19.962Y57.672Z-1.039F300
X19.961Y57.683Z-1.039
X19.959Y57.694Z-1.04
X19.957Y57.715Z-1.041
X19.957Y57.73Z-1.044
X19.957Y57.743Z-1.046
X19.958Y57.756Z-1.049
X19.959Y57.768Z-1.051
X19.96Y57.78Z-1.054
X19.962Y57.791Z-1.057
X19.967Y57.812Z-1.062
X19.973Y57.831Z-1.067
X19.98Y57.849Z-1.071
X19.988Y57.867Z-1.076
X19.998Y57.884Z-1.08
X20.009Y57.901Z-1.085
X20.021Y57.918Z-1.09
X20.028Y57.926Z-1.092
X20.036Y57.934Z-1.095
X20.044Y57.943Z-1.098
X20.052Y57.951Z-1.102
X20.061Y57.959Z-1.106
X20.071Y57.968Z-1.111
X20.081Y57.976Z-1.116
X20.092Y57.984Z-1.122
X20.103Y57.992Z-1.128
X20.115Y57.999Z-1.136
X20.127Y58.007Z-1.144
X20.14Y58.014Z-1.153F150
X20.154Y58.021Z-1.163
X20.168Y58.027Z-1.175
X20.182Y58.034Z-1.187
X20.197Y58.04Z-1.201
X20.213Y58.045Z-1.216
X20.229Y58.051Z-1.232
X20.246Y58.055Z-1.251
X20.263Y58.06Z-1.27
X20.28Y58.064Z-1.291
X20.298Y58.067Z-1.314
X20.306Y58.068Z-1.325
G0Z4
X19.965Y57.658
G1Z-1.039
X20.235Y57.713Z-0.01F300
G0Z4
X21.346Y54.776
G1Z-0.847F150
X21.347Y54.778Z-0.855
X21.345Y54.776Z-0.844F300
X21.347Y54.778Z-0.855F150
X21.345Y54.775Z-0.84F300
X21.347Y54.778Z-0.855F150
G0Z4
X71.356Y55.098
G1Z-0.066
X71.37Y55.096Z-0.118
X71.384Y55.094Z-0.172
X71.398Y55.092Z-0.225
X71.412Y55.092Z-0.277
X71.427Y55.091Z-0.33
X71.441Z-0.382
X71.455Y55.091Z-0.434
X71.47Y55.092Z-0.486
X71.484Y55.094Z-0.538
X71.498Y55.096Z-0.588
X71.513Y55.098Z-0.64
X71.527Y55.101Z-0.69
X71.541Y55.104Z-0.741
X71.556Y55.108Z-0.791
X71.57Y55.112Z-0.841
X71.59Y55.118Z-0.909
X71.614Y55.119Z-0.995
X71.629Y55.12Z-1.048
X71.644Y55.122Z-1.101
X71.659Y55.124Z-1.154
X71.673Y55.126Z-1.207
X71.689Y55.129Z-1.238
X71.704Y55.133Z-1.245F300
X71.719Y55.137Z-1.25
X71.734Y55.141Z-1.253
X71.75Y55.146Z-1.255
X71.765Y55.151Z-1.255
X71.78Y55.157Z-1.254
X71.788Y55.16Z-1.252
X71.796Y55.16Z-1.26F150
X71.812Y55.162Z-1.273
X71.828Y55.165Z-1.284
X71.845Y55.168Z-1.294
X71.861Y55.171Z-1.302F300
X71.878Y55.175Z-1.309
X71.894Y55.179Z-1.314
X71.911Y55.184Z-1.318
X71.928Y55.188Z-1.323
X71.945Y55.193Z-1.328
X71.962Y55.198Z-1.331
X71.979Y55.203Z-1.332
X71.996Y55.21Z-1.331
X72.013Y55.216Z-1.328
X72.027Y55.222Z-1.325
X72.048Y55.225Z-1.339F150
X72.066Y55.229Z-1.35
X72.084Y55.232Z-1.359F300
X72.103Y55.236Z-1.367
X72.121Y55.241Z-1.373
X72.139Y55.246Z-1.377
X72.158Y55.252Z-1.379
X72.176Y55.258Z-1.38
X72.194Y55.265Z-1.378
X72.213Y55.273Z-1.375
X72.221Y55.276Z-1.373
X72.232Y55.277Z-1.381F150
X72.252Y55.281Z-1.394
X72.271Y55.284Z-1.405F300
X72.291Y55.288Z-1.414
X72.311Y55.293Z-1.422
X72.331Y55.298Z-1.427
X72.35Y55.304Z-1.431
X72.37Y55.311Z-1.433
X72.389Y55.317Z-1.433
X72.399Y55.317Z-1.445F150
X72.402Y55.317Z-1.448
X72.422Y55.316Z-1.433F300
X72.453Y55.315Z-1.41
X72.463Y55.314Z-1.401
X72.504Y55.314Z-1.376
X72.545Y55.316Z-1.358
X72.586Y55.321Z-1.35
X72.626Y55.327Z-1.349
X72.665Y55.336Z-1.358
X72.705Y55.348Z-1.374
X72.743Y55.361Z-1.4F150
X72.782Y55.377Z-1.433
X72.82Y55.395Z-1.476
X72.858Y55.415Z-1.526
X72.895Y55.437Z-1.585
X72.932Y55.462Z-1.653
X72.969Y55.489Z-1.729
X73.005Y55.518Z-1.814
X73.026Y55.537Z-1.867
X73.044Y55.531Z-1.835F300
X73.09Y55.519Z-1.76
X73.132Y55.508Z-1.695
X73.173Y55.5Z-1.639
X73.215Y55.493Z-1.586
X73.258Y55.488Z-1.54
X73.279Y55.486Z-1.519
X73.3Y55.484Z-1.498
X73.322Y55.483Z-1.479
X73.341Y55.482Z-1.462
X73.364Y55.481Z-1.445
X73.383Y55.481Z-1.43
X73.403Y55.481Z-1.417
X73.424Y55.481Z-1.402
X73.44Y55.481Z-1.393
X73.465Y55.482Z-1.379
X73.487Y55.483Z-1.369
X73.506Y55.484Z-1.36
X73.52Y55.485Z-1.356
X73.547Y55.488Z-1.345
X73.562Y55.489Z-1.342
X73.587Y55.492Z-1.334
X73.601Y55.494Z-1.332
X73.619Y55.496Z-1.329
X73.628Y55.498Z-1.327
X73.646Y55.5Z-1.326
X73.668Y55.504Z-1.322
X73.679Y55.506Z-1.322
X73.695Y55.509Z-1.322
X73.708Y55.511Z-1.32
X73.725Y55.514Z-1.321
X73.739Y55.517Z-1.321
X73.748Y55.518Z-1.32
X73.76Y55.521Z-1.322
X73.772Y55.523Z-1.322
X73.788Y55.526Z-1.322
X73.802Y55.529Z-1.323
X73.818Y55.532Z-1.324
X73.827Y55.534Z-1.323
X73.837Y55.536Z-1.324
X73.854Y55.54Z-1.325
X73.867Y55.542Z-1.324
X73.875Y55.544Z-1.324
X73.886Y55.546Z-1.324
X73.896Y55.548Z-1.324
X73.907Y55.549Z-1.323
X73.917Y55.552Z-1.324
X73.928Y55.554Z-1.323
X73.939Y55.556Z-1.323
X73.947Y55.557Z-1.322
X73.961Y55.56Z-1.322
X73.973Y55.562Z-1.322
X73.987Y55.564Z-1.32
X73.995Y55.566Z-1.321
X74.007Y55.568Z-1.32
X74.018Y55.57Z-1.32
X74.026Y55.572Z-1.319
X74.042Y55.575Z-1.319
X74.053Y55.577Z-1.319
X74.066Y55.579Z-1.317
X74.077Y55.581Z-1.318
X74.089Y55.584Z-1.318
X74.102Y55.586Z-1.317
X74.106Y55.587Z-1.317
X74.114Y55.589Z-1.317
X74.126Y55.591Z-1.317
X74.139Y55.594Z-1.317
X74.146Y55.595Z-1.317
X74.152Y55.596Z-1.317
X74.164Y55.599Z-1.318
X74.177Y55.602Z-1.318
X74.185Y55.603Z-1.318
X74.19Y55.604Z-1.318
X74.203Y55.607Z-1.319
X74.216Y55.61Z-1.32
X74.225Y55.612Z-1.32
X74.229Y55.613Z-1.321
X74.242Y55.616Z-1.322
X74.256Y55.619Z-1.323
X74.264Y55.621Z-1.323
X74.269Y55.622Z-1.325
X74.283Y55.626Z-1.327
X74.297Y55.629Z-1.328
X74.304Y55.63Z-1.329
X74.31Y55.632Z-1.33
X74.324Y55.636Z-1.333
X74.338Y55.639Z-1.335
X74.343Y55.64Z-1.335
X74.352Y55.643Z-1.338
X74.366Y55.647Z-1.342
X74.382Y55.651Z-1.344
X74.395Y55.655Z-1.349
X74.409Y55.659Z-1.353
X74.421Y55.662Z-1.355
X74.439Y55.668Z-1.362
X74.453Y55.672Z-1.366
X74.459Y55.674Z-1.368
X74.468Y55.677Z-1.372
X74.483Y55.682Z-1.378
X74.499Y55.687Z-1.383
X74.513Y55.692Z-1.39
X74.529Y55.697Z-1.397
X74.536Y55.699Z-1.4
X74.544Y55.702Z-1.404
X74.56Y55.708Z-1.412
X74.574Y55.713Z-1.419
X74.591Y55.72Z-1.429
X74.607Y55.726Z-1.438
X74.612Y55.727Z-1.441
X74.623Y55.732Z-1.448F150
X74.64Y55.738Z-1.459
X74.65Y55.742Z-1.464F300
X74.656Y55.745Z-1.469F150
X74.672Y55.752Z-1.48
X74.688Y55.758Z-1.491
X74.725Y55.775Z-1.523
X74.762Y55.795Z-1.563
X74.798Y55.816Z-1.61
X74.833Y55.839Z-1.665
X74.868Y55.864Z-1.728
X74.903Y55.892Z-1.797
X74.931Y55.917Z-1.863
X74.955Y55.938Z-1.921
X74.978Y55.959Z-1.982
X74.993Y55.973Z-2.009
Z-2.024
X74.997Y55.997F300
X75.001Y56.023
X75.004Y56.049
X75.005Y56.076
Y56.102
X75.005Y56.109
X75.163Y56.053
X75.24Y56.025
X75.269Y56.014
X75.114Y55.993
X75.038Y55.981
X74.993Y55.973
G0Z4
X75.269Y56.014
G1Z-2.023F150
X75.288Y56.011Z-2.006F300
X75.332Y56.005Z-1.963
X75.374Y56Z-1.919
X75.403Y55.996Z-1.889
X75.438Y55.991Z-1.849
X75.455Y55.988Z-1.829
X75.472Y55.985Z-1.808
X75.49Y55.983Z-1.785
X75.524Y55.977Z-1.738
X75.546Y55.974Z-1.706
X75.559Y55.972Z-1.686
X75.572Y55.97Z-1.666
X75.598Y55.965Z-1.62
X75.614Y55.962Z-1.591
X75.637Y55.958Z-1.545
X75.642Y55.957Z-1.534
X75.677Y55.937Z-1.41
X75.702Y55.923Z-1.314
X75.731Y55.906Z-1.195
X75.642Y55.957Z-1.534F150
X75.666Y55.967Z-1.439F300
X75.696Y55.979Z-1.322
X75.716Y55.986Z-1.241
X75.725Y55.988Z-1.21
G0Z4
X75.528Y58.361
G1Z-0.588F150
X75.545Y58.376Z-0.673
X75.577Y58.405Z-0.83
X75.606Y58.426Z-0.945
X75.637Y58.447Z-1.053
X75.673Y58.471Z-1.168
X75.703Y58.493Z-1.258
X75.711Y58.499Z-1.283
X75.745Y58.466Z-1.155F300
X75.778Y58.437Z-1.029
X75.816Y58.405Z-0.873
X75.857Y58.372Z-0.694
X75.882Y58.355Z-0.583
X75.891Y58.349Z-0.544
G0Z4
X75.711Y58.499
G1Z-1.283F150
X75.719Y58.566Z-1.253F300
X75.722Y58.594Z-1.243
X75.726Y58.626Z-1.234
X75.728Y58.649Z-1.23
X75.732Y58.68Z-1.226
X75.734Y58.702Z-1.225
X75.736Y58.725Z-1.226
X75.737Y58.744Z-1.227
X75.742Y58.843Z-1.239
X75.747Y58.959Z-1.257
X75.748Y59.029Z-1.266
X75.747Y59.087Z-1.272
X75.745Y59.135Z-1.274
X75.744Y59.159Z-1.274
X75.741Y59.206Z-1.272
X75.739Y59.221Z-1.271
X76.076Y59.264Z-0.002
G0Z4
X73.312Y58.593
G1Z-0.558F150
X73.313Y58.592Z-0.554F300
X73.312Y58.593Z-0.558F150
X73.315Y58.589Z-0.541F300
X73.312Y58.593Z-0.558F150
G0Z4
X73.02Y58.945
G1Z-1.718
X73.067Y58.89Z-1.546F300
X73.189Y58.745Z-1.11
X73.236Y58.688Z-0.93
X73.261Y58.657Z-0.822
X73.281Y58.632Z-0.728
X73.302Y58.605Z-0.614
X73.312Y58.593Z-0.558
G0Z4
X73.02Y58.945
G1Z-1.718F150
X73.002Y58.939Z-1.688F300
X72.991Y58.936Z-1.671
X72.975Y58.931Z-1.647
X72.958Y58.926Z-1.624
X72.942Y58.922Z-1.603
X72.919Y58.916Z-1.576
X72.893Y58.909Z-1.545
X72.866Y58.902Z-1.518
X72.839Y58.897Z-1.493
X72.833Y58.896Z-1.488
X72.813Y58.892Z-1.47
X72.794Y58.889Z-1.456
X72.786Y58.888Z-1.45
X72.76Y58.884Z-1.432
X72.755Y58.884Z-1.43
X72.734Y58.881Z-1.416
X72.718Y58.88Z-1.408
X72.708Y58.878Z-1.402
X72.688Y58.877Z-1.394
X72.682Y58.877Z-1.39
X72.663Y58.876Z-1.383
X72.656Y58.875Z-1.38
X72.639Y58.874Z-1.374
X72.63Y58.874Z-1.37
X72.615Y58.874Z-1.366
X72.604Y58.873Z-1.362
X72.591Y58.873Z-1.359
X72.579Y58.873Z-1.355
X72.567Y58.873Z-1.353
X72.554Y58.873Z-1.349
X72.543Y58.874Z-1.348
X72.528Y58.874Z-1.345
X72.52Y58.875Z-1.344
X72.504Y58.875Z-1.341
X72.496Y58.876Z-1.341
X72.479Y58.877Z-1.338
X72.473Y58.877Z-1.338
X72.455Y58.879Z-1.337
X72.45Y58.879Z-1.337
X72.43Y58.881Z-1.336
X72.427Y58.882Z-1.336
X72.407Y58.884Z-1.336
X72.404Y58.884Z-1.336
X72.382Y58.887Z-1.337
X72.359Y58.891Z-1.339
X72.337Y58.895Z-1.341
X72.315Y58.899Z-1.344
X72.292Y58.904Z-1.347
X72.27Y58.909Z-1.352
X72.249Y58.915Z-1.356
X72.208Y58.926Z-1.365
X72.206Y58.927Z-1.366
X72.189Y58.932Z-1.371
X72.185Y58.934Z-1.372
X72.169Y58.939Z-1.376
X72.163Y58.941Z-1.378
X72.15Y58.946Z-1.381
X72.143Y58.949Z-1.384
X72.132Y58.953Z-1.387
X72.122Y58.957Z-1.39
X72.114Y58.96Z-1.392
X72.102Y58.965Z-1.397
X72.097Y58.967Z-1.398
X72.065Y58.982Z-1.408
X72.061Y58.984Z-1.409
X72.049Y58.99Z-1.412
X72.042Y58.994Z-1.415
X72.034Y58.998Z-1.417
X72.023Y59.005Z-1.421
X72.02Y59.006Z-1.421
X72.004Y59.016Z-1.426
X71.992Y59.022Z-1.428
X71.985Y59.027Z-1.431
X71.98Y59.031Z-1.431
X71.967Y59.039Z-1.434
X71.955Y59.047Z-1.436
X71.949Y59.052Z-1.438
X71.944Y59.056Z-1.438
X71.932Y59.065Z-1.44
X71.922Y59.073Z-1.441
X71.915Y59.079Z-1.441
X71.912Y59.082Z-1.441
X71.902Y59.091Z-1.441
X71.898Y59.094Z-1.442
X71.892Y59.1Z-1.441
X71.882Y59.109Z-1.44
X71.873Y59.119Z-1.439
X71.868Y59.124Z-1.438
X71.864Y59.128Z-1.437
X71.853Y59.14Z-1.435
X71.845Y59.149Z-1.432
X71.839Y59.157Z-1.43
X71.836Y59.16Z-1.428
X71.826Y59.174Z-1.424
X71.818Y59.184Z-1.419
X71.813Y59.191Z-1.417
X71.809Y59.197Z-1.414
X71.801Y59.209Z-1.409
X71.79Y59.227Z-1.401
X71.782Y59.241Z-1.393
X71.779Y59.245Z-1.392
X71.764Y59.272Z-1.378
X71.745Y59.31Z-1.36
X71.735Y59.33Z-1.352
X71.726Y59.349Z-1.344
X71.717Y59.369Z-1.336
X71.709Y59.389Z-1.329
X71.701Y59.41Z-1.322
X71.685Y59.451Z-1.309
X71.675Y59.482Z-1.301
X71.662Y59.525Z-1.292
X71.656Y59.546Z-1.288
X71.65Y59.568Z-1.285
X71.64Y59.612Z-1.28
X71.63Y59.657Z-1.276
X71.622Y59.701Z-1.274
X71.615Y59.747Z-1.272
X71.605Y59.823Z-1.273
X71.6Y59.874Z-1.275
X71.596Y59.921Z-1.278
X71.593Y59.991Z-1.284
X71.592Y60.057Z-1.291
X71.594Y60.132Z-1.3
X71.597Y60.179Z-1.305
X71.6Y60.225Z-1.31
X71.608Y60.289Z-1.317
X71.614Y60.333Z-1.321
X71.619Y60.36Z-1.323
X71.627Y60.403Z-1.326
X71.637Y60.444Z-1.328
X71.643Y60.469Z-1.329
X71.654Y60.509Z-1.329
X71.657Y60.517Z-1.329
X71.663Y60.539Z-1.326
X71.663Y60.542Z-1.325
X71.67Y60.561Z-1.328
X71.677Y60.582Z-1.327
X71.682Y60.598Z-1.325
X71.684Y60.604Z-1.326
X71.692Y60.625Z-1.328
X71.7Y60.647Z-1.325
X71.702Y60.652Z-1.324
X71.709Y60.667Z-1.327
X71.717Y60.688Z-1.326
X71.723Y60.704Z-1.323
X71.726Y60.71Z-1.325
X71.735Y60.73Z-1.326
X71.744Y60.751Z-1.324
X71.746Y60.755Z-1.323
X71.754Y60.771Z-1.325
X71.764Y60.792Z-1.324
X71.77Y60.804Z-1.322
X71.775Y60.812Z-1.323
X71.785Y60.832Z-1.324
X71.795Y60.851Z-1.321
X71.808Y60.872Z-1.323
X71.819Y60.892Z-1.32
X71.821Y60.896Z-1.319
X71.831Y60.911Z-1.322
X71.843Y60.931Z-1.32
X71.849Y60.94Z-1.318
X71.855Y60.95Z-1.32
X71.868Y60.969Z-1.32
X71.877Y60.983Z-1.317
X71.88Y60.986Z-1.317
X71.892Y61.003Z-1.319
X71.904Y61.019Z-1.316
X71.907Y61.024Z-1.315
X71.916Y61.035Z-1.316
X71.928Y61.05Z-1.315
X71.938Y61.063Z-1.312
X71.94Y61.066Z-1.313
X71.953Y61.081Z-1.314
X71.965Y61.096Z-1.311
X71.969Y61.102Z-1.309
X71.978Y61.111Z-1.31
X71.991Y61.125Z-1.31
X72.002Y61.139Z-1.306
X72.017Y61.154Z-1.307
X72.03Y61.168Z-1.305
X72.036Y61.175Z-1.303
X72.043Y61.181Z-1.304
X72.057Y61.194Z-1.303
X72.071Y61.209Z-1.299
X72.084Y61.22Z-1.301
X72.098Y61.233Z-1.299
X72.108Y61.242Z-1.296
X72.112Y61.246Z-1.297
X72.126Y61.258Z-1.297
X72.14Y61.27Z-1.295
X72.145Y61.274Z-1.293
X72.155Y61.282Z-1.294
X72.169Y61.293Z-1.294
X72.184Y61.305Z-1.29
X72.198Y61.315Z-1.292
X72.213Y61.326Z-1.29
X72.223Y61.334Z-1.288
X72.227Y61.337Z-1.289
X72.243Y61.347Z-1.29
X72.258Y61.358Z-1.288
X72.264Y61.362Z-1.286
X72.273Y61.368Z-1.287
X72.288Y61.377Z-1.288
X72.303Y61.387Z-1.285
X72.306Y61.389Z-1.284
X72.318Y61.396Z-1.286
X72.334Y61.405Z-1.286
X72.349Y61.414Z-1.284
X72.365Y61.423Z-1.286
X72.38Y61.431Z-1.285
X72.393Y61.438Z-1.283
X72.396Y61.44Z-1.284
X72.412Y61.447Z-1.285
X72.427Y61.455Z-1.284
X72.438Y61.461Z-1.283
X72.443Y61.463Z-1.284
X72.459Y61.47Z-1.285
X72.475Y61.478Z-1.284
X72.483Y61.482Z-1.283
X72.49Y61.485Z-1.284
X72.507Y61.492Z-1.286
X72.522Y61.499Z-1.284
X72.53Y61.502Z-1.283
X72.538Y61.505Z-1.284
X72.555Y61.511Z-1.286
X72.571Y61.518Z-1.285
X72.578Y61.521Z-1.283
