(Created with grbl post processor 2023/09/25 14:33)
G21
(G-code generated with BlenderCAM and NC library)
G17G90
(Tool: D = 3.0 mm  type END flutes 2)
S12000M03
G00 Z2.0

G0X0Y0Z2
X18.499Y19.423
G1Z-1F300
X24.654Y19.446F600
X24.571Y19.715
X24.337Y20.489
X24.27Y20.726
X24.209Y20.951
X24.148Y21.188
X24.092Y21.415
X24.077Y21.479
X23.893Y21.42
X23.659Y21.347
X23.435Y21.28
X23.199Y21.213
X22.974Y21.152
X22.736Y21.091
X22.51Y21.035
X22.271Y20.98
X22.043Y20.93
X21.803Y20.88
X21.574Y20.836
X21.332Y20.792
X21.103Y20.754
X20.86Y20.716
X20.629Y20.683
X20.386Y20.651
X20.155Y20.624
X19.91Y20.598
X19.678Y20.577
X19.434Y20.557
X19.201Y20.541
X18.956Y20.527
X18.723Y20.517
X18.584Y20.512
X18.499Y20.465
X18.499Y19.423
X17.499Y18.42
X26.076Y18.451
X25.975Y18.706
X25.897Y18.913
X25.816Y19.132
X25.743Y19.34
X25.668Y19.561
X25.6Y19.771
X25.527Y20.005
X25.297Y20.768
X25.234Y20.992
X25.176Y21.205
X25.118Y21.431
X25.065Y21.646
X25.012Y21.873
X24.965Y22.089
X24.918Y22.317
X24.876Y22.534
X24.835Y22.763
X24.826Y22.814
X24.449Y22.669
X24.23Y22.589
X24.022Y22.516
X23.801Y22.441
X23.591Y22.373
X23.368Y22.304
X23.157Y22.241
X22.932Y22.177
X22.719Y22.119
X22.493Y22.061
X22.279Y22.008
X22.052Y21.956
X21.836Y21.908
X21.608Y21.861
X21.391Y21.819
X21.161Y21.778
X20.944Y21.741
X20.713Y21.705
X20.495Y21.674
X20.263Y21.644
X20.044Y21.618
X19.812Y21.593
X19.593Y21.573
X19.36Y21.554
X19.14Y21.539
X18.907Y21.526
X18.686Y21.516
X18.453Y21.509
X18.31Y21.506
X18.025Y21.345
X17.81Y21.228
X17.499Y21.062
X17.499Y18.42
X16.499Y17.416
X27.629Y17.449
X27.512Y17.683
X27.416Y17.882
X27.328Y18.071
X27.237Y18.273
X27.154Y18.464
X27.068Y18.667
X26.989Y18.86
X26.908Y19.066
X26.834Y19.261
X26.758Y19.469
X26.689Y19.665
X26.618Y19.875
X26.554Y20.073
X26.484Y20.295
X26.258Y21.046
X26.197Y21.259
X26.143Y21.46
X26.038Y21.877
X25.988Y22.092
X25.944Y22.296
X25.859Y22.717
X25.82Y22.934
X25.785Y23.14
X25.751Y23.358
X25.722Y23.565
X25.693Y23.784
X25.669Y23.991
X25.644Y24.222
X25.64Y24.266
X25.29Y24.101
X25.089Y24.01
X24.898Y23.926
X24.501Y23.762
X24.296Y23.681
X24.101Y23.607
X23.893Y23.531
X23.697Y23.461
X23.487Y23.391
X23.289Y23.326
X23.078Y23.261
X22.878Y23.201
X22.666Y23.141
X22.464Y23.086
X22.25Y23.031
X22.048Y22.981
X21.833Y22.931
X21.629Y22.887
X21.413Y22.842
X21.208Y22.802
X20.99Y22.763
X20.785Y22.728
X20.566Y22.694
X20.36Y22.665
X20.141Y22.636
X19.934Y22.612
X19.714Y22.589
X19.507Y22.569
X19.286Y22.551
X19.078Y22.537
X18.858Y22.525
X18.649Y22.516
X18.429Y22.508
X18.22Y22.504
X18.081Y22.503
X18.032Y22.502
X17.725Y22.323
X17.543Y22.221
X17.338Y22.11
X16.819Y21.834
X16.499Y21.672
X16.499Y17.416
X15.499Y16.413
X29.309Y16.452
X29.158Y16.714
X29.062Y16.885
X28.956Y17.079
X28.593Y17.76
X28.411Y18.122
X28.237Y18.488
X28.073Y18.858
X27.917Y19.232
X27.771Y19.609
X27.634Y19.99
X27.507Y20.375
X27.441Y20.585
X27.218Y21.325
X27.11Y21.715
X27.011Y22.108
X26.922Y22.503
X26.842Y22.9
X26.773Y23.299
X26.713Y23.699
X26.663Y24.101
X26.64Y24.32
X26.565Y25.089
X26.535Y25.493
X26.515Y25.879
X26.31Y25.757
X25.958Y25.557
X25.601Y25.366
X25.24Y25.184
X24.874Y25.01
X24.504Y24.845
X24.13Y24.69
X23.752Y24.544
X23.371Y24.407
X22.987Y24.28
X22.6Y24.161
X22.209Y24.053
X21.817Y23.954
X21.422Y23.865
X21.025Y23.785
X20.626Y23.716
X20.225Y23.656
X19.824Y23.606
X19.421Y23.566
X19.017Y23.535
X18.613Y23.515
X18.208Y23.504
X18.063Y23.503
X17.74Y23.494
X17.413Y23.298
X17.061Y23.098
X16.867Y22.992
X16.358Y22.722
X15.997Y22.539
X15.631Y22.366
X15.499Y22.306
X15.499Y16.413
X14.499Y15.41
X31.184Y15.456
X30.957Y15.762
X30.737Y16.073
X30.526Y16.389
X30.322Y16.71
X30.126Y17.036
X29.938Y17.367
X29.838Y17.55
X29.481Y18.221
X29.31Y18.56
X29.146Y18.904
X28.992Y19.252
X28.846Y19.603
X28.709Y19.958
X28.58Y20.316
X28.46Y20.677
X28.398Y20.876
X28.179Y21.603
X28.077Y21.97
X27.984Y22.339
X27.9Y22.71
X27.826Y23.083
X27.76Y23.458
X27.704Y23.834
X27.657Y24.211
X27.635Y24.419
X27.561Y25.175
X27.533Y25.554
X27.514Y25.934
X27.504Y26.314
X27.504Y26.695
X27.513Y27.075
X27.531Y27.455
X27.556Y27.812
X27.385Y27.679
X27.08Y27.452
X26.769Y27.233
X26.453Y27.021
X26.132Y26.817
X25.806Y26.621
X25.476Y26.433
X25.14Y26.254
X24.801Y26.082
X24.457Y25.919
X24.11Y25.765
X23.758Y25.619
X23.404Y25.481
X23.046Y25.353
X22.685Y25.233
X22.321Y25.122
X21.954Y25.02
X21.586Y24.927
X21.215Y24.843
X20.842Y24.769
X20.467Y24.703
X20.091Y24.647
X19.713Y24.6
X19.335Y24.562
X18.956Y24.533
X18.576Y24.514
X18.195Y24.504
X18.046Y24.503
X17.451Y24.493
X17.235Y24.358
X16.909Y24.162
X16.579Y23.974
X16.396Y23.874
X15.898Y23.609
X15.558Y23.438
X15.214Y23.275
X14.867Y23.12
X14.516Y22.974
X14.499Y22.968
X14.499Y15.41
X13.499Y14.407
X33.334Y14.452
X33.145Y14.656
X33.031Y14.784
X32.798Y15.053
X32.672Y15.204
X32.199Y15.782
X31.98Y16.062
X31.767Y16.348
X31.562Y16.639
X31.364Y16.934
X31.173Y17.235
X30.99Y17.54
X30.814Y17.849
X30.72Y18.021
X30.369Y18.681
X30.208Y18.999
X30.056Y19.32
X29.911Y19.646
X29.774Y19.974
X29.646Y20.306
X29.526Y20.641
X29.414Y20.979
X29.355Y21.166
X29.139Y21.882
X29.044Y22.225
X28.957Y22.57
X28.879Y22.917
X28.809Y23.266
X28.747Y23.616
X28.695Y23.968
X28.651Y24.321
X28.63Y24.517
X28.558Y25.261
X28.531Y25.616
X28.513Y25.971
X28.504Y26.327
X28.504Y26.683
X28.512Y27.038
X28.529Y27.394
X28.555Y27.749
X28.572Y27.944
X28.647Y28.688
X28.69Y29.041
X28.742Y29.393
X28.802Y29.744
X28.871Y30.093
X28.949Y30.441
X28.973Y30.542
X28.86Y30.412
X28.621Y30.148
X28.376Y29.89
X28.125Y29.638
X27.867Y29.393
X27.604Y29.153
X27.335Y28.921
X27.06Y28.694
X26.78Y28.475
X26.494Y28.263
X26.204Y28.058
X25.908Y27.859
X25.608Y27.669
X25.303Y27.485
X24.993Y27.309
X24.68Y27.141
X24.362Y26.981
X24.041Y26.828
X23.716Y26.684
X23.387Y26.547
X23.055Y26.418
X22.72Y26.298
X22.383Y26.186
X22.042Y26.082
X21.7Y25.987
X21.354Y25.9
X21.007Y25.822
X20.658Y25.752
X20.308Y25.69
X19.956Y25.638
X19.603Y25.593
X19.249Y25.558
X18.894Y25.531
X18.539Y25.513
X18.183Y25.504
X18.036Y25.503
X17.145Y25.488
X17.011Y25.4
X16.711Y25.209
X16.406Y25.026
X16.096Y24.85
X15.924Y24.756
X15.437Y24.497
X15.12Y24.337
X14.798Y24.184
X14.473Y24.039
X14.144Y23.903
X13.812Y23.774
X13.499Y23.661
X13.499Y14.407
G0Z2
X37.501Y47.354
G1Z-1F300
X37.825Y47.483F600
X37.906Y47.514
X37.557Y47.669
X37.5Y47.695
X37.501Y47.354
X37.872Y46.425
X38.185Y46.55
X38.391Y46.628
X38.611Y46.708
X38.819Y46.781
X39.04Y46.856
X39.25Y46.924
X39.484Y46.997
X40.247Y47.227
X40.471Y47.291
X40.684Y47.349
X40.91Y47.407
X41.105Y47.455
X40.091Y47.763
X39.869Y47.835
X39.66Y47.905
X39.44Y47.982
X39.232Y48.058
X39.014Y48.14
X38.809Y48.221
X38.592Y48.309
X38.389Y48.394
X38.175Y48.487
X37.974Y48.578
X37.762Y48.676
X37.563Y48.771
X37.354Y48.875
X37.157Y48.975
X36.94Y49.089
X36.492Y49.329
X36.503Y45.801
X36.723Y45.911
X36.934Y46.012
X37.134Y46.106
X37.346Y46.202
X37.549Y46.29
X37.764Y46.381
X37.872Y46.425
G0Z2
X89.972Y44.489
G1Z-1F300
X90.008Y44.399F600
X104.5Y44.399
X104.5Y45.357
X90.457Y45.326
X90.184Y44.85
X89.972Y44.489
X89.043Y44.117
X89.157Y43.836
X89.329Y43.399
X105.5Y43.399
X105.5Y46.359
X89.871Y46.328
X89.638Y45.909
X89.377Y45.45
X89.103Y44.985
X88.854Y44.572
X89.043Y44.117
X88.118Y43.739
X88.228Y43.465
X88.422Y42.972
X88.604Y42.492
X88.638Y42.399
X106.5Y42.399
X106.5Y47.361
X89.274Y47.327
X89.024Y46.863
X88.767Y46.4
X88.511Y45.952
X88.244Y45.497
X87.978Y45.056
X87.73Y44.656
X87.939Y44.17
X88.118Y43.739
X87.192Y43.361
X87.3Y43.094
X87.489Y42.613
X87.667Y42.143
X87.844Y41.658
X87.936Y41.399
X107.5Y41.399
X107.5Y48.363
X88.674Y48.326
X88.213Y47.464
X87.961Y47.008
X87.713Y46.57
X87.454Y46.124
X87.195Y45.693
X86.925Y45.254
X86.655Y44.829
X86.599Y44.741
X86.814Y44.255
X87.017Y43.782
X87.192Y43.361
X86.266Y42.984
X86.371Y42.722
X86.556Y42.253
X86.729Y41.795
X86.902Y41.321
X87.065Y40.859
X87.22Y40.399
X108.5Y40.399
X108.5Y49.365
X88.072Y49.325
X87.91Y49.018
X87.334Y47.941
X87.088Y47.495
X86.847Y47.068
X86.593Y46.634
X86.341Y46.213
X86.077Y45.784
X85.814Y45.37
X85.54Y44.948
X85.459Y44.826
X85.587Y44.549
X85.795Y44.09
X85.991Y43.641
X86.187Y43.176
X86.266Y42.984
X85.34Y42.606
X85.443Y42.351
X85.623Y41.893
X85.792Y41.447
X85.961Y40.985
X86.119Y40.534
X86.276Y40.068
X86.423Y39.614
X86.491Y39.399
X109.5Y39.399
X109.5Y50.367
X87.461Y50.323
X87.261Y49.932
X87.029Y49.49
X86.455Y48.418
X86.216Y47.983
X85.98Y47.567
X85.732Y47.143
X85.486Y46.732
X85.229Y46.315
X84.973Y45.91
X84.705Y45.499
X84.439Y45.101
X84.311Y44.912
X84.477Y44.566
X84.678Y44.133
X84.88Y43.685
X85.071Y43.247
X85.263Y42.794
X85.34Y42.606
X84.414Y42.228
X84.514Y41.98
X84.69Y41.534
X84.854Y41.099
X85.019Y40.648
X85.173Y40.209
X85.327Y39.755
X85.47Y39.312
X85.615Y38.846
X85.75Y38.399
X110.5Y38.399
X110.5Y51.369
X86.84Y51.322
X86.63Y50.896
X86.419Y50.481
X86.193Y50.048
X85.576Y48.896
X85.343Y48.471
X85.113Y48.066
X84.872Y47.652
X84.632Y47.252
X84.381Y46.845
X84.132Y46.451
X83.871Y46.05
X83.611Y45.662
X83.341Y45.267
X83.152Y44.999
X83.365Y44.571
X83.572Y44.139
X83.769Y43.717
X83.966Y43.28
X84.152Y42.853
X84.339Y42.411
X84.414Y42.228
X83.488Y41.85
X83.677Y41.377
X83.841Y40.954
X84.003Y40.517
X84.156Y40.089
X84.308Y39.648
X84.45Y39.217
X84.593Y38.766
X84.658Y38.556
X84.927Y37.662
X85.003Y37.399
X111.5Y37.399
X111.5Y52.371
X86.21Y52.328
X85.994Y51.871
X85.79Y51.452
X85.585Y51.046
X85.368Y50.627
X85.265Y50.433
X84.697Y49.373
X84.47Y48.959
X84.246Y48.564
X84.011Y48.161
X83.778Y47.772
X83.533Y47.375
X83.29Y46.991
X83.036Y46.6
X82.784Y46.223
X82.52Y45.838
X82.258Y45.467
X81.983Y45.086
X82.221Y44.625
X82.423Y44.219
X82.627Y43.799
X82.819Y43.388
X83.012Y42.964
X83.195Y42.548
X83.377Y42.119
X83.488Y41.85
X82.562Y41.473
X82.747Y41.012
X82.906Y40.6
X83.064Y40.174
X83.213Y39.758
X83.36Y39.329
X83.499Y38.909
X83.638Y38.47
X83.701Y38.266
X83.967Y37.381
X84.093Y36.942
X84.21Y36.516
X84.241Y36.399
X112.5Y36.399
X112.5Y53.373
X85.565Y53.328
X85.384Y52.925
X85.192Y52.512
X85.001Y52.115
X84.799Y51.707
X84.599Y51.314
X84.383Y50.904
X83.819Y49.85
X83.597Y49.447
X83.379Y49.063
X83.151Y48.67
X82.923Y48.292
X82.685Y47.905
X82.449Y47.532
X82.201Y47.151
X81.956Y46.784
X81.699Y46.409
X81.445Y46.048
X81.179Y45.68
X80.915Y45.325
X80.802Y45.176
X81.119Y44.579
X81.328Y44.173
X81.526Y43.778
X81.724Y43.37
X81.911Y42.97
X82.099Y42.556
X82.277Y42.152
X82.454Y41.734
X82.562Y41.473
X81.636Y41.095
X81.816Y40.647
X81.97Y40.246
X82.163Y39.725
X82.306Y39.32
X82.449Y38.902
X82.582Y38.494
X82.717Y38.063
X83.008Y37.1
X83.13Y36.673
X83.267Y36.171
X83.377Y35.742
X83.461Y35.402
X83.462Y35.399
X113.5Y35.399
X113.5Y54.374
X84.909Y54.329
X84.688Y53.816
X84.513Y53.424
X84.327Y53.023
X84.102Y52.553
X83.906Y52.157
X83.711Y51.775
X83.501Y51.375
X82.94Y50.327
X82.724Y49.935
X82.455Y49.463
X82.232Y49.082
X82.01Y48.714
X81.777Y48.339
X81.546Y47.977
X81.304Y47.607
X81.013Y47.175
X80.76Y46.812
X80.511Y46.463
X80.25Y46.106
X79.992Y45.763
X79.722Y45.412
X79.614Y45.273
X79.803Y44.924
X80.233Y44.117
X80.436Y43.722
X80.628Y43.338
X80.821Y42.94
X81.041Y42.468
X81.223Y42.065
X81.395Y41.672
X81.567Y41.264
X81.636Y41.095
X80.71Y40.717
X80.885Y40.282
X81.035Y39.892
X81.222Y39.386
X81.39Y38.909
X81.528Y38.501
X81.657Y38.105
X81.787Y37.685
X82.048Y36.82
X82.167Y36.404
X82.299Y35.916
X82.407Y35.499
X82.506Y35.095
X82.536Y34.968
X82.829Y34.573
X82.956Y34.399
X114.5Y34.399
X114.5Y55.376
X84.237Y55.328
X84.07Y54.916
X83.908Y54.532
X83.737Y54.137
X83.566Y53.758
X83.384Y53.368
X83.204Y52.992
X83.013Y52.606
X82.823Y52.235
X82.619Y51.847
X82.007Y50.704
X81.753Y50.249
X81.546Y49.888
X81.327Y49.517
X81.111Y49.161
X80.883Y48.796
X80.658Y48.446
X80.421Y48.086
X80.188Y47.741
X79.943Y47.388
X79.701Y47.049
X79.447Y46.701
X79.197Y46.369
X78.934Y46.028
X78.676Y45.701
X78.411Y45.373
X78.615Y45.012
X78.826Y44.63
X78.921Y44.452
X79.346Y43.654
X79.544Y43.27
X79.73Y42.897
X79.918Y42.51
X80.132Y42.052
X80.309Y41.66
X80.475Y41.278
X80.643Y40.881
X80.71Y40.717
X79.784Y40.34
X79.954Y39.916
X80.137Y39.438
X80.311Y38.965
X80.445Y38.584
X80.579Y38.188
X80.703Y37.803
X80.83Y37.395
X81.088Y36.539
X81.227Y36.052
X81.332Y35.661
X81.437Y35.257
X81.533Y34.864
X81.609Y34.534
X81.897Y34.152
X82.136Y33.826
X82.379Y33.486
X82.44Y33.399
X115.5Y33.399
X115.5Y56.378
X83.555Y56.334
X83.375Y55.866
X83.179Y55.379
X82.989Y54.926
X82.822Y54.543
X82.656Y54.174
X82.48Y53.795
X82.305Y53.431
X82.12Y53.056
X81.936Y52.696
X81.737Y52.318
X81.129Y51.184
X80.883Y50.742
X80.682Y50.391
X80.469Y50.031
X80.26Y49.686
X80.038Y49.331
X79.82Y48.991
X79.59Y48.642
X79.364Y48.307
X79.125Y47.964
X78.89Y47.635
X78.644Y47.297
X78.401Y46.974
X78.146Y46.643
X77.895Y46.326
X77.627Y45.994
X77.195Y45.468
X77.43Y45.071
X77.638Y44.709
X77.836Y44.356
X78.04Y43.981
X78.46Y43.191
X78.691Y42.741
X78.871Y42.379
X79.052Y42.002
X79.223Y41.636
X79.395Y41.254
X79.556Y40.884
X79.719Y40.499
X79.784Y40.34
X78.858Y39.962
X79.023Y39.551
X79.201Y39.088
X79.369Y38.628
X79.499Y38.259
X79.629Y37.874
X79.75Y37.501
X79.873Y37.105
X80.128Y36.258
X80.263Y35.785
X80.365Y35.407
X80.467Y35.014
X80.56Y34.633
X80.651Y34.238
X80.682Y34.1
X80.85Y33.881
X81.094Y33.557
X81.325Y33.241
X81.561Y32.91
X81.785Y32.589
X81.914Y32.399
X116.5Y32.399
X116.5Y57.379
X82.854Y57.333
X82.691Y56.88
X82.518Y56.422
X82.375Y56.058
X82.222Y55.682
X82.07Y55.32
X81.908Y54.948
X81.747Y54.591
X81.576Y54.223
X81.407Y53.87
X81.227Y53.506
X81.048Y53.157
X80.855Y52.79
X80.252Y51.665
X80.013Y51.235
X79.818Y50.895
X79.612Y50.546
X79.408Y50.211
X79.193Y49.866
X78.982Y49.537
X78.759Y49.198
X78.539Y48.873
X78.308Y48.54
X78.08Y48.221
X77.841Y47.893
X77.605Y47.58
X77.358Y47.258
X77.115Y46.951
X76.854Y46.628
X76.043Y45.642
X75.968Y45.553
X76.156Y45.252
X76.366Y44.905
X76.566Y44.568
X76.768Y44.216
X76.96Y43.874
X77.158Y43.509
X77.573Y42.729
X77.798Y42.291
X77.972Y41.94
X78.148Y41.575
X78.313Y41.219
X78.48Y40.849
X78.637Y40.49
X78.795Y40.116
X78.858Y39.962
X77.932Y39.584
X78.129Y39.092
X78.293Y38.661
X78.428Y38.292
X78.553Y37.933
X78.679Y37.561
X78.796Y37.199
X78.916Y36.814
X79.168Y35.977
X79.299Y35.519
X79.398Y35.152
X79.497Y34.771
X79.587Y34.402
X79.675Y34.019
X79.753Y33.665
X80.054Y33.276
X80.29Y32.961
X80.515Y32.655
X80.743Y32.335
X80.96Y32.023
X81.181Y31.697
X81.378Y31.399
X117.5Y31.399
X117.5Y58.38
X82.137Y58.332
X81.985Y57.879
X81.855Y57.507
X81.725Y57.15
X81.585Y56.782
X81.447Y56.429
X81.299Y56.065
X81.151Y55.715
X80.994Y55.354
X80.838Y55.008
X80.672Y54.651
X80.508Y54.309
X80.334Y53.956
X80.161Y53.618
X79.973Y53.261
X79.375Y52.145
X79.143Y51.728
X78.954Y51.399
X78.754Y51.06
X78.557Y50.735
X78.349Y50.402
X78.144Y50.082
X77.927Y49.753
X77.715Y49.439
X77.49Y49.116
X77.27Y48.807
X77.038Y48.489
X76.81Y48.185
X76.57Y47.874
X76.334Y47.576
X76.081Y47.263
X75.276Y46.284
X74.967Y45.921
X74.721Y45.638
X74.89Y45.38
X75.103Y45.05
X75.304Y44.728
X75.509Y44.391
X75.702Y44.065
X75.898Y43.724
X76.083Y43.392
X76.276Y43.038
X76.687Y42.266
X76.904Y41.842
X77.073Y41.502
X77.244Y41.147
X77.404Y40.803
X77.566Y40.444
X77.718Y40.096
X77.871Y39.734
X77.932Y39.584
X77.007Y39.206
X77.196Y38.73
X77.355Y38.313
X77.486Y37.955
X77.608Y37.608
X77.73Y37.247
X77.843Y36.897
X77.959Y36.524
X78.209Y35.696
X78.335Y35.252
X78.431Y34.897
X78.526Y34.528
X78.614Y34.171
X78.7Y33.8
X78.778Y33.441
X78.822Y33.229
X79.034Y32.961
X79.258Y32.67
X79.487Y32.366
X79.704Y32.069
X79.926Y31.759
X80.136Y31.457
X80.349Y31.142
X80.552Y30.835
X80.758Y30.515
X80.831Y30.399
X118.5Y30.399
X118.5Y59.382
X81.402Y59.331
X81.274Y58.915
X81.156Y58.552
X81.039Y58.204
X80.913Y57.844
X80.787Y57.499
X80.653Y57.143
X80.518Y56.8
X80.375Y56.447
X80.232Y56.109
X80.08Y55.759
X79.929Y55.424
X79.769Y55.079
X79.61Y54.747
X79.44Y54.406
X79.273Y54.078
X79.091Y53.732
X78.498Y52.625
X78.273Y52.221
X78.09Y51.902
X77.896Y51.574
X77.706Y51.26
X77.504Y50.937
X77.306Y50.627
X77.096Y50.309
X76.89Y50.005
X76.673Y49.692
X76.459Y49.393
X76.234Y49.085
X76.014Y48.791
X75.781Y48.489
X75.554Y48.201
X75.308Y47.897
X74.509Y46.926
X74.21Y46.574
X73.969Y46.297
X73.715Y46.013
X73.45Y45.725
X73.636Y45.457
X73.849Y45.142
X74.052Y44.835
X74.258Y44.515
X74.453Y44.203
X74.651Y43.878
X74.838Y43.561
X75.028Y43.231
X75.207Y42.91
X75.394Y42.567
X75.8Y41.803
X76.011Y41.392
X76.174Y41.063
X76.34Y40.72
X76.495Y40.387
X76.652Y40.039
X76.799Y39.703
X76.947Y39.351
X77.007Y39.206
X76.081Y38.828
X76.264Y38.368
X76.418Y37.965
X76.544Y37.618
X76.662Y37.283
X76.78Y36.934
X76.89Y36.596
X77.002Y36.234
X77.249Y35.416
X77.372Y34.986
X77.464Y34.643
X77.556Y34.286
X77.641Y33.94
X77.724Y33.581
X77.8Y33.234
X77.874Y32.873
X77.89Y32.792
X78.198Y32.406
X78.462Y32.065
X78.684Y31.77
X78.894Y31.484
X79.108Y31.184
X79.311Y30.892
X79.518Y30.587
X79.714Y30.29
X79.913Y29.98
X80.101Y29.679
X80.272Y29.399
X119.5Y29.399
X119.5Y60.383
X80.66Y60.33
X80.344Y59.292
X80.207Y58.866
X80.094Y58.529
X79.972Y58.181
X79.85Y57.848
X79.72Y57.503
X79.59Y57.172
X79.451Y56.83
X79.313Y56.503
X79.166Y56.165
X79.02Y55.841
X78.865Y55.506
X78.711Y55.186
X78.547Y54.856
X78.386Y54.539
X78.209Y54.204
X77.62Y53.105
X77.403Y52.714
X77.226Y52.406
X77.039Y52.088
X76.854Y51.785
X76.659Y51.472
X76.467Y51.173
X76.265Y50.865
X76.066Y50.571
X75.855Y50.268
X75.649Y49.979
X75.431Y49.681
X75.218Y49.397
X74.993Y49.105
X74.773Y48.826
X74.535Y48.531
X73.743Y47.568
X73.453Y47.227
X73.22Y46.96
X72.974Y46.685
X72.734Y46.423
X72.481Y46.154
X72.235Y45.898
X72.152Y45.813
X72.394Y45.484
X72.608Y45.184
X72.811Y44.892
X73.018Y44.587
X73.214Y44.29
X73.413Y43.98
X73.601Y43.679
X73.793Y43.364
X73.974Y43.058
X74.158Y42.738
X74.331Y42.428
X74.512Y42.095
X74.914Y41.341
X75.118Y40.943
X75.276Y40.625
X75.436Y40.292
X75.586Y39.97
X75.737Y39.634
X75.879Y39.309
X76.023Y38.969
X76.081Y38.828
X75.155Y38.451
X75.332Y38.006
X75.48Y37.616
X75.603Y37.282
X75.716Y36.958
X75.831Y36.62
X75.936Y36.294
X76.045Y35.944
X76.289Y35.135
X76.408Y34.719
X76.497Y34.388
X76.586Y34.043
X76.668Y33.71
X76.748Y33.362
X76.821Y33.027
X76.893Y32.678
X76.956Y32.355
X77.235Y32.011
X77.457Y31.731
X77.666Y31.459
X77.88Y31.175
X78.083Y30.898
X78.29Y30.608
X78.486Y30.326
X78.686Y30.031
X78.875Y29.745
X79.068Y29.445
X79.25Y29.154
X79.435Y28.85
X79.61Y28.554
X79.7Y28.399
X120.5Y28.399
X120.5Y61.384
X79.912Y61.329
X79.772Y60.846
X79.39Y59.591
X79.257Y59.18
X79.148Y58.855
X79.03Y58.518
X78.913Y58.196
X78.787Y57.863
X78.661Y57.543
X78.527Y57.213
X78.394Y56.897
X78.252Y56.57
X78.111Y56.257
X77.961Y55.934
X77.812Y55.625
X77.654Y55.305
X77.498Y55
X77.327Y54.675
X76.743Y53.585
X76.533Y53.207
X76.362Y52.91
X76.181Y52.603
X76.003Y52.31
X75.815Y52.007
X75.629Y51.718
X75.433Y51.421
X75.241Y51.137
X75.038Y50.844
X74.839Y50.564
X74.628Y50.277
X74.422Y50.002
X74.205Y49.72
X73.992Y49.451
X73.762Y49.166
X72.976Y48.21
X72.696Y47.881
X72.471Y47.622
X72.233Y47.357
X72.001Y47.104
X71.757Y46.844
X71.519Y46.597
X71.269Y46.343
X71.025Y46.102
X70.82Y45.904
X71.122Y45.518
X71.38Y45.175
X71.583Y44.898
X71.79Y44.608
X71.986Y44.326
X72.186Y44.031
X72.375Y43.745
X72.568Y43.445
X72.75Y43.154
X72.935Y42.85
X73.11Y42.554
X73.288Y42.246
X73.455Y41.946
X73.63Y41.624
X74.027Y40.878
X74.225Y40.494
X74.377Y40.186
X74.532Y39.865
X74.676Y39.554
X74.823Y39.229
X74.96Y38.915
X75.099Y38.586
X75.155Y38.451
X74.229Y38.073
X74.4Y37.644
X74.543Y37.268
X74.661Y36.945
X74.771Y36.633
X74.881Y36.307
X74.983Y35.992
X75.088Y35.653
X75.329Y34.854
X75.444Y34.453
X75.53Y34.133
X75.616Y33.8
X75.695Y33.479
X75.772Y33.143
X75.843Y32.82
X75.912Y32.483
X75.975Y32.158
X76.019Y31.92
X76.409Y31.443
X76.668Y31.116
X76.87Y30.854
X77.077Y30.579
X77.273Y30.312
X77.473Y30.032
X77.662Y29.761
X77.855Y29.476
X78.037Y29.2
X78.223Y28.91
X78.398Y28.63
X78.577Y28.336
X78.746Y28.051
X78.917Y27.753
X79.079Y27.464
X79.114Y27.399
X121.5Y27.399
X121.5Y62.386
X79.145Y62.334
X79.073Y62.056
X78.984Y61.723
X78.894Y61.405
X78.793Y61.065
X78.436Y59.891
X78.308Y59.494
X78.202Y59.18
X78.089Y58.856
X77.975Y58.545
X77.854Y58.223
X77.733Y57.915
X77.603Y57.596
X77.475Y57.291
X77.338Y56.976
X77.202Y56.674
X77.057Y56.362
X76.914Y56.064
X76.761Y55.755
X76.611Y55.46
X76.446Y55.147
X75.866Y54.065
X75.663Y53.7
X75.499Y53.413
X75.324Y53.117
X75.152Y52.834
X74.97Y52.542
X74.791Y52.264
X74.602Y51.976
X74.417Y51.702
X74.22Y51.42
X74.028Y51.15
X73.825Y50.873
X73.627Y50.608
X73.417Y50.335
X73.212Y50.076
X72.989Y49.8
X72.209Y48.852
X71.939Y48.534
X71.722Y48.285
X71.492Y48.028
X71.269Y47.784
X71.033Y47.534
X70.804Y47.295
X70.562Y47.05
X70.327Y46.818
X70.079Y46.579
X69.838Y46.352
X69.585Y46.119
X69.453Y46
X69.909Y45.443
X70.168Y45.116
X70.37Y44.854
X70.577Y44.579
X70.773Y44.312
X70.973Y44.032
X71.162Y43.761
X71.355Y43.476
X71.537Y43.2
X71.723Y42.91
X71.898Y42.63
X72.077Y42.336
X72.246Y42.051
X72.417Y41.753
X72.579Y41.464
X72.748Y41.152
X73.141Y40.415
X73.331Y40.044
X73.478Y39.748
X73.627Y39.438
X73.767Y39.138
X73.909Y38.824
X74.041Y38.521
X74.175Y38.204
X74.229Y38.073
X73.303Y37.695
X73.468Y37.282
X73.606Y36.92
X73.72Y36.608
X73.825Y36.308
X73.931Y35.993
X74.03Y35.69
X74.131Y35.363
X74.37Y34.573
X74.48Y34.186
X74.563Y33.878
X74.646Y33.557
X74.722Y33.248
X74.797Y32.924
X74.865Y32.613
X74.932Y32.288
X74.992Y31.975
X75.051Y31.649
X75.078Y31.49
X75.63Y30.816
X75.88Y30.501
X76.074Y30.249
X76.274Y29.984
X76.462Y29.727
X76.655Y29.457
X76.837Y29.195
X77.023Y28.92
X77.199Y28.654
X77.378Y28.375
X77.547Y28.105
X77.719Y27.822
X77.882Y27.548
X78.047Y27.26
X78.203Y26.982
X78.366Y26.681
X78.517Y26.399
X122.5Y26.399
X122.5Y63.387
X78.355Y63.34
X78.264Y62.942
X78.186Y62.619
X78.106Y62.311
X78.02Y61.99
X77.933Y61.684
X77.836Y61.355
X77.482Y60.191
X77.359Y59.808
X77.257Y59.506
X77.147Y59.193
X77.038Y58.893
X76.921Y58.583
X76.804Y58.286
X76.68Y57.979
X76.556Y57.685
X76.424Y57.381
X76.293Y57.09
X76.153Y56.79
X76.015Y56.502
X75.868Y56.205
X75.723Y55.921
X75.564Y55.618
X74.989Y54.545
X74.793Y54.193
X74.635Y53.917
X74.466Y53.631
X74.301Y53.359
X74.125Y53.077
X73.953Y52.809
X73.771Y52.532
X73.592Y52.268
X73.403Y51.996
X73.218Y51.736
X73.022Y51.468
X72.831Y51.214
X72.628Y50.951
X72.431Y50.701
X72.216Y50.435
X71.442Y49.494
X71.182Y49.187
X70.973Y48.947
X70.751Y48.7
X70.536Y48.465
X70.309Y48.223
X70.088Y47.994
X69.855Y47.758
X69.628Y47.534
X69.39Y47.303
X69.158Y47.085
X68.913Y46.86
X68.676Y46.648
X68.426Y46.429
X68.184Y46.223
X68.05Y46.111
X68.344Y45.77
X68.607Y45.455
X69.13Y44.816
X69.38Y44.501
X69.574Y44.249
X69.774Y43.983
X69.962Y43.727
X70.155Y43.457
X70.337Y43.195
X70.523Y42.92
X70.699Y42.654
X70.878Y42.375
X71.047Y42.105
X71.219Y41.822
X71.382Y41.548
X71.547Y41.26
X71.703Y40.982
X71.866Y40.681
X72.254Y39.953
X72.438Y39.595
X72.58Y39.309
X72.723Y39.01
X72.858Y38.722
X72.994Y38.419
X73.122Y38.127
X73.251Y37.821
X73.303Y37.695
X72.377Y37.317
X72.56Y36.858
X72.668Y36.571
X72.778Y36.271
X72.88Y35.982
X72.982Y35.68
X73.076Y35.388
X73.174Y35.073
X73.41Y34.292
X73.516Y33.919
X73.596Y33.624
X73.676Y33.314
X73.749Y33.017
X73.821Y32.706
X73.886Y32.406
X73.951Y32.093
X74.009Y31.792
X74.066Y31.478
X74.116Y31.176
X74.135Y31.06
X74.334Y30.82
X74.85Y30.189
X75.091Y29.886
X75.278Y29.643
X75.47Y29.388
X75.652Y29.141
X75.837Y28.881
X76.012Y28.629
X76.192Y28.365
X76.36Y28.109
X76.533Y27.84
X76.696Y27.581
X76.862Y27.308
X77.018Y27.044
X77.177Y26.767
X77.327Y26.5
X77.484Y26.21
X77.899Y25.43
X77.915Y25.399
X123.5Y25.399
X123.5Y64.388
X77.539Y64.339
X77.457Y63.926
X77.36Y63.471
X77.291Y63.173
X77.216Y62.862
X77.139Y62.566
X77.056Y62.257
X76.973Y61.962
X76.879Y61.646
X76.528Y60.49
X76.409Y60.122
X76.311Y59.831
X76.206Y59.53
X76.101Y59.242
X75.988Y58.943
X75.876Y58.658
X75.756Y58.362
X75.637Y58.079
X75.509Y57.786
X75.384Y57.507
X75.249Y57.217
X75.116Y56.941
X74.975Y56.655
X74.835Y56.382
X74.682Y56.089
X74.112Y55.025
X73.923Y54.686
X73.771Y54.421
X73.608Y54.146
X73.449Y53.884
X73.28Y53.613
X73.115Y53.355
X72.939Y53.088
X72.768Y52.834
X72.585Y52.572
X72.408Y52.322
X72.219Y52.064
X72.035Y51.819
X71.84Y51.566
X71.65Y51.326
X71.443Y51.069
X70.676Y50.136
X70.425Y49.841
X70.224Y49.61
X70.011Y49.372
X69.804Y49.146
X69.585Y48.913
X69.372Y48.692
X69.148Y48.465
X68.93Y48.249
X68.7Y48.028
X68.477Y47.818
X68.242Y47.601
X68.014Y47.397
X67.773Y47.187
X67.54Y46.988
X67.286Y46.777
X66.602Y46.215
X66.793Y46.011
X67.009Y45.776
X67.214Y45.548
X67.424Y45.307
X67.623Y45.074
X67.834Y44.82
X68.393Y44.136
X68.591Y43.886
X68.778Y43.643
X68.971Y43.388
X69.152Y43.141
X69.337Y42.881
X69.512Y42.629
X69.692Y42.365
X69.86Y42.109
X70.033Y41.841
X70.196Y41.581
X70.362Y41.308
X70.518Y41.044
X70.677Y40.767
X70.827Y40.5
X70.984Y40.21
X71.399Y39.43
X71.545Y39.145
X71.681Y38.871
X71.819Y38.583
X71.949Y38.305
X72.08Y38.014
X72.203Y37.733
X72.327Y37.439
X72.377Y37.317
X71.451Y36.939
X71.627Y36.498
X71.731Y36.223
X71.836Y35.935
X71.934Y35.657
X72.032Y35.366
X72.123Y35.086
X72.217Y34.782
X72.469Y33.948
X72.552Y33.653
X72.629Y33.369
X72.706Y33.072
X72.776Y32.786
X72.845Y32.487
X72.908Y32.199
X72.97Y31.898
X73.026Y31.61
X73.08Y31.307
X73.129Y31.017
X73.176Y30.714
X73.189Y30.629
X73.358Y30.431
X73.561Y30.186
X74.112Y29.512
X74.303Y29.271
X74.483Y29.038
X74.667Y28.792
X74.841Y28.555
X75.02Y28.305
X75.188Y28.064
X75.36Y27.81
X75.522Y27.564
X75.688Y27.306
X75.844Y27.056
X76.004Y26.794
X76.154Y26.541
X76.307Y26.274
X76.45Y26.018
X76.602Y25.738
X77.011Y24.969
X77.151Y24.696
X77.282Y24.432
X77.298Y24.399
X124.5Y24.399
X124.5Y65.389
X76.695Y65.342
X76.618Y64.87
X76.566Y64.581
X76.509Y64.279
X76.45Y63.991
X76.384Y63.691
X76.318Y63.404
X76.246Y63.106
X76.173Y62.821
X76.093Y62.524
X76.013Y62.241
X75.922Y61.936
X75.574Y60.79
X75.46Y60.435
X75.366Y60.157
X75.264Y59.867
X75.164Y59.59
X75.055Y59.303
X74.948Y59.029
X74.832Y58.745
X74.718Y58.473
X74.595Y58.192
X74.475Y57.924
X74.345Y57.645
X74.218Y57.38
X74.082Y57.104
X73.948Y56.842
X73.8Y56.561
X73.234Y55.505
X73.053Y55.179
X72.907Y54.924
X72.751Y54.66
X72.598Y54.408
X72.435Y54.148
X72.277Y53.9
X72.108Y53.644
X71.943Y53.4
X71.768Y53.148
X71.597Y52.908
X71.416Y52.66
X71.239Y52.425
X71.052Y52.181
X70.87Y51.95
X70.67Y51.703
X69.909Y50.778
X69.668Y50.494
X69.474Y50.272
X69.27Y50.043
X69.071Y49.827
X68.861Y49.603
X68.657Y49.391
X68.441Y49.172
X68.232Y48.965
X68.011Y48.752
X67.797Y48.55
X67.57Y48.342
X67.351Y48.146
X67.12Y47.944
X66.896Y47.753
X66.652Y47.55
X65.725Y46.791
X65.433Y46.559
X65.2Y46.379
X65.102Y46.305
X65.439Y45.975
X65.645Y45.766
X65.859Y45.545
X66.06Y45.331
X66.268Y45.105
X66.464Y44.886
X66.667Y44.654
X66.858Y44.43
X67.061Y44.186
X67.612Y43.512
X67.803Y43.271
X67.983Y43.038
X68.167Y42.792
X68.341Y42.555
X68.52Y42.305
X68.688Y42.064
X68.86Y41.81
X69.022Y41.564
X69.188Y41.306
X69.344Y41.056
X69.504Y40.794
X69.654Y40.541
X69.807Y40.275
X69.95Y40.018
X70.102Y39.738
X70.511Y38.969
X70.651Y38.696
X70.782Y38.432
X70.915Y38.155
X71.04Y37.889
X71.166Y37.609
X71.284Y37.339
X71.403Y37.056
X71.451Y36.939
X70.525Y36.561
X70.694Y36.138
X70.794Y35.875
X70.895Y35.598
X70.988Y35.332
X71.083Y35.053
X71.17Y34.784
X71.26Y34.492
X71.508Y33.67
X71.589Y33.386
X71.662Y33.114
X71.736Y32.829
X71.803Y32.555
X71.869Y32.268
X71.93Y31.992
X71.989Y31.703
X72.043Y31.427
X72.095Y31.136
X72.142Y30.858
X72.187Y30.567
X72.227Y30.288
X72.239Y30.196
X72.409Y30.001
X72.592Y29.787
X72.788Y29.552
X73.331Y28.887
X73.514Y28.656
X73.687Y28.432
X73.864Y28.197
X74.031Y27.969
X74.202Y27.73
X74.363Y27.498
X74.529Y27.254
X74.684Y27.019
X74.843Y26.771
X74.993Y26.532
X75.146Y26.28
X75.29Y26.037
X75.437Y25.782
X75.574Y25.536
X75.72Y25.267
X76.124Y24.509
X76.258Y24.246
X76.383Y23.994
X76.511Y23.728
X76.63Y23.472
X76.664Y23.399
X125.5Y23.399
X125.5Y66.39
X75.821Y66.341
X75.766Y65.903
X75.724Y65.611
X75.682Y65.332
X75.633Y65.041
X75.583Y64.764
X75.528Y64.474
X75.471Y64.198
X75.409Y63.91
X75.345Y63.635
X75.276Y63.349
X75.206Y63.076
X75.129Y62.791
X75.052Y62.52
X74.965Y62.226
X74.601Y61.03
X74.51Y60.749
X74.42Y60.482
X74.323Y60.204
X74.226Y59.939
X74.122Y59.663
X74.019Y59.401
X73.908Y59.127
X73.799Y58.868
X73.681Y58.597
X73.565Y58.34
X73.441Y58.073
X73.319Y57.818
X73.188Y57.554
X73.06Y57.303
X72.918Y57.032
X72.327Y55.93
X72.183Y55.672
X72.043Y55.428
X71.893Y55.174
X71.747Y54.933
X71.591Y54.683
X71.439Y54.446
X71.276Y54.199
X71.119Y53.966
X70.95Y53.724
X70.787Y53.494
X70.613Y53.256
X70.444Y53.03
X70.264Y52.797
X70.089Y52.575
X69.897Y52.338
X69.102Y51.372
X68.911Y51.147
X68.725Y50.935
X68.529Y50.715
X68.338Y50.507
X68.137Y50.292
X67.941Y50.089
X67.734Y49.879
X67.533Y49.681
X67.321Y49.476
X67.116Y49.283
X66.899Y49.084
X66.689Y48.895
X66.467Y48.701
X66.252Y48.518
X66.017Y48.323
X65.049Y47.53
X64.818Y47.347
X64.595Y47.175
X64.359Y46.998
X64.132Y46.831
X63.892Y46.66
X63.661Y46.499
X63.516Y46.4
X63.676Y46.26
X63.896Y46.063
X64.103Y45.873
X64.318Y45.671
X64.521Y45.475
X64.731Y45.268
X64.93Y45.068
X65.134Y44.856
X65.328Y44.65
X65.527Y44.433
X65.715Y44.223
X65.909Y44.001
X66.092Y43.787
X66.288Y43.552
X66.831Y42.887
X67.014Y42.656
X67.187Y42.432
X67.364Y42.197
X67.531Y41.969
X67.702Y41.73
X67.863Y41.498
X68.028Y41.254
X68.184Y41.019
X68.343Y40.771
X68.493Y40.532
X68.646Y40.28
X68.79Y40.037
X68.937Y39.782
X69.074Y39.536
X69.22Y39.267
X69.624Y38.509
X69.758Y38.246
X69.883Y37.994
X70.011Y37.728
X70.13Y37.473
X70.252Y37.204
X70.364Y36.945
X70.479Y36.674
X70.525Y36.561
X69.6Y36.183
X69.761Y35.779
X69.856Y35.526
X69.953Y35.261
X70.043Y35.007
X70.133Y34.739
X70.216Y34.482
X70.303Y34.202
X70.548Y33.392
X70.625Y33.12
X70.695Y32.859
X70.766Y32.586
X70.83Y32.324
X70.894Y32.049
X70.951Y31.785
X71.008Y31.508
X71.06Y31.244
X71.11Y30.966
X71.154Y30.7
X71.198Y30.42
X71.236Y30.153
X71.272Y29.873
X71.286Y29.762
X71.466Y29.561
X71.652Y29.348
X71.827Y29.143
X72.015Y28.917
X72.551Y28.262
X72.726Y28.041
X72.891Y27.827
X73.061Y27.601
X73.22Y27.384
X73.384Y27.154
X73.538Y26.932
X73.697Y26.699
X73.846Y26.474
X73.998Y26.236
X74.141Y26.007
X74.288Y25.766
X74.426Y25.534
X74.567Y25.289
X74.698Y25.053
X74.838Y24.795
X75.236Y24.048
X75.365Y23.797
X75.485Y23.555
X75.607Y23.301
X75.721Y23.056
X75.837Y22.799
X75.945Y22.551
X76.01Y22.399
X126.5Y22.399
X126.5Y67.391
X74.918Y67.341
X74.842Y66.586
X74.809Y66.305
X74.775Y66.037
X74.735Y65.758
X74.694Y65.491
X74.648Y65.212
X74.6Y64.947
X74.547Y64.669
X74.493Y64.405
X74.433Y64.129
X74.372Y63.866
X74.306Y63.592
X74.239Y63.331
X74.165Y63.058
X74.092Y62.798
X74.008Y62.517
X73.647Y61.332
X73.561Y61.063
X73.475Y60.807
X73.381Y60.541
X73.289Y60.287
X73.189Y60.023
X73.091Y59.772
X72.984Y59.51
X72.88Y59.262
X72.767Y59.002
X72.656Y58.757
X72.537Y58.5
X72.421Y58.257
X72.295Y58.004
X72.173Y57.764
X72.036Y57.504
X71.451Y56.412
X71.313Y56.165
X71.179Y55.932
X71.035Y55.688
X70.895Y55.458
X70.746Y55.218
X70.6Y54.991
X70.445Y54.755
X70.294Y54.532
X70.133Y54.299
X69.976Y54.08
X69.81Y53.852
X69.648Y53.636
X69.475Y53.412
X69.308Y53.2
X69.124Y52.972
X68.337Y52.016
X68.154Y51.801
X67.976Y51.597
X67.788Y51.387
X67.606Y51.188
X67.412Y50.982
X67.225Y50.788
X67.027Y50.586
X66.835Y50.397
X66.632Y50.201
X66.436Y50.016
X66.227Y49.825
X66.027Y49.645
X65.814Y49.459
X65.609Y49.283
X65.383Y49.096
X64.425Y48.311
X64.203Y48.136
X63.99Y47.971
X63.764Y47.801
X63.546Y47.642
X63.316Y47.478
X63.095Y47.323
X62.861Y47.165
X62.636Y47.016
X62.398Y46.864
X62.17Y46.721
X61.928Y46.574
X61.819Y46.509
X61.942Y46.409
X62.595Y45.871
X62.81Y45.688
X63.013Y45.511
X63.224Y45.322
X63.423Y45.14
X63.629Y44.947
X63.823Y44.76
X64.024Y44.561
X64.214Y44.369
X64.41Y44.166
X64.595Y43.97
X64.786Y43.762
X64.966Y43.561
X65.152Y43.348
X65.327Y43.143
X65.515Y42.917
X66.051Y42.262
X66.226Y42.041
X66.391Y41.827
X66.561Y41.601
X66.72Y41.384
X66.884Y41.154
X67.038Y40.932
X67.197Y40.699
X67.345Y40.474
X67.498Y40.236
X67.641Y40.007
X67.788Y39.766
X67.926Y39.534
X68.067Y39.289
X68.198Y39.054
X68.338Y38.795
X68.736Y38.048
X68.865Y37.797
X68.985Y37.555
X69.107Y37.301
X69.221Y37.056
X69.337Y36.799
X69.445Y36.552
X69.555Y36.291
X69.6Y36.183
X68.674Y35.806
X68.827Y35.419
X68.919Y35.178
X69.012Y34.924
X69.097Y34.681
X69.184Y34.425
X69.263Y34.18
X69.347Y33.912
X69.587Y33.113
X69.661Y32.853
X69.728Y32.605
X69.796Y32.343
X69.857Y32.093
X69.918Y31.83
X69.973Y31.578
X70.028Y31.313
X70.076Y31.061
X70.124Y30.795
X70.167Y30.541
X70.209Y30.274
X70.245Y30.019
X70.28Y29.751
X70.31Y29.495
X70.328Y29.326
X70.545Y29.09
X70.717Y28.899
X70.895Y28.695
X71.062Y28.499
X71.242Y28.283
X71.77Y27.637
X71.938Y27.425
X72.095Y27.222
X72.257Y27.006
X72.41Y26.798
X72.567Y26.578
X72.714Y26.367
X72.865Y26.143
X73.007Y25.928
X73.153Y25.701
X73.29Y25.483
X73.43Y25.252
X73.562Y25.03
X73.696Y24.796
X73.822Y24.571
X73.957Y24.324
X74.348Y23.588
X74.471Y23.347
X74.586Y23.117
X74.703Y22.873
X74.812Y22.64
X74.923Y22.393
X75.026Y22.158
X75.131Y21.909
X75.229Y21.67
X75.335Y21.399
X127.5Y21.399
X127.5Y68.392
X74.007Y68.34
X73.97Y67.916
X73.848Y66.696
X73.817Y66.427
X73.784Y66.172
X73.746Y65.905
X73.707Y65.65
X73.663Y65.383
X73.617Y65.13
X73.566Y64.865
X73.515Y64.612
X73.457Y64.348
X73.399Y64.098
X73.336Y63.835
X73.272Y63.586
X73.201Y63.325
X73.131Y63.077
X73.051Y62.807
X72.694Y61.634
X72.611Y61.377
X72.529Y61.133
X72.44Y60.878
X72.352Y60.636
X72.256Y60.383
X72.162Y60.143
X72.06Y59.893
X71.961Y59.656
X71.853Y59.408
X71.747Y59.173
X71.633Y58.928
X71.522Y58.696
X71.402Y58.454
X71.285Y58.224
X71.154Y57.975
X70.575Y56.895
X70.443Y56.658
X70.315Y56.435
X70.178Y56.202
X70.044Y55.982
X69.901Y55.753
X69.762Y55.536
X69.614Y55.311
X69.469Y55.097
X69.315Y54.875
X69.166Y54.666
X69.006Y54.448
X68.852Y54.242
X68.687Y54.027
X68.528Y53.825
X68.351Y53.606
X67.572Y52.66
X67.396Y52.454
X67.227Y52.26
X67.047Y52.058
X66.873Y51.869
X66.688Y51.672
X66.51Y51.486
X66.32Y51.294
X66.137Y51.113
X65.942Y50.925
X65.755Y50.748
X65.556Y50.566
X65.364Y50.394
X65.161Y50.216
X64.965Y50.049
X64.749Y49.869
X63.8Y49.092
X63.588Y48.924
X63.384Y48.767
X63.168Y48.605
X62.961Y48.452
X62.741Y48.295
X62.529Y48.148
X62.306Y47.996
X62.091Y47.855
X61.864Y47.708
X61.645Y47.572
X61.414Y47.431
X61.193Y47.3
X60.959Y47.165
X60.734Y47.04
X60.487Y46.905
X59.986Y46.638
X60.248Y46.452
X60.466Y46.292
X60.672Y46.138
X60.886Y45.973
X61.088Y45.813
X61.307Y45.636
X61.951Y45.106
X62.157Y44.931
X62.351Y44.762
X62.552Y44.581
X62.742Y44.407
X62.939Y44.222
X63.125Y44.044
X63.317Y43.854
X63.498Y43.671
X63.686Y43.477
X63.862Y43.289
X64.045Y43.09
X64.217Y42.899
X64.395Y42.695
X64.562Y42.499
X64.742Y42.283
X65.27Y41.637
X65.438Y41.425
X65.595Y41.222
X65.757Y41.006
X65.91Y40.798
X66.067Y40.578
X66.214Y40.367
X66.365Y40.143
X66.507Y39.928
X66.653Y39.701
X66.79Y39.483
X66.93Y39.252
X67.062Y39.03
X67.196Y38.796
X67.322Y38.571
X67.456Y38.324
X67.848Y37.588
X67.971Y37.347
X68.086Y37.117
X68.203Y36.873
X68.312Y36.64
X68.423Y36.394
X68.526Y36.158
X68.631Y35.909
X68.674Y35.806
X67.748Y35.428
X67.894Y35.059
X67.981Y34.83
X68.07Y34.588
X68.151Y34.356
X68.234Y34.112
X68.31Y33.879
X68.39Y33.621
X68.627Y32.835
X68.697Y32.587
X68.761Y32.35
X68.826Y32.1
X68.884Y31.862
X68.942Y31.611
X68.995Y31.371
X69.047Y31.119
X69.093Y30.878
X69.139Y30.624
X69.18Y30.382
X69.219Y30.127
X69.254Y29.885
X69.287Y29.629
X69.316Y29.385
X69.344Y29.117
X69.367Y28.886
X69.629Y28.609
X69.804Y28.419
X69.968Y28.236
X70.137Y28.042
X70.297Y27.856
X70.469Y27.649
X70.989Y27.013
X71.149Y26.81
X71.299Y26.616
X71.454Y26.41
X71.599Y26.212
X71.749Y26.002
X71.889Y25.801
X72.034Y25.588
X72.169Y25.383
X72.308Y25.166
X72.439Y24.958
X72.573Y24.738
X72.698Y24.527
X72.826Y24.303
X72.946Y24.089
X73.075Y23.853
X73.461Y23.127
X73.578Y22.898
X73.687Y22.678
X73.799Y22.446
X73.903Y22.223
X74.009Y21.988
X74.107Y21.764
X74.207Y21.526
X74.3Y21.299
X74.395Y21.059
X74.481Y20.83
X74.57Y20.587
X74.637Y20.399
X128.5Y20.399
X128.5Y69.393
X73.062Y69.341
X73.049Y69.029
X73.036Y68.784
X73.019Y68.527
X72.999Y68.282
X72.975Y68.014
X72.854Y66.806
X72.824Y66.55
X72.793Y66.307
X72.757Y66.051
X72.72Y65.809
X72.677Y65.555
X72.634Y65.313
X72.586Y65.06
X72.536Y64.82
X72.482Y64.568
X72.427Y64.329
X72.366Y64.078
X72.305Y63.841
X72.238Y63.591
X72.171Y63.355
X72.095Y63.097
X71.741Y61.936
X71.662Y61.691
X71.583Y61.458
X71.498Y61.215
X71.414Y60.984
X71.323Y60.743
X71.234Y60.515
X71.137Y60.276
X71.042Y60.05
X70.939Y59.813
X70.838Y59.59
X70.729Y59.356
X70.623Y59.135
X70.509Y58.903
X70.397Y58.685
X70.272Y58.446
X69.699Y57.377
X69.573Y57.151
X69.451Y56.939
X69.32Y56.717
X69.193Y56.507
X69.056Y56.288
X68.924Y56.082
X68.782Y55.866
X68.645Y55.663
X68.498Y55.451
X68.356Y55.252
X68.203Y55.043
X68.056Y54.847
X67.899Y54.643
X67.747Y54.45
X67.578Y54.241
X66.806Y53.304
X66.639Y53.107
X66.478Y52.922
X66.306Y52.73
X66.141Y52.549
X65.964Y52.361
X65.794Y52.185
X65.613Y52.001
X65.439Y51.828
X65.253Y51.649
X65.074Y51.481
X64.885Y51.307
X64.702Y51.143
X64.508Y50.973
X64.321Y50.814
X64.114Y50.642
X63.175Y49.873
X62.973Y49.713
X62.779Y49.563
X62.573Y49.408
X62.375Y49.263
X62.165Y49.113
X61.964Y48.973
X61.75Y48.828
X61.546Y48.693
X61.329Y48.553
X61.121Y48.423
X60.9Y48.289
X60.689Y48.164
X60.466Y48.036
X60.252Y47.916
X60.015Y47.787
X58.944Y47.216
X58.715Y47.099
X58.495Y46.99
X58.262Y46.878
X58.04Y46.774
X57.967Y46.741
X58.197Y46.606
X58.407Y46.478
X58.626Y46.342
X58.832Y46.21
X59.047Y46.068
X59.251Y45.93
X59.462Y45.783
X59.662Y45.641
X59.87Y45.489
X60.067Y45.342
X60.271Y45.184
X60.464Y45.032
X60.673Y44.863
X61.307Y44.341
X61.504Y44.174
X61.688Y44.012
X61.881Y43.841
X62.061Y43.675
X62.249Y43.498
X62.426Y43.328
X62.61Y43.147
X62.782Y42.973
X62.961Y42.787
X63.129Y42.609
X63.304Y42.419
X63.468Y42.236
X63.637Y42.042
X63.797Y41.856
X63.969Y41.648
X64.489Y41.012
X64.649Y40.81
X64.799Y40.616
X64.954Y40.41
X65.099Y40.212
X65.249Y40.002
X65.389Y39.801
X65.534Y39.588
X65.669Y39.383
X65.808Y39.166
X65.938Y38.958
X66.073Y38.738
X66.198Y38.527
X66.326Y38.303
X66.446Y38.089
X66.575Y37.853
X66.961Y37.127
X67.078Y36.898
X67.187Y36.678
X67.299Y36.446
X67.403Y36.224
X67.509Y35.988
X67.607Y35.764
X67.707Y35.526
X67.748Y35.428
X66.822Y35.05
X66.961Y34.699
X67.044Y34.481
X67.128Y34.251
X67.206Y34.031
X67.284Y33.798
X67.356Y33.577
X67.433Y33.331
X67.666Y32.556
X67.733Y32.32
X67.794Y32.095
X67.856Y31.857
X67.911Y31.631
X67.967Y31.392
X68.016Y31.164
X68.066Y30.924
X68.11Y30.695
X68.154Y30.453
X68.192Y30.223
X68.23Y29.981
X68.263Y29.75
X68.295Y29.506
X68.322Y29.275
X68.349Y29.019
X68.406Y28.436
X68.566Y28.275
X68.737Y28.098
X68.897Y27.928
X69.063Y27.747
X69.218Y27.574
X69.38Y27.389
X69.531Y27.212
X69.696Y27.014
X70.208Y26.388
X70.361Y26.195
X70.503Y26.011
X70.651Y25.814
X70.788Y25.627
X70.931Y25.427
X71.064Y25.235
X71.202Y25.032
X71.331Y24.838
X71.464Y24.631
X71.587Y24.434
X71.715Y24.224
X71.834Y24.023
X71.956Y23.811
X72.07Y23.607
X72.193Y23.381
X72.573Y22.667
X72.685Y22.448
X72.789Y22.24
X72.895Y22.018
X72.994Y21.807
X73.095Y21.583
X73.188Y21.37
X73.283Y21.143
X73.371Y20.928
X73.461Y20.699
X73.544Y20.481
X73.628Y20.251
X73.706Y20.031
X73.784Y19.798
X73.856Y19.577
X73.912Y19.399
X129.5Y19.399
X129.5Y70.394
X72.071Y70.348
X72.073Y70.035
X72.072Y69.802
X72.068Y69.556
X72.061Y69.323
X72.05Y69.078
X72.038Y68.845
X72.021Y68.6
X72.003Y68.368
X71.979Y68.112
X71.86Y66.916
X71.832Y66.672
X71.802Y66.441
X71.768Y66.198
X71.732Y65.968
X71.692Y65.726
X71.651Y65.496
X71.605Y65.255
X71.558Y65.027
X71.506Y64.787
X71.454Y64.56
X71.396Y64.321
X71.338Y64.095
X71.274Y63.858
X71.211Y63.634
X71.138Y63.387
X70.788Y62.238
X70.712Y62.004
X70.638Y61.784
X70.557Y61.552
X70.477Y61.333
X70.39Y61.103
X70.305Y60.886
X70.213Y60.659
X70.122Y60.444
X70.024Y60.219
X69.929Y60.006
X69.825Y59.783
X69.725Y59.573
X69.616Y59.353
X69.51Y59.146
X69.39Y58.918
X68.823Y57.859
X68.703Y57.644
X68.587Y57.442
X68.462Y57.231
X68.342Y57.032
X68.212Y56.823
X68.086Y56.627
X67.951Y56.422
X67.82Y56.229
X67.68Y56.027
X67.545Y55.837
X67.4Y55.639
X67.26Y55.453
X67.111Y55.258
X66.966Y55.075
X66.805Y54.875
X66.041Y53.947
X65.882Y53.76
X65.729Y53.585
X65.565Y53.402
X65.408Y53.23
X65.24Y53.051
X65.078Y52.883
X64.906Y52.708
X64.74Y52.544
X64.564Y52.374
X64.394Y52.214
X64.213Y52.048
X64.04Y51.892
X63.855Y51.73
X63.677Y51.579
X63.48Y51.415
X62.55Y50.654
X62.358Y50.501
X62.173Y50.359
X61.977Y50.211
X61.789Y50.073
X61.589Y49.93
X61.398Y49.797
X61.195Y49.66
X61Y49.531
X60.794Y49.398
X60.596Y49.275
X60.386Y49.147
X60.186Y49.028
X59.973Y48.906
X59.77Y48.792
X59.544Y48.669
X58.484Y48.104
X58.265Y47.992
X58.056Y47.889
X57.835Y47.782
X57.624Y47.684
X57.4Y47.582
X57.187Y47.489
X56.96Y47.394
X56.745Y47.306
X56.516Y47.216
X56.298Y47.133
X56.068Y47.049
X55.848Y46.971
X55.615Y46.893
X55.575Y46.879
X55.906Y46.717
X56.114Y46.611
X56.341Y46.491
X57.055Y46.108
X57.269Y45.989
X57.471Y45.873
X57.683Y45.748
X57.882Y45.627
X58.09Y45.497
X58.287Y45.371
X58.492Y45.236
X58.685Y45.106
X58.887Y44.966
X59.076Y44.831
X59.275Y44.686
X59.461Y44.546
X59.656Y44.396
X59.839Y44.252
X60.039Y44.09
X60.663Y43.576
X60.85Y43.416
X61.026Y43.263
X61.209Y43.1
X61.381Y42.942
X61.56Y42.774
X61.728Y42.613
X61.903Y42.44
X62.066Y42.275
X62.237Y42.098
X62.397Y41.928
X62.563Y41.747
X62.718Y41.574
X62.88Y41.389
X63.031Y41.212
X63.196Y41.014
X63.708Y40.388
X63.861Y40.195
X64.003Y40.011
X64.151Y39.814
X64.288Y39.627
X64.431Y39.427
X64.564Y39.236
X64.702Y39.032
X64.831Y38.838
X64.964Y38.631
X65.087Y38.434
X65.215Y38.224
X65.334Y38.023
X65.456Y37.811
X65.57Y37.607
X65.693Y37.381
X66.073Y36.667
X66.185Y36.448
X66.288Y36.24
X66.395Y36.018
X66.494Y35.807
X66.595Y35.583
X66.688Y35.37
X66.783Y35.144
X66.822Y35.05
X65.896Y34.672
X66.028Y34.339
X66.107Y34.133
X66.187Y33.914
X66.26Y33.706
X66.335Y33.485
X66.403Y33.275
X66.476Y33.041
X66.706Y32.278
X66.77Y32.053
X66.827Y31.84
X66.886Y31.614
X66.938Y31.4
X66.991Y31.173
X67.038Y30.957
X67.085Y30.729
X67.127Y30.512
X67.169Y30.282
X67.205Y30.065
X67.241Y29.834
X67.272Y29.616
X67.302Y29.384
X67.328Y29.165
X67.354Y28.921
X67.431Y28.128
X67.443Y27.98
X67.695Y27.733
X67.851Y27.576
X68.013Y27.408
X68.164Y27.248
X68.322Y27.076
X68.469Y26.912
X68.623Y26.736
X68.766Y26.568
X68.923Y26.38
X69.427Y25.763
X69.572Y25.58
X69.707Y25.405
X69.847Y25.219
X69.978Y25.041
X70.114Y24.851
X70.24Y24.67
X70.371Y24.477
X70.492Y24.293
X70.619Y24.096
X70.736Y23.909
X70.857Y23.71
X70.97Y23.52
X71.086Y23.318
X71.194Y23.125
X71.311Y22.91
X71.685Y22.206
X71.792Y21.999
X71.89Y21.801
X71.991Y21.591
X72.084Y21.391
X72.18Y21.178
X72.269Y20.976
X72.36Y20.761
X72.443Y20.556
X72.528Y20.339
X72.607Y20.133
X72.687Y19.914
X72.76Y19.706
X72.835Y19.485
X72.903Y19.275
X72.976Y19.041
X73.17Y18.399
X130.5Y18.399
X130.5Y71.395
X71.026Y71.347
X71.05Y70.943
X71.06Y70.722
X71.067Y70.489
X71.072Y70.268
X71.073Y70.035
X71.072Y69.814
X71.068Y69.581
X71.061Y69.36
X71.052Y69.127
X71.039Y68.907
X71.024Y68.674
X71.007Y68.454
X70.984Y68.21
X70.866Y67.027
X70.839Y66.795
X70.811Y66.576
X70.779Y66.345
X70.745Y66.127
X70.707Y65.897
X70.668Y65.679
X70.624Y65.45
X70.58Y65.234
X70.504Y64.892
X70.426Y64.564
X70.371Y64.35
X70.31Y64.125
X70.25Y63.913
X70.181Y63.678
X69.834Y62.54
X69.763Y62.318
X69.692Y62.109
X69.615Y61.889
X69.54Y61.681
X69.457Y61.463
X69.377Y61.258
X69.289Y61.041
X69.203Y60.838
X69.11Y60.624
X69.02Y60.423
X68.921Y60.211
X68.826Y60.012
X68.723Y59.803
X68.622Y59.606
X68.508Y59.389
X67.947Y58.341
X67.833Y58.137
X67.723Y57.946
X67.605Y57.745
X67.49Y57.556
X67.367Y57.358
X67.248Y57.173
X67.119Y56.978
X66.996Y56.795
X66.863Y56.603
X66.735Y56.423
X66.465Y56.058
X66.322Y55.873
X66.186Y55.7
X66.032Y55.51
X65.276Y54.591
X65.125Y54.414
X64.98Y54.247
X64.825Y54.073
X64.675Y53.911
X64.516Y53.74
X64.363Y53.581
X64.199Y53.415
X64.042Y53.26
X63.874Y53.098
X63.713Y52.947
X63.542Y52.789
X63.377Y52.641
X63.202Y52.488
X63.034Y52.344
X62.845Y52.188
X61.925Y51.434
X61.743Y51.29
X61.568Y51.155
X61.381Y51.014
X61.203Y50.884
X61.014Y50.748
X60.832Y50.622
X60.639Y50.491
X60.455Y50.369
X60.259Y50.243
X60.072Y50.126
X59.872Y50.005
X59.682Y49.892
X59.48Y49.776
X59.288Y49.668
X59.072Y49.551
X58.023Y48.992
X57.815Y48.885
X57.618Y48.787
X57.408Y48.686
X57.208Y48.593
X56.995Y48.497
X56.793Y48.408
X56.578Y48.318
X56.373Y48.234
X56.156Y48.149
X55.95Y48.07
X55.731Y47.99
X55.523Y47.917
X55.302Y47.842
X55.092Y47.774
X54.858Y47.701
X53.719Y47.357
X53.495Y47.294
X53.282Y47.236
X53.056Y47.178
X52.842Y47.125
X52.614Y47.072
X52.415Y47.029
X52.719Y46.935
X52.941Y46.863
X53.15Y46.793
X53.371Y46.716
X53.578Y46.641
X53.796Y46.558
X54.002Y46.478
X54.218Y46.39
X54.422Y46.304
X54.635Y46.211
X54.837Y46.121
X55.048Y46.022
X55.247Y45.927
X55.457Y45.823
X55.653Y45.723
X55.87Y45.609
X56.572Y45.232
X56.776Y45.119
X56.968Y45.009
X57.169Y44.89
X57.357Y44.776
X57.555Y44.652
X57.741Y44.533
X57.936Y44.405
X58.119Y44.281
X58.311Y44.148
X58.49Y44.02
X58.679Y43.883
X58.855Y43.75
X59.04Y43.608
X59.214Y43.471
X59.404Y43.317
X60.019Y42.81
X60.197Y42.659
X60.363Y42.514
X60.537Y42.359
X60.7Y42.21
X60.87Y42.05
X61.029Y41.897
X61.195Y41.733
X61.351Y41.576
X61.513Y41.408
X61.664Y41.248
X61.822Y41.076
X61.969Y40.912
X62.123Y40.736
X62.266Y40.568
X62.423Y40.38
X62.927Y39.763
X63.072Y39.58
X63.207Y39.405
X63.347Y39.219
X63.478Y39.041
X63.614Y38.851
X63.74Y38.67
X63.871Y38.477
X63.992Y38.293
X64.119Y38.096
X64.236Y37.909
X64.357Y37.71
X64.469Y37.52
X64.586Y37.318
X64.694Y37.125
X64.811Y36.91
X65.185Y36.206
X65.292Y35.999
X65.39Y35.801
X65.491Y35.591
X65.584Y35.391
X65.68Y35.178
X65.769Y34.976
X65.86Y34.761
X65.896Y34.672
X64.97Y34.294
X65.095Y33.98
X65.169Y33.785
X65.245Y33.577
X65.314Y33.381
X65.45Y32.973
X65.519Y32.751
X65.745Y31.999
X65.806Y31.787
X65.86Y31.586
X65.916Y31.372
X65.965Y31.169
X66.06Y30.75
X66.104Y30.534
X66.144Y30.329
X66.183Y30.111
X66.218Y29.906
X66.252Y29.687
X66.281Y29.481
X66.334Y29.055
X66.359Y28.823
X66.434Y28.042
X66.466Y27.614
X66.472Y27.521
X66.681Y27.326
X66.831Y27.181
X67.135Y26.878
X67.431Y26.567
X67.581Y26.404
X67.72Y26.249
X68.001Y25.924
X68.15Y25.745
X68.647Y25.138
X68.784Y24.965
X68.911Y24.8
X69.044Y24.623
X69.167Y24.455
X69.296Y24.275
X69.415Y24.104
X69.539Y23.921
X69.654Y23.747
X69.774Y23.561
X69.884Y23.385
X70.106Y23.016
X70.216Y22.825
X70.318Y22.643
X70.429Y22.438
X70.798Y21.746
X70.898Y21.549
X70.991Y21.362
X71.087Y21.163
X71.175Y20.974
X71.35Y20.582
X71.514Y20.185
X71.595Y19.98
X71.669Y19.785
X71.745Y19.577
X71.814Y19.38
X71.885Y19.171
X71.95Y18.973
X72.019Y18.75
X72.245Y17.999
X72.36Y17.585
X72.409Y17.399
X131.5Y17.399
X131.5Y72.395
X69.929Y72.346
X70.007Y71.543
X70.039Y71.114
X70.052Y70.894
X70.061Y70.685
X70.072Y70.256
X70.072Y69.827
X70.068Y69.606
X70.062Y69.397
X70.053Y69.176
X70.041Y68.968
X70.01Y68.54
X69.989Y68.308
X69.873Y67.137
X69.82Y66.711
X69.758Y66.286
X69.685Y65.863
X69.643Y65.645
X69.601Y65.441
X69.555Y65.225
X69.508Y65.022
X69.456Y64.807
X69.404Y64.605
X69.29Y64.191
X69.224Y63.968
X68.881Y62.842
X68.813Y62.632
X68.747Y62.434
X68.674Y62.226
X68.602Y62.03
X68.524Y61.823
X68.448Y61.629
X68.284Y61.232
X68.196Y61.029
X68.111Y60.839
X68.018Y60.639
X67.927Y60.451
X67.829Y60.252
X67.735Y60.067
X67.626Y59.861
X67.071Y58.824
X66.859Y58.45
X66.639Y58.081
X66.41Y57.718
X66.288Y57.533
X66.171Y57.361
X65.924Y57.009
X65.669Y56.664
X65.405Y56.325
X65.259Y56.144
X64.511Y55.235
X64.368Y55.067
X64.231Y54.91
X64.084Y54.745
X63.943Y54.591
X63.792Y54.43
X63.647Y54.28
X63.492Y54.122
X63.344Y53.976
X63.185Y53.822
X63.033Y53.679
X62.87Y53.53
X62.715Y53.391
X62.549Y53.245
X62.39Y53.11
X62.211Y52.961
X61.301Y52.215
X61.127Y52.078
X60.962Y51.951
X60.786Y51.818
X60.618Y51.694
X60.438Y51.566
X60.267Y51.447
X60.084Y51.323
X59.91Y51.208
X59.724Y51.088
X59.547Y50.978
X59.179Y50.756
X58.987Y50.646
X58.805Y50.544
X58.601Y50.433
X57.563Y49.879
X57.179Y49.686
X56.791Y49.502
X56.59Y49.411
X56.399Y49.327
X56.195Y49.241
X56.002Y49.163
X55.796Y49.082
X55.602Y49.008
X55.394Y48.932
X55.197Y48.863
X54.988Y48.792
X54.79Y48.727
X54.567Y48.658
X53.441Y48.318
X53.228Y48.257
X53.027Y48.203
X52.813Y48.148
X52.611Y48.098
X52.395Y48.048
X52.192Y48.004
X51.975Y47.959
X51.771Y47.919
X51.553Y47.88
X51.347Y47.845
X50.923Y47.782
X50.703Y47.753
X50.496Y47.729
X50.265Y47.705
X49.094Y47.59
X48.873Y47.573
X48.665Y47.558
X48.236Y47.537
X48.016Y47.53
X47.807Y47.526
X47.586Y47.524
X47.378Y47.525
X46.948Y47.536
X46.727Y47.545
X46.519Y47.556
X46.299Y47.571
X46.091Y47.587
X45.859Y47.608
X44.688Y47.725
X44.469Y47.751
X44.262Y47.777
X43.837Y47.84
X43.414Y47.913
X43.197Y47.954
X42.992Y47.996
X42.573Y48.09
X42.358Y48.142
X42.156Y48.194
X41.943Y48.251
X41.742Y48.308
X41.519Y48.374
X40.393Y48.717
X39.985Y48.851
X39.777Y48.924
X39.581Y48.995
X39.374Y49.073
X39.18Y49.149
X38.783Y49.313
X38.39Y49.487
X38.19Y49.58
X38.002Y49.67
X37.804Y49.768
X37.618Y49.863
X37.412Y49.971
X36.375Y50.527
X36.001Y50.738
X35.632Y50.959
X35.487Y51.049
X35.495Y44.119
X35.7Y44.237
X35.882Y44.339
X36.086Y44.45
X36.779Y44.819
X36.975Y44.92
X37.162Y45.012
X37.361Y45.108
X37.55Y45.196
X37.752Y45.287
X37.943Y45.371
X38.146Y45.457
X38.339Y45.536
X38.74Y45.691
X38.947Y45.767
X39.144Y45.836
X39.353Y45.907
X39.552Y45.971
X39.774Y46.04
X40.525Y46.267
X40.939Y46.382
X41.153Y46.437
X41.355Y46.486
X41.571Y46.536
X41.774Y46.581
X41.991Y46.626
X42.196Y46.665
X42.619Y46.739
X42.837Y46.773
X43.043Y46.802
X43.47Y46.855
X43.701Y46.88
X44.482Y46.956
X44.702Y46.973
X44.91Y46.988
X45.339Y47.009
X45.56Y47.016
X45.769Y47.02
X45.99Y47.022
X46.198Y47.021
X46.419Y47.017
X46.628Y47.011
X46.849Y47.001
X47.057Y46.99
X47.277Y46.975
X47.485Y46.959
X47.717Y46.938
X48.498Y46.859
X48.717Y46.834
X48.924Y46.807
X49.143Y46.776
X49.349Y46.745
X49.567Y46.709
X49.772Y46.672
X50.193Y46.588
X50.409Y46.542
X50.613Y46.495
X50.827Y46.443
X51.029Y46.391
X51.243Y46.333
X51.443Y46.277
X51.667Y46.211
X52.417Y45.982
X52.825Y45.847
X53.23Y45.703
X53.436Y45.625
X53.63Y45.549
X53.835Y45.466
X54.027Y45.385
X54.42Y45.211
X54.621Y45.118
X54.809Y45.028
X55.007Y44.93
X55.193Y44.835
X55.399Y44.727
X56.09Y44.356
X56.283Y44.249
X56.464Y44.145
X56.833Y43.925
X57.02Y43.808
X57.196Y43.695
X57.38Y43.574
X57.553Y43.457
X57.735Y43.331
X57.905Y43.21
X58.083Y43.079
X58.25Y42.954
X58.425Y42.82
X58.589Y42.69
X58.77Y42.544
X59.375Y42.045
X59.544Y41.902
X59.701Y41.765
X59.866Y41.618
X60.019Y41.477
X60.331Y41.181
X60.488Y41.026
X60.635Y40.878
X60.788Y40.719
X60.931Y40.567
X61.081Y40.404
X61.22Y40.249
X61.501Y39.924
X61.65Y39.745
X62.147Y39.138
X62.284Y38.965
X62.411Y38.8
X62.544Y38.623
X62.667Y38.455
X62.796Y38.275
X62.915Y38.104
X63.039Y37.921
X63.154Y37.747
X63.274Y37.561
X63.384Y37.385
X63.605Y37.017
X63.716Y36.825
X63.818Y36.643
X63.929Y36.438
X64.298Y35.746
X64.398Y35.549
X64.491Y35.363
X64.587Y35.163
X64.675Y34.974
X64.766Y34.773
X64.85Y34.582
X64.97Y34.294
X64.045Y33.916
X64.162Y33.62
X64.232Y33.436
X64.304Y33.24
X64.369Y33.055
X64.496Y32.671
X64.562Y32.46
X64.785Y31.721
X64.893Y31.331
X64.992Y30.938
X65.081Y30.543
X65.124Y30.339
X65.161Y30.146
X65.23Y29.747
X65.29Y29.346
X65.317Y29.139
X65.34Y28.945
X65.364Y28.725
X65.438Y27.957
X65.468Y27.553
X65.489Y27.148
X65.492Y27.057
X65.694Y26.877
X65.839Y26.744
X66.132Y26.466
X66.419Y26.18
X66.699Y25.887
X66.971Y25.587
X67.236Y25.28
X67.377Y25.111
X67.866Y24.513
X67.996Y24.35
X68.115Y24.194
X68.357Y23.869
X68.591Y23.538
X68.816Y23.202
X69.033Y22.86
X69.242Y22.513
X69.442Y22.161
X69.547Y21.967
X69.91Y21.285
X70.092Y20.924
X70.266Y20.558
X70.43Y20.188
X70.512Y19.996
X70.586Y19.814
X70.732Y19.436
X70.869Y19.055
X70.996Y18.671
X71.062Y18.46
X71.285Y17.721
X71.393Y17.331
X71.492Y16.938
X71.581Y16.543
X71.611Y16.399
X132.5Y16.399
X132.5Y73.396
X68.809Y73.348
X68.852Y73.03
X68.875Y72.835
X68.898Y72.616
X69.011Y71.457
X69.041Y71.053
X69.061Y70.649
X69.072Y70.244
X69.073Y70.035
X69.072Y69.839
X69.063Y69.434
X69.043Y69.03
X69.014Y68.626
X68.994Y68.406
X68.879Y67.247
X68.829Y66.845
X68.771Y66.445
X68.702Y66.046
X68.623Y65.648
X68.535Y65.253
X68.437Y64.86
X68.329Y64.47
X68.267Y64.258
X67.928Y63.144
X67.801Y62.76
X67.732Y62.563
X67.665Y62.378
X67.52Y62
X67.365Y61.626
X67.201Y61.256
X67.029Y60.889
X66.847Y60.527
X66.744Y60.332
X66.195Y59.306
X65.995Y58.953
X65.788Y58.606
X65.571Y58.263
X65.457Y58.089
X65.347Y57.926
X65.114Y57.595
X64.873Y57.269
X64.624Y56.95
X64.486Y56.778
X63.746Y55.879
X63.482Y55.572
X63.21Y55.272
X62.931Y54.978
X62.645Y54.692
X62.352Y54.412
X62.052Y54.14
X61.746Y53.875
X61.577Y53.734
X60.676Y52.996
X60.357Y52.746
X60.032Y52.505
X59.701Y52.271
X59.365Y52.046
X59.023Y51.829
X58.676Y51.62
X58.323Y51.42
X58.13Y51.315
X57.102Y50.767
X56.741Y50.585
X56.375Y50.411
X56.005Y50.247
X55.631Y50.091
X55.253Y49.945
X54.872Y49.808
X54.488Y49.681
X54.277Y49.615
X53.163Y49.278
X52.772Y49.17
X52.38Y49.071
X51.985Y48.982
X51.588Y48.902
X51.189Y48.833
X50.788Y48.773
X50.386Y48.723
X50.167Y48.7
X49.008Y48.587
X48.604Y48.556
X48.2Y48.536
X47.795Y48.526
X47.39Y48.525
X46.985Y48.535
X46.581Y48.554
X46.177Y48.584
X45.957Y48.604
X44.798Y48.719
X44.396Y48.768
X43.996Y48.827
X43.597Y48.896
X43.199Y48.974
X42.804Y49.063
X42.411Y49.161
X42.021Y49.268
X41.809Y49.331
X40.695Y49.67
X40.311Y49.796
X39.929Y49.932
X39.551Y50.078
X39.177Y50.232
X38.807Y50.396
X38.44Y50.569
X38.078Y50.75
X37.883Y50.853
X36.857Y51.403
X36.504Y51.602
X36.157Y51.81
X35.814Y52.026
X35.477Y52.251
X35.146Y52.484
X34.821Y52.725
X34.501Y52.973
X34.485Y52.986
X34.492Y42.259
X34.655Y42.378
X34.986Y42.612
X35.322Y42.837
X35.664Y43.054
X36.011Y43.263
X36.364Y43.463
X36.557Y43.568
X37.239Y43.931
X37.601Y44.114
X37.966Y44.287
X38.337Y44.452
X38.71Y44.607
X39.088Y44.753
X39.469Y44.89
X39.854Y45.018
X40.064Y45.083
X40.804Y45.306
X41.194Y45.415
X41.586Y45.513
X41.981Y45.603
X42.379Y45.682
X42.777Y45.752
X43.178Y45.812
X43.58Y45.862
X43.799Y45.885
X44.568Y45.959
X44.972Y45.99
X45.376Y46.01
X45.781Y46.02
X46.186Y46.021
X46.591Y46.011
X46.995Y45.992
X47.399Y45.962
X47.619Y45.942
X48.387Y45.866
X48.789Y45.816
X49.19Y45.757
X49.589Y45.689
X49.986Y45.61
X50.381Y45.522
X50.774Y45.424
X51.165Y45.316
X51.376Y45.254
X52.115Y45.028
X52.5Y44.902
X52.881Y44.766
X53.259Y44.621
X53.633Y44.466
X54.004Y44.302
X54.37Y44.13
X54.732Y43.948
X54.927Y43.845
X55.608Y43.48
X55.96Y43.281
X56.308Y43.073
X56.65Y42.857
X56.987Y42.632
X57.319Y42.399
X57.644Y42.159
X57.964Y41.91
X58.135Y41.771
X58.732Y41.28
X59.038Y41.016
X59.339Y40.744
X59.632Y40.466
X59.919Y40.18
X60.199Y39.887
X60.471Y39.587
X60.736Y39.28
X60.877Y39.111
X61.366Y38.513
X61.615Y38.194
X61.857Y37.869
X62.091Y37.538
X62.316Y37.202
X62.533Y36.86
X62.741Y36.513
X62.942Y36.161
X63.047Y35.967
X63.41Y35.285
X63.592Y34.924
X63.766Y34.558
X63.93Y34.188
X64.012Y33.996
X64.045Y33.916
X63.119Y33.538
X63.229Y33.26
X63.295Y33.088
X63.423Y32.73
X63.543Y32.369
X63.605Y32.17
X63.824Y31.442
X63.926Y31.076
X64.019Y30.707
X64.103Y30.336
X64.178Y29.963
X64.243Y29.588
X64.299Y29.212
X64.346Y28.834
X64.368Y28.627
X64.442Y27.871
X64.47Y27.491
X64.489Y27.112
X64.499Y26.731
X64.5Y26.588
X64.737Y26.388
X64.876Y26.267
X65.158Y26.012
X65.434Y25.75
X65.703Y25.481
X65.966Y25.206
X66.222Y24.924
X66.471Y24.637
X66.604Y24.477
X67.085Y23.888
X67.32Y23.589
X67.547Y23.284
X67.766Y22.973
X67.978Y22.657
X68.182Y22.336
X68.378Y22.009
X68.565Y21.679
X68.665Y21.496
X69.022Y20.825
X69.194Y20.485
X69.357Y20.142
X69.511Y19.794
X69.657Y19.443
X69.795Y19.088
X69.923Y18.73
X70.043Y18.369
X70.105Y18.17
X70.324Y17.442
X70.426Y17.076
X70.519Y16.707
X70.603Y16.336
X70.678Y15.963
X70.743Y15.588
X70.773Y15.399
X133.5Y15.399
X133.5Y74.397
X67.611Y74.347
X67.677Y74.034
X67.712Y73.853
X67.777Y73.479
X67.834Y73.102
X67.881Y72.725
X67.903Y72.518
X68.014Y71.371
X68.043Y70.992
X68.062Y70.612
X68.072Y70.232
X68.072Y69.851
X68.063Y69.471
X68.045Y69.091
X68.018Y68.711
X67.999Y68.504
X67.885Y67.358
X67.839Y66.98
X67.783Y66.604
X67.719Y66.229
X67.645Y65.856
X67.562Y65.484
X67.47Y65.115
X67.369Y64.748
X67.31Y64.549
X66.974Y63.446
X66.856Y63.085
X66.728Y62.727
X66.591Y62.372
X66.446Y62.02
X66.292Y61.672
X66.13Y61.328
X65.959Y60.988
X65.863Y60.803
X65.319Y59.788
X65.131Y59.457
X64.936Y59.13
X64.733Y58.809
X64.522Y58.492
X64.303Y58.181
X64.077Y57.875
X63.844Y57.575
X63.713Y57.413
X62.981Y56.523
X62.733Y56.235
X62.478Y55.952
X62.216Y55.677
X61.947Y55.407
X61.672Y55.145
X61.39Y54.889
X61.102Y54.64
X60.942Y54.507
X60.051Y53.777
X59.751Y53.542
X59.446Y53.315
X59.135Y53.096
X58.819Y52.884
X58.498Y52.68
X58.172Y52.484
X57.841Y52.296
X57.658Y52.197
X56.642Y51.655
X56.302Y51.483
X55.958Y51.32
X55.611Y51.166
X55.26Y51.02
X54.905Y50.882
X54.547Y50.754
X54.186Y50.634
X53.987Y50.572
X52.884Y50.239
X52.518Y50.137
X52.149Y50.044
X51.778Y49.96
X51.405Y49.886
X51.03Y49.82
X50.654Y49.764
X50.276Y49.717
X50.069Y49.695
X48.922Y49.583
X48.543Y49.555
X48.163Y49.536
X47.783Y49.526
X47.402Y49.525
X47.022Y49.534
X46.642Y49.552
X46.262Y49.58
X46.055Y49.599
X44.909Y49.713
X44.531Y49.759
X44.155Y49.814
X43.78Y49.879
X43.407Y49.953
X43.035Y50.036
X42.666Y50.128
X42.299Y50.229
X42.1Y50.288
X40.998Y50.623
X40.636Y50.742
X40.278Y50.87
X39.923Y51.006
X39.571Y51.151
X39.223Y51.305
X38.879Y51.467
X38.539Y51.638
X38.355Y51.735
X37.339Y52.279
X37.008Y52.466
X36.681Y52.661
X36.36Y52.864
X36.043Y53.075
X35.732Y53.294
X35.426Y53.52
X35.126Y53.754
X34.964Y53.885
X34.074Y54.617
X33.786Y54.865
X33.504Y55.12
X33.466Y55.155
X33.473Y54.989
X33.483Y54.609
X33.484Y54.401
Y40.139
X33.748Y40.372
X33.888Y40.492
X34.048Y40.625
X34.636Y41.106
X34.936Y41.341
X35.241Y41.568
X35.552Y41.787
X35.868Y41.999
X36.189Y42.203
X36.515Y42.399
X36.846Y42.587
X37.029Y42.686
X37.7Y43.044
X38.039Y43.215
X38.383Y43.378
X38.73Y43.533
X39.082Y43.679
X39.437Y43.816
X39.795Y43.944
X40.156Y44.064
X40.355Y44.126
X41.082Y44.346
X41.449Y44.448
X41.817Y44.54
X42.189Y44.624
X42.562Y44.699
X42.936Y44.764
X43.312Y44.821
X43.69Y44.868
X43.897Y44.89
X44.654Y44.963
X45.033Y44.991
X45.413Y45.011
X45.793Y45.02
X46.174Y45.021
X46.554Y45.012
X46.934Y44.994
X47.313Y44.966
X47.521Y44.947
X48.277Y44.872
X48.655Y44.826
X49.031Y44.77
X49.406Y44.706
X49.779Y44.632
X50.15Y44.549
X50.519Y44.457
X50.886Y44.356
X51.086Y44.297
X51.813Y44.075
X52.174Y43.956
X52.533Y43.829
X52.888Y43.692
X53.239Y43.547
X53.587Y43.393
X53.931Y43.231
X54.271Y43.06
X54.456Y42.963
X55.126Y42.604
X55.457Y42.417
X55.783Y42.222
X56.105Y42.019
X56.422Y41.808
X56.733Y41.589
X57.039Y41.363
X57.339Y41.129
X57.501Y40.998
X58.088Y40.515
X58.376Y40.267
X58.658Y40.012
X58.934Y39.75
X59.203Y39.481
X59.466Y39.206
X59.722Y38.924
X59.971Y38.637
X60.104Y38.477
X60.585Y37.888
X60.82Y37.589
X61.047Y37.284
X61.266Y36.973
X61.478Y36.657
X61.682Y36.336
X61.877Y36.01
X62.065Y35.679
X62.165Y35.496
X62.522Y34.825
X62.694Y34.485
X62.857Y34.142
X63.011Y33.794
X63.119Y33.538
X62.193Y33.16
X62.296Y32.9
X62.357Y32.74
X62.478Y32.405
X62.59Y32.067
X62.648Y31.88
X62.864Y31.164
X62.959Y30.821
X63.046Y30.476
X63.125Y30.129
X63.195Y29.78
X63.256Y29.429
X63.308Y29.077
X63.353Y28.724
X63.373Y28.529
X63.445Y27.785
X63.472Y27.43
X63.49Y27.075
X63.499Y26.719
X63.5Y26.363
X63.495Y26.12
X63.944Y25.75
X64.214Y25.518
X64.478Y25.279
X64.736Y25.034
X64.988Y24.783
X65.233Y24.525
X65.473Y24.262
X65.705Y23.993
X65.831Y23.842
X66.304Y23.264
X66.524Y22.983
X66.736Y22.698
X66.941Y22.407
X67.139Y22.111
X67.33Y21.811
X67.514Y21.506
X67.689Y21.197
X67.783Y21.024
X68.135Y20.364
X68.295Y20.047
X68.448Y19.725
X68.592Y19.4
X68.729Y19.071
X68.857Y18.74
X68.978Y18.405
X69.09Y18.067
X69.148Y17.88
X69.364Y17.164
X69.459Y16.821
X69.546Y16.476
X69.625Y16.129
X69.695Y15.78
X69.756Y15.429
X69.808Y15.077
X69.853Y14.724
X69.873Y14.529
X69.886Y14.399
X134.5Y14.399
X134.5Y75.398
X66.311Y75.346
X66.398Y75.054
X66.494Y74.712
X66.581Y74.366
X66.659Y74.019
X66.729Y73.67
X66.79Y73.32
X66.843Y72.968
X66.887Y72.615
X66.907Y72.42
X67.018Y71.285
X67.045Y70.931
X67.063Y70.575
X67.072Y70.219
X67.072Y69.863
X67.064Y69.508
X67.047Y69.152
X67.021Y68.797
X67.003Y68.602
X66.891Y67.468
X66.848Y67.115
X66.796Y66.763
X66.736Y66.412
X66.667Y66.063
X66.589Y65.715
X66.503Y65.37
X66.408Y65.027
X66.353Y64.839
X66.021Y63.749
X65.91Y63.41
X65.79Y63.075
X65.663Y62.743
X65.527Y62.414
X65.383Y62.089
X65.231Y61.767
X65.072Y61.449
X64.981Y61.275
X64.443Y60.27
X64.268Y59.96
X64.085Y59.655
X63.895Y59.354
X63.698Y59.058
X63.493Y58.767
X63.281Y58.481
X63.063Y58.2
X62.94Y58.047
X62.216Y57.167
X61.984Y56.897
X61.745Y56.633
X61.5Y56.375
X61.249Y56.123
X60.991Y55.877
X60.728Y55.638
X60.459Y55.405
X60.308Y55.28
X59.426Y54.557
X59.146Y54.338
X58.86Y54.126
X58.57Y53.921
X58.274Y53.722
X57.974Y53.532
X57.669Y53.348
X57.359Y53.173
X57.187Y53.079
X56.181Y52.542
X55.864Y52.382
X55.542Y52.229
X55.217Y52.085
X54.888Y51.948
X54.556Y51.82
X54.222Y51.699
X53.884Y51.587
X53.697Y51.529
X52.606Y51.199
X52.263Y51.104
X51.918Y51.017
X51.571Y50.939
X51.222Y50.869
X50.871Y50.807
X50.519Y50.755
X50.166Y50.711
X49.971Y50.69
X48.837Y50.579
X48.482Y50.553
X48.126Y50.535
X47.77Y50.526
X47.415Y50.525
X47.059Y50.533
X46.703Y50.551
X46.348Y50.576
X46.153Y50.594
X45.019Y50.707
X44.666Y50.75
X44.314Y50.802
X43.963Y50.862
X43.614Y50.931
X43.266Y51.009
X42.921Y51.095
X42.578Y51.189
X42.39Y51.245
X41.3Y51.576
X40.962Y51.688
X40.626Y51.807
X40.294Y51.935
X39.965Y52.071
X39.64Y52.214
X39.318Y52.366
X39Y52.526
X38.826Y52.617
X37.821Y53.155
X37.512Y53.33
X37.206Y53.513
X36.905Y53.703
X36.609Y53.9
X36.318Y54.104
X36.032Y54.316
X35.751Y54.535
X35.598Y54.658
X34.718Y55.382
X34.448Y55.614
X34.184Y55.853
X33.926Y56.098
X33.674Y56.349
X33.428Y56.606
X33.189Y56.87
X32.956Y57.139
X32.831Y57.29
X32.109Y58.171
X31.918Y58.415
X32.001Y58.114
X32.088Y57.769
X32.166Y57.422
X32.236Y57.073
X32.297Y56.722
X32.35Y56.37
X32.394Y56.017
X32.429Y55.663
X32.456Y55.308
X32.474Y54.953
X32.483Y54.597
X32.484Y54.401
X32.483Y39.843
X32.475Y39.487
X32.458Y39.132
X32.432Y38.777
X32.398Y38.423
X32.355Y38.07
X32.303Y37.718
X32.243Y37.367
X32.231Y37.303
X32.299Y37.388
X32.774Y37.965
X33.007Y38.235
X33.245Y38.499
X33.49Y38.757
X33.742Y39.009
X33.999Y39.254
X34.262Y39.494
X34.532Y39.727
X34.682Y39.852
X35.261Y40.326
X35.541Y40.545
X35.827Y40.757
X36.117Y40.963
X36.413Y41.161
X36.713Y41.351
X37.018Y41.535
X37.328Y41.711
X37.5Y41.804
X38.16Y42.156
X38.478Y42.316
X38.799Y42.469
X39.124Y42.613
X39.453Y42.75
X39.785Y42.879
X40.12Y42.999
X40.458Y43.111
X40.645Y43.169
X41.361Y43.385
X41.703Y43.481
X42.049Y43.568
X42.396Y43.646
X42.745Y43.716
X43.095Y43.777
X43.447Y43.83
X43.8Y43.874
X43.995Y43.894
X44.739Y43.967
X45.094Y43.993
X45.45Y44.011
X45.805Y44.02
X46.161Y44.021
X46.517Y44.013
X46.873Y43.996
X47.228Y43.97
X47.423Y43.952
X48.167Y43.878
X48.52Y43.835
X48.872Y43.783
X49.223Y43.722
X49.572Y43.653
X49.919Y43.576
X50.265Y43.49
X50.608Y43.395
X50.796Y43.34
X51.511Y43.122
X51.849Y43.011
X52.184Y42.891
X52.516Y42.764
X52.845Y42.628
X53.171Y42.484
X53.493Y42.332
X53.811Y42.173
X53.985Y42.081
X54.643Y41.728
X54.953Y41.553
X55.259Y41.371
X55.56Y41.181
X55.856Y40.983
X56.147Y40.779
X56.433Y40.567
X56.714Y40.348
X56.867Y40.225
X57.444Y39.75
X57.714Y39.518
X57.978Y39.279
X58.236Y39.034
X58.488Y38.783
X58.733Y38.525
X58.973Y38.262
X59.205Y37.993
X59.331Y37.842
X59.804Y37.264
X60.024Y36.983
X60.236Y36.698
X60.441Y36.407
X60.639Y36.111
X60.83Y35.811
X61.013Y35.506
X61.189Y35.197
X61.283Y35.024
X61.635Y34.364
X61.795Y34.047
X61.948Y33.725
X62.092Y33.4
X62.193Y33.16
G0Z2
X25.079Y70.398
G1Z-1F300
X25.087Y70.649F600
X25.096Y70.87
X25.107Y71.078
X25.122Y71.299
X25.138Y71.507
X25.16Y71.739
X25.225Y72.4
X17.155Y72.4
X17.511Y72.208
X17.704Y72.1
X17.885Y71.997
X18.048Y71.901
X18.402Y71.896
X18.61Y71.889
X18.831Y71.88
X19.039Y71.869
X19.468Y71.838
X19.688Y71.818
X19.895Y71.796
X20.115Y71.771
X20.322Y71.744
X20.54Y71.713
X20.746Y71.681
X21.17Y71.608
X21.387Y71.567
X21.591Y71.525
X21.807Y71.478
X22.01Y71.431
X22.225Y71.379
X22.427Y71.327
X22.64Y71.27
X22.841Y71.213
X23.053Y71.151
X23.252Y71.089
X23.463Y71.021
X23.66Y70.955
X24.065Y70.81
X24.271Y70.732
X24.466Y70.656
X24.863Y70.492
X25.079Y70.398
X26.079Y70.375
X26.086Y70.612
X26.105Y71.017
X26.135Y71.421
X26.155Y71.64
X26.27Y72.799
X26.319Y73.201
X26.347Y73.4
X15.499Y73.4
X15.499Y72.107
X15.787Y71.974
X15.964Y71.889
X16.326Y71.707
X16.521Y71.605
X17.029Y71.332
X17.382Y71.133
X17.729Y70.925
X17.768Y70.901
X18.169Y70.9
X18.573Y70.89
X18.978Y70.871
X19.382Y70.841
X19.785Y70.802
X19.992Y70.778
X20.187Y70.753
X20.588Y70.694
X20.987Y70.625
X21.384Y70.547
X21.779Y70.458
X22.172Y70.36
X22.562Y70.253
X22.95Y70.136
X23.335Y70.009
X23.716Y69.873
X23.911Y69.799
X24.094Y69.728
X24.468Y69.573
X24.839Y69.409
X25.205Y69.237
X25.567Y69.055
X25.924Y68.865
X26.124Y68.753
X26.108Y68.993
X26.087Y69.398
X26.077Y69.803
X26.076Y70.208
X26.079Y70.375
X27.079Y70.353
X27.085Y70.576
X27.103Y70.956
X27.131Y71.335
X27.15Y71.542
X27.264Y72.689
X27.31Y73.066
X27.365Y73.443
X27.43Y73.818
X27.504Y74.191
X27.549Y74.4
X14.499Y74.4
X14.499Y71.445
X14.833Y71.306
X15.181Y71.152
X15.526Y70.99
X15.866Y70.82
X16.05Y70.723
X16.547Y70.456
X16.878Y70.269
X17.205Y70.074
X17.479Y69.901
X18.156Y69.9
X18.537Y69.891
X18.917Y69.873
X19.296Y69.845
X19.675Y69.808
X20.052Y69.762
X20.429Y69.707
X20.804Y69.642
X21.177Y69.568
X21.548Y69.485
X21.917Y69.393
X22.284Y69.292
X22.648Y69.182
X23.009Y69.063
X23.368Y68.936
X23.723Y68.799
X24.074Y68.654
X24.422Y68.5
X24.766Y68.338
X25.106Y68.167
X25.442Y67.988
X25.773Y67.801
X26.1Y67.606
X26.422Y67.403
X26.738Y67.192
X27.049Y66.973
X27.342Y66.757
X27.315Y66.944
X27.268Y67.322
X27.246Y67.529
X27.134Y68.675
X27.106Y69.055
X27.087Y69.435
X27.077Y69.815
X27.076Y70.195
X27.079Y70.353
X28.079Y70.331
X28.085Y70.539
X28.102Y70.894
X28.127Y71.249
X28.145Y71.444
X28.258Y72.579
X28.301Y72.932
X28.353Y73.284
X28.413Y73.635
X28.482Y73.984
X28.56Y74.331
X28.646Y74.676
X28.74Y75.02
X28.796Y75.208
X28.854Y75.4
X13.499Y75.4
X13.499Y70.751
X13.778Y70.651
X14.111Y70.523
X14.439Y70.387
X14.765Y70.243
X15.087Y70.092
X15.405Y69.932
X15.579Y69.841
X16.065Y69.58
X16.374Y69.405
X16.68Y69.222
X16.981Y69.032
X17.18Y68.901
X18.144Y68.9
X18.5Y68.891
X18.855Y68.874
X19.21Y68.849
X19.564Y68.814
X19.918Y68.771
X20.27Y68.719
X20.62Y68.659
X20.97Y68.59
X21.317Y68.512
X21.662Y68.426
X22.005Y68.332
X22.346Y68.229
X22.684Y68.118
X23.019Y67.998
X23.351Y67.871
X23.68Y67.735
X24.006Y67.591
X24.328Y67.439
X24.646Y67.28
X24.96Y67.112
X25.27Y66.937
X25.575Y66.755
X25.876Y66.565
X26.172Y66.368
X26.464Y66.163
X26.75Y65.951
X27.03Y65.733
X27.306Y65.507
X27.576Y65.275
X27.84Y65.037
X28.098Y64.791
X28.35Y64.54
X28.595Y64.283
X28.835Y64.019
X29.067Y63.75
X29.164Y63.635
X29.08Y63.901
X28.75Y64.992
X28.655Y65.335
X28.568Y65.68
X28.49Y66.027
X28.42Y66.376
X28.359Y66.727
X28.306Y67.079
X28.262Y67.432
X28.241Y67.627
X28.13Y68.761
X28.104Y69.116
X28.086Y69.471
X28.077Y69.827
X28.076Y70.183
X28.079Y70.331
X29.078Y70.309
X29.084Y70.502
X29.1Y70.833
X29.124Y71.163
X29.14Y71.346
X29.252Y72.468
X29.292Y72.797
X29.34Y73.125
X29.396Y73.452
X29.46Y73.777
X29.533Y74.1
X29.613Y74.422
X29.701Y74.741
X29.753Y74.917
X30.081Y75.996
X30.184Y76.311
X30.215Y76.4
X12.499Y76.4
X12.499Y70.021
X12.803Y69.928
X13.118Y69.824
X13.43Y69.713
X13.739Y69.594
X14.045Y69.468
X14.348Y69.334
X14.648Y69.193
X14.944Y69.044
X15.107Y68.959
X15.582Y68.704
X15.871Y68.541
X16.155Y68.371
X16.435Y68.194
X16.711Y68.01
X16.869Y67.901
X18.132Y67.9
X18.463Y67.892
X18.794Y67.876
X19.124Y67.852
X19.454Y67.82
X19.783Y67.78
X20.111Y67.732
X20.437Y67.676
X20.762Y67.612
X21.086Y67.54
X21.407Y67.459
X21.727Y67.372
X22.044Y67.276
X22.359Y67.172
X22.671Y67.061
X22.98Y66.942
X23.286Y66.816
X23.589Y66.682
X23.889Y66.541
X24.185Y66.392
X24.478Y66.236
X24.766Y66.073
X25.051Y65.904
X25.331Y65.727
X25.607Y65.543
X25.878Y65.353
X26.144Y65.156
X26.406Y64.952
X26.662Y64.742
X26.913Y64.526
X27.159Y64.304
X27.399Y64.076
X27.634Y63.842
X27.863Y63.602
X28.085Y63.357
X28.302Y63.106
X28.513Y62.851
X28.717Y62.59
X28.915Y62.324
X29.106Y62.053
X29.29Y61.778
X29.468Y61.498
X29.639Y61.214
X29.802Y60.926
X29.959Y60.634
X30.108Y60.338
X30.25Y60.039
X30.385Y59.736
X30.512Y59.43
X30.632Y59.121
X30.744Y58.81
X30.848Y58.495
X30.945Y58.178
X31.034Y57.859
X31.115Y57.538
X31.188Y57.215
X31.253Y56.89
X31.31Y56.563
X31.359Y56.236
X31.4Y55.907
X31.433Y55.577
X31.458Y55.247
X31.474Y54.916
X31.483Y54.585
X31.484Y54.401
X31.483Y39.855
X31.476Y39.524
X31.46Y39.193
X31.436Y38.863
X31.404Y38.533
X31.364Y38.204
X31.316Y37.876
X31.259Y37.55
X31.195Y37.225
X31.123Y36.902
X31.043Y36.58
X30.955Y36.261
X30.859Y35.944
X30.756Y35.629
X30.645Y35.317
X30.526Y35.008
X30.4Y34.701
X30.266Y34.398
X30.125Y34.099
X29.976Y33.802
X29.82Y33.51
X29.657Y33.222
X29.487Y32.937
X29.311Y32.657
X29.127Y32.381
X28.937Y32.11
X28.74Y31.844
X28.536Y31.582
X28.326Y31.326
X28.11Y31.075
X27.888Y30.829
X27.66Y30.589
X27.426Y30.354
X27.187Y30.125
X26.941Y29.902
X26.691Y29.686
X26.435Y29.475
X26.174Y29.271
X25.908Y29.073
X25.638Y28.882
X25.363Y28.698
X25.083Y28.52
X24.799Y28.349
X24.511Y28.186
X24.219Y28.029
X23.923Y27.88
X23.624Y27.737
X23.322Y27.603
X23.016Y27.475
X22.707Y27.356
X22.395Y27.244
X22.081Y27.139
X21.764Y27.043
X21.445Y26.954
X21.123Y26.873
X20.8Y26.8
X20.475Y26.735
X20.149Y26.678
X19.821Y26.628
X19.493Y26.587
X19.163Y26.554
X18.833Y26.53
X18.502Y26.513
X18.171Y26.504
X18.026Y26.503
X16.833Y26.486
X16.599Y26.326
X16.466Y26.238
X16.186Y26.06
X15.902Y25.89
X15.614Y25.726
X15.453Y25.638
X14.977Y25.385
X14.681Y25.235
X14.382Y25.093
X14.079Y24.958
X13.773Y24.831
X13.464Y24.712
X13.152Y24.6
X12.838Y24.495
X12.662Y24.441
X12.499Y24.391
X12.499Y13.405
X35.953Y13.447
X35.771Y13.594
X35.203Y14.061
X34.952Y14.277
X34.706Y14.499
X34.466Y14.727
X34.231Y14.961
X34.003Y15.201
X33.78Y15.446
X33.563Y15.697
X33.445Y15.838
X32.98Y16.407
X32.775Y16.668
X32.578Y16.934
X32.387Y17.204
X32.202Y17.48
X32.024Y17.759
X31.854Y18.043
X31.69Y18.331
X31.602Y18.493
X31.256Y19.142
X31.107Y19.437
X30.965Y19.737
X30.83Y20.04
X30.703Y20.345
X30.583Y20.654
X30.471Y20.966
X30.367Y21.281
X30.312Y21.456
X30.1Y22.16
X30.011Y22.479
X29.93Y22.801
X29.857Y23.124
X29.792Y23.449
X29.735Y23.775
X29.686Y24.103
X29.645Y24.432
X29.625Y24.615
X29.554Y25.346
X29.529Y25.677
X29.513Y26.008
X29.504Y26.339
X29.504Y26.67
X29.511Y27.002
X29.527Y27.332
X29.551Y27.663
X29.568Y27.846
X29.641Y28.578
X29.681Y28.907
X29.729Y29.235
X29.785Y29.561
X29.849Y29.886
X29.921Y30.209
X30.002Y30.531
X30.089Y30.85
X30.142Y31.027
X30.356Y31.73
X30.459Y32.045
X30.571Y32.357
X30.689Y32.666
X30.816Y32.973
X30.95Y33.276
X31.091Y33.575
X31.239Y33.872
X31.325Y34.034
X31.672Y34.682
X31.835Y34.971
X32.005Y35.255
X32.182Y35.536
X32.366Y35.811
X32.556Y36.082
X32.753Y36.349
X32.957Y36.61
X33.072Y36.753
X33.54Y37.321
X33.756Y37.572
X33.978Y37.818
X34.206Y38.058
X34.44Y38.293
X34.68Y38.522
X34.925Y38.745
X35.175Y38.961
X35.317Y39.079
X35.886Y39.545
X36.147Y39.749
X36.412Y39.947
X36.683Y40.138
X36.958Y40.322
X37.238Y40.5
X37.522Y40.671
X37.81Y40.835
X37.972Y40.922
X38.621Y41.268
X38.916Y41.418
X39.216Y41.56
X39.518Y41.694
X39.824Y41.822
X40.133Y41.941
X40.445Y42.053
X40.76Y42.158
X40.935Y42.212
X41.639Y42.425
X41.958Y42.514
X42.28Y42.595
X42.603Y42.668
X42.928Y42.733
X43.254Y42.79
X43.582Y42.839
X43.91Y42.88
X44.093Y42.899
X44.825Y42.97
X45.156Y42.995
X45.486Y43.012
X45.818Y43.02
X46.149Y43.021
X46.48Y43.013
X46.811Y42.997
X47.142Y42.974
X47.325Y42.957
X48.057Y42.884
X48.385Y42.844
X48.713Y42.796
X49.04Y42.739
X49.365Y42.675
X49.688Y42.603
X50.01Y42.523
X50.329Y42.435
X50.505Y42.383
X51.209Y42.169
X51.524Y42.065
X51.836Y41.954
X52.145Y41.835
X52.451Y41.709
X52.754Y41.575
X53.054Y41.434
X53.35Y41.285
X53.513Y41.2
X54.161Y40.852
X54.45Y40.689
X54.734Y40.519
X55.014Y40.342
X55.29Y40.159
X55.561Y39.968
X55.828Y39.771
X56.089Y39.568
X56.232Y39.452
X56.8Y38.985
X57.051Y38.769
X57.297Y38.547
X57.537Y38.318
X57.772Y38.085
X58.001Y37.845
X58.223Y37.6
X58.44Y37.349
X58.558Y37.208
X59.024Y36.639
X59.228Y36.378
X59.426Y36.112
X59.617Y35.841
X59.801Y35.566
X59.979Y35.286
X60.149Y35.003
X60.313Y34.714
X60.401Y34.553
X60.747Y33.904
X60.896Y33.608
X61.038Y33.309
X61.173Y33.006
X61.3Y32.7
X61.42Y32.391
X61.532Y32.079
X61.636Y31.765
X61.691Y31.589
X61.904Y30.885
X61.992Y30.566
X62.073Y30.245
X62.146Y29.922
X62.211Y29.597
X62.269Y29.271
X62.318Y28.943
X62.359Y28.614
X62.378Y28.431
X62.449Y27.699
X62.474Y27.369
X62.491Y27.038
X62.499Y26.707
X62.5Y26.375
X62.492Y26.044
X62.476Y25.713
X62.473Y25.659
X62.589Y25.568
X62.732Y25.452
X63.3Y24.985
X63.551Y24.769
X63.797Y24.547
X64.037Y24.318
X64.272Y24.085
X64.501Y23.845
X64.723Y23.6
X64.94Y23.349
X65.058Y23.208
X65.524Y22.639
X65.728Y22.378
X65.926Y22.112
X66.117Y21.841
X66.301Y21.566
X66.479Y21.286
X66.65Y21.002
X66.813Y20.714
X66.901Y20.553
X67.247Y19.904
X67.396Y19.608
X67.538Y19.309
X67.673Y19.006
X67.8Y18.7
X67.92Y18.391
X68.032Y18.079
X68.136Y17.765
X68.191Y17.589
X68.404Y16.885
X68.492Y16.566
X68.573Y16.245
X68.646Y15.922
X68.711Y15.597
X68.769Y15.271
X68.818Y14.943
X68.859Y14.614
X68.878Y14.431
X68.949Y13.699
X68.972Y13.399
X135.5Y13.399
X135.5Y76.398
X64.95Y76.353
X65.057Y76.031
X65.111Y75.855
X65.438Y74.776
X65.527Y74.457
X65.608Y74.135
X65.681Y73.812
X65.746Y73.487
X65.803Y73.161
X65.852Y72.833
X65.893Y72.505
X65.912Y72.322
X66.022Y71.2
X66.047Y70.869
X66.063Y70.538
X66.072Y70.207
X66.072Y69.876
X66.065Y69.545
X66.049Y69.214
X66.025Y68.883
X66.008Y68.7
X65.897Y67.578
X65.857Y67.249
X65.809Y66.921
X65.752Y66.595
X65.688Y66.27
X65.616Y65.947
X65.536Y65.625
X65.448Y65.306
X65.396Y65.129
X65.068Y64.051
X64.964Y63.736
X64.853Y63.424
X64.734Y63.114
X64.608Y62.808
X64.474Y62.505
X64.333Y62.205
X64.184Y61.909
X64.099Y61.746
X63.566Y60.752
X63.404Y60.464
X63.234Y60.18
X63.057Y59.899
X62.873Y59.624
X62.683Y59.353
X62.486Y59.086
X62.282Y58.825
X62.166Y58.682
X61.451Y57.811
X61.235Y57.56
X61.012Y57.314
X60.784Y57.073
X60.55Y56.839
X60.311Y56.61
X60.065Y56.387
X59.815Y56.17
X59.673Y56.053
X58.801Y55.338
X58.54Y55.134
X58.275Y54.936
X58.004Y54.745
X57.729Y54.561
X57.449Y54.383
X57.165Y54.212
X56.877Y54.049
X56.715Y53.961
X55.721Y53.43
X55.425Y53.281
X55.126Y53.139
X54.823Y53.004
X54.517Y52.877
X54.208Y52.757
X53.896Y52.645
X53.582Y52.541
X53.406Y52.486
X52.327Y52.16
X52.008Y52.071
X51.687Y51.99
X51.363Y51.917
X51.039Y51.852
X50.712Y51.795
X50.385Y51.746
X50.056Y51.705
X49.873Y51.685
X48.751Y51.576
X48.42Y51.551
X48.089Y51.534
X47.758Y51.526
X47.427Y51.525
X47.096Y51.533
X46.765Y51.549
X46.434Y51.573
X46.251Y51.589
X45.129Y51.701
X44.8Y51.741
X44.473Y51.789
X44.146Y51.845
X43.821Y51.909
X43.498Y51.981
X43.176Y52.062
X42.857Y52.15
X42.68Y52.202
X41.602Y52.53
X41.287Y52.633
X40.975Y52.744
X40.665Y52.863
X40.359Y52.99
X40.056Y53.123
X39.756Y53.265
X39.46Y53.413
X39.297Y53.499
X38.304Y54.031
X38.015Y54.194
X37.731Y54.364
X37.451Y54.541
X37.175Y54.725
X36.904Y54.915
X36.637Y55.112
X36.376Y55.315
X36.233Y55.431
X35.362Y56.147
X35.111Y56.363
X34.865Y56.585
X34.625Y56.813
X34.39Y57.047
X34.161Y57.287
X33.938Y57.532
X33.722Y57.783
X33.604Y57.924
X32.889Y58.796
X32.685Y59.057
X32.487Y59.323
X32.296Y59.594
X32.112Y59.869
X31.934Y60.148
X31.763Y60.432
X31.6Y60.721
X31.512Y60.882
X30.981Y61.877
X30.832Y62.173
X30.69Y62.472
X30.555Y62.775
X30.428Y63.08
X30.308Y63.389
X30.196Y63.701
X30.092Y64.016
X30.037Y64.191
X29.711Y65.27
X29.622Y65.59
X29.541Y65.911
X29.468Y66.234
X29.403Y66.559
X29.346Y66.885
X29.297Y67.213
X29.256Y67.542
X29.236Y67.725
X29.127Y68.847
X29.102Y69.177
X29.085Y69.508
X29.077Y69.839
X29.076Y70.171
X29.078Y70.309
X30.078Y70.288
X30.083Y70.465
X30.098Y70.771
X30.12Y71.077
X30.136Y71.248
X30.246Y72.358
X30.283Y72.663
X30.327Y72.966
X30.379Y73.268
X30.439Y73.569
X30.506Y73.869
X30.58Y74.167
X30.661Y74.462
X30.71Y74.627
X31.034Y75.694
X31.13Y75.985
X31.233Y76.274
X31.343Y76.561
X31.46Y76.844
X31.584Y77.125
X31.713Y77.4
X11.499Y77.4
X11.499Y69.268
X11.691Y69.217
X11.832Y69.177
X11.997Y69.128
X12.501Y68.975
X12.792Y68.879
X13.081Y68.776
X13.368Y68.666
X13.651Y68.549
X13.932Y68.425
X14.21Y68.294
X14.484Y68.157
X14.636Y68.077
X15.1Y67.828
X15.367Y67.677
X15.631Y67.52
X15.89Y67.356
X16.145Y67.186
X16.396Y67.01
X16.545Y66.901
X18.119Y66.9
X18.426Y66.893
X18.733Y66.878
X19.039Y66.856
X19.344Y66.826
X19.648Y66.789
X19.952Y66.745
X20.254Y66.693
X20.555Y66.633
X20.855Y66.567
X21.152Y66.493
X21.448Y66.411
X21.742Y66.322
X22.033Y66.227
X22.322Y66.124
X22.609Y66.014
X22.892Y65.897
X23.173Y65.773
X23.45Y65.642
X23.725Y65.505
X23.995Y65.36
X24.263Y65.21
X24.526Y65.052
X24.785Y64.888
X25.041Y64.718
X25.292Y64.542
X25.539Y64.36
X25.781Y64.171
X26.018Y63.977
X26.251Y63.777
X26.478Y63.571
X26.701Y63.36
X26.918Y63.143
X27.13Y62.922
X27.336Y62.695
X27.537Y62.463
X27.732Y62.226
X27.921Y61.984
X28.104Y61.738
X28.281Y61.487
X28.452Y61.233
X28.617Y60.974
X28.775Y60.711
X28.926Y60.444
X29.071Y60.174
X29.21Y59.9
X29.341Y59.623
X29.466Y59.342
X29.584Y59.059
X29.695Y58.773
X29.798Y58.484
X29.895Y58.193
X29.984Y57.9
X30.067Y57.604
X30.142Y57.307
X30.209Y57.008
X30.27Y56.707
X30.323Y56.405
X30.368Y56.101
X30.406Y55.797
X30.436Y55.491
X30.46Y55.186
X30.475Y54.879
X30.483Y54.572
X30.484Y54.401
X30.483Y39.868
X30.476Y39.561
X30.462Y39.255
X30.44Y38.949
X30.41Y38.643
X30.373Y38.339
X30.328Y38.035
X30.276Y37.733
X30.217Y37.432
X30.15Y37.133
X30.076Y36.835
X29.995Y36.539
X29.906Y36.246
X29.81Y35.954
X29.707Y35.665
X29.597Y35.379
X29.481Y35.095
X29.357Y34.815
X29.226Y34.537
X29.088Y34.263
X28.944Y33.992
X28.793Y33.725
X28.636Y33.462
X28.472Y33.202
X28.302Y32.947
X28.126Y32.696
X27.944Y32.449
X27.755Y32.207
X27.561Y31.97
X27.361Y31.737
X27.156Y31.51
X26.944Y31.287
X26.728Y31.07
X26.506Y30.858
X26.279Y30.652
X26.047Y30.451
X25.81Y30.256
X25.569Y30.067
X25.323Y29.884
X25.072Y29.707
X24.817Y29.536
X24.558Y29.371
X24.296Y29.213
X24.029Y29.062
X23.759Y28.917
X23.485Y28.778
X23.208Y28.647
X22.927Y28.522
X22.644Y28.404
X22.358Y28.293
X22.07Y28.189
X21.778Y28.093
X21.485Y28.003
X21.19Y27.921
X20.892Y27.846
X20.593Y27.778
X20.292Y27.718
X19.99Y27.665
X19.687Y27.619
X19.382Y27.581
X19.077Y27.551
X18.771Y27.528
X18.465Y27.512
X18.158Y27.504
X16.515Y27.489
X16.296Y27.331
X16.176Y27.247
X15.921Y27.076
X15.662Y26.912
X15.399Y26.754
X15.132Y26.602
X14.981Y26.52
X14.516Y26.272
X14.242Y26.134
X13.965Y26.002
X13.685Y25.878
X13.402Y25.76
X13.116Y25.649
X12.827Y25.545
X12.536Y25.449
X12.372Y25.397
X11.867Y25.245
X11.572Y25.163
X11.499Y25.144
X11.499Y12.403
X37.003Y12.449
X37.003Y12.658
X37.011Y12.965
X37.025Y13.271
X37.047Y13.577
X37.063Y13.748
X37.073Y13.855
X36.899Y13.982
X36.781Y14.07
X36.539Y14.259
X36.405Y14.367
X35.847Y14.826
X35.615Y15.026
X35.387Y15.232
X35.164Y15.443
X34.947Y15.66
X34.735Y15.881
X34.529Y16.108
X34.328Y16.34
X34.218Y16.472
X33.76Y17.032
X33.571Y17.273
X33.388Y17.519
X33.211Y17.77
X33.04Y18.025
X32.876Y18.284
X32.718Y18.547
X32.566Y18.813
X32.484Y18.964
X32.144Y19.602
X32.006Y19.876
X31.874Y20.153
X31.749Y20.433
X31.631Y20.717
X31.521Y21.003
X31.417Y21.292
X31.32Y21.583
X31.269Y21.747
X31.06Y22.439
X30.978Y22.734
X30.903Y23.032
X30.835Y23.331
X30.775Y23.632
X30.722Y23.934
X30.677Y24.237
X30.639Y24.542
X30.62Y24.713
X30.55Y25.432
X30.527Y25.738
X30.512Y26.044
X30.504Y26.351
X30.503Y26.658
X30.511Y26.965
X30.525Y27.271
X30.547Y27.577
X30.563Y27.748
X30.634Y28.468
X30.672Y28.772
X30.716Y29.076
X30.768Y29.378
X30.828Y29.679
X30.894Y29.978
X30.968Y30.276
X31.05Y30.572
X31.098Y30.737
X31.309Y31.428
X31.405Y31.72
X31.508Y32.009
X31.618Y32.295
X31.735Y32.579
X31.859Y32.859
X31.99Y33.137
X32.127Y33.411
X32.207Y33.563
X32.548Y34.2
X32.699Y34.467
X32.857Y34.731
X33.02Y34.99
X33.19Y35.246
X33.367Y35.497
X33.549Y35.743
X33.738Y35.985
X33.845Y36.119
X34.305Y36.677
X34.505Y36.91
X34.71Y37.137
X34.922Y37.36
X35.138Y37.577
X35.36Y37.789
X35.587Y37.995
X35.819Y38.196
X35.951Y38.306
X36.51Y38.764
X36.752Y38.953
X36.998Y39.136
X37.249Y39.313
X37.504Y39.484
X37.763Y39.649
X38.025Y39.807
X38.292Y39.958
X38.443Y40.04
X39.081Y40.381
X39.355Y40.519
X39.632Y40.65
X39.912Y40.775
X40.196Y40.893
X40.482Y41.004
X40.77Y41.108
X41.062Y41.204
X41.225Y41.255
X41.918Y41.464
X42.213Y41.547
X42.511Y41.622
X42.81Y41.689
X43.111Y41.75
X43.413Y41.802
X43.716Y41.848
X44.021Y41.886
X44.191Y41.904
X44.911Y41.974
X45.217Y41.997
X45.523Y42.013
X45.83Y42.021
X46.137Y42.021
X46.443Y42.014
X46.75Y41.999
X47.056Y41.977
X47.227Y41.962
X47.946Y41.89
X48.251Y41.853
X48.554Y41.808
X48.857Y41.756
X49.158Y41.697
X49.457Y41.63
X49.755Y41.556
X50.051Y41.475
X50.215Y41.426
X50.907Y41.215
X51.198Y41.12
X51.487Y41.017
X51.774Y40.907
X52.057Y40.79
X52.338Y40.666
X52.615Y40.535
X52.89Y40.397
X53.042Y40.318
X53.679Y39.976
X53.946Y39.825
X54.209Y39.668
X54.469Y39.504
X54.724Y39.334
X54.975Y39.158
X55.222Y38.975
X55.464Y38.787
X55.598Y38.679
X56.156Y38.22
X56.389Y38.02
X56.616Y37.814
X56.839Y37.603
X57.056Y37.386
X57.268Y37.164
X57.474Y36.937
X57.675Y36.705
X57.785Y36.573
X58.243Y36.014
X58.432Y35.772
X58.615Y35.526
X58.792Y35.276
X58.963Y35.021
X59.127Y34.762
X59.286Y34.499
X59.437Y34.232
X59.519Y34.081
X59.859Y33.443
X59.998Y33.17
X60.129Y32.893
X60.254Y32.612
X60.372Y32.329
X60.483Y32.043
X60.586Y31.754
X60.683Y31.463
X60.734Y31.299
X60.943Y30.607
X61.025Y30.311
X61.1Y30.014
X61.168Y29.715
X61.228Y29.414
X61.281Y29.112
X61.327Y28.808
X61.365Y28.504
X61.383Y28.333
X61.453Y27.614
X61.476Y27.308
X61.491Y27.001
X61.499Y26.695
X61.5Y26.388
X61.493Y26.081
X61.478Y25.775
X61.456Y25.469
X61.44Y25.298
X61.43Y25.19
X61.604Y25.064
X61.722Y24.975
X61.964Y24.787
X62.098Y24.679
X62.656Y24.22
X62.889Y24.02
X63.116Y23.814
X63.339Y23.603
X63.556Y23.386
X63.768Y23.164
X63.974Y22.937
X64.175Y22.705
X64.285Y22.573
X64.743Y22.014
X64.932Y21.772
X65.115Y21.526
X65.292Y21.276
X65.463Y21.021
X65.627Y20.762
X65.786Y20.499
X65.937Y20.232
X66.019Y20.081
X66.359Y19.443
X66.498Y19.17
X66.629Y18.892
X66.754Y18.612
X66.872Y18.329
X66.983Y18.043
X67.086Y17.754
X67.183Y17.463
X67.234Y17.299
X67.443Y16.607
X67.525Y16.311
X67.6Y16.014
X67.668Y15.715
X67.728Y15.414
X67.781Y15.112
X67.827Y14.808
X67.865Y14.504
X67.883Y14.333
X67.953Y13.614
X67.976Y13.308
X67.991Y13.001
X67.999Y12.695
X68Y12.399
X136.5Y12.399
X136.5Y77.399
X63.454Y77.362
X63.55Y77.158
X63.674Y76.878
X63.792Y76.595
X63.903Y76.309
X64.007Y76.02
X64.104Y75.729
X64.155Y75.565
X64.477Y74.497
X64.56Y74.202
X64.635Y73.904
X64.702Y73.605
X64.763Y73.304
X64.816Y73.002
X64.861Y72.699
X64.899Y72.394
X64.917Y72.224
X65.026Y71.114
X65.049Y70.808
X65.064Y70.502
X65.072Y70.195
X65.072Y69.888
X65.065Y69.581
X65.051Y69.275
X65.029Y68.969
X65.013Y68.798
X64.903Y67.688
X64.866Y67.384
X64.821Y67.08
X64.769Y66.778
X64.71Y66.477
X64.643Y66.178
X64.569Y65.88
X64.488Y65.584
X64.439Y65.419
X64.115Y64.353
X64.019Y64.061
X63.916Y63.772
X63.806Y63.486
X63.689Y63.202
X63.565Y62.921
X63.434Y62.644
X63.297Y62.37
X63.217Y62.218
X62.69Y61.235
X62.54Y60.968
X62.382Y60.704
X62.219Y60.445
X62.048Y60.189
X61.872Y59.938
X61.69Y59.692
X61.501Y59.45
X61.393Y59.316
X60.685Y58.455
X60.485Y58.222
X60.28Y57.994
X60.068Y57.772
X59.852Y57.555
X59.63Y57.343
X59.403Y57.136
X59.171Y56.936
X59.039Y56.826
X58.177Y56.119
X57.935Y55.93
X57.689Y55.747
X57.438Y55.57
X57.183Y55.399
X56.924Y55.234
X56.662Y55.076
X56.395Y54.925
X56.244Y54.843
X55.26Y54.318
X54.986Y54.179
X54.709Y54.048
X54.429Y53.923
X54.146Y53.805
X53.86Y53.694
X53.571Y53.591
X53.28Y53.494
X53.116Y53.443
X52.049Y53.12
X51.753Y53.038
X51.456Y52.963
X51.156Y52.895
X50.856Y52.835
X50.553Y52.782
X50.25Y52.737
X49.946Y52.699
X49.775Y52.68
X48.665Y52.572
X48.359Y52.549
X48.053Y52.533
X47.746Y52.526
X47.439Y52.525
X47.133Y52.532
X46.826Y52.547
X46.52Y52.569
X46.349Y52.584
X45.239Y52.695
X44.935Y52.732
X44.631Y52.776
X44.329Y52.828
X44.028Y52.888
X43.729Y52.954
X43.431Y53.029
X43.135Y53.11
X42.97Y53.159
X41.904Y53.483
X41.612Y53.579
X41.323Y53.682
X41.037Y53.792
X40.753Y53.909
X40.473Y54.033
X40.195Y54.163
X39.921Y54.301
X39.769Y54.381
X38.786Y54.907
X38.519Y55.058
X38.255Y55.215
X37.996Y55.379
X37.741Y55.549
X37.489Y55.725
X37.243Y55.908
X37.001Y56.096
X36.867Y56.204
X36.006Y56.912
X35.773Y57.112
X35.545Y57.318
X35.323Y57.529
X35.106Y57.746
X34.894Y57.968
X34.688Y58.195
X34.487Y58.427
X34.377Y58.558
X33.67Y59.421
X33.481Y59.663
X33.298Y59.909
X33.121Y60.159
X32.95Y60.414
X32.786Y60.673
X32.627Y60.936
X32.476Y61.203
X32.394Y61.353
X31.869Y62.337
X31.731Y62.611
X31.599Y62.888
X31.474Y63.169
X31.356Y63.452
X31.246Y63.738
X31.142Y64.027
X31.045Y64.318
X30.994Y64.482
X30.671Y65.549
X30.589Y65.844
X30.514Y66.142
X30.446Y66.441
X30.386Y66.742
X30.333Y67.044
X30.288Y67.348
X30.25Y67.652
X30.232Y67.823
X30.123Y68.933
X30.1Y69.238
X30.085Y69.545
X30.077Y69.852
X30.076Y70.158
X30.078Y70.288
X31.078Y70.266
X31.083Y70.428
X31.096Y70.71
X31.116Y70.992
X31.131Y71.15
X31.24Y72.248
X31.274Y72.528
X31.315Y72.807
X31.362Y73.085
X31.417Y73.362
X31.478Y73.638
X31.547Y73.912
X31.621Y74.184
X31.667Y74.337
X31.987Y75.392
X32.076Y75.66
X32.17Y75.926
X32.271Y76.189
X32.379Y76.45
X32.493Y76.708
X32.613Y76.964
X32.74Y77.216
X32.814Y77.357
X33.334Y78.33
X33.373Y78.4
X10.499Y78.4
X10.499Y68.468
X10.732Y68.421
X11.008Y68.36
X11.282Y68.291
X11.554Y68.217
X11.707Y68.171
X12.199Y68.021
X12.467Y67.933
X12.733Y67.839
X12.996Y67.737
X13.257Y67.63
X13.516Y67.516
X13.771Y67.396
X14.023Y67.269
X14.164Y67.195
X14.618Y66.952
X14.864Y66.813
X15.106Y66.668
X15.345Y66.518
X15.58Y66.361
X15.811Y66.199
X16.038Y66.031
X16.207Y65.901
X18.107Y65.9
X18.389Y65.894
X18.671Y65.88
X18.953Y65.86
X19.234Y65.833
X19.514Y65.798
X19.793Y65.758
X20.071Y65.71
X20.348Y65.655
X20.624Y65.594
X20.897Y65.526
X21.17Y65.451
X21.44Y65.369
X21.708Y65.281
X21.974Y65.186
X22.237Y65.085
X22.498Y64.978
X22.757Y64.864
X23.012Y64.743
X23.264Y64.617
X23.513Y64.484
X23.759Y64.346
X24.001Y64.201
X24.24Y64.05
X24.475Y63.894
X24.706Y63.732
X24.933Y63.564
X25.156Y63.391
X25.374Y63.212
X25.588Y63.028
X25.798Y62.839
X26.002Y62.644
X26.202Y62.445
X26.397Y62.241
X26.587Y62.032
X26.772Y61.819
X26.951Y61.601
X27.125Y61.379
X27.294Y61.152
X27.457Y60.922
X27.614Y60.687
X27.765Y60.449
X27.911Y60.207
X28.05Y59.962
X28.184Y59.713
X28.311Y59.461
X28.432Y59.206
X28.547Y58.948
X28.655Y58.688
X28.757Y58.425
X28.853Y58.159
X28.942Y57.891
X29.024Y57.621
X29.1Y57.349
X29.169Y57.076
X29.231Y56.8
X29.287Y56.524
X29.335Y56.246
X29.377Y55.967
X29.412Y55.687
X29.44Y55.406
X29.461Y55.124
X29.476Y54.842
X29.483Y54.56
X29.484Y54.401
X29.484Y39.88
X29.477Y39.598
X29.464Y39.316
X29.443Y39.034
X29.416Y38.754
X29.382Y38.473
X29.341Y38.194
X29.293Y37.916
X29.239Y37.639
X29.177Y37.364
X29.109Y37.09
X29.034Y36.818
X28.953Y36.548
X28.865Y36.279
X28.77Y36.014
X28.669Y35.75
X28.561Y35.489
X28.447Y35.231
X28.327Y34.976
X28.201Y34.723
X28.068Y34.474
X27.929Y34.229
X27.785Y33.986
X27.634Y33.748
X27.478Y33.513
X27.316Y33.282
X27.148Y33.055
X26.975Y32.832
X26.796Y32.613
X26.612Y32.399
X26.423Y32.19
X26.229Y31.985
X26.029Y31.785
X25.825Y31.591
X25.617Y31.401
X25.403Y31.216
X25.185Y31.037
X24.963Y30.863
X24.737Y30.694
X24.506Y30.531
X24.272Y30.374
X24.034Y30.223
X23.792Y30.077
X23.547Y29.938
X23.298Y29.804
X23.046Y29.677
X22.791Y29.556
X22.533Y29.441
X22.273Y29.332
X22.01Y29.23
X21.744Y29.135
X21.476Y29.046
X21.206Y28.963
X20.935Y28.888
X20.661Y28.819
X20.386Y28.756
X20.109Y28.701
X19.831Y28.652
X19.552Y28.61
X19.272Y28.575
X18.991Y28.547
X18.71Y28.526
X18.428Y28.511
X18.146Y28.504
X16.178Y28.489
X16.067Y28.403
X15.84Y28.235
X15.61Y28.072
X15.375Y27.914
X15.137Y27.763
X14.895Y27.618
X14.65Y27.478
X14.51Y27.402
X14.056Y27.16
X13.804Y27.033
X13.549Y26.912
X13.291Y26.797
X13.03Y26.688
X12.767Y26.586
X12.502Y26.491
X12.234Y26.402
X12.082Y26.354
X11.589Y26.206
X11.317Y26.13
X11.043Y26.061
X10.768Y25.999
X10.499Y25.945
X10.499Y11.402
X38.053Y11.45
X38.035Y11.665
X38.025Y11.799
X38.011Y12.081
X38.004Y12.363
X38.003Y12.646
X38.01Y12.928
X38.023Y13.21
X38.044Y13.491
X38.058Y13.65
X38.127Y14.349
X37.957Y14.461
X37.845Y14.536
X37.614Y14.698
X37.387Y14.866
X37.164Y15.039
X37.04Y15.14
X36.491Y15.591
X36.277Y15.775
X36.068Y15.964
X35.863Y16.159
X35.663Y16.358
X35.468Y16.562
X35.278Y16.771
X35.093Y16.984
X34.991Y17.107
X34.541Y17.657
X34.367Y17.879
X34.199Y18.105
X34.036Y18.336
X33.879Y18.57
X33.727Y18.808
X33.582Y19.05
X33.442Y19.296
X33.366Y19.436
X33.032Y20.063
X32.904Y20.315
X32.783Y20.57
X32.668Y20.827
X32.56Y21.088
X32.458Y21.351
X32.362Y21.617
X32.274Y21.885
X32.226Y22.037
X32.02Y22.717
X31.945Y22.989
X31.876Y23.263
X31.813Y23.538
X31.758Y23.815
X31.709Y24.093
X31.667Y24.372
X31.632Y24.652
X31.616Y24.811
X31.547Y25.518
X31.525Y25.799
X31.511Y26.081
X31.504Y26.363
X31.503Y26.646
X31.51Y26.928
X31.523Y27.21
X31.544Y27.491
X31.558Y27.65
X31.628Y28.357
X31.662Y28.637
X31.703Y28.917
X31.751Y29.195
X31.806Y29.472
X31.867Y29.747
X31.935Y30.021
X32.01Y30.293
X32.055Y30.446
X32.262Y31.126
X32.351Y31.394
X32.445Y31.66
X32.546Y31.924
X32.654Y32.185
X32.768Y32.443
X32.888Y32.698
X33.015Y32.95
X33.089Y33.092
X33.425Y33.718
X33.563Y33.964
X33.708Y34.206
X33.859Y34.445
X34.015Y34.68
X34.177Y34.911
X34.345Y35.138
X34.518Y35.361
X34.618Y35.485
X35.07Y36.033
X35.254Y36.247
X35.443Y36.457
X35.637Y36.662
X35.837Y36.861
X36.041Y37.056
X36.25Y37.246
X36.463Y37.431
X36.585Y37.533
X37.135Y37.983
X37.358Y38.157
X37.584Y38.326
X37.814Y38.489
X38.049Y38.646
X38.287Y38.797
X38.529Y38.943
X38.774Y39.082
X38.914Y39.159
X39.542Y39.493
X39.793Y39.62
X40.048Y39.741
X40.306Y39.856
X40.567Y39.964
X40.83Y40.066
X41.096Y40.162
X41.364Y40.251
X41.516Y40.298
X42.196Y40.504
X42.468Y40.58
X42.742Y40.649
X43.017Y40.711
X43.294Y40.766
X43.572Y40.815
X43.851Y40.857
X44.131Y40.892
X44.289Y40.909
X44.997Y40.978
X45.278Y40.999
X45.56Y41.013
X45.842Y41.021
X46.124Y41.021
X46.407Y41.015
X46.689Y41.001
X46.97Y40.981
X47.129Y40.966
X47.836Y40.896
X48.116Y40.862
X48.395Y40.821
X48.674Y40.773
X48.951Y40.719
X49.226Y40.657
X49.5Y40.589
X49.772Y40.514
X49.925Y40.469
X50.605Y40.262
X50.873Y40.174
X51.139Y40.079
X51.402Y39.978
X51.663Y39.871
X51.921Y39.757
X52.177Y39.636
X52.429Y39.51
X52.57Y39.436
X53.197Y39.1
X53.443Y38.961
X53.685Y38.817
X53.924Y38.666
X54.159Y38.509
X54.39Y38.347
X54.617Y38.18
X54.839Y38.006
X54.963Y37.906
X55.512Y37.455
X55.726Y37.271
X55.936Y37.081
X56.14Y36.887
X56.34Y36.688
X56.535Y36.484
X56.725Y36.275
X56.91Y36.061
X57.012Y35.939
X57.462Y35.389
X57.636Y35.167
X57.805Y34.94
X57.967Y34.71
X58.125Y34.476
X58.276Y34.237
X58.422Y33.996
X58.561Y33.75
X58.637Y33.61
X58.972Y32.983
X59.099Y32.731
X59.22Y32.476
X59.335Y32.218
X59.443Y31.958
X59.545Y31.695
X59.641Y31.429
X59.73Y31.161
X59.777Y31.009
X59.983Y30.329
X60.058Y30.057
X60.127Y29.783
X60.19Y29.508
X60.245Y29.231
X60.294Y28.953
X60.336Y28.674
X60.371Y28.394
X60.388Y28.235
X60.457Y27.528
X60.478Y27.246
X60.492Y26.964
X60.499Y26.682
X60.5Y26.4
X60.493Y26.118
X60.48Y25.836
X60.46Y25.554
X60.445Y25.396
X60.376Y24.697
X60.547Y24.585
X60.659Y24.509
X60.89Y24.347
X61.117Y24.18
X61.339Y24.006
X61.463Y23.906
X62.012Y23.455
X62.226Y23.271
X62.436Y23.081
X62.64Y22.887
X62.84Y22.688
X63.035Y22.484
X63.225Y22.275
X63.41Y22.061
X63.512Y21.939
X63.962Y21.389
X64.136Y21.167
X64.305Y20.94
X64.467Y20.71
X64.625Y20.476
X64.776Y20.237
X64.922Y19.995
X65.061Y19.75
X65.137Y19.61
X65.472Y18.983
X65.599Y18.731
X65.72Y18.476
X65.835Y18.218
X65.943Y17.958
X66.045Y17.694
X66.141Y17.429
X66.23Y17.161
X66.277Y17.009
X66.483Y16.328
X66.558Y16.057
X66.627Y15.783
X66.69Y15.508
X66.745Y15.231
X66.794Y14.953
X66.836Y14.674
X66.871Y14.394
X66.888Y14.235
X66.957Y13.528
X66.978Y13.246
X66.992Y12.964
X66.999Y12.682
X67Y12.4
X66.993Y12.118
X66.98Y11.836
X66.96Y11.554
X66.946Y11.399
X137.5Y11.399
X137.5Y78.4
X61.791Y78.372
X61.873Y78.222
X62.392Y77.249
X62.519Y76.997
X62.64Y76.742
X62.755Y76.484
X62.864Y76.223
X62.966Y75.96
X63.061Y75.695
X63.15Y75.427
X63.198Y75.275
X63.517Y74.219
X63.593Y73.947
X63.662Y73.673
X63.724Y73.398
X63.78Y73.121
X63.828Y72.843
X63.87Y72.564
X63.905Y72.284
X63.922Y72.126
X64.029Y71.028
X64.05Y70.747
X64.065Y70.465
X64.072Y70.183
X64.073Y69.9
X64.066Y69.618
X64.053Y69.336
X64.032Y69.055
X64.018Y68.896
X63.909Y67.799
X63.875Y67.518
X63.834Y67.239
X63.786Y66.961
X63.732Y66.684
X63.67Y66.409
X63.602Y66.135
X63.527Y65.863
X63.482Y65.71
X63.161Y64.655
X63.073Y64.387
X62.978Y64.121
X62.877Y63.857
X62.77Y63.596
X62.656Y63.338
X62.535Y63.083
X62.409Y62.83
X62.335Y62.689
X61.814Y61.717
X61.676Y61.471
X61.531Y61.229
X61.38Y60.99
X61.224Y60.755
X61.062Y60.524
X60.894Y60.297
X60.721Y60.074
X60.62Y59.95
X59.92Y59.098
X59.736Y58.884
X59.547Y58.675
X59.353Y58.47
X59.154Y58.27
X58.949Y58.075
X58.741Y57.886
X58.527Y57.701
X58.405Y57.599
X57.552Y56.9
X57.329Y56.726
X57.103Y56.557
X56.873Y56.394
X56.638Y56.237
X56.4Y56.086
X56.158Y55.94
X55.913Y55.801
X55.773Y55.725
X54.8Y55.205
X54.548Y55.078
X54.293Y54.957
X54.035Y54.842
X53.774Y54.734
X53.511Y54.632
X53.246Y54.536
X52.978Y54.447
X52.826Y54.4
X51.77Y54.081
X51.498Y54.005
X51.225Y53.936
X50.949Y53.874
X50.673Y53.818
X50.395Y53.769
X50.115Y53.727
X49.835Y53.692
X49.677Y53.676
X48.579Y53.568
X48.298Y53.547
X48.016Y53.533
X47.734Y53.525
X47.452Y53.525
X47.169Y53.531
X46.887Y53.545
X46.606Y53.565
X46.447Y53.58
X45.35Y53.688
X45.07Y53.723
X44.79Y53.764
X44.512Y53.811
X44.235Y53.866
X43.96Y53.927
X43.686Y53.995
X43.414Y54.07
X43.261Y54.115
X42.206Y54.436
X41.938Y54.524
X41.672Y54.619
X41.408Y54.72
X41.147Y54.828
X40.889Y54.942
X40.634Y55.062
X40.381Y55.189
X40.24Y55.263
X39.268Y55.783
X39.022Y55.922
X38.78Y56.067
X38.541Y56.217
X38.306Y56.374
X38.075Y56.536
X37.848Y56.704
X37.626Y56.877
X37.502Y56.977
X36.65Y57.677
X36.436Y57.861
X36.226Y58.05
X36.021Y58.245
X35.821Y58.444
X35.627Y58.648
X35.437Y58.857
X35.252Y59.07
X35.15Y59.193
X34.451Y60.046
X34.277Y60.268
X34.108Y60.494
X33.945Y60.725
X33.788Y60.959
X33.637Y61.198
X33.491Y61.439
X33.352Y61.685
X33.276Y61.825
X32.757Y62.798
X32.629Y63.05
X32.508Y63.305
X32.393Y63.562
X32.285Y63.823
X32.183Y64.086
X32.087Y64.352
X31.998Y64.62
X31.951Y64.772
X31.632Y65.827
X31.556Y66.099
X31.487Y66.373
X31.425Y66.648
X31.369Y66.925
X31.32Y67.203
X31.279Y67.482
X31.244Y67.762
X31.227Y67.921
X31.119Y69.018
X31.098Y69.3
X31.084Y69.582
X31.077Y69.864
X31.076Y70.146
X31.078Y70.266
X32.078Y70.244
X32.082Y70.391
X32.094Y70.649
X32.113Y70.906
X32.126Y71.052
X32.233Y72.138
X32.265Y72.393
X32.302Y72.648
X32.346Y72.902
X32.395Y73.155
X32.451Y73.407
X32.514Y73.657
X32.582Y73.905
X32.624Y74.046
X32.941Y75.09
X33.021Y75.335
X33.108Y75.577
X33.2Y75.818
X33.298Y76.056
X33.402Y76.292
X33.512Y76.525
X33.627Y76.756
X33.696Y76.886
X34.21Y77.847
X34.337Y78.072
X34.469Y78.293
X34.607Y78.511
X34.749Y78.726
X34.897Y78.936
X35.051Y79.144
X35.209Y79.347
X35.251Y79.4
X9.499Y79.4
X9.499Y67.606
X9.763Y67.574
X10.018Y67.536
X10.272Y67.493
X10.525Y67.443
X10.777Y67.387
X11.027Y67.324
X11.275Y67.256
X11.416Y67.215
X11.897Y67.068
X12.142Y66.988
X12.385Y66.901
X12.625Y66.809
X12.863Y66.711
X13.099Y66.607
X13.332Y66.497
X13.563Y66.381
X13.693Y66.313
X14.136Y66.076
X14.36Y65.949
X14.581Y65.817
X14.799Y65.679
X15.014Y65.537
X15.225Y65.389
X15.432Y65.236
X15.636Y65.077
X15.75Y64.985
X15.852Y64.901
X18.095Y64.9
X18.352Y64.894
X18.61Y64.882
X18.867Y64.864
X19.123Y64.839
X19.379Y64.808
X19.634Y64.77
X19.888Y64.727
X20.141Y64.677
X20.393Y64.621
X20.643Y64.559
X20.891Y64.49
X21.138Y64.416
X21.383Y64.336
X21.625Y64.249
X21.866Y64.157
X22.104Y64.059
X22.34Y63.955
X22.573Y63.845
X22.804Y63.729
X23.031Y63.608
X23.256Y63.482
X23.477Y63.35
X23.695Y63.212
X23.909Y63.069
X24.12Y62.921
X24.327Y62.768
X24.531Y62.61
X24.73Y62.447
X24.926Y62.279
X25.117Y62.106
X25.304Y61.929
X25.487Y61.747
X25.665Y61.56
X25.838Y61.37
X26.007Y61.175
X26.17Y60.976
X26.329Y60.773
X26.483Y60.566
X26.632Y60.356
X26.776Y60.142
X26.914Y59.925
X27.047Y59.704
X27.174Y59.48
X27.296Y59.253
X27.412Y59.023
X27.523Y58.79
X27.628Y58.554
X27.727Y58.317
X27.82Y58.076
X27.907Y57.834
X27.988Y57.589
X28.064Y57.343
X28.133Y57.095
X28.196Y56.845
X28.253Y56.593
X28.303Y56.341
X28.348Y56.087
X28.386Y55.832
X28.418Y55.576
X28.444Y55.32
X28.463Y55.063
X28.476Y54.806
X28.483Y54.548
X28.484Y54.401
X28.484Y39.892
X28.478Y39.635
X28.466Y39.377
X28.447Y39.12
X28.422Y38.864
X28.391Y38.608
X28.354Y38.353
X28.31Y38.099
X28.26Y37.846
X28.204Y37.595
X28.142Y37.345
X28.074Y37.096
X28Y36.85
X27.919Y36.605
X27.833Y36.362
X27.74Y36.121
X27.642Y35.883
X27.538Y35.647
X27.429Y35.414
X27.313Y35.184
X27.192Y34.956
X27.065Y34.732
X26.933Y34.511
X26.796Y34.293
X26.653Y34.078
X26.505Y33.867
X26.352Y33.66
X26.194Y33.457
X26.031Y33.257
X25.863Y33.062
X25.69Y32.871
X25.513Y32.684
X25.331Y32.501
X25.145Y32.323
X24.954Y32.15
X24.759Y31.981
X24.56Y31.817
X24.358Y31.658
X24.151Y31.504
X23.94Y31.356
X23.727Y31.212
X23.509Y31.074
X23.288Y30.941
X23.064Y30.814
X22.837Y30.692
X22.607Y30.575
X22.375Y30.465
X22.139Y30.36
X21.901Y30.261
X21.661Y30.168
X21.419Y30.08
X21.174Y29.999
X20.928Y29.924
X20.68Y29.855
X20.43Y29.792
X20.178Y29.735
X19.926Y29.684
X19.672Y29.639
X19.417Y29.601
X19.162Y29.569
X18.905Y29.543
X18.648Y29.524
X18.391Y29.511
X18.133Y29.504
X15.822Y29.487
X15.664Y29.358
X15.461Y29.199
X15.255Y29.045
X15.044Y28.896
X14.83Y28.753
X14.613Y28.614
X14.392Y28.482
X14.168Y28.354
X14.039Y28.284
X13.595Y28.048
X13.365Y27.931
X13.132Y27.821
X12.897Y27.716
X12.659Y27.617
X12.419Y27.524
X12.176Y27.436
X11.932Y27.355
X11.791Y27.311
X11.31Y27.166
X11.062Y27.097
X10.812Y27.034
X10.561Y26.977
X10.308Y26.926
X10.054Y26.882
X9.8Y26.844
X9.544Y26.812
X9.499Y26.807
X9.499Y10.4
X39.172Y10.407
X39.141Y10.64
X39.126Y10.762
X39.111Y10.909
X39.043Y11.604
X39.024Y11.861
X39.011Y12.118
X39.004Y12.376
X39.003Y12.633
X39.009Y12.891
X39.021Y13.148
X39.04Y13.405
X39.053Y13.552
X39.122Y14.247
X39.153Y14.503
X39.191Y14.758
X39.209Y14.866
X39.064Y14.948
X38.843Y15.081
X38.625Y15.218
X38.41Y15.361
X38.199Y15.509
X37.992Y15.662
X37.789Y15.82
X37.674Y15.913
X37.135Y16.356
X36.939Y16.524
X36.748Y16.697
X36.561Y16.874
X36.379Y17.056
X36.201Y17.243
X36.027Y17.433
X35.859Y17.628
X35.764Y17.741
X35.322Y18.281
X35.163Y18.484
X35.009Y18.691
X34.86Y18.901
X34.717Y19.115
X34.579Y19.333
X34.446Y19.554
X34.318Y19.778
X34.248Y19.907
X33.919Y20.523
X33.803Y20.753
X33.692Y20.986
X33.588Y21.221
X33.489Y21.459
X33.395Y21.7
X33.308Y21.942
X33.227Y22.187
X33.183Y22.327
X32.981Y22.996
X32.912Y23.244
X32.849Y23.494
X32.792Y23.745
X32.741Y23.998
X32.697Y24.252
X32.658Y24.506
X32.626Y24.762
X32.611Y24.909
X32.543Y25.604
X32.524Y25.861
X32.511Y26.118
X32.504Y26.376
X32.503Y26.633
X32.509Y26.891
X32.521Y27.148
X32.54Y27.405
X32.553Y27.552
X32.622Y28.247
X32.653Y28.503
X32.691Y28.758
X32.734Y29.012
X32.784Y29.265
X32.84Y29.516
X32.902Y29.766
X32.971Y30.015
X33.012Y30.156
X33.216Y30.824
X33.296Y31.069
X33.383Y31.312
X33.475Y31.552
X33.573Y31.791
X33.677Y32.026
X33.787Y32.259
X33.902Y32.49
X33.971Y32.62
X34.301Y33.236
X34.427Y33.46
X34.559Y33.682
X34.697Y33.899
X34.84Y34.114
X34.988Y34.325
X35.141Y34.532
X35.299Y34.736
X35.391Y34.85
X35.835Y35.39
X36.003Y35.585
X36.176Y35.776
X36.353Y35.963
X36.535Y36.146
X36.721Y36.324
X36.912Y36.497
X37.107Y36.666
X37.22Y36.76
X37.76Y37.203
X37.963Y37.361
X38.17Y37.515
X38.38Y37.664
X38.594Y37.808
X38.812Y37.946
X39.033Y38.079
X39.257Y38.206
X39.386Y38.277
X40.002Y38.605
X40.232Y38.722
X40.465Y38.832
X40.7Y38.937
X40.938Y39.036
X41.178Y39.129
X41.421Y39.216
X41.665Y39.298
X41.806Y39.341
X42.475Y39.544
X42.723Y39.613
X42.973Y39.676
X43.224Y39.733
X43.477Y39.783
X43.73Y39.828
X43.985Y39.866
X44.241Y39.898
X44.387Y39.914
X45.082Y39.981
X45.339Y40.001
X45.597Y40.014
X45.854Y40.021
X46.112Y40.021
X46.37Y40.015
X46.627Y40.003
X46.884Y39.985
X47.031Y39.971
X47.726Y39.902
X47.982Y39.871
X48.237Y39.834
X48.491Y39.79
X48.743Y39.74
X48.995Y39.684
X49.245Y39.622
X49.493Y39.554
X49.635Y39.512
X50.303Y39.309
X50.548Y39.228
X50.79Y39.142
X51.031Y39.05
X51.269Y38.951
X51.505Y38.847
X51.738Y38.738
X51.969Y38.622
X52.099Y38.554
X52.715Y38.224
X52.939Y38.097
X53.16Y37.965
X53.378Y37.828
X53.593Y37.685
X53.804Y37.537
X54.011Y37.384
X54.214Y37.226
X54.329Y37.133
X54.868Y36.689
X55.064Y36.521
X55.255Y36.349
X55.442Y36.171
X55.624Y35.989
X55.803Y35.803
X55.976Y35.613
X56.145Y35.418
X56.239Y35.305
X56.681Y34.764
X56.84Y34.561
X56.994Y34.355
X57.143Y34.144
X57.286Y33.93
X57.425Y33.713
X57.558Y33.492
X57.685Y33.268
X57.755Y33.139
X58.084Y32.522
X58.2Y32.292
X58.311Y32.06
X58.416Y31.824
X58.515Y31.586
X58.608Y31.346
X58.695Y31.104
X58.776Y30.859
X58.82Y30.719
X59.022Y30.05
X59.091Y29.802
X59.154Y29.552
X59.211Y29.301
X59.262Y29.048
X59.307Y28.794
X59.345Y28.539
X59.377Y28.283
X59.392Y28.137
X59.46Y27.442
X59.48Y27.185
X59.493Y26.928
X59.499Y26.67
X59.5Y26.412
X59.494Y26.155
X59.482Y25.897
X59.463Y25.64
X59.45Y25.494
X59.381Y24.799
X59.35Y24.543
X59.312Y24.288
X59.295Y24.18
X59.439Y24.097
X59.66Y23.965
X59.878Y23.828
X60.093Y23.685
X60.304Y23.537
X60.511Y23.384
X60.714Y23.226
X60.829Y23.133
X61.368Y22.689
X61.564Y22.521
X61.755Y22.349
X61.942Y22.171
X62.124Y21.989
X62.302Y21.803
X62.476Y21.613
X62.645Y21.418
X62.739Y21.305
X63.181Y20.764
X63.34Y20.561
X63.494Y20.355
X63.643Y20.144
X63.786Y19.93
X63.925Y19.713
X64.058Y19.492
X64.185Y19.268
X64.255Y19.139
X64.584Y18.522
X64.7Y18.292
X64.811Y18.06
X64.916Y17.824
X65.015Y17.586
X65.108Y17.346
X65.195Y17.104
X65.276Y16.859
X65.32Y16.718
X65.522Y16.05
X65.591Y15.802
X65.654Y15.552
X65.711Y15.301
X65.762Y15.048
X65.807Y14.794
X65.845Y14.539
X65.877Y14.283
X65.892Y14.137
X65.96Y13.442
X65.98Y13.185
X65.993Y12.928
X65.999Y12.67
X66Y12.412
X65.994Y12.155
X65.982Y11.897
X65.963Y11.64
X65.95Y11.494
X65.881Y10.799
X65.85Y10.543
X65.83Y10.399
X138.5Y10.399
X138.5Y79.4
X59.921Y79.371
X60.076Y79.173
X60.23Y78.966
X60.379Y78.756
X60.522Y78.542
X60.66Y78.324
X60.793Y78.103
X60.921Y77.879
X60.991Y77.75
X61.504Y76.788
X61.621Y76.558
X61.731Y76.325
X61.836Y76.09
X61.935Y75.852
X62.028Y75.612
X62.116Y75.369
X62.197Y75.125
X62.241Y74.984
X62.557Y73.941
X62.626Y73.692
X62.689Y73.442
X62.746Y73.191
X62.796Y72.938
X62.841Y72.685
X62.879Y72.43
X62.911Y72.174
X62.927Y72.028
X63.033Y70.942
X63.052Y70.685
X63.065Y70.428
X63.072Y70.17
X63.073Y69.913
X63.067Y69.655
X63.055Y69.398
X63.036Y69.141
X63.023Y68.994
X62.915Y67.909
X62.884Y67.653
X62.847Y67.398
X62.803Y67.144
X62.753Y66.891
X62.697Y66.64
X62.635Y66.39
X62.567Y66.141
X62.525Y66
X62.208Y64.957
X62.128Y64.712
X62.041Y64.469
X61.949Y64.228
X61.851Y63.99
X61.747Y63.754
X61.637Y63.521
X61.521Y63.291
X61.453Y63.16
X60.938Y62.199
X60.812Y61.975
X60.68Y61.753
X60.542Y61.535
X60.399Y61.321
X60.251Y61.11
X60.098Y60.903
X59.94Y60.699
X59.847Y60.585
X59.155Y59.742
X58.987Y59.547
X58.814Y59.356
X58.637Y59.169
X58.455Y58.986
X58.269Y58.808
X58.078Y58.635
