(Created with grbl post processor 2023/09/25 14:33)
G21
(G-code generated with BlenderCAM and NC library)
G17G90
(Tool: D = 3.0 mm  type END flutes 2)
S12000M03
G00 Z10.0

G0X0Y0Z10
X4.332Y4.332
G1Z-2F150
X4.307Y4.359F300
X4.282Y4.386
X3.293Y5.476
X3.269Y5.504
X3.245Y5.532
X3.222Y5.561
X3.2Y5.59
X2.323Y6.772
X2.301Y6.802
X2.28Y6.833
X2.26Y6.864
X2.241Y6.895
X1.484Y8.157
X1.466Y8.189
X1.448Y8.222
X1.431Y8.254
X1.415Y8.287
X0.786Y9.618
X0.77Y9.651
X0.756Y9.685
X0.742Y9.72
X0.729Y9.754
X0.233Y11.14
X0.221Y11.175
X0.21Y11.21
X0.2Y11.245
X0.191Y11.281
X-0.166Y12.709
X-0.175Y12.744
X-0.182Y12.781
X-0.189Y12.817
X-0.195Y12.853
X-0.411Y14.309
X-0.416Y14.346
X-0.42Y14.382
X-0.423Y14.419
X-0.425Y14.456
X-0.499Y15.95
X-0.5Y15.987
X-0.5Y16.024
X-0.5Y88.6
X-0.5Y88.633
X-0.499Y88.667
X-0.497Y88.701
X-0.494Y88.735
X-0.491Y88.768
X-0.487Y88.802
X-0.481Y88.839
X-0.475Y88.876
X-0.467Y88.913
X-0.459Y88.95
X-0.45Y88.986
X-0.44Y89.022
X-0.429Y89.058
X-0.417Y89.093
X-0.404Y89.128
X-0.391Y89.163
X-0.376Y89.198
X-0.361Y89.232
X-0.345Y89.266
X-0.327Y89.299
X-0.31Y89.332
X-0.291Y89.364
X-0.271Y89.396
X-0.251Y89.428
X-0.23Y89.459
X-0.208Y89.489
X-0.186Y89.519
X-0.162Y89.548
X-0.138Y89.577
X-0.114Y89.605
X-0.088Y89.633
X-0.062Y89.66
X-0.035Y89.686
X-0.008Y89.711
X0.02Y89.737
X0.048Y89.761
X0.077Y89.784
X0.107Y89.806
X0.137Y89.828
X0.167Y89.849
X0.198Y89.869
X0.23Y89.888
X0.262Y89.907
X0.294Y89.924
X0.327Y89.941
X0.36Y89.958
X0.394Y89.973
X0.428Y89.987
X0.463Y90.001
X0.497Y90.014
X0.532Y90.026
X0.568Y90.037
X0.603Y90.047
X0.639Y90.057
X0.675Y90.065
X0.711Y90.073
X0.747Y90.079
X0.784Y90.085
X0.821Y90.09
X0.858Y90.094
X0.894Y90.097
X0.931Y90.099
X0.977Y90.1
X146.5Y90.1
X146.536Y90.1
X146.573Y90.099
X146.61Y90.096
X146.647Y90.093
X146.683Y90.089
X146.72Y90.084
X146.756Y90.078
X146.792Y90.072
X146.828Y90.064
X146.864Y90.056
X146.9Y90.046
X146.935Y90.036
X146.97Y90.025
X147.005Y90.013
X147.039Y90
X147.074Y89.986
X147.107Y89.972
X147.141Y89.956
X147.174Y89.94
X147.207Y89.923
X147.239Y89.906
X147.271Y89.887
X147.302Y89.868
X147.333Y89.848
X147.363Y89.827
X147.393Y89.805
X147.422Y89.783
X147.451Y89.76
X147.479Y89.736
X147.507Y89.712
X147.534Y89.687
X147.561Y89.66
X147.587Y89.634
X147.612Y89.607
X147.636Y89.579
X147.66Y89.551
X147.683Y89.522
X147.705Y89.493
X147.727Y89.463
X147.748Y89.433
X147.768Y89.402
X147.787Y89.371
X147.806Y89.339
X147.823Y89.307
X147.84Y89.274
X147.856Y89.241
X147.872Y89.207
X147.886Y89.174
X147.9Y89.139
X147.913Y89.105
X147.925Y89.07
X147.936Y89.035
X147.946Y89
X147.956Y88.964
X147.964Y88.928
X147.972Y88.892
X147.978Y88.856
X147.984Y88.82
X147.989Y88.783
X147.993Y88.747
X147.996Y88.71
X147.999Y88.673
X148Y88.636
X148.001Y88.599
X148Y0.999
X148Y0.965
X147.999Y0.931
X147.997Y0.898
X147.994Y0.864
X147.991Y0.83
X147.987Y0.796
X147.981Y0.76
X147.975Y0.724
X147.968Y0.687
X147.96Y0.652
X147.951Y0.616
X147.941Y0.58
X147.93Y0.545
X147.918Y0.51
X147.906Y0.476
X147.893Y0.441
X147.879Y0.407
X147.864Y0.374
X147.848Y0.34
X147.831Y0.307
X147.814Y0.275
X147.796Y0.243
X147.777Y0.211
X147.757Y0.18
X147.737Y0.15
X147.716Y0.12
X147.694Y0.09
X147.671Y0.061
X147.648Y0.033
X147.624Y0.005
X147.599Y-0.021
X147.573Y-0.048
X147.547Y-0.074
X147.521Y-0.099
X147.493Y-0.124
X147.465Y-0.148
X147.437Y-0.171
X147.407Y-0.195
X147.377Y-0.217
X147.346Y-0.239
X147.315Y-0.259
X147.283Y-0.279
X147.251Y-0.299
X147.218Y-0.317
X147.185Y-0.335
X147.152Y-0.351
X147.118Y-0.367
X147.083Y-0.382
X147.049Y-0.396
X147.014Y-0.41
X146.978Y-0.422
X146.943Y-0.434
X146.907Y-0.444
X146.87Y-0.454
X146.834Y-0.463
X146.797Y-0.471
X146.761Y-0.478
X146.724Y-0.484
X146.686Y-0.489
X146.649Y-0.493
X146.612Y-0.496
X146.574Y-0.499
X146.537Y-0.5
X146.499Y-0.501
X16.024Y-0.5
X15.987Y-0.5
X15.95Y-0.499
X14.456Y-0.425
X14.419Y-0.423
X14.382Y-0.42
X14.346Y-0.416
X14.309Y-0.411
X12.853Y-0.195
X12.817Y-0.189
X12.781Y-0.182
X12.744Y-0.175
X12.709Y-0.166
X11.281Y0.191
X11.245Y0.2
X11.21Y0.21
X11.175Y0.221
X11.14Y0.233
X9.754Y0.729
X9.72Y0.742
X9.685Y0.756
X9.651Y0.77
X9.618Y0.786
X8.287Y1.415
X8.254Y1.431
X8.222Y1.448
X8.189Y1.466
X8.157Y1.484
X6.895Y2.241
X6.864Y2.26
X6.833Y2.28
X6.802Y2.301
X6.772Y2.323
X5.59Y3.2
X5.561Y3.222
X5.532Y3.245
X5.504Y3.269
X5.476Y3.293
X4.386Y4.282
X4.359Y4.307
X4.332Y4.332
Z-4F150
X4.307Y4.359F300
X4.282Y4.386
X3.293Y5.476
X3.269Y5.504
X3.245Y5.532
X3.222Y5.561
X3.2Y5.59
X2.323Y6.772
X2.301Y6.802
X2.28Y6.833
X2.26Y6.864
X2.241Y6.895
X1.484Y8.157
X1.466Y8.189
X1.448Y8.222
X1.431Y8.254
X1.415Y8.287
X0.786Y9.618
X0.77Y9.651
X0.756Y9.685
X0.742Y9.72
X0.729Y9.754
X0.233Y11.14
X0.221Y11.175
X0.21Y11.21
X0.2Y11.245
X0.191Y11.281
X-0.166Y12.709
X-0.175Y12.744
X-0.182Y12.781
X-0.189Y12.817
X-0.195Y12.853
X-0.411Y14.309
X-0.416Y14.346
X-0.42Y14.382
X-0.423Y14.419
X-0.425Y14.456
X-0.499Y15.95
X-0.5Y15.987
X-0.5Y16.024
X-0.5Y88.6
X-0.5Y88.633
X-0.499Y88.667
X-0.497Y88.701
X-0.494Y88.735
X-0.491Y88.768
X-0.487Y88.802
X-0.481Y88.839
X-0.475Y88.876
X-0.467Y88.913
X-0.459Y88.95
X-0.45Y88.986
X-0.44Y89.022
X-0.429Y89.058
X-0.417Y89.093
X-0.404Y89.128
X-0.391Y89.163
X-0.376Y89.198
X-0.361Y89.232
X-0.345Y89.266
X-0.327Y89.299
X-0.31Y89.332
X-0.291Y89.364
X-0.271Y89.396
X-0.251Y89.428
X-0.23Y89.459
X-0.208Y89.489
X-0.186Y89.519
X-0.162Y89.548
X-0.138Y89.577
X-0.114Y89.605
X-0.088Y89.633
X-0.062Y89.66
X-0.035Y89.686
X-0.008Y89.711
X0.02Y89.737
X0.048Y89.761
X0.077Y89.784
X0.107Y89.806
X0.137Y89.828
X0.167Y89.849
X0.198Y89.869
X0.23Y89.888
X0.262Y89.907
X0.294Y89.924
X0.327Y89.941
X0.36Y89.958
X0.394Y89.973
X0.428Y89.987
X0.463Y90.001
X0.497Y90.014
X0.532Y90.026
X0.568Y90.037
X0.603Y90.047
X0.639Y90.057
X0.675Y90.065
X0.711Y90.073
X0.747Y90.079
X0.784Y90.085
X0.821Y90.09
X0.858Y90.094
X0.894Y90.097
X0.931Y90.099
X0.977Y90.1
X146.5Y90.1
X146.536Y90.1
X146.573Y90.099
X146.61Y90.096
X146.647Y90.093
X146.683Y90.089
X146.72Y90.084
X146.756Y90.078
X146.792Y90.072
X146.828Y90.064
X146.864Y90.056
X146.9Y90.046
X146.935Y90.036
X146.97Y90.025
X147.005Y90.013
X147.039Y90
X147.074Y89.986
X147.107Y89.972
X147.141Y89.956
X147.174Y89.94
X147.207Y89.923
X147.239Y89.906
X147.271Y89.887
X147.302Y89.868
X147.333Y89.848
X147.363Y89.827
X147.393Y89.805
X147.422Y89.783
X147.451Y89.76
X147.479Y89.736
X147.507Y89.712
X147.534Y89.687
X147.561Y89.66
X147.587Y89.634
X147.612Y89.607
X147.636Y89.579
X147.66Y89.551
X147.683Y89.522
X147.705Y89.493
X147.727Y89.463
X147.748Y89.433
X147.768Y89.402
X147.787Y89.371
X147.806Y89.339
X147.823Y89.307
X147.84Y89.274
X147.856Y89.241
X147.872Y89.207
X147.886Y89.174
X147.9Y89.139
X147.913Y89.105
X147.925Y89.07
X147.936Y89.035
X147.946Y89
X147.956Y88.964
X147.964Y88.928
X147.972Y88.892
X147.978Y88.856
X147.984Y88.82
X147.989Y88.783
X147.993Y88.747
X147.996Y88.71
X147.999Y88.673
X148Y88.636
X148.001Y88.599
X148Y0.999
X148Y0.965
X147.999Y0.931
X147.997Y0.898
X147.994Y0.864
X147.991Y0.83
X147.987Y0.796
X147.981Y0.76
X147.975Y0.724
X147.968Y0.687
X147.96Y0.652
X147.951Y0.616
X147.941Y0.58
X147.93Y0.545
X147.918Y0.51
X147.906Y0.476
X147.893Y0.441
X147.879Y0.407
X147.864Y0.374
X147.848Y0.34
X147.831Y0.307
X147.814Y0.275
X147.796Y0.243
X147.777Y0.211
X147.757Y0.18
X147.737Y0.15
X147.716Y0.12
X147.694Y0.09
X147.671Y0.061
X147.648Y0.033
X147.624Y0.005
X147.599Y-0.021
X147.573Y-0.048
X147.547Y-0.074
X147.521Y-0.099
X147.493Y-0.124
X147.465Y-0.148
X147.437Y-0.171
X147.407Y-0.195
X147.377Y-0.217
X147.346Y-0.239
X147.315Y-0.259
X147.283Y-0.279
X147.251Y-0.299
X147.218Y-0.317
X147.185Y-0.335
X147.152Y-0.351
X147.118Y-0.367
X147.083Y-0.382
X147.049Y-0.396
X147.014Y-0.41
X146.978Y-0.422
X146.943Y-0.434
X146.907Y-0.444
X146.87Y-0.454
X146.834Y-0.463
X146.797Y-0.471
X146.761Y-0.478
X146.724Y-0.484
X146.686Y-0.489
X146.649Y-0.493
X146.612Y-0.496
X146.574Y-0.499
X146.537Y-0.5
X146.499Y-0.501
X16.024Y-0.5
X15.987Y-0.5
X15.95Y-0.499
X14.456Y-0.425
X14.419Y-0.423
X14.382Y-0.42
X14.346Y-0.416
X14.309Y-0.411
X12.853Y-0.195
X12.817Y-0.189
X12.781Y-0.182
X12.744Y-0.175
X12.709Y-0.166
X11.281Y0.191
X11.245Y0.2
X11.21Y0.21
X11.175Y0.221
X11.14Y0.233
X9.754Y0.729
X9.72Y0.742
X9.685Y0.756
X9.651Y0.77
X9.618Y0.786
X8.287Y1.415
X8.254Y1.431
X8.222Y1.448
X8.189Y1.466
X8.157Y1.484
X6.895Y2.241
X6.864Y2.26
X6.833Y2.28
X6.802Y2.301
X6.772Y2.323
X5.59Y3.2
X5.561Y3.222
X5.532Y3.245
X5.504Y3.269
X5.476Y3.293
X4.386Y4.282
X4.359Y4.307
X4.332Y4.332
Z-5F150
X4.307Y4.359F300
X4.282Y4.386
X3.293Y5.476
X3.269Y5.504
X3.245Y5.532
X3.222Y5.561
X3.2Y5.59
X2.323Y6.772
X2.301Y6.802
X2.28Y6.833
X2.26Y6.864
X2.241Y6.895
X1.484Y8.157
X1.466Y8.189
X1.448Y8.222
X1.431Y8.254
X1.415Y8.287
X0.786Y9.618
X0.77Y9.651
X0.756Y9.685
X0.742Y9.72
X0.729Y9.754
X0.233Y11.14
X0.221Y11.175
X0.21Y11.21
X0.2Y11.245
X0.191Y11.281
X-0.166Y12.709
X-0.175Y12.744
X-0.182Y12.781
X-0.189Y12.817
X-0.195Y12.853
X-0.411Y14.309
X-0.416Y14.346
X-0.42Y14.382
X-0.423Y14.419
X-0.425Y14.456
X-0.499Y15.95
X-0.5Y15.987
X-0.5Y16.024
X-0.5Y88.6
X-0.5Y88.633
X-0.499Y88.667
X-0.497Y88.701
X-0.494Y88.735
X-0.491Y88.768
X-0.487Y88.802
X-0.481Y88.839
X-0.475Y88.876
X-0.467Y88.913
X-0.459Y88.95
X-0.45Y88.986
X-0.44Y89.022
X-0.429Y89.058
X-0.417Y89.093
X-0.404Y89.128
X-0.391Y89.163
X-0.376Y89.198
X-0.361Y89.232
X-0.345Y89.266
X-0.327Y89.299
X-0.31Y89.332
X-0.291Y89.364
X-0.271Y89.396
X-0.251Y89.428
X-0.23Y89.459
X-0.208Y89.489
X-0.186Y89.519
X-0.162Y89.548
X-0.138Y89.577
X-0.114Y89.605
X-0.088Y89.633
X-0.062Y89.66
X-0.035Y89.686
X-0.008Y89.711
X0.02Y89.737
X0.048Y89.761
X0.077Y89.784
X0.107Y89.806
X0.137Y89.828
X0.167Y89.849
X0.198Y89.869
X0.23Y89.888
X0.262Y89.907
X0.294Y89.924
X0.327Y89.941
X0.36Y89.958
X0.394Y89.973
X0.428Y89.987
X0.463Y90.001
X0.497Y90.014
X0.532Y90.026
X0.568Y90.037
X0.603Y90.047
X0.639Y90.057
X0.675Y90.065
X0.711Y90.073
X0.747Y90.079
X0.784Y90.085
X0.821Y90.09
X0.858Y90.094
X0.894Y90.097
X0.931Y90.099
X0.977Y90.1
X146.5Y90.1
X146.536Y90.1
X146.573Y90.099
X146.61Y90.096
X146.647Y90.093
X146.683Y90.089
X146.72Y90.084
X146.756Y90.078
X146.792Y90.072
X146.828Y90.064
X146.864Y90.056
X146.9Y90.046
X146.935Y90.036
X146.97Y90.025
X147.005Y90.013
X147.039Y90
X147.074Y89.986
X147.107Y89.972
X147.141Y89.956
X147.174Y89.94
X147.207Y89.923
X147.239Y89.906
X147.271Y89.887
X147.302Y89.868
X147.333Y89.848
X147.363Y89.827
X147.393Y89.805
X147.422Y89.783
X147.451Y89.76
X147.479Y89.736
X147.507Y89.712
X147.534Y89.687
X147.561Y89.66
X147.587Y89.634
X147.612Y89.607
X147.636Y89.579
X147.66Y89.551
X147.683Y89.522
X147.705Y89.493
X147.727Y89.463
X147.748Y89.433
X147.768Y89.402
X147.787Y89.371
X147.806Y89.339
X147.823Y89.307
X147.84Y89.274
X147.856Y89.241
X147.872Y89.207
X147.886Y89.174
X147.9Y89.139
X147.913Y89.105
X147.925Y89.07
X147.936Y89.035
X147.946Y89
X147.956Y88.964
X147.964Y88.928
X147.972Y88.892
X147.978Y88.856
X147.984Y88.82
X147.989Y88.783
X147.993Y88.747
X147.996Y88.71
X147.999Y88.673
X148Y88.636
X148.001Y88.599
X148Y0.999
X148Y0.965
X147.999Y0.931
X147.997Y0.898
X147.994Y0.864
X147.991Y0.83
X147.987Y0.796
X147.981Y0.76
X147.975Y0.724
X147.968Y0.687
X147.96Y0.652
X147.951Y0.616
X147.941Y0.58
X147.93Y0.545
X147.918Y0.51
X147.906Y0.476
X147.893Y0.441
X147.879Y0.407
X147.864Y0.374
X147.848Y0.34
X147.831Y0.307
X147.814Y0.275
X147.796Y0.243
X147.777Y0.211
X147.757Y0.18
X147.737Y0.15
X147.716Y0.12
X147.694Y0.09
X147.671Y0.061
X147.648Y0.033
X147.624Y0.005
X147.599Y-0.021
X147.573Y-0.048
X147.547Y-0.074
X147.521Y-0.099
X147.493Y-0.124
X147.465Y-0.148
X147.437Y-0.171
X147.407Y-0.195
X147.377Y-0.217
X147.346Y-0.239
X147.315Y-0.259
X147.283Y-0.279
X147.251Y-0.299
X147.218Y-0.317
X147.185Y-0.335
X147.152Y-0.351
X147.118Y-0.367
X147.083Y-0.382
X147.049Y-0.396
X147.014Y-0.41
X146.978Y-0.422
X146.943Y-0.434
X146.907Y-0.444
X146.87Y-0.454
X146.834Y-0.463
X146.797Y-0.471
X146.761Y-0.478
X146.724Y-0.484
X146.686Y-0.489
X146.649Y-0.493
X146.612Y-0.496
X146.574Y-0.499
X146.537Y-0.5
X146.499Y-0.501
X16.024Y-0.5
X15.987Y-0.5
X15.95Y-0.499
X14.456Y-0.425
X14.419Y-0.423
X14.382Y-0.42
X14.346Y-0.416
X14.309Y-0.411
X12.853Y-0.195
X12.817Y-0.189
X12.781Y-0.182
X12.744Y-0.175
X12.709Y-0.166
X11.281Y0.191
X11.245Y0.2
X11.21Y0.21
X11.175Y0.221
X11.14Y0.233
X9.754Y0.729
X9.72Y0.742
X9.685Y0.756
X9.651Y0.77
X9.618Y0.786
X8.287Y1.415
X8.254Y1.431
X8.222Y1.448
X8.189Y1.466
X8.157Y1.484
X6.895Y2.241
X6.864Y2.26
X6.833Y2.28
X6.802Y2.301
X6.772Y2.323
X5.59Y3.2
X5.561Y3.222
X5.532Y3.245
X5.504Y3.269
X5.476Y3.293
X4.386Y4.282
X4.359Y4.307
X4.332Y4.332
G0Z10
(Tool: D = 3.0 mm  type END flutes 2)
S12000M03
G00 Z10.0

X3.626Y3.623
G1Z-2F150
X3.6Y3.65F300
X3.574Y3.678
X2.519Y4.841
X2.499Y4.864
X2.479Y4.888
X2.459Y4.912
X2.426Y4.955
X1.49Y6.216
X1.469Y6.245
X1.449Y6.275
X1.43Y6.305
X1.409Y6.339
X0.587Y7.711
X0.567Y7.745
X0.549Y7.78
X0.532Y7.815
X-0.138Y9.235
X-0.153Y9.267
X-0.167Y9.299
X-0.181Y9.335
X-0.195Y9.371
X-0.724Y10.849
X-0.736Y10.884
X-0.747Y10.919
X-0.757Y10.955
X-0.767Y10.99
X-1.148Y12.513
X-1.155Y12.541
X-1.163Y12.579
X-1.17Y12.619
X-1.177Y12.658
X-1.407Y14.211
X-1.412Y14.246
X-1.416Y14.281
X-1.419Y14.316
X-1.422Y14.358
X-1.499Y15.926
X-1.5Y15.963
X-1.5Y15.999
Y89.599
X-1.5Y89.636
X-1.499Y89.672
X-1.497Y89.708
X-1.493Y89.744
X-1.49Y89.781
X-1.485Y89.817
X-1.479Y89.852
X-1.472Y89.888
X-1.465Y89.924
X-1.457Y89.96
X-1.447Y89.995
X-1.437Y90.03
X-1.426Y90.065
X-1.415Y90.1
X-1.402Y90.134
X-1.389Y90.168
X-1.374Y90.202
X-1.359Y90.235
X-1.343Y90.268
X-1.327Y90.301
X-1.309Y90.333
X-1.291Y90.364
X-1.272Y90.396
X-1.252Y90.426
X-1.232Y90.457
X-1.21Y90.486
X-1.188Y90.516
X-1.166Y90.544
X-1.142Y90.572
X-1.118Y90.6
X-1.094Y90.627
X-1.068Y90.654
X-1.041Y90.68
X-1.014Y90.706
X-0.986Y90.731
X-0.958Y90.755
X-0.929Y90.778
X-0.899Y90.801
X-0.869Y90.823
X-0.838Y90.845
X-0.807Y90.865
X-0.775Y90.885
X-0.742Y90.904
X-0.71Y90.922
X-0.677Y90.939
X-0.643Y90.956
X-0.609Y90.971
X-0.575Y90.986
X-0.54Y91
X-0.505Y91.013
X-0.469Y91.025
X-0.434Y91.036
X-0.398Y91.047
X-0.362Y91.056
X-0.325Y91.065
X-0.288Y91.072
X-0.252Y91.079
X-0.217Y91.085
X-0.181Y91.09
X-0.144Y91.093
X-0.108Y91.097
X-0.072Y91.099
X-0.036Y91.1
X0Y91.1
X147.5
X147.536Y91.1
X147.573Y91.099
X147.61Y91.096
X147.646Y91.093
X147.683Y91.089
X147.719Y91.084
X147.756Y91.078
X147.792Y91.072
X147.828Y91.064
X147.864Y91.056
X147.899Y91.046
X147.934Y91.036
X147.969Y91.025
X148.004Y91.013
X148.039Y91
X148.073Y90.987
X148.106Y90.972
X148.14Y90.957
X148.173Y90.941
X148.205Y90.924
X148.238Y90.907
X148.269Y90.888
X148.301Y90.869
X148.331Y90.849
X148.362Y90.828
X148.391Y90.807
X148.421Y90.785
X148.449Y90.762
X148.477Y90.738
X148.505Y90.714
X148.532Y90.689
X148.558Y90.663
X148.584Y90.637
X148.61Y90.609
X148.635Y90.581
X148.659Y90.553
X148.682Y90.524
X148.705Y90.494
X148.727Y90.464
X148.748Y90.433
X148.768Y90.402
X148.788Y90.37
X148.807Y90.337
X148.825Y90.305
X148.842Y90.271
X148.858Y90.238
X148.874Y90.204
X148.888Y90.169
X148.902Y90.135
X148.915Y90.099
X148.927Y90.064
X148.938Y90.028
X148.948Y89.992
X148.957Y89.956
X148.966Y89.92
X148.974Y89.883
X148.98Y89.848
X148.985Y89.813
X148.99Y89.777
X148.994Y89.742
X148.997Y89.706
X148.999Y89.671
X149Y89.635
X149.001Y89.599
X149Y0
X149Y-0.035
X148.999Y-0.071
X148.997Y-0.107
X148.994Y-0.143
X148.99Y-0.179
X148.985Y-0.215
X148.979Y-0.25
X148.973Y-0.286
X148.965Y-0.322
X148.957Y-0.358
X148.948Y-0.394
X148.937Y-0.43
X148.926Y-0.465
X148.914Y-0.5
X148.902Y-0.535
X148.888Y-0.57
X148.873Y-0.604
X148.858Y-0.638
X148.842Y-0.671
X148.825Y-0.704
X148.807Y-0.737
X148.788Y-0.769
X148.769Y-0.8
X148.749Y-0.831
X148.728Y-0.862
X148.706Y-0.892
X148.684Y-0.922
X148.661Y-0.951
X148.637Y-0.979
X148.612Y-1.007
X148.587Y-1.034
X148.561Y-1.061
X148.534Y-1.087
X148.507Y-1.112
X148.48Y-1.136
X148.452Y-1.159
X148.423Y-1.182
X148.394Y-1.205
X148.365Y-1.226
X148.334Y-1.247
X148.304Y-1.267
X148.273Y-1.286
X148.241Y-1.305
X148.209Y-1.322
X148.176Y-1.339
X148.144Y-1.355
X148.11Y-1.371
X148.077Y-1.385
X148.043Y-1.399
X148.008Y-1.412
X147.974Y-1.424
X147.939Y-1.435
X147.904Y-1.445
X147.868Y-1.454
X147.833Y-1.463
X147.796Y-1.471
X147.76Y-1.478
X147.723Y-1.484
X147.686Y-1.489
X147.649Y-1.493
X147.611Y-1.496
X147.574Y-1.499
X147.537Y-1.5
X147.499Y-1.501
X125.496
X125.459Y-1.5
X125.422Y-1.499
X124.963Y-1.476
X114.037
X113.578Y-1.499
X113.541Y-1.5
X113.504Y-1.501
X105.737
X105.701Y-1.5
X105.665Y-1.499
X105.628Y-1.497
X105.592Y-1.493
X105.556Y-1.49
X105.52Y-1.485
X105.484Y-1.479
X105.448Y-1.472
X105.413Y-1.465
X105.378Y-1.457
X105.342Y-1.448
X105.307Y-1.438
X105.273Y-1.427
X105.238Y-1.415
X105.204Y-1.403
X105.171Y-1.389
X105.137Y-1.375
X105.104Y-1.36
X105.071Y-1.345
X105.039Y-1.328
X105.007Y-1.311
X104.975Y-1.293
X104.944Y-1.274
X104.914Y-1.254
X104.884Y-1.234
X104.854Y-1.213
X104.825Y-1.191
X104.796Y-1.169
X104.768Y-1.146
X104.741Y-1.122
X104.713Y-1.096
X104.686Y-1.071
X104.66Y-1.044
X104.634Y-1.017
X104.609Y-0.989
X104.585Y-0.961
X104.561Y-0.932
X104.539Y-0.903
X104.517Y-0.873
X104.495Y-0.842
X104.475Y-0.811
X104.455Y-0.779
X104.436Y-0.747
X104.418Y-0.715
X104.4Y-0.682
X104.384Y-0.648
X104.368Y-0.615
X104.353Y-0.58
X104.339Y-0.546
X104.326Y-0.511
X104.314Y-0.476
X104.302Y-0.44
X104.292Y-0.405
X104.282Y-0.369
X104.274Y-0.332
X104.266Y-0.296
X104.259Y-0.259
X104.253Y-0.222
X104.248Y-0.185
X104.244Y-0.148
X104.24Y-0.111
X104.238Y-0.074
X104.237Y-0.037
X104.236Y-0.003
X91.238
X91.238Y-0.036
X91.236Y-0.073
X91.234Y-0.11
X91.231Y-0.146
X91.227Y-0.183
X91.222Y-0.219
X91.216Y-0.255
X91.21Y-0.291
X91.202Y-0.327
X91.194Y-0.363
X91.184Y-0.399
X91.174Y-0.434
X91.163Y-0.469
X91.151Y-0.504
X91.138Y-0.538
X91.125Y-0.572
X91.11Y-0.606
X91.095Y-0.639
X91.079Y-0.672
X91.062Y-0.705
X91.044Y-0.737
X91.026Y-0.769
X91.007Y-0.8
X90.987Y-0.831
X90.966Y-0.861
X90.944Y-0.891
X90.922Y-0.92
X90.899Y-0.949
X90.876Y-0.977
X90.851Y-1.005
X90.826Y-1.032
X90.8Y-1.059
X90.774Y-1.085
X90.747Y-1.11
X90.719Y-1.135
X90.691Y-1.158
X90.662Y-1.182
X90.633Y-1.204
X90.603Y-1.226
X90.572Y-1.247
X90.541Y-1.267
X90.51Y-1.286
X90.478Y-1.305
X90.446Y-1.323
X90.413Y-1.34
X90.38Y-1.356
X90.346Y-1.371
X90.313Y-1.386
X90.278Y-1.4
X90.244Y-1.412
X90.209Y-1.424
X90.174Y-1.436
X90.138Y-1.446
X90.103Y-1.455
X90.067Y-1.464
X90.031Y-1.472
X89.994Y-1.478
X89.958Y-1.484
X89.921Y-1.489
X89.885Y-1.493
X89.848Y-1.496
X89.811Y-1.499
X89.774Y-1.5
X89.737Y-1.501
X16Y-1.5
X15.963Y-1.5
X15.926Y-1.499
X14.358Y-1.422
X14.316Y-1.419
X14.281Y-1.416
X14.246Y-1.412
X14.211Y-1.407
X12.658Y-1.177
X12.626Y-1.172
X12.595Y-1.166
X12.554Y-1.158
X12.513Y-1.148
X10.99Y-0.767
X10.953Y-0.757
X10.917Y-0.746
X10.88Y-0.735
X10.849Y-0.724
X9.371Y-0.195
X9.335Y-0.181
X9.299Y-0.167
X9.267Y-0.153
X9.235Y-0.138
X7.815Y0.532
X7.784Y0.547
X7.754Y0.563
X7.724Y0.579
X7.685Y0.601
X6.339Y1.409
X6.304Y1.43
X6.275Y1.449
X6.245Y1.469
X6.216Y1.49
X4.955Y2.426
X4.929Y2.446
X4.903Y2.466
X4.877Y2.488
X4.841Y2.519
X3.678Y3.574
X3.654Y3.596
X3.626Y3.623
Z-4F150
X3.6Y3.65F300
X3.574Y3.678
X2.519Y4.841
X2.499Y4.864
X2.479Y4.888
X2.459Y4.912
X2.426Y4.955
X1.49Y6.216
X1.469Y6.245
X1.449Y6.275
X1.43Y6.305
X1.409Y6.339
X0.587Y7.711
X0.567Y7.745
X0.549Y7.78
X0.532Y7.815
X-0.138Y9.235
X-0.153Y9.267
X-0.167Y9.299
X-0.181Y9.335
X-0.195Y9.371
X-0.724Y10.849
X-0.736Y10.884
X-0.747Y10.919
X-0.757Y10.955
X-0.767Y10.99
X-1.148Y12.513
X-1.155Y12.541
X-1.163Y12.579
X-1.17Y12.619
X-1.177Y12.658
X-1.407Y14.211
X-1.412Y14.246
X-1.416Y14.281
X-1.419Y14.316
X-1.422Y14.358
X-1.499Y15.926
X-1.5Y15.963
X-1.5Y15.999
Y89.599
X-1.5Y89.636
X-1.499Y89.672
X-1.497Y89.708
X-1.493Y89.744
X-1.49Y89.781
X-1.485Y89.817
X-1.479Y89.852
X-1.472Y89.888
X-1.465Y89.924
X-1.457Y89.96
X-1.447Y89.995
X-1.437Y90.03
X-1.426Y90.065
X-1.415Y90.1
X-1.402Y90.134
X-1.389Y90.168
X-1.374Y90.202
X-1.359Y90.235
X-1.343Y90.268
X-1.327Y90.301
X-1.309Y90.333
X-1.291Y90.364
X-1.272Y90.396
X-1.252Y90.426
X-1.232Y90.457
X-1.21Y90.486
X-1.188Y90.516
X-1.166Y90.544
X-1.142Y90.572
X-1.118Y90.6
X-1.094Y90.627
X-1.068Y90.654
X-1.041Y90.68
X-1.014Y90.706
X-0.986Y90.731
X-0.958Y90.755
X-0.929Y90.778
X-0.899Y90.801
X-0.869Y90.823
X-0.838Y90.845
X-0.807Y90.865
X-0.775Y90.885
X-0.742Y90.904
X-0.71Y90.922
X-0.677Y90.939
X-0.643Y90.956
X-0.609Y90.971
X-0.575Y90.986
X-0.54Y91
X-0.505Y91.013
X-0.469Y91.025
X-0.434Y91.036
X-0.398Y91.047
X-0.362Y91.056
X-0.325Y91.065
X-0.288Y91.072
X-0.252Y91.079
X-0.217Y91.085
X-0.181Y91.09
X-0.144Y91.093
X-0.108Y91.097
X-0.072Y91.099
X-0.036Y91.1
X0Y91.1
X147.5
X147.536Y91.1
X147.573Y91.099
X147.61Y91.096
X147.646Y91.093
X147.683Y91.089
X147.719Y91.084
X147.756Y91.078
X147.792Y91.072
X147.828Y91.064
X147.864Y91.056
X147.899Y91.046
X147.934Y91.036
X147.969Y91.025
X148.004Y91.013
X148.039Y91
X148.073Y90.987
X148.106Y90.972
X148.14Y90.957
X148.173Y90.941
X148.205Y90.924
X148.238Y90.907
X148.269Y90.888
X148.301Y90.869
X148.331Y90.849
X148.362Y90.828
X148.391Y90.807
X148.421Y90.785
X148.449Y90.762
X148.477Y90.738
X148.505Y90.714
X148.532Y90.689
X148.558Y90.663
X148.584Y90.637
X148.61Y90.609
X148.635Y90.581
X148.659Y90.553
X148.682Y90.524
X148.705Y90.494
X148.727Y90.464
X148.748Y90.433
X148.768Y90.402
X148.788Y90.37
X148.807Y90.337
X148.825Y90.305
X148.842Y90.271
X148.858Y90.238
X148.874Y90.204
X148.888Y90.169
X148.902Y90.135
X148.915Y90.099
X148.927Y90.064
X148.938Y90.028
X148.948Y89.992
X148.957Y89.956
X148.966Y89.92
X148.974Y89.883
X148.98Y89.848
X148.985Y89.813
X148.99Y89.777
X148.994Y89.742
X148.997Y89.706
X148.999Y89.671
X149Y89.635
X149.001Y89.599
X149Y0
X149Y-0.035
X148.999Y-0.071
X148.997Y-0.107
X148.994Y-0.143
X148.99Y-0.179
X148.985Y-0.215
X148.979Y-0.25
X148.973Y-0.286
X148.965Y-0.322
X148.957Y-0.358
X148.948Y-0.394
X148.937Y-0.43
X148.926Y-0.465
X148.914Y-0.5
X148.902Y-0.535
X148.888Y-0.57
X148.873Y-0.604
X148.858Y-0.638
X148.842Y-0.671
X148.825Y-0.704
X148.807Y-0.737
X148.788Y-0.769
X148.769Y-0.8
X148.749Y-0.831
X148.728Y-0.862
X148.706Y-0.892
X148.684Y-0.922
X148.661Y-0.951
X148.637Y-0.979
X148.612Y-1.007
X148.587Y-1.034
X148.561Y-1.061
X148.534Y-1.087
X148.507Y-1.112
X148.48Y-1.136
X148.452Y-1.159
X148.423Y-1.182
X148.394Y-1.205
X148.365Y-1.226
X148.334Y-1.247
X148.304Y-1.267
X148.273Y-1.286
X148.241Y-1.305
X148.209Y-1.322
X148.176Y-1.339
X148.144Y-1.355
X148.11Y-1.371
X148.077Y-1.385
X148.043Y-1.399
X148.008Y-1.412
X147.974Y-1.424
X147.939Y-1.435
X147.904Y-1.445
X147.868Y-1.454
X147.833Y-1.463
X147.796Y-1.471
X147.76Y-1.478
X147.723Y-1.484
X147.686Y-1.489
X147.649Y-1.493
X147.611Y-1.496
X147.574Y-1.499
X147.537Y-1.5
X147.499Y-1.501
X125.496
X125.459Y-1.5
X125.422Y-1.499
X124.963Y-1.476
X114.037
X113.578Y-1.499
X113.541Y-1.5
X113.504Y-1.501
X105.737
X105.701Y-1.5
X105.665Y-1.499
X105.628Y-1.497
X105.592Y-1.493
X105.556Y-1.49
X105.52Y-1.485
X105.484Y-1.479
X105.448Y-1.472
X105.413Y-1.465
X105.378Y-1.457
X105.342Y-1.448
X105.307Y-1.438
X105.273Y-1.427
X105.238Y-1.415
X105.204Y-1.403
X105.171Y-1.389
X105.137Y-1.375
X105.104Y-1.36
X105.071Y-1.345
X105.039Y-1.328
X105.007Y-1.311
X104.975Y-1.293
X104.944Y-1.274
X104.914Y-1.254
X104.884Y-1.234
X104.854Y-1.213
X104.825Y-1.191
X104.796Y-1.169
X104.768Y-1.146
X104.741Y-1.122
X104.713Y-1.096
X104.686Y-1.071
X104.66Y-1.044
X104.634Y-1.017
X104.609Y-0.989
X104.585Y-0.961
X104.561Y-0.932
X104.539Y-0.903
X104.517Y-0.873
X104.495Y-0.842
X104.475Y-0.811
X104.455Y-0.779
X104.436Y-0.747
X104.418Y-0.715
X104.4Y-0.682
X104.384Y-0.648
X104.368Y-0.615
X104.353Y-0.58
X104.339Y-0.546
X104.326Y-0.511
X104.314Y-0.476
X104.302Y-0.44
X104.292Y-0.405
X104.282Y-0.369
X104.274Y-0.332
X104.266Y-0.296
X104.259Y-0.259
X104.253Y-0.222
X104.248Y-0.185
X104.244Y-0.148
X104.24Y-0.111
X104.238Y-0.074
X104.237Y-0.037
X104.236Y-0.003
X91.238
X91.238Y-0.036
X91.236Y-0.073
X91.234Y-0.11
X91.231Y-0.146
X91.227Y-0.183
X91.222Y-0.219
X91.216Y-0.255
X91.21Y-0.291
X91.202Y-0.327
X91.194Y-0.363
X91.184Y-0.399
X91.174Y-0.434
X91.163Y-0.469
X91.151Y-0.504
X91.138Y-0.538
X91.125Y-0.572
X91.11Y-0.606
X91.095Y-0.639
X91.079Y-0.672
X91.062Y-0.705
X91.044Y-0.737
X91.026Y-0.769
X91.007Y-0.8
X90.987Y-0.831
X90.966Y-0.861
X90.944Y-0.891
X90.922Y-0.92
X90.899Y-0.949
X90.876Y-0.977
X90.851Y-1.005
X90.826Y-1.032
X90.8Y-1.059
X90.774Y-1.085
X90.747Y-1.11
X90.719Y-1.135
X90.691Y-1.158
X90.662Y-1.182
X90.633Y-1.204
X90.603Y-1.226
X90.572Y-1.247
X90.541Y-1.267
X90.51Y-1.286
X90.478Y-1.305
X90.446Y-1.323
X90.413Y-1.34
X90.38Y-1.356
X90.346Y-1.371
X90.313Y-1.386
X90.278Y-1.4
X90.244Y-1.412
X90.209Y-1.424
X90.174Y-1.436
X90.138Y-1.446
X90.103Y-1.455
X90.067Y-1.464
X90.031Y-1.472
X89.994Y-1.478
X89.958Y-1.484
X89.921Y-1.489
X89.885Y-1.493
X89.848Y-1.496
X89.811Y-1.499
X89.774Y-1.5
X89.737Y-1.501
X16Y-1.5
X15.963Y-1.5
X15.926Y-1.499
X14.358Y-1.422
X14.316Y-1.419
X14.281Y-1.416
X14.246Y-1.412
X14.211Y-1.407
X12.658Y-1.177
X12.626Y-1.172
X12.595Y-1.166
X12.554Y-1.158
X12.513Y-1.148
X10.99Y-0.767
X10.953Y-0.757
X10.917Y-0.746
X10.88Y-0.735
X10.849Y-0.724
X9.371Y-0.195
X9.335Y-0.181
X9.299Y-0.167
X9.267Y-0.153
X9.235Y-0.138
X7.815Y0.532
X7.784Y0.547
X7.754Y0.563
X7.724Y0.579
X7.685Y0.601
X6.339Y1.409
X6.304Y1.43
X6.275Y1.449
X6.245Y1.469
X6.216Y1.49
X4.955Y2.426
X4.929Y2.446
X4.903Y2.466
X4.877Y2.488
X4.841Y2.519
X3.678Y3.574
X3.654Y3.596
X3.626Y3.623
Z-6F150
X3.6Y3.65F300
X3.574Y3.678
X2.519Y4.841
X2.499Y4.864
X2.479Y4.888
X2.459Y4.912
X2.426Y4.955
X1.49Y6.216
X1.469Y6.245
X1.449Y6.275
X1.43Y6.305
X1.409Y6.339
X0.587Y7.711
X0.567Y7.745
X0.549Y7.78
X0.532Y7.815
X-0.138Y9.235
X-0.153Y9.267
X-0.167Y9.299
X-0.181Y9.335
X-0.195Y9.371
X-0.724Y10.849
X-0.736Y10.884
X-0.747Y10.919
X-0.757Y10.955
X-0.767Y10.99
X-1.148Y12.513
X-1.155Y12.541
X-1.163Y12.579
X-1.17Y12.619
X-1.177Y12.658
X-1.407Y14.211
X-1.412Y14.246
X-1.416Y14.281
X-1.419Y14.316
X-1.422Y14.358
X-1.499Y15.926
X-1.5Y15.963
X-1.5Y15.999
Y89.599
X-1.5Y89.636
X-1.499Y89.672
X-1.497Y89.708
X-1.493Y89.744
X-1.49Y89.781
X-1.485Y89.817
X-1.479Y89.852
X-1.472Y89.888
X-1.465Y89.924
X-1.457Y89.96
X-1.447Y89.995
X-1.437Y90.03
X-1.426Y90.065
X-1.415Y90.1
X-1.402Y90.134
X-1.389Y90.168
X-1.374Y90.202
X-1.359Y90.235
X-1.343Y90.268
X-1.327Y90.301
X-1.309Y90.333
X-1.291Y90.364
X-1.272Y90.396
X-1.252Y90.426
X-1.232Y90.457
X-1.21Y90.486
X-1.188Y90.516
X-1.166Y90.544
X-1.142Y90.572
X-1.118Y90.6
X-1.094Y90.627
X-1.068Y90.654
X-1.041Y90.68
X-1.014Y90.706
X-0.986Y90.731
X-0.958Y90.755
X-0.929Y90.778
X-0.899Y90.801
X-0.869Y90.823
X-0.838Y90.845
X-0.807Y90.865
X-0.775Y90.885
X-0.742Y90.904
X-0.71Y90.922
X-0.677Y90.939
X-0.643Y90.956
X-0.609Y90.971
X-0.575Y90.986
X-0.54Y91
X-0.505Y91.013
X-0.469Y91.025
X-0.434Y91.036
X-0.398Y91.047
X-0.362Y91.056
X-0.325Y91.065
X-0.288Y91.072
X-0.252Y91.079
X-0.217Y91.085
X-0.181Y91.09
X-0.144Y91.093
X-0.108Y91.097
X-0.072Y91.099
X-0.036Y91.1
X0Y91.1
X147.5
X147.536Y91.1
X147.573Y91.099
X147.61Y91.096
X147.646Y91.093
X147.683Y91.089
X147.719Y91.084
X147.756Y91.078
X147.792Y91.072
X147.828Y91.064
X147.864Y91.056
X147.899Y91.046
X147.934Y91.036
X147.969Y91.025
X148.004Y91.013
X148.039Y91
X148.073Y90.987
X148.106Y90.972
X148.14Y90.957
X148.173Y90.941
X148.205Y90.924
X148.238Y90.907
X148.269Y90.888
X148.301Y90.869
X148.331Y90.849
X148.362Y90.828
X148.391Y90.807
X148.421Y90.785
X148.449Y90.762
X148.477Y90.738
X148.505Y90.714
X148.532Y90.689
X148.558Y90.663
X148.584Y90.637
X148.61Y90.609
X148.635Y90.581
X148.659Y90.553
X148.682Y90.524
X148.705Y90.494
X148.727Y90.464
X148.748Y90.433
X148.768Y90.402
X148.788Y90.37
X148.807Y90.337
X148.825Y90.305
X148.842Y90.271
X148.858Y90.238
X148.874Y90.204
X148.888Y90.169
X148.902Y90.135
X148.915Y90.099
X148.927Y90.064
X148.938Y90.028
X148.948Y89.992
X148.957Y89.956
X148.966Y89.92
X148.974Y89.883
X148.98Y89.848
X148.985Y89.813
X148.99Y89.777
X148.994Y89.742
X148.997Y89.706
X148.999Y89.671
X149Y89.635
X149.001Y89.599
X149Y0
X149Y-0.035
X148.999Y-0.071
X148.997Y-0.107
X148.994Y-0.143
X148.99Y-0.179
X148.985Y-0.215
X148.979Y-0.25
X148.973Y-0.286
X148.965Y-0.322
X148.957Y-0.358
X148.948Y-0.394
X148.937Y-0.43
X148.926Y-0.465
X148.914Y-0.5
X148.902Y-0.535
X148.888Y-0.57
X148.873Y-0.604
X148.858Y-0.638
X148.842Y-0.671
X148.825Y-0.704
X148.807Y-0.737
X148.788Y-0.769
X148.769Y-0.8
X148.749Y-0.831
X148.728Y-0.862
X148.706Y-0.892
X148.684Y-0.922
X148.661Y-0.951
X148.637Y-0.979
X148.612Y-1.007
X148.587Y-1.034
X148.561Y-1.061
X148.534Y-1.087
X148.507Y-1.112
X148.48Y-1.136
X148.452Y-1.159
X148.423Y-1.182
X148.394Y-1.205
X148.365Y-1.226
X148.334Y-1.247
X148.304Y-1.267
X148.273Y-1.286
X148.241Y-1.305
X148.209Y-1.322
X148.176Y-1.339
X148.144Y-1.355
X148.11Y-1.371
X148.077Y-1.385
X148.043Y-1.399
X148.008Y-1.412
X147.974Y-1.424
X147.939Y-1.435
X147.904Y-1.445
X147.868Y-1.454
X147.833Y-1.463
X147.796Y-1.471
X147.76Y-1.478
X147.723Y-1.484
X147.686Y-1.489
X147.649Y-1.493
X147.611Y-1.496
X147.574Y-1.499
X147.537Y-1.5
X147.499Y-1.501
X125.496
X125.459Y-1.5
X125.422Y-1.499
X124.963Y-1.476
X114.037
X113.578Y-1.499
X113.541Y-1.5
X113.504Y-1.501
X105.737
X105.701Y-1.5
X105.665Y-1.499
X105.628Y-1.497
X105.592Y-1.493
X105.556Y-1.49
X105.52Y-1.485
X105.484Y-1.479
X105.448Y-1.472
X105.413Y-1.465
X105.378Y-1.457
X105.342Y-1.448
X105.307Y-1.438
X105.273Y-1.427
X105.238Y-1.415
X105.204Y-1.403
X105.171Y-1.389
X105.137Y-1.375
X105.104Y-1.36
X105.071Y-1.345
X105.039Y-1.328
X105.007Y-1.311
X104.975Y-1.293
X104.944Y-1.274
X104.914Y-1.254
X104.884Y-1.234
X104.854Y-1.213
X104.825Y-1.191
X104.796Y-1.169
X104.768Y-1.146
X104.741Y-1.122
X104.713Y-1.096
X104.686Y-1.071
X104.66Y-1.044
X104.634Y-1.017
X104.609Y-0.989
X104.585Y-0.961
X104.561Y-0.932
X104.539Y-0.903
X104.517Y-0.873
X104.495Y-0.842
X104.475Y-0.811
X104.455Y-0.779
X104.436Y-0.747
X104.418Y-0.715
X104.4Y-0.682
X104.384Y-0.648
X104.368Y-0.615
X104.353Y-0.58
X104.339Y-0.546
X104.326Y-0.511
X104.314Y-0.476
X104.302Y-0.44
X104.292Y-0.405
X104.282Y-0.369
X104.274Y-0.332
X104.266Y-0.296
X104.259Y-0.259
X104.253Y-0.222
X104.248Y-0.185
X104.244Y-0.148
X104.24Y-0.111
X104.238Y-0.074
X104.237Y-0.037
X104.236Y-0.003
X91.238
X91.238Y-0.036
X91.236Y-0.073
X91.234Y-0.11
X91.231Y-0.146
X91.227Y-0.183
X91.222Y-0.219
X91.216Y-0.255
X91.21Y-0.291
X91.202Y-0.327
X91.194Y-0.363
X91.184Y-0.399
X91.174Y-0.434
X91.163Y-0.469
X91.151Y-0.504
X91.138Y-0.538
X91.125Y-0.572
X91.11Y-0.606
X91.095Y-0.639
X91.079Y-0.672
X91.062Y-0.705
X91.044Y-0.737
X91.026Y-0.769
X91.007Y-0.8
X90.987Y-0.831
X90.966Y-0.861
X90.944Y-0.891
X90.922Y-0.92
X90.899Y-0.949
X90.876Y-0.977
X90.851Y-1.005
X90.826Y-1.032
X90.8Y-1.059
X90.774Y-1.085
X90.747Y-1.11
X90.719Y-1.135
X90.691Y-1.158
X90.662Y-1.182
X90.633Y-1.204
X90.603Y-1.226
X90.572Y-1.247
X90.541Y-1.267
X90.51Y-1.286
X90.478Y-1.305
X90.446Y-1.323
X90.413Y-1.34
X90.38Y-1.356
X90.346Y-1.371
X90.313Y-1.386
X90.278Y-1.4
X90.244Y-1.412
X90.209Y-1.424
X90.174Y-1.436
X90.138Y-1.446
X90.103Y-1.455
X90.067Y-1.464
X90.031Y-1.472
X89.994Y-1.478
X89.958Y-1.484
X89.921Y-1.489
X89.885Y-1.493
X89.848Y-1.496
X89.811Y-1.499
X89.774Y-1.5
X89.737Y-1.501
X16Y-1.5
X15.963Y-1.5
X15.926Y-1.499
X14.358Y-1.422
X14.316Y-1.419
X14.281Y-1.416
X14.246Y-1.412
X14.211Y-1.407
X12.658Y-1.177
X12.626Y-1.172
X12.595Y-1.166
X12.554Y-1.158
X12.513Y-1.148
X10.99Y-0.767
X10.953Y-0.757
X10.917Y-0.746
X10.88Y-0.735
X10.849Y-0.724
X9.371Y-0.195
X9.335Y-0.181
X9.299Y-0.167
X9.267Y-0.153
X9.235Y-0.138
X7.815Y0.532
X7.784Y0.547
X7.754Y0.563
X7.724Y0.579
X7.685Y0.601
X6.339Y1.409
X6.304Y1.43
X6.275Y1.449
X6.245Y1.469
X6.216Y1.49
X4.955Y2.426
X4.929Y2.446
X4.903Y2.466
X4.877Y2.488
X4.841Y2.519
X3.678Y3.574
X3.654Y3.596
X3.626Y3.623
Z-7F150
X3.6Y3.65F300
X3.574Y3.678
X2.519Y4.841
X2.499Y4.864
X2.479Y4.888
X2.459Y4.912
X2.426Y4.955
X1.49Y6.216
X1.469Y6.245
X1.449Y6.275
X1.43Y6.305
X1.409Y6.339
X0.587Y7.711
X0.567Y7.745
X0.549Y7.78
X0.532Y7.815
X-0.138Y9.235
X-0.153Y9.267
X-0.167Y9.299
X-0.181Y9.335
X-0.195Y9.371
X-0.724Y10.849
X-0.736Y10.884
X-0.747Y10.919
X-0.757Y10.955
X-0.767Y10.99
X-1.148Y12.513
X-1.155Y12.541
X-1.163Y12.579
X-1.17Y12.619
X-1.177Y12.658
X-1.407Y14.211
X-1.412Y14.246
X-1.416Y14.281
X-1.419Y14.316
X-1.422Y14.358
X-1.499Y15.926
X-1.5Y15.963
X-1.5Y15.999
Y89.599
X-1.5Y89.636
X-1.499Y89.672
X-1.497Y89.708
X-1.493Y89.744
X-1.49Y89.781
X-1.485Y89.817
X-1.479Y89.852
X-1.472Y89.888
X-1.465Y89.924
X-1.457Y89.96
X-1.447Y89.995
X-1.437Y90.03
X-1.426Y90.065
X-1.415Y90.1
X-1.402Y90.134
X-1.389Y90.168
X-1.374Y90.202
X-1.359Y90.235
X-1.343Y90.268
X-1.327Y90.301
X-1.309Y90.333
X-1.291Y90.364
X-1.272Y90.396
X-1.252Y90.426
X-1.232Y90.457
X-1.21Y90.486
X-1.188Y90.516
X-1.166Y90.544
X-1.142Y90.572
X-1.118Y90.6
X-1.094Y90.627
X-1.068Y90.654
X-1.041Y90.68
X-1.014Y90.706
X-0.986Y90.731
X-0.958Y90.755
X-0.929Y90.778
X-0.899Y90.801
X-0.869Y90.823
X-0.838Y90.845
X-0.807Y90.865
X-0.775Y90.885
X-0.742Y90.904
X-0.71Y90.922
X-0.677Y90.939
X-0.643Y90.956
X-0.609Y90.971
X-0.575Y90.986
X-0.54Y91
X-0.505Y91.013
X-0.469Y91.025
X-0.434Y91.036
X-0.398Y91.047
X-0.362Y91.056
X-0.325Y91.065
X-0.288Y91.072
X-0.252Y91.079
X-0.217Y91.085
X-0.181Y91.09
X-0.144Y91.093
X-0.108Y91.097
X-0.072Y91.099
X-0.036Y91.1
X0Y91.1
X147.5
X147.536Y91.1
X147.573Y91.099
X147.61Y91.096
X147.646Y91.093
X147.683Y91.089
X147.719Y91.084
X147.756Y91.078
X147.792Y91.072
X147.828Y91.064
X147.864Y91.056
X147.899Y91.046
X147.934Y91.036
X147.969Y91.025
X148.004Y91.013
X148.039Y91
X148.073Y90.987
X148.106Y90.972
X148.14Y90.957
X148.173Y90.941
X148.205Y90.924
X148.238Y90.907
X148.269Y90.888
X148.301Y90.869
X148.331Y90.849
X148.362Y90.828
X148.391Y90.807
X148.421Y90.785
X148.449Y90.762
X148.477Y90.738
X148.505Y90.714
X148.532Y90.689
X148.558Y90.663
X148.584Y90.637
X148.61Y90.609
X148.635Y90.581
X148.659Y90.553
X148.682Y90.524
X148.705Y90.494
X148.727Y90.464
X148.748Y90.433
X148.768Y90.402
X148.788Y90.37
X148.807Y90.337
X148.825Y90.305
X148.842Y90.271
X148.858Y90.238
X148.874Y90.204
X148.888Y90.169
X148.902Y90.135
X148.915Y90.099
X148.927Y90.064
X148.938Y90.028
X148.948Y89.992
X148.957Y89.956
X148.966Y89.92
X148.974Y89.883
X148.98Y89.848
X148.985Y89.813
X148.99Y89.777
X148.994Y89.742
X148.997Y89.706
X148.999Y89.671
X149Y89.635
X149.001Y89.599
X149Y0
X149Y-0.035
X148.999Y-0.071
X148.997Y-0.107
X148.994Y-0.143
X148.99Y-0.179
X148.985Y-0.215
X148.979Y-0.25
X148.973Y-0.286
X148.965Y-0.322
X148.957Y-0.358
X148.948Y-0.394
X148.937Y-0.43
X148.926Y-0.465
X148.914Y-0.5
X148.902Y-0.535
X148.888Y-0.57
X148.873Y-0.604
X148.858Y-0.638
X148.842Y-0.671
X148.825Y-0.704
X148.807Y-0.737
X148.788Y-0.769
X148.769Y-0.8
X148.749Y-0.831
X148.728Y-0.862
X148.706Y-0.892
X148.684Y-0.922
X148.661Y-0.951
X148.637Y-0.979
X148.612Y-1.007
X148.587Y-1.034
X148.561Y-1.061
X148.534Y-1.087
X148.507Y-1.112
X148.48Y-1.136
X148.452Y-1.159
X148.423Y-1.182
X148.394Y-1.205
X148.365Y-1.226
X148.334Y-1.247
X148.304Y-1.267
X148.273Y-1.286
X148.241Y-1.305
X148.209Y-1.322
X148.176Y-1.339
X148.144Y-1.355
X148.11Y-1.371
X148.077Y-1.385
X148.043Y-1.399
X148.008Y-1.412
X147.974Y-1.424
X147.939Y-1.435
X147.904Y-1.445
X147.868Y-1.454
X147.833Y-1.463
X147.796Y-1.471
X147.76Y-1.478
X147.723Y-1.484
X147.686Y-1.489
X147.649Y-1.493
X147.611Y-1.496
X147.574Y-1.499
X147.537Y-1.5
X147.499Y-1.501
X125.496
X125.459Y-1.5
X125.422Y-1.499
X124.963Y-1.476
X114.037
X113.578Y-1.499
X113.541Y-1.5
X113.504Y-1.501
X105.737
X105.701Y-1.5
X105.665Y-1.499
X105.628Y-1.497
X105.592Y-1.493
X105.556Y-1.49
X105.52Y-1.485
X105.484Y-1.479
X105.448Y-1.472
X105.413Y-1.465
X105.378Y-1.457
X105.342Y-1.448
X105.307Y-1.438
X105.273Y-1.427
X105.238Y-1.415
X105.204Y-1.403
X105.171Y-1.389
X105.137Y-1.375
X105.104Y-1.36
X105.071Y-1.345
X105.039Y-1.328
X105.007Y-1.311
X104.975Y-1.293
X104.944Y-1.274
X104.914Y-1.254
X104.884Y-1.234
X104.854Y-1.213
X104.825Y-1.191
X104.796Y-1.169
X104.768Y-1.146
X104.741Y-1.122
X104.713Y-1.096
X104.686Y-1.071
X104.66Y-1.044
X104.634Y-1.017
X104.609Y-0.989
X104.585Y-0.961
X104.561Y-0.932
X104.539Y-0.903
X104.517Y-0.873
X104.495Y-0.842
X104.475Y-0.811
X104.455Y-0.779
X104.436Y-0.747
X104.418Y-0.715
X104.4Y-0.682
X104.384Y-0.648
X104.368Y-0.615
X104.353Y-0.58
X104.339Y-0.546
X104.326Y-0.511
X104.314Y-0.476
X104.302Y-0.44
X104.292Y-0.405
X104.282Y-0.369
X104.274Y-0.332
X104.266Y-0.296
X104.259Y-0.259
X104.253Y-0.222
X104.248Y-0.185
X104.244Y-0.148
X104.24Y-0.111
X104.238Y-0.074
X104.237Y-0.037
X104.236Y-0.003
X91.238
X91.238Y-0.036
X91.236Y-0.073
X91.234Y-0.11
X91.231Y-0.146
X91.227Y-0.183
X91.222Y-0.219
X91.216Y-0.255
X91.21Y-0.291
X91.202Y-0.327
X91.194Y-0.363
X91.184Y-0.399
X91.174Y-0.434
X91.163Y-0.469
X91.151Y-0.504
X91.138Y-0.538
X91.125Y-0.572
X91.11Y-0.606
X91.095Y-0.639
X91.079Y-0.672
X91.062Y-0.705
X91.044Y-0.737
X91.026Y-0.769
X91.007Y-0.8
X90.987Y-0.831
X90.966Y-0.861
X90.944Y-0.891
X90.922Y-0.92
X90.899Y-0.949
X90.876Y-0.977
X90.851Y-1.005
X90.826Y-1.032
X90.8Y-1.059
X90.774Y-1.085
X90.747Y-1.11
X90.719Y-1.135
X90.691Y-1.158
X90.662Y-1.182
X90.633Y-1.204
X90.603Y-1.226
X90.572Y-1.247
X90.541Y-1.267
X90.51Y-1.286
X90.478Y-1.305
X90.446Y-1.323
X90.413Y-1.34
X90.38Y-1.356
X90.346Y-1.371
X90.313Y-1.386
X90.278Y-1.4
X90.244Y-1.412
X90.209Y-1.424
X90.174Y-1.436
X90.138Y-1.446
X90.103Y-1.455
X90.067Y-1.464
X90.031Y-1.472
X89.994Y-1.478
X89.958Y-1.484
X89.921Y-1.489
X89.885Y-1.493
X89.848Y-1.496
X89.811Y-1.499
X89.774Y-1.5
X89.737Y-1.501
X16Y-1.5
X15.963Y-1.5
X15.926Y-1.499
X14.358Y-1.422
X14.316Y-1.419
X14.281Y-1.416
X14.246Y-1.412
X14.211Y-1.407
X12.658Y-1.177
X12.626Y-1.172
X12.595Y-1.166
X12.554Y-1.158
X12.513Y-1.148
X10.99Y-0.767
X10.953Y-0.757
X10.917Y-0.746
X10.88Y-0.735
X10.849Y-0.724
X9.371Y-0.195
X9.335Y-0.181
X9.299Y-0.167
X9.267Y-0.153
X9.235Y-0.138
X7.815Y0.532
X7.784Y0.547
X7.754Y0.563
X7.724Y0.579
X7.685Y0.601
X6.339Y1.409
X6.304Y1.43
X6.275Y1.449
X6.245Y1.469
X6.216Y1.49
X4.955Y2.426
X4.929Y2.446
X4.903Y2.466
X4.877Y2.488
X4.841Y2.519
X3.678Y3.574
X3.654Y3.596
X3.626Y3.623
G0Z10
 
