(Created with grbl post processor 2023/09/27 16:50)
G21
(G-code generated with BlenderCAM and NC library)
G17G90
(Tool: D = 1.5 mm  type END flutes 2)
S12000M03
G00 Z2.0

G0X0Y0Z2
X4.749Y36.932
G1Z-3F100
X5.658Y36.932F200
X5.635Y36.958
X5.614Y36.981
X5.599Y37
X5.346Y37.307
X5.327Y37.331
X5.309Y37.356
X5.291Y37.381
X5.274Y37.406
X5.257Y37.432
X5.241Y37.458
X5.226Y37.485
X5.214Y37.506
X5.026Y37.857
X5.012Y37.885
X4.999Y37.912
X4.986Y37.94
X4.974Y37.968
X4.963Y37.997
X4.953Y38.026
X4.943Y38.055
X4.935Y38.078
X4.82Y38.459
X4.811Y38.489
X4.804Y38.518
X4.797Y38.548
X4.791Y38.578
X4.785Y38.608
X4.78Y38.639
X4.776Y38.669
X4.768Y38.754
X4.749Y38.755
X4.749Y36.932
G0Z2
X11.27Y37.433
G1Z-3F100
X17.907Y37.433F200
X17.907Y38.253
X11.596Y38.252
X11.496Y37.921
X11.483Y37.881
X11.469Y37.84
X11.453Y37.8
X11.437Y37.76
X11.42Y37.721
X11.402Y37.682
X11.383Y37.643
X11.369Y37.616
X11.27Y37.433
X10.743Y37.506
X10.725Y37.474
X10.709Y37.448
X10.693Y37.422
X10.676Y37.396
X10.659Y37.371
X10.641Y37.346
X10.622Y37.322
X10.607Y37.303
X10.354Y36.995
X10.334Y36.971
X10.314Y36.949
X10.299Y36.933
X18.407Y36.933
X18.407Y38.826
X18.371Y38.814
X18.341Y38.805
X18.312Y38.796
X18.282Y38.789
X18.252Y38.782
X18.222Y38.776
X18.192Y38.77
X18.162Y38.765
X18.131Y38.761
X18.101Y38.758
X18.07Y38.756
X18.04Y38.754
X18.009Y38.753
X17.984Y38.753
X11.189Y38.752
X11.18Y38.669
X11.174Y38.627
X11.169Y38.596
X11.164Y38.566
X11.157Y38.536
X11.15Y38.506
X11.142Y38.477
X11.135Y38.453
X11.02Y38.072
X11.01Y38.043
X11Y38.014
X10.989Y37.986
X10.978Y37.957
X10.965Y37.929
X10.953Y37.901
X10.939Y37.874
X10.928Y37.852
X10.743Y37.506
G0Z2
X11.599Y56.151
G1Z-3F100
X17.906F200
X17.906Y57.122
X11.195Y57.122
X11.374Y56.785
X11.394Y56.747
X11.412Y56.708
X11.43Y56.669
X11.447Y56.629
X11.462Y56.589
X11.477Y56.549
X11.491Y56.508
X11.5Y56.479
X11.599Y56.151
X11.135Y55.959
X11.145Y55.924
X11.153Y55.894
X11.16Y55.864
X11.166Y55.834
X11.172Y55.804
X11.176Y55.773
X11.18Y55.743
X11.19Y55.651
X17.99Y55.651
X18.021Y55.65
X18.052Y55.649
X18.082Y55.647
X18.113Y55.644
X18.143Y55.641
X18.174Y55.636
X18.204Y55.631
X18.234Y55.626
X18.264Y55.619
X18.294Y55.612
X18.324Y55.604
X18.353Y55.595
X18.382Y55.586
X18.406Y55.577
X18.406Y57.622
X10.141Y57.622
X10.204Y57.57
X10.236Y57.542
X10.258Y57.521
X10.28Y57.499
X10.301Y57.477
X10.322Y57.454
X10.342Y57.431
X10.358Y57.413
X10.611Y57.105
X10.63Y57.081
X10.648Y57.056
X10.666Y57.031
X10.683Y57.006
X10.7Y56.98
X10.716Y56.954
X10.731Y56.927
X10.743Y56.906
X10.93Y56.555
X10.944Y56.528
X10.958Y56.5
X10.97Y56.472
X10.982Y56.444
X10.994Y56.415
X11.004Y56.386
X11.014Y56.357
X11.021Y56.334
X11.135Y55.959
G0Z2
X5.815Y57.621
G1Z-3F100
X4.749Y57.621F200
Y55.648
X4.767Y55.649
X4.776Y55.743
X4.782Y55.786
X4.787Y55.816
X4.793Y55.846
X4.8Y55.876
X4.807Y55.906
X4.815Y55.935
X4.822Y55.959
X4.937Y56.34
X4.947Y56.369
X4.957Y56.398
X4.968Y56.427
X4.979Y56.455
X4.991Y56.483
X5.004Y56.511
X5.018Y56.539
X5.029Y56.56
X5.217Y56.911
X5.232Y56.938
X5.247Y56.965
X5.263Y56.991
X5.28Y57.016
X5.298Y57.041
X5.316Y57.066
X5.335Y57.091
X5.35Y57.11
X5.602Y57.417
X5.622Y57.441
X5.643Y57.464
X5.664Y57.486
X5.685Y57.508
X5.707Y57.529
X5.73Y57.55
X5.753Y57.57
X5.815Y57.621
X6.089Y57.199
X6.392Y57.448
X6.406Y57.459
X6.421Y57.471
X6.436Y57.481
X6.451Y57.492
X6.467Y57.502
X6.482Y57.511
X6.498Y57.521
X6.514Y57.53
X6.86Y57.714
X6.876Y57.723
X6.893Y57.731
X6.909Y57.739
X6.926Y57.746
X6.943Y57.753
X6.961Y57.759
X6.978Y57.765
X6.996Y57.771
X7.371Y57.884
X7.388Y57.89
X7.406Y57.894
X7.424Y57.898
X7.442Y57.902
X7.46Y57.906
X7.478Y57.909
X7.497Y57.911
X7.515Y57.913
X7.905Y57.951
X7.923Y57.953
X7.942Y57.954
X7.96Y57.955
X7.978Y57.955
X7.997Y57.955
X8.015Y57.954
X8.034Y57.953
X8.052Y57.951
X8.442Y57.913
X8.46Y57.911
X8.478Y57.909
X8.497Y57.906
X8.515Y57.902
X8.533Y57.898
X8.551Y57.894
X8.568Y57.89
X8.586Y57.884
X8.961Y57.771
X8.979Y57.765
X8.996Y57.759
X9.013Y57.753
X9.03Y57.746
X9.047Y57.739
X9.064Y57.731
X9.081Y57.723
X9.097Y57.714
X9.442Y57.53
X9.459Y57.521
X9.475Y57.511
X9.49Y57.502
X9.506Y57.492
X9.521Y57.481
X9.536Y57.471
X9.55Y57.459
X9.565Y57.448
X9.868Y57.199
X9.882Y57.187
X9.896Y57.175
X9.909Y57.163
X9.922Y57.15
X9.935Y57.137
X9.948Y57.123
X9.96Y57.109
X9.972Y57.095
X10.22Y56.792
X10.232Y56.778
X10.243Y56.763
X10.254Y56.749
X10.264Y56.733
X10.274Y56.718
X10.284Y56.702
X10.293Y56.686
X10.302Y56.67
X10.487Y56.325
X10.495Y56.308
X10.503Y56.292
X10.511Y56.275
X10.518Y56.258
X10.525Y56.241
X10.531Y56.224
X10.537Y56.206
X10.543Y56.189
X10.657Y55.814
X10.662Y55.796
X10.666Y55.778
X10.671Y55.76
X10.675Y55.742
X10.678Y55.724
X10.681Y55.706
X10.683Y55.688
X10.685Y55.67
X10.724Y55.28
X10.725Y55.261
X10.726Y55.243
X10.727Y55.224
X10.727Y55.206
X10.727Y55.188
X10.726Y55.169
X10.725Y55.151
X17.984
X18.003Y55.151
X18.021Y55.15
X18.039Y55.149
X18.058Y55.147
X18.076Y55.145
X18.094Y55.143
X18.112Y55.14
X18.131Y55.136
X18.149Y55.133
X18.167Y55.128
X18.184Y55.124
X18.202Y55.118
X18.22Y55.113
X18.237Y55.107
X18.254Y55.101
X18.271Y55.094
X18.288Y55.086
X18.305Y55.079
X18.321Y55.071
X18.338Y55.062
X18.354Y55.053
X18.37Y55.044
X18.386Y55.034
X18.401Y55.024
X18.416Y55.014
X18.431Y55.003
X18.446Y54.992
X18.46Y54.981
X18.474Y54.969
X18.488Y54.956
X18.501Y54.944
X18.515Y54.931
X18.527Y54.918
X18.54Y54.904
X18.552Y54.891
X18.564Y54.877
X18.576Y54.862
X18.587Y54.848
X18.597Y54.833
X18.608Y54.817
X18.618Y54.802
X18.628Y54.786
X18.637Y54.77
X18.646Y54.754
X18.654Y54.738
X18.662Y54.721
X18.67Y54.705
X18.677Y54.688
X18.684Y54.671
X18.69Y54.653
X18.696Y54.636
X18.702Y54.618
X18.707Y54.601
X18.712Y54.583
X18.716Y54.565
X18.72Y54.547
X18.723Y54.529
X18.726Y54.511
X18.729Y54.493
X18.731Y54.474
X18.732Y54.456
X18.733Y54.438
X18.734Y54.419
X18.734Y54.401
Y40.003
X18.734Y39.984
X18.733Y39.966
X18.732Y39.948
X18.731Y39.929
X18.729Y39.911
X18.726Y39.893
X18.723Y39.875
X18.72Y39.856
X18.716Y39.838
X18.712Y39.821
X18.707Y39.803
X18.702Y39.785
X18.696Y39.768
X18.69Y39.75
X18.684Y39.733
X18.677Y39.716
X18.67Y39.699
X18.662Y39.682
X18.654Y39.666
X18.646Y39.649
X18.637Y39.633
X18.628Y39.617
X18.618Y39.602
X18.608Y39.586
X18.597Y39.571
X18.587Y39.556
X18.576Y39.541
X18.564Y39.527
X18.552Y39.513
X18.54Y39.499
X18.528Y39.486
X18.515Y39.472
X18.501Y39.46
X18.488Y39.447
X18.474Y39.435
X18.46Y39.423
X18.446Y39.412
X18.431Y39.4
X18.416Y39.39
X18.401Y39.379
X18.386Y39.369
X18.37Y39.36
X18.354Y39.35
X18.338Y39.341
X18.322Y39.333
X18.305Y39.325
X18.288Y39.317
X18.271Y39.31
X18.254Y39.303
X18.237Y39.297
X18.22Y39.291
X18.202Y39.285
X18.184Y39.28
X18.167Y39.275
X18.149Y39.271
X18.131Y39.267
X18.113Y39.264
X18.094Y39.261
X18.076Y39.258
X18.058Y39.256
X18.04Y39.255
X18.021Y39.254
X18.003Y39.253
X17.984Y39.253
X10.726Y39.251
X10.727Y39.224
X10.727Y39.206
X10.727Y39.188
X10.726Y39.169
X10.725Y39.151
X10.724Y39.133
X10.685Y38.743
X10.683Y38.724
X10.681Y38.706
X10.678Y38.688
X10.675Y38.67
X10.671Y38.652
X10.666Y38.634
X10.662Y38.616
X10.657Y38.598
X10.543Y38.223
X10.537Y38.206
X10.531Y38.188
X10.525Y38.171
X10.518Y38.154
X10.511Y38.137
X10.503Y38.12
X10.495Y38.104
X10.487Y38.088
X10.302Y37.742
X10.293Y37.726
X10.284Y37.71
X10.274Y37.694
X10.264Y37.679
X10.254Y37.664
X10.243Y37.649
X10.232Y37.634
X10.22Y37.62
X9.972Y37.317
X9.96Y37.303
X9.948Y37.289
X9.935Y37.275
X9.922Y37.262
X9.909Y37.249
X9.896Y37.237
X9.882Y37.225
X9.868Y37.213
X9.565Y36.964
X9.55Y36.953
X9.536Y36.942
X9.521Y36.931
X9.506Y36.92
X9.49Y36.91
X9.475Y36.901
X9.459Y36.891
X9.442Y36.883
X9.097Y36.698
X9.081Y36.689
X9.064Y36.681
X9.047Y36.674
X9.03Y36.666
X9.013Y36.66
X8.996Y36.653
X8.979Y36.647
X8.961Y36.642
X8.586Y36.528
X8.568Y36.523
X8.551Y36.518
X8.533Y36.514
X8.515Y36.51
X8.497Y36.507
X8.478Y36.504
X8.46Y36.501
X8.442Y36.499
X8.052Y36.461
X8.034Y36.459
X8.015Y36.458
X7.997Y36.457
X7.978Y36.457
X7.96Y36.457
X7.942Y36.458
X7.923Y36.459
X7.905Y36.461
X7.515Y36.499
X7.497Y36.501
X7.478Y36.504
X7.46Y36.507
X7.442Y36.51
X7.424Y36.514
X7.406Y36.518
X7.388Y36.523
X7.371Y36.528
X6.996Y36.642
X6.978Y36.647
X6.961Y36.653
X6.943Y36.66
X6.926Y36.666
X6.909Y36.674
X6.893Y36.681
X6.876Y36.689
X6.86Y36.698
X6.514Y36.883
X6.498Y36.891
X6.482Y36.901
X6.467Y36.91
X6.451Y36.92
X6.436Y36.931
X6.421Y36.942
X6.406Y36.953
X6.392Y36.964
X6.089Y37.213
X6.075Y37.225
X6.061Y37.237
X6.048Y37.249
X6.035Y37.262
X6.022Y37.275
X6.009Y37.289
X5.997Y37.303
X5.985Y37.317
X5.736Y37.62
X5.725Y37.634
X5.714Y37.649
X5.703Y37.664
X5.693Y37.679
X5.683Y37.694
X5.673Y37.71
X5.664Y37.726
X5.655Y37.742
X5.47Y38.088
X5.462Y38.104
X5.454Y38.12
X5.446Y38.137
X5.439Y38.154
X5.432Y38.171
X5.425Y38.188
X5.419Y38.206
X5.414Y38.223
X5.3Y38.598
X5.295Y38.616
X5.29Y38.634
X5.286Y38.652
X5.282Y38.67
X5.279Y38.688
X5.276Y38.706
X5.273Y38.724
X5.271Y38.743
X5.233Y39.133
X5.231Y39.151
X5.23Y39.169
X5.23Y39.188
X5.229Y39.206
X5.23Y39.224
X5.231Y39.253
X4.823
X4.805Y39.253
X4.786Y39.254
X4.768Y39.255
X4.75Y39.256
X4.731Y39.258
X4.713Y39.261
X4.695Y39.264
X4.677Y39.267
X4.659Y39.271
X4.641Y39.275
X4.623Y39.28
X4.605Y39.285
X4.588Y39.291
X4.57Y39.297
X4.553Y39.303
X4.536Y39.31
X4.519Y39.317
X4.502Y39.325
X4.486Y39.333
X4.47Y39.341
X4.453Y39.35
X4.438Y39.359
X4.422Y39.369
X4.406Y39.379
X4.391Y39.39
X4.376Y39.4
X4.362Y39.411
X4.347Y39.423
X4.333Y39.435
X4.319Y39.447
X4.306Y39.46
X4.293Y39.472
X4.28Y39.486
X4.267Y39.499
X4.249Y39.521
X4.249Y36.432
X18.907Y36.433
X18.906Y58.122
X4.249Y58.121
Y54.883
X4.267Y54.904
X4.28Y54.918
X4.292Y54.931
X4.306Y54.944
X4.319Y54.956
X4.333Y54.968
X4.347Y54.98
X4.361Y54.992
X4.376Y55.003
X4.391Y55.014
X4.406Y55.024
X4.421Y55.034
X4.437Y55.044
X4.453Y55.053
X4.469Y55.062
X4.485Y55.07
X4.502Y55.078
X4.519Y55.086
X4.536Y55.093
X4.553Y55.1
X4.57Y55.107
X4.587Y55.113
X4.605Y55.118
X4.622Y55.123
X4.64Y55.128
X4.658Y55.132
X4.676Y55.136
X4.694Y55.14
X4.712Y55.143
X4.731Y55.145
X4.749Y55.147
X4.767Y55.149
X4.786Y55.15
X4.804Y55.151
X4.822Y55.151
X5.231Y55.151
X5.23Y55.169
X5.23Y55.188
X5.229Y55.206
X5.23Y55.224
X5.23Y55.243
X5.231Y55.261
X5.233Y55.28
X5.271Y55.67
X5.273Y55.688
X5.276Y55.706
X5.279Y55.724
X5.282Y55.742
X5.286Y55.76
X5.29Y55.778
X5.295Y55.796
X5.3Y55.814
X5.414Y56.189
X5.419Y56.206
X5.425Y56.224
X5.432Y56.241
X5.439Y56.258
X5.446Y56.275
X5.454Y56.292
X5.462Y56.308
X5.47Y56.325
X5.655Y56.67
X5.664Y56.686
X5.673Y56.702
X5.683Y56.718
X5.693Y56.733
X5.703Y56.749
X5.714Y56.763
X5.725Y56.778
X5.736Y56.792
X5.985Y57.095
X5.997Y57.109
X6.009Y57.123
X6.022Y57.137
X6.035Y57.15
X6.048Y57.163
X6.061Y57.175
X6.075Y57.188
X6.089Y57.199
G0Z2
X7.602Y47.653
G1Z-3F100
X7.602Y46.751F200
X11.236Y46.751
X11.236Y47.653
X7.602
X7.102Y48.153
X7.102Y46.251
X11.736Y46.251
X11.736Y48.153
X7.102
X6.602Y48.653
X6.602Y45.751
X12.236Y45.751
X12.236Y48.653
X6.602
X6.102Y49.153
X6.102Y45.251
X12.736Y45.251
X12.736Y49.153
X6.102
X5.602Y49.653
X5.602Y44.751
X13.236Y44.751
X13.236Y49.653
X5.602
X5.102Y50.153
X5.102Y44.251
X13.736Y44.252
X13.736Y50.153
X5.102
X4.823Y50.653
X4.749Y50.654
X4.694Y50.656
X4.639Y50.66
X4.602Y50.664
X4.602Y43.74
X4.676Y43.746
X4.731Y43.749
X4.786Y43.75
X4.823Y43.751
X14.236Y43.752
X14.235Y50.653
X4.823
Y51.153
X4.768Y51.154
X4.725Y51.156
X4.682Y51.158
X4.639Y51.162
X4.597Y51.167
X4.554Y51.174
X4.512Y51.181
X4.47Y51.189
X4.428Y51.198
X4.386Y51.208
X4.345Y51.219
X4.303Y51.232
X4.263Y51.245
X4.222Y51.259
X4.182Y51.275
X4.161Y51.283
X4.117Y51.266
X4.102Y51.26
X4.102Y43.143
X4.14Y43.129
X4.161Y43.121
X4.205Y43.138
X4.245Y43.152
X4.286Y43.166
X4.327Y43.179
X4.368Y43.191
X4.41Y43.201
X4.452Y43.211
X4.494Y43.219
X4.536Y43.227
X4.578Y43.234
X4.621Y43.239
X4.664Y43.243
X4.706Y43.247
X4.749Y43.249
X4.792Y43.25
X4.823Y43.251
X14.736Y43.252
X14.735Y51.153
X4.823
Y51.653
X4.786Y51.653
X4.756Y51.655
X4.725Y51.657
X4.694Y51.659
X4.664Y51.663
X4.634Y51.667
X4.603Y51.672
X4.573Y51.678
X4.543Y51.685
X4.513Y51.692
X4.484Y51.7
X4.454Y51.708
X4.425Y51.718
X4.396Y51.728
X4.368Y51.739
X4.339Y51.75
X4.311Y51.763
X4.283Y51.775
X4.256Y51.789
X4.228Y51.803
X4.202Y51.818
X4.175Y51.834
X4.161Y51.843
X4.136Y51.827
X4.109Y51.812
X4.082Y51.797
X4.055Y51.784
X4.027Y51.77
X3.999Y51.758
X3.971Y51.746
X3.943Y51.734
X3.914Y51.724
X3.885Y51.714
X3.855Y51.705
X3.826Y51.696
X3.796Y51.689
X3.766Y51.682
X3.736Y51.676
X3.706Y51.67
X3.676Y51.665
X3.645Y51.661
X3.602Y51.657
X3.602Y42.746
X3.645Y42.742
X3.688Y42.736
X3.718Y42.731
X3.748Y42.726
X3.778Y42.719
X3.808Y42.712
X3.838Y42.704
X3.867Y42.695
X3.896Y42.686
X3.925Y42.676
X3.954Y42.665
X3.983Y42.653
X4.011Y42.641
X4.038Y42.628
X4.066Y42.615
X4.093Y42.6
X4.12Y42.585
X4.146Y42.57
X4.161Y42.561
X4.186Y42.576
X4.212Y42.591
X4.239Y42.606
X4.267Y42.62
X4.294Y42.633
X4.322Y42.646
X4.35Y42.658
X4.379Y42.669
X4.408Y42.68
X4.437Y42.69
X4.466Y42.699
X4.496Y42.707
X4.525Y42.715
X4.555Y42.722
X4.585Y42.728
X4.615Y42.733
X4.646Y42.738
X4.676Y42.742
X4.707Y42.745
X4.737Y42.748
X4.768Y42.75
X4.798Y42.75
X4.823Y42.751
X15.236Y42.752
X15.235Y51.653
X4.823
Y52.153
X4.805Y52.153
X4.786Y52.154
X4.768Y52.155
X4.75Y52.156
X4.731Y52.158
X4.713Y52.161
X4.695Y52.164
X4.677Y52.167
X4.659Y52.171
X4.641Y52.175
X4.623Y52.18
X4.605Y52.185
X4.588Y52.191
X4.57Y52.197
X4.553Y52.203
X4.536Y52.21
X4.519Y52.217
X4.502Y52.225
X4.486Y52.233
X4.47Y52.241
X4.453Y52.25
X4.438Y52.259
X4.422Y52.269
X4.406Y52.279
X4.391Y52.29
X4.376Y52.3
X4.362Y52.311
X4.347Y52.323
X4.333Y52.335
X4.319Y52.347
X4.306Y52.36
X4.293Y52.372
X4.28Y52.386
X4.267Y52.399
X4.255Y52.413
X4.243Y52.427
X4.232Y52.441
X4.221Y52.456
X4.21Y52.471
X4.2Y52.486
X4.189Y52.502
X4.18Y52.517
X4.171Y52.533
X4.161Y52.551
X4.151Y52.533
X4.142Y52.517
X4.132Y52.502
X4.122Y52.486
X4.112Y52.471
X4.101Y52.456
X4.09Y52.441
X4.078Y52.427
X4.066Y52.413
X4.054Y52.399
X4.042Y52.386
X4.029Y52.372
X4.016Y52.36
X4.002Y52.347
X3.988Y52.335
X3.974Y52.323
X3.96Y52.311
X3.945Y52.3
X3.93Y52.29
X3.915Y52.279
X3.9Y52.269
X3.884Y52.259
X3.868Y52.25
X3.852Y52.241
X3.836Y52.233
X3.819Y52.225
X3.802Y52.217
X3.786Y52.21
X3.768Y52.203
X3.751Y52.197
X3.734Y52.191
X3.716Y52.185
X3.699Y52.18
X3.681Y52.175
X3.663Y52.171
X3.645Y52.167
X3.627Y52.164
X3.609Y52.161
X3.59Y52.158
X3.572Y52.156
X3.554Y52.155
X3.535Y52.154
X3.517Y52.153
X3.499Y52.153
X3.102
X3.102Y42.251
X3.499
X3.517Y42.251
X3.535Y42.25
X3.554Y42.249
X3.572Y42.247
X3.59Y42.245
X3.609Y42.243
X3.627Y42.24
X3.645Y42.236
X3.663Y42.233
X3.681Y42.228
X3.699Y42.224
X3.716Y42.218
X3.734Y42.213
X3.751Y42.207
X3.768Y42.201
X3.786Y42.194
X3.802Y42.186
X3.819Y42.179
X3.836Y42.171
X3.852Y42.162
X3.868Y42.153
X3.884Y42.144
X3.9Y42.134
X3.915Y42.124
X3.93Y42.114
X3.945Y42.103
X3.96Y42.092
X3.974Y42.081
X3.988Y42.069
X4.002Y42.056
X4.016Y42.044
X4.029Y42.031
X4.042Y42.018
X4.054Y42.004
X4.066Y41.991
X4.078Y41.977
X4.09Y41.962
X4.101Y41.948
X4.112Y41.933
X4.122Y41.917
X4.132Y41.902
X4.142Y41.886
X4.151Y41.87
X4.161Y41.853
X4.171Y41.87
X4.18Y41.886
X4.189Y41.902
X4.199Y41.917
X4.21Y41.933
X4.221Y41.948
X4.232Y41.962
X4.243Y41.977
X4.255Y41.991
X4.267Y42.004
X4.28Y42.018
X4.293Y42.031
X4.306Y42.044
X4.319Y42.056
X4.333Y42.069
X4.347Y42.08
X4.362Y42.092
X4.376Y42.103
X4.391Y42.114
X4.406Y42.124
X4.422Y42.134
X4.437Y42.144
X4.453Y42.153
X4.47Y42.162
X4.486Y42.171
X4.502Y42.179
X4.519Y42.186
X4.536Y42.194
X4.553Y42.2
X4.57Y42.207
X4.588Y42.213
X4.605Y42.218
X4.623Y42.224
X4.641Y42.228
X4.659Y42.233
X4.677Y42.236
X4.695Y42.24
X4.713Y42.243
X4.731Y42.245
X4.75Y42.247
X4.768Y42.249
X4.786Y42.25
X4.805Y42.251
X4.823Y42.251
X15.736Y42.252
X15.735Y52.153
X4.823
G0Z2
(Tool: D = 1.5 mm  type END flutes 2)
S12000M03
G00 Z2.0

X76.3Y84.385
G1Z-2F100
X83.392Y84.386F200
Y84.407
X76.3Y84.406
X76.3Y84.385
Z-4F100
X83.392Y84.386F200
Y84.407
X76.3Y84.406
X76.3Y84.385
Z-6F100
X83.392Y84.386F200
Y84.407
X76.3Y84.406
X76.3Y84.385
Z-8F100
X83.392Y84.386F200
Y84.407
X76.3Y84.406
X76.3Y84.385
Z-10F100
X83.392Y84.386F200
Y84.407
X76.3Y84.406
X76.3Y84.385
Z-12F100
X83.392Y84.386F200
Y84.407
X76.3Y84.406
X76.3Y84.385
Z-14F100
X83.392Y84.386F200
Y84.407
X76.3Y84.406
X76.3Y84.385
Z-14.009F100
X83.392Y84.386F200
Y84.407
X76.3Y84.406
X76.3Y84.385
G0Z2
(Tool: D = 1.5 mm  type END flutes 2)
S12000M03
G00 Z2.0

X126.433Y4.35
G1Z-2F100
X133.525F200
X133.525Y4.372
X126.433Y4.371
X126.433Y4.35
G0Z2
Y85.231
G1Z-2F100
X133.525F200
X133.525Y85.253
X126.433Y85.252
X126.433Y85.231
G0Z2
Y4.35
G1Z-4F100
X133.525F200
X133.525Y4.372
X126.433Y4.371
X126.433Y4.35
G0Z2
Y85.231
G1Z-4F100
X133.525F200
X133.525Y85.253
X126.433Y85.252
X126.433Y85.231
G0Z2
Y4.35
G1Z-6F100
X133.525F200
X133.525Y4.372
X126.433Y4.371
X126.433Y4.35
G0Z2
Y85.231
G1Z-6F100
X133.525F200
X133.525Y85.253
X126.433Y85.252
X126.433Y85.231
G0Z2
Y4.35
G1Z-8F100
X133.525F200
X133.525Y4.372
X126.433Y4.371
X126.433Y4.35
G0Z2
Y85.231
G1Z-8F100
X133.525F200
X133.525Y85.253
X126.433Y85.252
X126.433Y85.231
G0Z2
Y4.35
G1Z-8.383F100
X133.525F200
X133.525Y4.372
X126.433Y4.371
X126.433Y4.35
G0Z2
Y85.231
G1Z-8.383F100
X133.525F200
X133.525Y85.253
X126.433Y85.252
X126.433Y85.231
G0Z2
(Tool: D = 1.5 mm  type END flutes 2)
S12000M03
G00 Z2.0

X140.188Y84.787
G1Z-3.231F100
Y86.187F200
G0Z2
X140.688Y84.187
G1Z-3.231F100
Y86.187F200
G0Z2
X141.188Y63.186
G1Z-4F100
Y85.187F200
Y85.387Z-3.231
Y86.187
G0Z2
X141.688Y63.186
G1Z-4F100
Y85.187F200
Y85.387Z-3.231
Y86.187
G0Z2
X142.188Y63.186
G1Z-4F100
Y85.187F200
Y85.387Z-3.231
Y86.187
G0Z2
X142.688Y63.186
G1Z-4F100
Y85.187F200
Y85.387Z-3.231
Y86.187
G0Z2
X143.188Y63.186
G1Z-4F100
Y85.187F200
Y85.387Z-3.231
Y86.187
G0Z2
X143.688Y62.586
G1Z-4F100
Y85.187F200
Y85.387Z-3.231
Y86.187
G0Z2
X144.188Y14.186
G1Z-4F100
Y85.187F200
Y85.387Z-3.231
Y86.187
G0Z2
X144.688Y14.186
G1Z-4F100
Y85.187F200
Y85.387Z-3.231
Y86.187
G0Z2
X145.188Y62.986
G1Z-3.231F100
Y69.386F200
Y69.586Z-4F100
Y78.586F200
Y78.786Z-3.231
Y86.187
G0Z2
X145.688Y63.186
G1Z-3.231F100
Y69.386F200
Y69.586Z-4F100
Y78.386F200
Y78.586Z-3.231
Y86.187
G0Z2
X146.188Y62.986
G1Z-3.231F100
Y69.386F200
Y69.586Z-4F100
Y78.386F200
Y78.586Z-3.231
Y86.187
G0Z2
X146.688Y62.786
G1Z-3.231F100
Y69.386F200
Y69.586Z-4F100
Y78.386F200
Y78.586Z-3.231
Y86.187
G0Z2
X147.188Y62.786
G1Z-3.231F100
Y69.386F200
Y69.586Z-4F100
Y78.386F200
Y78.586Z-3.231
Y86.187
G0Z2
X141.188Y63.186
G1Z-6F100
Y85.187F200
Z-4
G0Z2
X141.688Y63.186
G1Z-6F100
Y85.187F200
Z-4
G0Z2
X142.188Y63.186
G1Z-6F100
Y85.187F200
Z-4
G0Z2
X142.688Y63.186
G1Z-6F100
Y85.187F200
Z-4
G0Z2
X143.188Y63.186
G1Z-6F100
Y85.187F200
Z-4
G0Z2
X143.688Y62.586
G1Z-6F100
Y85.187F200
Z-4
G0Z2
X144.188Y14.186
G1Z-6F100
Y85.187Z-6F200
Z-4
G0Z2
X144.688Y14.186
G1Z-6F100
Y85.187Z-6F200
Z-4
G0Z2
X145.188Y69.586
G1Z-4F100
Z-6
Y78.586F200
Z-4
G0Z2
X145.688Y69.586
G1Z-4F100
Z-6
Y78.386F200
Z-4
G0Z2
X146.188Y69.586
G1Z-4F100
Z-6
Y78.386F200
Z-4
G0Z2
X146.688Y69.586
G1Z-4F100
Z-6
Y78.386F200
Z-4
G0Z2
X147.188Y69.586
G1Z-4F100
Z-6
Y78.386F200
Z-4
G0Z2
X141.188Y63.186
G1Z-8F100
Y85.187F200
Z-6
G0Z2
X141.688Y63.186
G1Z-8F100
Y85.187F200
Z-6
G0Z2
X142.188Y63.186
G1Z-8F100
Y85.187F200
Z-6
G0Z2
X142.688Y63.186
G1Z-8F100
Y85.187F200
Z-6
G0Z2
X143.188Y63.186
G1Z-8F100
Y85.187F200
Z-6
G0Z2
X143.688Y62.586
G1Z-8F100
Y85.187F200
Z-6
G0Z2
X144.188Y14.186
G1Z-8F100
Y85.187F200
Z-6
G0Z2
X144.688Y14.186
G1Z-8F100
Y85.187F200
Z-6
G0Z2
X145.188Y69.586
G1Z-6F100
Z-8
Y78.586F200
Z-6
G0Z2
X145.688Y69.586
G1Z-6F100
Z-8
Y78.386F200
Z-6
G0Z2
X146.188Y69.586
G1Z-6F100
Z-8
Y78.386F200
Z-6
G0Z2
X146.688Y69.586
G1Z-6F100
Z-8
Y78.386F200
Z-6
G0Z2
X147.188Y69.586
G1Z-6F100
Z-8
Y78.386F200
Z-6
G0Z2
X141.188Y63.186
G1Z-9.731F100
Y85.187F200
Z-8
G0Z2
X141.688Y63.186
G1Z-9.731F100
Y85.187F200
Z-8
G0Z2
X142.188Y63.186
G1Z-9.731F100
Y85.187F200
Z-8
G0Z2
X142.688Y63.186
G1Z-9.731F100
Y85.187F200
Z-8
G0Z2
X143.188Y63.186
G1Z-9.731F100
Y85.187F200
Z-8
G0Z2
X143.688Y62.586
G1Z-9.731F100
Y85.187F200
Z-8
G0Z2
X144.188Y14.186
G1Z-10F100
Y85.187F200
Z-8
G0Z2
X144.688Y14.186
G1Z-10F100
Y85.187F200
Z-8
G0Z2
X145.188Y69.586
G1Z-7.999F100
Z-9.731
Y78.586F200
Z-8
G0Z2
X145.688Y69.586
G1Z-7.999F100
Z-9.731
Y78.386F200
Z-8
G0Z2
X146.188Y69.586
G1Z-7.999F100
Z-9.731
Y78.386F200
Z-8
G0Z2
X146.688Y69.586
G1Z-7.999F100
Z-9.731
Y78.386F200
Z-8
G0Z2
X147.188Y69.586
G1Z-7.999F100
Z-9.731
Y78.386F200
Z-8
G0Z2
X144.188Y14.186
G1Z-11.231F100
Y85.187F200
Z-10
G0Z2
X144.688Y14.186
G1Z-11.231F100
Y85.187F200
Z-10
G0Z2
(Tool: D = 1.5 mm  type END flutes 2)
S12000M03
G00 Z2.0

X93.351Y3.062
G1Z-4F100
X93.846Y2.567F200
X101.619Y2.568
X102.114Y3.063
X93.351Y3.062
X93.638Y2.067
X101.826Y2.068
X103.321Y3.563
X92.144Y3.562
X93.638Y2.067
X93.431Y1.567
X102.033Y1.568
X104.528Y4.063
X90.937Y4.062
X93.431Y1.567
X93.224Y1.067
X102.24Y1.068
X105.734Y4.563
X89.73Y4.562
X93.224Y1.067
G0Z2
X93.351Y3.062
G1Z-6F100
X93.846Y2.567F200
X101.619Y2.568
X102.114Y3.063
X93.351Y3.062
X93.638Y2.067
X101.826Y2.068
X103.321Y3.563
X92.144Y3.562
X93.638Y2.067
X93.431Y1.567
X102.033Y1.568
X104.528Y4.063
X90.937Y4.062
X93.431Y1.567
X93.224Y1.067
X102.24Y1.068
X105.734Y4.563
X89.73Y4.562
X93.224Y1.067
G0Z2
X93.351Y3.062
G1Z-8F100
X93.846Y2.567F200
X101.619Y2.568
X102.114Y3.063
X93.351Y3.062
X93.638Y2.067
X101.826Y2.068
X103.321Y3.563
X92.144Y3.562
X93.638Y2.067
X93.431Y1.567
X102.033Y1.568
X104.528Y4.063
X90.937Y4.062
X93.431Y1.567
X93.224Y1.067
X102.24Y1.068
X105.734Y4.563
X89.73Y4.562
X93.224Y1.067
G0Z2
X93.351Y3.062
G1Z-9.75F100
X93.846Y2.567F200
X101.619Y2.568
X102.114Y3.063
X93.351Y3.062
X93.638Y2.067
X101.826Y2.068
X103.321Y3.563
X92.144Y3.562
X93.638Y2.067
X93.431Y1.567
X102.033Y1.568
X104.528Y4.063
X90.937Y4.062
X93.431Y1.567
X93.224Y1.067
X102.24Y1.068
X105.734Y4.563
X89.73Y4.562
X93.224Y1.067
G0Z2
(Tool: D = 1.5 mm  type END flutes 2)
S12000M03
G00 Z2.0

X113.149Y3.705
G1Z-4F100
X125.886Y3.706F200
X125.886Y3.756
X113.149Y3.755
Y3.705
X112.649Y3.205
X126.387Y3.206
X126.386Y4.256
X112.649Y4.255
X112.649Y3.205
X112.149Y2.705
X126.887Y2.706
X126.886Y4.756
X112.149Y4.755
X112.149Y2.705
G0Z2
X113.149Y3.705
G1Z-6F100
X125.886Y3.706F200
X125.886Y3.756
X113.149Y3.755
Y3.705
X112.649Y3.205
X126.387Y3.206
X126.386Y4.256
X112.649Y4.255
X112.649Y3.205
X112.149Y2.705
X126.887Y2.706
X126.886Y4.756
X112.149Y4.755
X112.149Y2.705
G0Z2
X113.149Y3.705
G1Z-8F100
X125.886Y3.706F200
X125.886Y3.756
X113.149Y3.755
Y3.705
X112.649Y3.205
X126.387Y3.206
X126.386Y4.256
X112.649Y4.255
X112.649Y3.205
X112.149Y2.705
X126.887Y2.706
X126.886Y4.756
X112.149Y4.755
X112.149Y2.705
G0Z2
X113.149Y3.705
G1Z-10F100
X125.886Y3.706F200
X125.886Y3.756
X113.149Y3.755
Y3.705
X112.649Y3.205
X126.387Y3.206
X126.386Y4.256
X112.649Y4.255
X112.649Y3.205
X112.149Y2.705
X126.887Y2.706
X126.886Y4.756
X112.149Y4.755
X112.149Y2.705
G0Z2
X113.149Y3.705
G1Z-12F100
X125.886Y3.706F200
X125.886Y3.756
X113.149Y3.755
Y3.705
X112.649Y3.205
X126.387Y3.206
X126.386Y4.256
X112.649Y4.255
X112.649Y3.205
X112.149Y2.705
X126.887Y2.706
X126.886Y4.756
X112.149Y4.755
X112.149Y2.705
G0Z2
X113.149Y3.705
G1Z-13F100
X125.886Y3.706F200
X125.886Y3.756
X113.149Y3.755
Y3.705
X112.649Y3.205
X126.387Y3.206
X126.386Y4.256
X112.649Y4.255
X112.649Y3.205
X112.149Y2.705
X126.887Y2.706
X126.886Y4.756
X112.149Y4.755
X112.149Y2.705
G0Z2
(Tool: D = 1.5 mm  type END flutes 2)
S12000M03
G00 Z2.0

X59.711Y22.701
G1Z-5F100
X60.822Y22.498F200
X60.82Y22.905
X59.711Y22.701
X60.956Y23.438
X56.941Y22.701
X60.991Y21.958
X61.081Y21.94
X61.17Y21.919
X61.258Y21.896
X61.325Y21.877
X61.325Y23.526
X61.188Y23.489
X61.099Y23.468
X61.009Y23.449
X60.956Y23.438
X60.865Y23.93
X56.029Y23.042
X56.029Y22.36
X60.895Y21.467
X60.972Y21.451
X61.05Y21.433
X61.126Y21.414
X61.203Y21.392
X61.278Y21.369
X61.353Y21.343
X61.428Y21.316
X61.501Y21.287
X61.575Y21.257
X61.647Y21.224
X61.718Y21.19
X61.789Y21.154
X61.825Y21.135
X61.825Y24.268
X61.735Y24.221
X61.664Y24.187
X61.592Y24.154
X61.519Y24.123
X61.445Y24.093
X61.371Y24.066
X61.296Y24.04
X61.22Y24.016
X61.144Y23.994
X61.068Y23.974
X60.991Y23.956
X60.913Y23.939
X60.865Y23.93
X60.775Y24.422
X55.529Y23.459
X55.529Y21.944
X60.799Y20.977
X60.864Y20.963
X60.93Y20.948
X60.995Y20.931
X61.059Y20.913
X61.123Y20.893
X61.187Y20.872
X61.25Y20.849
X61.312Y20.825
X61.374Y20.799
X61.435Y20.771
X61.495Y20.742
X61.555Y20.712
X61.614Y20.68
X61.672Y20.647
X61.73Y20.612
X61.786Y20.576
X61.842Y20.539
X61.896Y20.5
X61.95Y20.46
X62.003Y20.418
X62.055Y20.376
X62.105Y20.332
X62.155Y20.287
X62.203Y20.24
X62.251Y20.193
X62.297Y20.144
X62.325Y20.113
X62.325Y25.29
X62.263Y25.223
X62.216Y25.176
X62.168Y25.129
X62.119Y25.084
X62.069Y25.039
X62.017Y24.996
X61.965Y24.955
X61.911Y24.914
X61.857Y24.875
X61.802Y24.837
X61.745Y24.801
X61.688Y24.766
X61.63Y24.732
X61.572Y24.7
X61.512Y24.669
X61.452Y24.64
X61.391Y24.612
X61.329Y24.585
X61.267Y24.561
X61.204Y24.537
X61.141Y24.515
X61.077Y24.495
X61.012Y24.477
X60.948Y24.459
X60.882Y24.444
X60.817Y24.43
X60.775Y24.422
X60.685Y24.914
X55.029Y23.875
X55.029Y21.527
X60.702Y20.486
X60.756Y20.475
X60.81Y20.463
X60.863Y20.449
X60.916Y20.434
X60.968Y20.418
X61.02Y20.401
X61.071Y20.382
X61.123Y20.362
X61.173Y20.341
X61.223Y20.318
X61.273Y20.295
X61.322Y20.27
X61.37Y20.244
X61.417Y20.217
X61.464Y20.188
X61.511Y20.159
X61.556Y20.128
X61.601Y20.097
X61.645Y20.064
X61.688Y20.03
X61.73Y19.995
X61.772Y19.959
X61.812Y19.922
X61.852Y19.884
X61.891Y19.846
X61.929Y19.806
X61.965Y19.765
X62.001Y19.724
X62.036Y19.681
X62.07Y19.638
X62.102Y19.594
X62.134Y19.549
X62.164Y19.503
X62.194Y19.457
X62.222Y19.41
X62.249Y19.362
X62.275Y19.314
X62.299Y19.265
X62.323Y19.216
X62.345Y19.165
X62.366Y19.115
X62.386Y19.064
X62.405Y19.012
X62.422Y18.96
X62.438Y18.908
X62.453Y18.855
X62.466Y18.802
X62.478Y18.748
X62.489Y18.694
X62.499Y18.64
X62.507Y18.586
X62.514Y18.532
X62.519Y18.477
X62.524Y18.423
X62.527Y18.368
X62.528Y18.313
X62.528Y18.276
Y17.392
X62.826
X62.825Y27.959
X62.528Y27.959
X62.528Y27.108
X62.527Y27.054
X62.525Y26.999
X62.521Y26.944
X62.516Y26.89
X62.509Y26.835
X62.502Y26.781
X62.493Y26.727
X62.482Y26.673
X62.47Y26.619
X62.457Y26.566
X62.443Y26.513
X62.427Y26.461
X62.411Y26.408
X62.392Y26.357
X62.373Y26.305
X62.352Y26.255
X62.331Y26.204
X62.307Y26.155
X62.283Y26.105
X62.258Y26.057
X62.231Y26.009
X62.203Y25.962
X62.174Y25.915
X62.144Y25.869
X62.113Y25.824
X62.081Y25.78
X62.047Y25.736
X62.013Y25.694
X61.977Y25.652
X61.941Y25.611
X61.904Y25.571
X61.865Y25.532
X61.826Y25.493
X61.786Y25.456
X61.744Y25.42
X61.702Y25.385
X61.659Y25.351
X61.616Y25.317
X61.571Y25.285
X61.526Y25.254
X61.48Y25.225
X61.433Y25.196
X61.386Y25.168
X61.338Y25.142
X61.289Y25.117
X61.24Y25.093
X61.19Y25.07
X61.14Y25.048
X61.089Y25.028
X61.037Y25.009
X60.986Y24.991
X60.933Y24.974
X60.881Y24.959
X60.828Y24.945
X60.774Y24.932
X60.721Y24.921
X60.685Y24.914
X60.594Y25.406
X54.529Y24.292
X54.529Y21.111
X60.606Y19.995
X60.648Y19.987
X60.69Y19.977
X60.731Y19.967
X60.772Y19.955
X60.813Y19.943
X60.853Y19.929
X60.893Y19.915
X60.933Y19.899
X60.972Y19.883
X61.011Y19.865
X61.05Y19.847
X61.088Y19.828
X61.126Y19.808
X61.163Y19.787
X61.199Y19.765
X61.235Y19.742
X61.271Y19.718
X61.305Y19.693
X61.34Y19.668
X61.373Y19.642
X61.406Y19.614
X61.438Y19.587
X61.47Y19.558
X61.501Y19.529
X61.531Y19.498
X61.56Y19.467
X61.589Y19.436
X61.617Y19.404
X61.644Y19.371
X61.67Y19.337
X61.696Y19.303
X61.72Y19.268
X61.744Y19.232
X61.767Y19.196
X61.789Y19.16
X61.81Y19.123
X61.83Y19.085
X61.849Y19.047
X61.868Y19.009
X61.885Y18.97
X61.902Y18.93
X61.917Y18.891
X61.932Y18.851
X61.945Y18.81
X61.958Y18.769
X61.969Y18.728
X61.98Y18.687
X61.989Y18.645
X61.998Y18.603
X62.005Y18.561
X62.011Y18.519
X62.017Y18.477
X62.021Y18.435
X62.025Y18.392
X62.027Y18.349
X62.028Y18.307
X62.028Y18.276
Y16.892
X63.326Y16.892
X63.325Y28.459
X62.028Y28.459
X62.028Y27.115
X62.028Y27.072
X62.026Y27.029
X62.023Y26.987
X62.019Y26.944
X62.014Y26.902
X62.008Y26.86
X62.001Y26.818
X61.993Y26.776
X61.984Y26.734
X61.974Y26.693
X61.963Y26.651
X61.951Y26.611
X61.937Y26.57
X61.923Y26.53
X61.908Y26.49
X61.892Y26.45
X61.875Y26.411
X61.857Y26.372
X61.839Y26.334
X61.819Y26.296
X61.798Y26.259
X61.777Y26.222
X61.754Y26.186
X61.731Y26.15
X61.706Y26.115
X61.681Y26.081
X61.655Y26.047
X61.629Y26.014
X61.601Y25.981
X61.573Y25.949
X61.544Y25.918
X61.514Y25.888
X61.483Y25.858
X61.452Y25.829
X61.42Y25.801
X61.388Y25.773
X61.354Y25.746
X61.32Y25.721
X61.286Y25.696
X61.25Y25.672
X61.215Y25.648
X61.178Y25.626
X61.142Y25.604
X61.104Y25.584
X61.066Y25.564
X61.028Y25.545
X60.989Y25.528
X60.95Y25.511
X60.911Y25.495
X60.871Y25.48
X60.83Y25.466
X60.79Y25.453
X60.749Y25.441
X60.708Y25.43
X60.666Y25.42
X60.624Y25.411
X60.594Y25.406
X60.504Y25.897
X54.029Y24.708
X54.029Y20.694
X60.51Y19.505
X60.54Y19.499
X60.57Y19.492
X60.599Y19.485
X60.628Y19.476
X60.658Y19.467
X60.687Y19.458
X60.715Y19.448
X60.744Y19.437
X60.772Y19.425
X60.8Y19.413
X60.827Y19.399
X60.854Y19.386
X60.881Y19.371
X60.908Y19.356
X60.934Y19.341
X60.96Y19.324
X60.985Y19.308
X61.01Y19.29
X61.034Y19.272
X61.058Y19.253
X61.082Y19.234
X61.105Y19.214
X61.128Y19.194
X61.15Y19.173
X61.171Y19.151
X61.192Y19.129
X61.213Y19.107
X61.233Y19.084
X61.252Y19.06
X61.271Y19.036
X61.289Y19.012
X61.307Y18.987
X61.324Y18.961
X61.34Y18.936
X61.356Y18.91
X61.371Y18.883
X61.386Y18.856
X61.399Y18.829
X61.413Y18.802
X61.425Y18.774
X61.437Y18.746
X61.448Y18.718
X61.458Y18.689
X61.468Y18.66
X61.477Y18.631
X61.485Y18.602
X61.493Y18.572
X61.5Y18.542
X61.506Y18.513
X61.511Y18.483
X61.516Y18.452
X61.52Y18.422
X61.523Y18.392
X61.525Y18.362
X61.527Y18.331
X61.528Y18.301
X61.528Y18.276
Y16.392
X62.915
X63.826Y16.392
X63.825Y28.959
X62.915
X61.528Y28.959
X61.528Y27.121
X61.528Y27.09
X61.527Y27.06
X61.525Y27.029
X61.522Y26.999
X61.518Y26.969
X61.514Y26.939
X61.509Y26.909
X61.504Y26.879
X61.497Y26.849
X61.49Y26.819
X61.482Y26.79
X61.474Y26.761
X61.464Y26.732
X61.454Y26.703
X61.444Y26.674
X61.432Y26.646
X61.42Y26.618
X61.407Y26.59
X61.394Y26.563
X61.38Y26.536
X61.365Y26.509
X61.35Y26.483
X61.334Y26.457
X61.317Y26.432
X61.3Y26.406
X61.282Y26.382
X61.264Y26.357
X61.245Y26.334
X61.225Y26.31
X61.205Y26.288
X61.184Y26.265
X61.163Y26.243
X61.141Y26.222
X61.119Y26.201
X61.096Y26.181
X61.073Y26.162
X61.049Y26.142
X61.025Y26.124
X61Y26.106
X60.975Y26.089
X60.949Y26.072
X60.924Y26.056
X60.897Y26.041
X60.871Y26.026
X60.844Y26.012
X60.816Y25.998
X60.789Y25.986
X60.761Y25.974
X60.732Y25.962
X60.704Y25.951
X60.675Y25.941
X60.646Y25.932
X60.617Y25.923
X60.587Y25.916
X60.558Y25.908
X60.528Y25.902
X60.504Y25.897
X60.414Y26.389
X53.528Y25.125
X53.529Y20.277
X60.414Y19.014
X60.432Y19.011
X60.45Y19.007
X60.467Y19.002
X60.485Y18.997
X60.502Y18.992
X60.52Y18.986
X60.537Y18.98
X60.554Y18.974
X60.571Y18.967
X60.588Y18.96
X60.604Y18.952
X60.621Y18.944
X60.637Y18.935
X60.653Y18.926
X60.669Y18.917
X60.684Y18.907
X60.699Y18.897
X60.714Y18.887
X60.729Y18.876
X60.744Y18.865
X60.758Y18.853
X60.772Y18.841
X60.785Y18.829
X60.799Y18.817
X60.812Y18.804
X60.824Y18.791
X60.837Y18.777
X60.849Y18.763
X60.86Y18.749
X60.872Y18.735
X60.883Y18.72
X60.893Y18.706
X60.904Y18.691
X60.914Y18.675
X60.923Y18.66
X60.932Y18.644
X60.941Y18.628
X60.949Y18.611
X60.957Y18.595
X60.965Y18.578
X60.972Y18.562
X60.979Y18.545
X60.985Y18.527
X60.991Y18.51
X60.997Y18.493
X61.002Y18.475
X61.006Y18.457
X61.01Y18.44
X61.014Y18.422
X61.018Y18.404
X61.02Y18.386
X61.023Y18.368
X61.025Y18.349
X61.026Y18.331
X61.028Y18.313
X61.028Y18.295
X61.028Y18.276
Y15.892
X62.915
X64.326Y15.892
X64.325Y29.459
X62.915
X61.028Y29.458
Y27.127
X61.028Y27.108
X61.028Y27.09
X61.026Y27.072
X61.025Y27.054
X61.023Y27.036
X61.02Y27.017
X61.018Y26.999
X61.014Y26.981
X61.01Y26.964
X61.006Y26.946
X61.002Y26.928
X60.997Y26.911
X60.991Y26.893
X60.985Y26.876
X60.979Y26.859
X60.972Y26.842
X60.965Y26.825
X60.957Y26.808
X60.949Y26.792
X60.941Y26.775
X60.932Y26.759
X60.923Y26.744
X60.914Y26.728
X60.904Y26.713
X60.893Y26.698
X60.883Y26.683
X60.872Y26.668
X60.86Y26.654
X60.849Y26.64
X60.837Y26.626
X60.824Y26.612
X60.812Y26.599
X60.799Y26.586
X60.785Y26.574
X60.772Y26.562
X60.758Y26.55
X60.744Y26.538
X60.729Y26.527
X60.714Y26.516
X60.699Y26.506
X60.684Y26.496
X60.669Y26.486
X60.653Y26.477
X60.637Y26.468
X60.621Y26.459
X60.604Y26.451
X60.588Y26.444
X60.571Y26.436
X60.554Y26.429
X60.537Y26.423
X60.52Y26.417
X60.503Y26.411
X60.485Y26.406
X60.467Y26.401
X60.45Y26.397
X60.432Y26.393
X60.414Y26.389
G0Z2
X59.711Y22.701
G1Z-6.75F100
X60.822Y22.498F200
X60.82Y22.905
X59.711Y22.701
X60.956Y23.438
X56.941Y22.701
X60.991Y21.958
X61.081Y21.94
X61.17Y21.919
X61.258Y21.896
X61.325Y21.877
X61.325Y23.526
X61.188Y23.489
X61.099Y23.468
X61.009Y23.449
X60.956Y23.438
X60.865Y23.93
X56.029Y23.042
X56.029Y22.36
X60.895Y21.467
X60.972Y21.451
X61.05Y21.433
X61.126Y21.414
X61.203Y21.392
X61.278Y21.369
X61.353Y21.343
X61.428Y21.316
X61.501Y21.287
X61.575Y21.257
X61.647Y21.224
X61.718Y21.19
X61.789Y21.154
X61.825Y21.135
X61.825Y24.268
X61.735Y24.221
X61.664Y24.187
X61.592Y24.154
X61.519Y24.123
X61.445Y24.093
X61.371Y24.066
X61.296Y24.04
X61.22Y24.016
X61.144Y23.994
X61.068Y23.974
X60.991Y23.956
X60.913Y23.939
X60.865Y23.93
X60.775Y24.422
X55.529Y23.459
X55.529Y21.944
X60.799Y20.977
X60.864Y20.963
X60.93Y20.948
X60.995Y20.931
X61.059Y20.913
X61.123Y20.893
X61.187Y20.872
X61.25Y20.849
X61.312Y20.825
X61.374Y20.799
X61.435Y20.771
X61.495Y20.742
X61.555Y20.712
X61.614Y20.68
X61.672Y20.647
X61.73Y20.612
X61.786Y20.576
X61.842Y20.539
X61.896Y20.5
X61.95Y20.46
X62.003Y20.418
X62.055Y20.376
X62.105Y20.332
X62.155Y20.287
X62.203Y20.24
X62.251Y20.193
X62.297Y20.144
X62.325Y20.113
X62.325Y25.29
X62.263Y25.223
X62.216Y25.176
X62.168Y25.129
X62.119Y25.084
X62.069Y25.039
X62.017Y24.996
X61.965Y24.955
X61.911Y24.914
X61.857Y24.875
X61.802Y24.837
X61.745Y24.801
X61.688Y24.766
X61.63Y24.732
X61.572Y24.7
X61.512Y24.669
X61.452Y24.64
X61.391Y24.612
X61.329Y24.585
X61.267Y24.561
X61.204Y24.537
X61.141Y24.515
X61.077Y24.495
X61.012Y24.477
X60.948Y24.459
X60.882Y24.444
X60.817Y24.43
X60.775Y24.422
X60.685Y24.914
X55.029Y23.875
X55.029Y21.527
X60.702Y20.486
X60.756Y20.475
X60.81Y20.463
X60.863Y20.449
X60.916Y20.434
X60.968Y20.418
X61.02Y20.401
X61.071Y20.382
X61.123Y20.362
X61.173Y20.341
X61.223Y20.318
X61.273Y20.295
X61.322Y20.27
X61.37Y20.244
X61.417Y20.217
X61.464Y20.188
X61.511Y20.159
X61.556Y20.128
X61.601Y20.097
X61.645Y20.064
X61.688Y20.03
X61.73Y19.995
X61.772Y19.959
X61.812Y19.922
X61.852Y19.884
X61.891Y19.846
X61.929Y19.806
X61.965Y19.765
X62.001Y19.724
X62.036Y19.681
X62.07Y19.638
X62.102Y19.594
X62.134Y19.549
X62.164Y19.503
X62.194Y19.457
X62.222Y19.41
X62.249Y19.362
X62.275Y19.314
X62.299Y19.265
X62.323Y19.216
X62.345Y19.165
X62.366Y19.115
X62.386Y19.064
X62.405Y19.012
X62.422Y18.96
X62.438Y18.908
X62.453Y18.855
X62.466Y18.802
X62.478Y18.748
X62.489Y18.694
X62.499Y18.64
X62.507Y18.586
X62.514Y18.532
X62.519Y18.477
X62.524Y18.423
X62.527Y18.368
X62.528Y18.313
X62.528Y18.276
Y17.392
X62.826
X62.825Y27.959
X62.528Y27.959
X62.528Y27.108
X62.527Y27.054
X62.525Y26.999
X62.521Y26.944
X62.516Y26.89
X62.509Y26.835
X62.502Y26.781
X62.493Y26.727
X62.482Y26.673
X62.47Y26.619
X62.457Y26.566
X62.443Y26.513
X62.427Y26.461
X62.411Y26.408
X62.392Y26.357
X62.373Y26.305
X62.352Y26.255
X62.331Y26.204
X62.307Y26.155
X62.283Y26.105
X62.258Y26.057
X62.231Y26.009
X62.203Y25.962
X62.174Y25.915
X62.144Y25.869
X62.113Y25.824
X62.081Y25.78
X62.047Y25.736
X62.013Y25.694
X61.977Y25.652
X61.941Y25.611
X61.904Y25.571
X61.865Y25.532
X61.826Y25.493
X61.786Y25.456
X61.744Y25.42
X61.702Y25.385
X61.659Y25.351
X61.616Y25.317
X61.571Y25.285
X61.526Y25.254
X61.48Y25.225
X61.433Y25.196
X61.386Y25.168
X61.338Y25.142
X61.289Y25.117
X61.24Y25.093
X61.19Y25.07
X61.14Y25.048
X61.089Y25.028
X61.037Y25.009
X60.986Y24.991
X60.933Y24.974
X60.881Y24.959
X60.828Y24.945
X60.774Y24.932
X60.721Y24.921
X60.685Y24.914
X60.594Y25.406
X54.529Y24.292
X54.529Y21.111
X60.606Y19.995
X60.648Y19.987
X60.69Y19.977
X60.731Y19.967
X60.772Y19.955
X60.813Y19.943
X60.853Y19.929
X60.893Y19.915
X60.933Y19.899
X60.972Y19.883
X61.011Y19.865
X61.05Y19.847
X61.088Y19.828
X61.126Y19.808
X61.163Y19.787
X61.199Y19.765
X61.235Y19.742
X61.271Y19.718
X61.305Y19.693
X61.34Y19.668
X61.373Y19.642
X61.406Y19.614
X61.438Y19.587
X61.47Y19.558
X61.501Y19.529
X61.531Y19.498
X61.56Y19.467
X61.589Y19.436
X61.617Y19.404
X61.644Y19.371
X61.67Y19.337
X61.696Y19.303
X61.72Y19.268
X61.744Y19.232
X61.767Y19.196
X61.789Y19.16
X61.81Y19.123
X61.83Y19.085
X61.849Y19.047
X61.868Y19.009
X61.885Y18.97
X61.902Y18.93
X61.917Y18.891
X61.932Y18.851
X61.945Y18.81
X61.958Y18.769
X61.969Y18.728
X61.98Y18.687
X61.989Y18.645
X61.998Y18.603
X62.005Y18.561
X62.011Y18.519
X62.017Y18.477
X62.021Y18.435
X62.025Y18.392
X62.027Y18.349
X62.028Y18.307
X62.028Y18.276
Y16.892
X63.326Y16.892
X63.325Y28.459
X62.028Y28.459
X62.028Y27.115
X62.028Y27.072
X62.026Y27.029
X62.023Y26.987
X62.019Y26.944
X62.014Y26.902
X62.008Y26.86
X62.001Y26.818
X61.993Y26.776
X61.984Y26.734
X61.974Y26.693
X61.963Y26.651
X61.951Y26.611
X61.937Y26.57
X61.923Y26.53
X61.908Y26.49
X61.892Y26.45
X61.875Y26.411
X61.857Y26.372
X61.839Y26.334
X61.819Y26.296
X61.798Y26.259
X61.777Y26.222
X61.754Y26.186
X61.731Y26.15
X61.706Y26.115
X61.681Y26.081
X61.655Y26.047
X61.629Y26.014
X61.601Y25.981
X61.573Y25.949
X61.544Y25.918
X61.514Y25.888
X61.483Y25.858
X61.452Y25.829
X61.42Y25.801
X61.388Y25.773
X61.354Y25.746
X61.32Y25.721
X61.286Y25.696
X61.25Y25.672
X61.215Y25.648
X61.178Y25.626
X61.142Y25.604
X61.104Y25.584
X61.066Y25.564
X61.028Y25.545
X60.989Y25.528
X60.95Y25.511
X60.911Y25.495
X60.871Y25.48
X60.83Y25.466
X60.79Y25.453
X60.749Y25.441
X60.708Y25.43
X60.666Y25.42
X60.624Y25.411
X60.594Y25.406
X60.504Y25.897
X54.029Y24.708
X54.029Y20.694
X60.51Y19.505
X60.54Y19.499
X60.57Y19.492
X60.599Y19.485
X60.628Y19.476
X60.658Y19.467
X60.687Y19.458
X60.715Y19.448
X60.744Y19.437
X60.772Y19.425
X60.8Y19.413
X60.827Y19.399
X60.854Y19.386
X60.881Y19.371
X60.908Y19.356
X60.934Y19.341
X60.96Y19.324
X60.985Y19.308
X61.01Y19.29
X61.034Y19.272
X61.058Y19.253
X61.082Y19.234
X61.105Y19.214
X61.128Y19.194
X61.15Y19.173
X61.171Y19.151
X61.192Y19.129
X61.213Y19.107
X61.233Y19.084
X61.252Y19.06
X61.271Y19.036
X61.289Y19.012
X61.307Y18.987
X61.324Y18.961
X61.34Y18.936
X61.356Y18.91
X61.371Y18.883
X61.386Y18.856
X61.399Y18.829
X61.413Y18.802
X61.425Y18.774
X61.437Y18.746
X61.448Y18.718
X61.458Y18.689
X61.468Y18.66
X61.477Y18.631
X61.485Y18.602
X61.493Y18.572
X61.5Y18.542
X61.506Y18.513
X61.511Y18.483
X61.516Y18.452
X61.52Y18.422
X61.523Y18.392
X61.525Y18.362
X61.527Y18.331
X61.528Y18.301
X61.528Y18.276
Y16.392
X62.915
X63.826Y16.392
X63.825Y28.959
X62.915
X61.528Y28.959
X61.528Y27.121
X61.528Y27.09
X61.527Y27.06
X61.525Y27.029
X61.522Y26.999
X61.518Y26.969
X61.514Y26.939
X61.509Y26.909
X61.504Y26.879
X61.497Y26.849
X61.49Y26.819
X61.482Y26.79
X61.474Y26.761
X61.464Y26.732
X61.454Y26.703
X61.444Y26.674
X61.432Y26.646
X61.42Y26.618
X61.407Y26.59
X61.394Y26.563
X61.38Y26.536
X61.365Y26.509
X61.35Y26.483
X61.334Y26.457
X61.317Y26.432
X61.3Y26.406
X61.282Y26.382
X61.264Y26.357
X61.245Y26.334
X61.225Y26.31
X61.205Y26.288
X61.184Y26.265
X61.163Y26.243
X61.141Y26.222
X61.119Y26.201
X61.096Y26.181
X61.073Y26.162
X61.049Y26.142
X61.025Y26.124
X61Y26.106
X60.975Y26.089
X60.949Y26.072
X60.924Y26.056
X60.897Y26.041
X60.871Y26.026
X60.844Y26.012
X60.816Y25.998
X60.789Y25.986
X60.761Y25.974
X60.732Y25.962
X60.704Y25.951
X60.675Y25.941
X60.646Y25.932
X60.617Y25.923
X60.587Y25.916
X60.558Y25.908
X60.528Y25.902
X60.504Y25.897
X60.414Y26.389
X53.528Y25.125
X53.529Y20.277
X60.414Y19.014
X60.432Y19.011
X60.45Y19.007
X60.467Y19.002
X60.485Y18.997
X60.502Y18.992
X60.52Y18.986
X60.537Y18.98
X60.554Y18.974
X60.571Y18.967
X60.588Y18.96
X60.604Y18.952
X60.621Y18.944
X60.637Y18.935
X60.653Y18.926
X60.669Y18.917
X60.684Y18.907
X60.699Y18.897
X60.714Y18.887
X60.729Y18.876
X60.744Y18.865
X60.758Y18.853
X60.772Y18.841
X60.785Y18.829
X60.799Y18.817
X60.812Y18.804
X60.824Y18.791
X60.837Y18.777
X60.849Y18.763
X60.86Y18.749
X60.872Y18.735
X60.883Y18.72
X60.893Y18.706
X60.904Y18.691
X60.914Y18.675
X60.923Y18.66
X60.932Y18.644
X60.941Y18.628
X60.949Y18.611
X60.957Y18.595
X60.965Y18.578
X60.972Y18.562
X60.979Y18.545
X60.985Y18.527
X60.991Y18.51
X60.997Y18.493
X61.002Y18.475
X61.006Y18.457
X61.01Y18.44
X61.014Y18.422
X61.018Y18.404
X61.02Y18.386
X61.023Y18.368
X61.025Y18.349
X61.026Y18.331
X61.028Y18.313
X61.028Y18.295
X61.028Y18.276
Y15.892
X62.915
X64.326Y15.892
X64.325Y29.459
X62.915
X61.028Y29.458
Y27.127
X61.028Y27.108
X61.028Y27.09
X61.026Y27.072
X61.025Y27.054
X61.023Y27.036
X61.02Y27.017
X61.018Y26.999
X61.014Y26.981
X61.01Y26.964
X61.006Y26.946
X61.002Y26.928
X60.997Y26.911
X60.991Y26.893
X60.985Y26.876
X60.979Y26.859
X60.972Y26.842
X60.965Y26.825
X60.957Y26.808
X60.949Y26.792
X60.941Y26.775
X60.932Y26.759
X60.923Y26.744
X60.914Y26.728
X60.904Y26.713
X60.893Y26.698
X60.883Y26.683
X60.872Y26.668
X60.86Y26.654
X60.849Y26.64
X60.837Y26.626
X60.824Y26.612
X60.812Y26.599
X60.799Y26.586
X60.785Y26.574
X60.772Y26.562
X60.758Y26.55
X60.744Y26.538
X60.729Y26.527
X60.714Y26.516
X60.699Y26.506
X60.684Y26.496
X60.669Y26.486
X60.653Y26.477
X60.637Y26.468
X60.621Y26.459
X60.604Y26.451
X60.588Y26.444
X60.571Y26.436
X60.554Y26.429
X60.537Y26.423
X60.52Y26.417
X60.503Y26.411
X60.485Y26.406
X60.467Y26.401
X60.45Y26.397
X60.432Y26.393
X60.414Y26.389
G0Z2
(Tool: D = 1.5 mm  type END flutes 2)
S12000M03
G00 Z2.0

X62.529Y17.451
G1Z-8.5F100
X62.764Y17.451F200
X62.763Y27.953
X62.529Y27.953
X62.529Y17.451
X62.029Y16.951
X63.264Y16.951
X63.263Y28.453
X62.029Y28.453
X62.029Y16.951
X61.529Y16.451
X63.764Y16.451
X63.763Y28.953
X61.528Y28.953
X61.529Y16.451
X61.029Y15.951
X64.264Y15.951
X64.263Y29.453
X61.028Y29.452
X61.029Y15.951
G0Z2
X62.529Y17.451
G1Z-9.754F100
X62.764Y17.451F200
X62.763Y27.953
X62.529Y27.953
X62.529Y17.451
X62.029Y16.951
X63.264Y16.951
X63.263Y28.453
X62.029Y28.453
X62.029Y16.951
X61.529Y16.451
X63.764Y16.451
X63.763Y28.953
X61.528Y28.953
X61.529Y16.451
X61.029Y15.951
X64.264Y15.951
X64.263Y29.453
X61.028Y29.452
X61.029Y15.951
G0Z2
(Tool: D = 1.5 mm  type END flutes 2)
S12000M03
G00 Z2.0

X62.029Y16.951
G1Z-11.75F100
X62.514Y16.951F200
X62.513Y28.453
X62.028Y28.453
X62.029Y16.951
Z-13.75F100
X62.514Y16.951F200
X62.513Y28.453
X62.028Y28.453
X62.029Y16.951
Z-15.75F100
X62.514Y16.951F200
X62.513Y28.453
X62.028Y28.453
X62.029Y16.951
Z-17.75F100
X62.514Y16.951F200
X62.513Y28.453
X62.028Y28.453
X62.029Y16.951
Z-17.754F100
X62.514Y16.951F200
X62.513Y28.453
X62.028Y28.453
X62.029Y16.951
G0Z2
(Tool: D = 1.5 mm  type END flutes 2)
S12000M03
G00 Z2.0

X60.566Y65.932
G1Z-5F100
X60.683Y65.921F200
X60.774Y65.91
X60.865Y65.897
X60.956Y65.882
X61.046Y65.864
X61.136Y65.844
X61.225Y65.822
X61.325Y65.794
X61.325Y67.938
X61.244Y67.915
X61.155Y67.893
X61.065Y67.872
X60.975Y67.854
X60.884Y67.838
X60.793Y67.824
X60.702Y67.813
X60.61Y67.803
X60.566Y67.8
X60.566Y65.932
X60.527Y65.434
X60.627Y65.424
X60.707Y65.415
X60.786Y65.403
X60.864Y65.39
X60.943Y65.375
X61.02Y65.357
X61.098Y65.338
X61.175Y65.317
X61.251Y65.294
X61.327Y65.269
X61.402Y65.243
X61.477Y65.214
X61.55Y65.184
X61.623Y65.152
X61.696Y65.118
X61.767Y65.082
X61.825Y65.051
X61.825Y68.68
X61.713Y68.622
X61.641Y68.588
X61.568Y68.556
X61.494Y68.525
X61.42Y68.496
X61.345Y68.469
X61.269Y68.444
X61.193Y68.42
X61.116Y68.399
X61.039Y68.379
X60.961Y68.361
X60.883Y68.346
X60.805Y68.332
X60.726Y68.32
X60.647Y68.31
X60.567Y68.302
X60.488Y68.296
X60.408Y68.291
X60.328Y68.289
X60.279Y68.289
X60.066Y68.289
X60.066Y65.443
X60.309Y65.443
X60.389Y65.441
X60.469Y65.438
X60.527Y65.434
X60.488Y64.935
X60.572Y64.927
X60.639Y64.919
X60.706Y64.91
X60.773Y64.898
X60.839Y64.885
X60.905Y64.871
X60.97Y64.855
X61.035Y64.837
X61.1Y64.818
X61.164Y64.797
X61.228Y64.774
X61.291Y64.75
X61.353Y64.724
X61.415Y64.697
X61.476Y64.669
X61.537Y64.638
X61.596Y64.607
X61.655Y64.574
X61.713Y64.539
X61.77Y64.503
X61.827Y64.466
X61.882Y64.427
X61.936Y64.387
X61.99Y64.346
X62.042Y64.303
X62.093Y64.259
X62.143Y64.214
X62.192Y64.168
X62.24Y64.12
X62.287Y64.072
X62.325Y64.03
X62.325Y69.702
X62.253Y69.625
X62.206Y69.577
X62.157Y69.531
X62.107Y69.485
X62.056Y69.441
X62.004Y69.398
X61.951Y69.356
X61.897Y69.316
X61.842Y69.277
X61.786Y69.239
X61.729Y69.203
X61.672Y69.168
X61.613Y69.134
X61.554Y69.102
X61.493Y69.072
X61.432Y69.043
X61.371Y69.015
X61.309Y68.989
X61.246Y68.965
X61.182Y68.942
X61.118Y68.92
X61.054Y68.9
X60.989Y68.882
X60.923Y68.865
X60.858Y68.85
X60.791Y68.837
X60.725Y68.825
X60.658Y68.815
X60.591Y68.807
X60.524Y68.8
X60.457Y68.795
X60.39Y68.791
X60.322Y68.789
X60.279Y68.789
X59.566Y68.789
X59.566Y64.943
X60.303Y64.943
X60.37Y64.942
X60.438Y64.939
X60.488Y64.935
X60.45Y64.437
X60.517Y64.43
X60.572Y64.424
X60.627Y64.416
X60.681Y64.407
X60.735Y64.396
X60.789Y64.384
X60.843Y64.371
X60.896Y64.357
X60.949Y64.341
X61.002Y64.324
X61.054Y64.305
X61.105Y64.286
X61.156Y64.265
X61.207Y64.243
X61.257Y64.219
X61.306Y64.195
X61.355Y64.169
X61.403Y64.142
X61.451Y64.114
X61.498Y64.084
X61.544Y64.054
X61.589Y64.022
X61.633Y63.989
X61.677Y63.956
X61.72Y63.921
X61.762Y63.885
X61.803Y63.848
X61.843Y63.81
X61.882Y63.771
X61.921Y63.731
X61.958Y63.691
X61.994Y63.649
X62.029Y63.606
X62.063Y63.563
X62.097Y63.519
X62.128Y63.474
X62.159Y63.428
X62.189Y63.381
X62.218Y63.334
X62.245Y63.286
X62.271Y63.238
X62.296Y63.188
X62.32Y63.139
X62.343Y63.088
X62.364Y63.037
X62.384Y62.986
X62.403Y62.934
X62.421Y62.882
X62.437Y62.829
X62.452Y62.776
X62.465Y62.722
X62.478Y62.668
X62.489Y62.614
X62.498Y62.56
X62.507Y62.505
X62.514Y62.45
X62.519Y62.395
X62.524Y62.34
X62.526Y62.285
X62.528Y62.23
X62.528Y62.193
Y61.556
X62.826
X62.825Y72.123
X62.528Y72.123
X62.528Y71.52
X62.527Y71.465
X62.525Y71.41
X62.521Y71.355
X62.516Y71.3
X62.509Y71.245
X62.501Y71.19
X62.492Y71.136
X62.481Y71.082
X62.47Y71.028
X62.456Y70.974
X62.442Y70.921
X62.426Y70.868
X62.409Y70.816
X62.391Y70.764
X62.371Y70.712
X62.35Y70.661
X62.328Y70.61
X62.304Y70.56
X62.28Y70.511
X62.254Y70.462
X62.227Y70.414
X62.199Y70.366
X62.17Y70.32
X62.139Y70.274
X62.107Y70.228
X62.075Y70.184
X62.041Y70.14
X62.006Y70.097
X61.97Y70.055
X61.933Y70.014
X61.895Y69.974
X61.857Y69.935
X61.817Y69.897
X61.776Y69.86
X61.734Y69.823
X61.692Y69.788
X61.648Y69.754
X61.604Y69.721
X61.559Y69.689
X61.513Y69.658
X61.467Y69.628
X61.42Y69.6
X61.372Y69.572
X61.323Y69.546
X61.274Y69.521
X61.224Y69.497
X61.174Y69.475
X61.123Y69.453
X61.071Y69.433
X61.02Y69.414
X60.967Y69.397
X60.914Y69.381
X60.861Y69.366
X60.808Y69.352
X60.754Y69.34
X60.7Y69.329
X60.645Y69.319
X60.591Y69.311
X60.536Y69.304
X60.481Y69.298
X60.426Y69.294
X60.371Y69.291
X60.316Y69.289
X60.279Y69.289
X59.066Y69.288
X59.066Y64.443
X60.297Y64.443
X60.352Y64.442
X60.407Y64.44
X60.45Y64.437
X60.413Y63.938
X60.462Y63.934
X60.505Y63.928
X60.547Y63.922
X60.59Y63.915
X60.632Y63.907
X60.674Y63.898
X60.716Y63.888
X60.757Y63.877
X60.798Y63.864
X60.839Y63.851
X60.879Y63.837
X60.92Y63.821
X60.959Y63.805
X60.999Y63.788
X61.038Y63.77
X61.076Y63.751
X61.114Y63.731
X61.152Y63.71
X61.189Y63.688
X61.225Y63.665
X61.261Y63.641
X61.296Y63.617
X61.331Y63.591
X61.365Y63.565
X61.398Y63.538
X61.431Y63.51
X61.463Y63.482
X61.494Y63.452
X61.524Y63.422
X61.554Y63.391
X61.583Y63.359
X61.611Y63.327
X61.639Y63.294
X61.666Y63.26
X61.691Y63.226
X61.716Y63.191
X61.74Y63.155
X61.763Y63.119
X61.786Y63.082
X61.807Y63.045
X61.827Y63.007
X61.847Y62.969
X61.866Y62.93
X61.883Y62.891
X61.9Y62.852
X61.915Y62.812
X61.93Y62.771
X61.944Y62.731
X61.957Y62.689
X61.968Y62.648
X61.979Y62.607
X61.989Y62.565
X61.997Y62.523
X62.005Y62.48
X62.011Y62.438
X62.017Y62.395
X62.021Y62.353
X62.024Y62.31
X62.027Y62.267
X62.028Y62.224
X62.028Y62.193
Y61.056
X63.326Y61.056
X63.325Y72.624
X62.028Y72.623
X62.028Y71.526
X62.028Y71.484
X62.026Y71.441
X62.023Y71.398
X62.019Y71.355
X62.014Y71.312
X62.008Y71.27
X62Y71.228
X61.992Y71.185
X61.983Y71.143
X61.973Y71.102
X61.962Y71.06
X61.949Y71.019
X61.936Y70.978
X61.922Y70.938
X61.907Y70.898
X61.89Y70.858
X61.873Y70.818
X61.855Y70.78
X61.836Y70.741
X61.816Y70.703
X61.795Y70.666
X61.773Y70.629
X61.75Y70.592
X61.727Y70.556
X61.702Y70.521
X61.677Y70.487
X61.651Y70.453
X61.623Y70.419
X61.596Y70.387
X61.567Y70.355
X61.537Y70.323
X61.507Y70.293
X61.476Y70.263
X61.445Y70.234
X61.412Y70.206
X61.379Y70.178
X61.346Y70.152
X61.311Y70.126
X61.276Y70.101
X61.241Y70.077
X61.205Y70.054
X61.168Y70.032
X61.131Y70.01
X61.093Y69.99
X61.055Y69.97
X61.016Y69.952
X60.977Y69.934
X60.937Y69.917
X60.897Y69.902
X60.857Y69.887
X60.816Y69.873
X60.775Y69.861
X60.734Y69.849
X60.692Y69.838
X60.65Y69.829
X60.608Y69.82
X60.566Y69.813
X60.523Y69.806
X60.481Y69.801
X60.438Y69.796
X60.395Y69.793
X60.353Y69.79
X60.31Y69.789
X60.279Y69.789
X58.566Y69.788
X58.566Y63.943
X60.291Y63.943
X60.334Y63.942
X60.377Y63.94
X60.413Y63.938
X60.376Y63.439
X60.407Y63.437
X60.438Y63.433
X60.468Y63.429
X60.498Y63.424
X60.528Y63.418
X60.558Y63.411
X60.588Y63.404
X60.618Y63.396
X60.647Y63.388
X60.676Y63.378
X60.705Y63.368
X60.734Y63.357
X60.762Y63.346
X60.791Y63.333
X60.818Y63.321
X60.846Y63.307
X60.873Y63.293
X60.9Y63.278
X60.926Y63.262
X60.952Y63.246
X60.978Y63.229
X61.003Y63.212
X61.028Y63.194
X61.052Y63.175
X61.076Y63.156
X61.099Y63.136
X61.122Y63.115
X61.145Y63.094
X61.167Y63.073
X61.188Y63.051
X61.209Y63.028
X61.229Y63.005
X61.249Y62.981
X61.268Y62.957
X61.286Y62.933
X61.304Y62.908
X61.321Y62.883
X61.338Y62.857
X61.354Y62.831
X61.369Y62.804
X61.384Y62.777
X61.398Y62.75
X61.411Y62.722
X61.424Y62.694
X61.436Y62.666
X61.447Y62.637
X61.457Y62.609
X61.467Y62.58
X61.476Y62.55
X61.485Y62.521
X61.492Y62.491
X61.499Y62.461
X61.506Y62.431
X61.511Y62.401
X61.516Y62.371
X61.52Y62.34
X61.523Y62.31
X61.525Y62.279
X61.527Y62.248
X61.528Y62.218
X61.528Y62.193
Y60.556
X62.915
X63.826Y60.556
X63.825Y73.124
X62.915
X61.528Y73.123
X61.528Y71.533
X61.528Y71.502
X61.527Y71.471
X61.525Y71.441
X61.522Y71.41
X61.518Y71.38
X61.514Y71.349
X61.509Y71.319
X61.503Y71.289
X61.497Y71.259
X61.489Y71.229
X61.481Y71.199
X61.473Y71.17
X61.463Y71.141
X61.453Y71.112
X61.442Y71.083
X61.431Y71.055
X61.419Y71.027
X61.406Y70.999
X61.392Y70.971
X61.378Y70.944
X61.363Y70.917
X61.347Y70.891
X61.331Y70.865
X61.314Y70.839
X61.297Y70.814
X61.279Y70.789
X61.26Y70.765
X61.241Y70.741
X61.221Y70.718
X61.201Y70.695
X61.18Y70.673
X61.158Y70.651
X61.136Y70.629
X61.113Y70.609
X61.09Y70.588
X61.067Y70.569
X61.043Y70.55
X61.018Y70.531
X60.993Y70.513
X60.968Y70.496
X60.942Y70.48
X60.916Y70.464
X60.889Y70.448
X60.862Y70.434
X60.835Y70.42
X60.808Y70.406
X60.78Y70.394
X60.751Y70.382
X60.723Y70.37
X60.694Y70.36
X60.665Y70.35
X60.636Y70.341
X60.606Y70.332
X60.576Y70.325
X60.547Y70.318
X60.517Y70.312
X60.486Y70.306
X60.456Y70.301
X60.426Y70.297
X60.395Y70.294
X60.365Y70.292
X60.334Y70.29
X60.303Y70.289
X60.279Y70.289
X58.065Y70.288
X58.066Y63.443
X60.285Y63.443
X60.315Y63.443
X60.346Y63.441
X60.376Y63.439
X60.334Y62.941
X60.352Y62.94
X60.37Y62.938
X60.388Y62.935
X60.407Y62.932
X60.425Y62.929
X60.443Y62.925
X60.461Y62.921
X60.478Y62.916
X60.496Y62.911
X60.514Y62.905
X60.531Y62.899
X60.548Y62.893
X60.565Y62.886
X60.582Y62.879
X60.599Y62.871
X60.616Y62.863
X60.632Y62.855
X60.648Y62.846
X60.664Y62.837
X60.68Y62.827
X60.695Y62.817
X60.71Y62.806
X60.725Y62.796
X60.74Y62.785
X60.754Y62.773
X60.768Y62.761
X60.782Y62.749
X60.796Y62.736
X60.809Y62.724
X60.822Y62.71
X60.834Y62.697
X60.846Y62.683
X60.858Y62.669
X60.87Y62.655
X60.881Y62.64
X60.892Y62.625
X60.902Y62.61
X60.912Y62.594
X60.922Y62.579
X60.931Y62.563
X60.94Y62.547
X60.948Y62.53
X60.956Y62.514
X60.964Y62.497
X60.971Y62.48
X60.978Y62.463
X60.985Y62.446
X60.991Y62.429
X60.996Y62.411
X61.001Y62.393
X61.006Y62.375
X61.01Y62.358
X61.014Y62.34
X61.017Y62.321
X61.02Y62.303
X61.023Y62.285
X61.025Y62.267
X61.026Y62.248
X61.028Y62.23
X61.028Y62.212
X61.028Y62.193
Y60.056
X62.915
X64.326Y60.057
X64.325Y73.624
X62.915
X61.028Y73.623
Y71.539
X61.028Y71.52
X61.028Y71.502
X61.026Y71.484
X61.025Y71.465
X61.023Y71.447
X61.02Y71.429
X61.017Y71.411
X61.014Y71.392
X61.01Y71.374
X61.006Y71.357
X61.001Y71.339
X60.996Y71.321
X60.991Y71.304
X60.985Y71.286
X60.978Y71.269
X60.971Y71.252
X60.964Y71.235
X60.956Y71.218
X60.948Y71.202
X60.94Y71.185
X60.931Y71.169
X60.922Y71.153
X60.912Y71.138
X60.902Y71.122
X60.892Y71.107
X60.881Y71.092
X60.87Y71.077
X60.858Y71.063
X60.846Y71.049
X60.834Y71.035
X60.822Y71.022
X60.809Y71.008
X60.796Y70.996
X60.782Y70.983
X60.768Y70.971
X60.754Y70.959
X60.74Y70.948
X60.725Y70.936
X60.71Y70.926
X60.695Y70.915
X60.68Y70.905
X60.664Y70.896
X60.648Y70.886
X60.632Y70.877
X60.616Y70.869
X60.599Y70.861
X60.582Y70.853
X60.566Y70.846
X60.548Y70.839
X60.531Y70.833
X60.514Y70.827
X60.496Y70.821
X60.479Y70.816
X60.461Y70.811
X60.443Y70.807
X60.425Y70.803
X60.407Y70.8
X60.389Y70.797
X60.37Y70.794
X60.352Y70.792
X60.334Y70.791
X60.315Y70.79
X60.297Y70.789
X60.279Y70.789
X57.565Y70.788
X57.566Y62.943
X60.278
X60.297Y62.943
X60.315Y62.942
X60.334Y62.941
G0Z2
X60.566Y65.932
G1Z-6.75F100
X60.683Y65.921F200
X60.774Y65.91
X60.865Y65.897
X60.956Y65.882
X61.046Y65.864
X61.136Y65.844
X61.225Y65.822
X61.325Y65.794
X61.325Y67.938
X61.244Y67.915
X61.155Y67.893
X61.065Y67.872
X60.975Y67.854
X60.884Y67.838
X60.793Y67.824
X60.702Y67.813
X60.61Y67.803
X60.566Y67.8
X60.566Y65.932
X60.527Y65.434
X60.627Y65.424
X60.707Y65.415
X60.786Y65.403
X60.864Y65.39
X60.943Y65.375
X61.02Y65.357
X61.098Y65.338
X61.175Y65.317
X61.251Y65.294
X61.327Y65.269
X61.402Y65.243
X61.477Y65.214
X61.55Y65.184
X61.623Y65.152
X61.696Y65.118
X61.767Y65.082
X61.825Y65.051
X61.825Y68.68
X61.713Y68.622
X61.641Y68.588
X61.568Y68.556
X61.494Y68.525
X61.42Y68.496
X61.345Y68.469
X61.269Y68.444
X61.193Y68.42
X61.116Y68.399
X61.039Y68.379
X60.961Y68.361
X60.883Y68.346
X60.805Y68.332
X60.726Y68.32
X60.647Y68.31
X60.567Y68.302
X60.488Y68.296
X60.408Y68.291
X60.328Y68.289
X60.279Y68.289
X60.066Y68.289
X60.066Y65.443
X60.309Y65.443
X60.389Y65.441
X60.469Y65.438
X60.527Y65.434
X60.488Y64.935
X60.572Y64.927
X60.639Y64.919
X60.706Y64.91
X60.773Y64.898
X60.839Y64.885
X60.905Y64.871
X60.97Y64.855
X61.035Y64.837
X61.1Y64.818
X61.164Y64.797
X61.228Y64.774
X61.291Y64.75
X61.353Y64.724
X61.415Y64.697
X61.476Y64.669
X61.537Y64.638
X61.596Y64.607
X61.655Y64.574
X61.713Y64.539
X61.77Y64.503
X61.827Y64.466
X61.882Y64.427
X61.936Y64.387
X61.99Y64.346
X62.042Y64.303
X62.093Y64.259
X62.143Y64.214
X62.192Y64.168
X62.24Y64.12
X62.287Y64.072
X62.325Y64.03
X62.325Y69.702
X62.253Y69.625
X62.206Y69.577
X62.157Y69.531
X62.107Y69.485
X62.056Y69.441
X62.004Y69.398
X61.951Y69.356
X61.897Y69.316
X61.842Y69.277
X61.786Y69.239
X61.729Y69.203
X61.672Y69.168
X61.613Y69.134
X61.554Y69.102
X61.493Y69.072
X61.432Y69.043
X61.371Y69.015
X61.309Y68.989
X61.246Y68.965
X61.182Y68.942
X61.118Y68.92
X61.054Y68.9
X60.989Y68.882
X60.923Y68.865
X60.858Y68.85
X60.791Y68.837
X60.725Y68.825
X60.658Y68.815
X60.591Y68.807
X60.524Y68.8
X60.457Y68.795
X60.39Y68.791
X60.322Y68.789
X60.279Y68.789
X59.566Y68.789
X59.566Y64.943
X60.303Y64.943
X60.37Y64.942
X60.438Y64.939
X60.488Y64.935
X60.45Y64.437
X60.517Y64.43
X60.572Y64.424
X60.627Y64.416
X60.681Y64.407
X60.735Y64.396
X60.789Y64.384
X60.843Y64.371
X60.896Y64.357
X60.949Y64.341
X61.002Y64.324
X61.054Y64.305
X61.105Y64.286
X61.156Y64.265
X61.207Y64.243
X61.257Y64.219
X61.306Y64.195
X61.355Y64.169
X61.403Y64.142
X61.451Y64.114
X61.498Y64.084
X61.544Y64.054
X61.589Y64.022
X61.633Y63.989
X61.677Y63.956
X61.72Y63.921
X61.762Y63.885
X61.803Y63.848
X61.843Y63.81
X61.882Y63.771
X61.921Y63.731
X61.958Y63.691
X61.994Y63.649
X62.029Y63.606
X62.063Y63.563
X62.097Y63.519
X62.128Y63.474
X62.159Y63.428
X62.189Y63.381
X62.218Y63.334
X62.245Y63.286
X62.271Y63.238
X62.296Y63.188
X62.32Y63.139
X62.343Y63.088
X62.364Y63.037
X62.384Y62.986
X62.403Y62.934
X62.421Y62.882
X62.437Y62.829
X62.452Y62.776
X62.465Y62.722
X62.478Y62.668
X62.489Y62.614
X62.498Y62.56
X62.507Y62.505
X62.514Y62.45
X62.519Y62.395
X62.524Y62.34
X62.526Y62.285
X62.528Y62.23
X62.528Y62.193
Y61.556
X62.826
X62.825Y72.123
X62.528Y72.123
X62.528Y71.52
X62.527Y71.465
X62.525Y71.41
X62.521Y71.355
X62.516Y71.3
X62.509Y71.245
X62.501Y71.19
X62.492Y71.136
X62.481Y71.082
X62.47Y71.028
X62.456Y70.974
X62.442Y70.921
X62.426Y70.868
X62.409Y70.816
X62.391Y70.764
X62.371Y70.712
X62.35Y70.661
X62.328Y70.61
X62.304Y70.56
X62.28Y70.511
X62.254Y70.462
X62.227Y70.414
X62.199Y70.366
X62.17Y70.32
X62.139Y70.274
X62.107Y70.228
X62.075Y70.184
X62.041Y70.14
X62.006Y70.097
X61.97Y70.055
X61.933Y70.014
X61.895Y69.974
X61.857Y69.935
X61.817Y69.897
X61.776Y69.86
X61.734Y69.823
X61.692Y69.788
X61.648Y69.754
X61.604Y69.721
X61.559Y69.689
X61.513Y69.658
X61.467Y69.628
X61.42Y69.6
X61.372Y69.572
X61.323Y69.546
X61.274Y69.521
X61.224Y69.497
X61.174Y69.475
X61.123Y69.453
X61.071Y69.433
X61.02Y69.414
X60.967Y69.397
X60.914Y69.381
X60.861Y69.366
X60.808Y69.352
X60.754Y69.34
X60.7Y69.329
X60.645Y69.319
X60.591Y69.311
X60.536Y69.304
X60.481Y69.298
X60.426Y69.294
X60.371Y69.291
X60.316Y69.289
X60.279Y69.289
X59.066Y69.288
X59.066Y64.443
X60.297Y64.443
X60.352Y64.442
X60.407Y64.44
X60.45Y64.437
X60.413Y63.938
X60.462Y63.934
X60.505Y63.928
X60.547Y63.922
X60.59Y63.915
X60.632Y63.907
X60.674Y63.898
X60.716Y63.888
X60.757Y63.877
X60.798Y63.864
X60.839Y63.851
X60.879Y63.837
X60.92Y63.821
X60.959Y63.805
X60.999Y63.788
X61.038Y63.77
X61.076Y63.751
X61.114Y63.731
X61.152Y63.71
X61.189Y63.688
X61.225Y63.665
X61.261Y63.641
X61.296Y63.617
X61.331Y63.591
X61.365Y63.565
X61.398Y63.538
X61.431Y63.51
X61.463Y63.482
X61.494Y63.452
X61.524Y63.422
X61.554Y63.391
X61.583Y63.359
X61.611Y63.327
X61.639Y63.294
X61.666Y63.26
X61.691Y63.226
X61.716Y63.191
X61.74Y63.155
X61.763Y63.119
X61.786Y63.082
X61.807Y63.045
X61.827Y63.007
X61.847Y62.969
X61.866Y62.93
X61.883Y62.891
X61.9Y62.852
X61.915Y62.812
X61.93Y62.771
X61.944Y62.731
X61.957Y62.689
X61.968Y62.648
X61.979Y62.607
X61.989Y62.565
X61.997Y62.523
X62.005Y62.48
X62.011Y62.438
X62.017Y62.395
X62.021Y62.353
X62.024Y62.31
X62.027Y62.267
X62.028Y62.224
X62.028Y62.193
Y61.056
X63.326Y61.056
X63.325Y72.624
X62.028Y72.623
X62.028Y71.526
X62.028Y71.484
X62.026Y71.441
X62.023Y71.398
X62.019Y71.355
X62.014Y71.312
X62.008Y71.27
X62Y71.228
X61.992Y71.185
X61.983Y71.143
X61.973Y71.102
X61.962Y71.06
X61.949Y71.019
X61.936Y70.978
X61.922Y70.938
X61.907Y70.898
X61.89Y70.858
X61.873Y70.818
X61.855Y70.78
X61.836Y70.741
X61.816Y70.703
X61.795Y70.666
X61.773Y70.629
X61.75Y70.592
X61.727Y70.556
X61.702Y70.521
X61.677Y70.487
X61.651Y70.453
X61.623Y70.419
X61.596Y70.387
X61.567Y70.355
X61.537Y70.323
X61.507Y70.293
X61.476Y70.263
X61.445Y70.234
X61.412Y70.206
X61.379Y70.178
X61.346Y70.152
X61.311Y70.126
X61.276Y70.101
X61.241Y70.077
X61.205Y70.054
X61.168Y70.032
X61.131Y70.01
X61.093Y69.99
X61.055Y69.97
X61.016Y69.952
X60.977Y69.934
X60.937Y69.917
X60.897Y69.902
X60.857Y69.887
X60.816Y69.873
X60.775Y69.861
X60.734Y69.849
X60.692Y69.838
X60.65Y69.829
X60.608Y69.82
X60.566Y69.813
X60.523Y69.806
X60.481Y69.801
X60.438Y69.796
X60.395Y69.793
X60.353Y69.79
X60.31Y69.789
X60.279Y69.789
X58.566Y69.788
X58.566Y63.943
X60.291Y63.943
X60.334Y63.942
X60.377Y63.94
X60.413Y63.938
X60.376Y63.439
X60.407Y63.437
X60.438Y63.433
X60.468Y63.429
X60.498Y63.424
X60.528Y63.418
X60.558Y63.411
X60.588Y63.404
X60.618Y63.396
X60.647Y63.388
X60.676Y63.378
X60.705Y63.368
X60.734Y63.357
X60.762Y63.346
X60.791Y63.333
X60.818Y63.321
X60.846Y63.307
X60.873Y63.293
X60.9Y63.278
X60.926Y63.262
X60.952Y63.246
X60.978Y63.229
X61.003Y63.212
X61.028Y63.194
X61.052Y63.175
X61.076Y63.156
X61.099Y63.136
X61.122Y63.115
X61.145Y63.094
X61.167Y63.073
X61.188Y63.051
X61.209Y63.028
X61.229Y63.005
X61.249Y62.981
X61.268Y62.957
X61.286Y62.933
X61.304Y62.908
X61.321Y62.883
X61.338Y62.857
X61.354Y62.831
X61.369Y62.804
X61.384Y62.777
X61.398Y62.75
X61.411Y62.722
X61.424Y62.694
X61.436Y62.666
X61.447Y62.637
X61.457Y62.609
X61.467Y62.58
X61.476Y62.55
X61.485Y62.521
X61.492Y62.491
X61.499Y62.461
X61.506Y62.431
X61.511Y62.401
X61.516Y62.371
X61.52Y62.34
X61.523Y62.31
X61.525Y62.279
X61.527Y62.248
X61.528Y62.218
X61.528Y62.193
Y60.556
X62.915
X63.826Y60.556
X63.825Y73.124
X62.915
X61.528Y73.123
X61.528Y71.533
X61.528Y71.502
X61.527Y71.471
X61.525Y71.441
X61.522Y71.41
X61.518Y71.38
X61.514Y71.349
X61.509Y71.319
X61.503Y71.289
X61.497Y71.259
X61.489Y71.229
X61.481Y71.199
X61.473Y71.17
X61.463Y71.141
X61.453Y71.112
X61.442Y71.083
X61.431Y71.055
X61.419Y71.027
X61.406Y70.999
X61.392Y70.971
X61.378Y70.944
X61.363Y70.917
X61.347Y70.891
X61.331Y70.865
X61.314Y70.839
X61.297Y70.814
X61.279Y70.789
X61.26Y70.765
X61.241Y70.741
X61.221Y70.718
X61.201Y70.695
X61.18Y70.673
X61.158Y70.651
X61.136Y70.629
X61.113Y70.609
X61.09Y70.588
X61.067Y70.569
X61.043Y70.55
X61.018Y70.531
X60.993Y70.513
X60.968Y70.496
X60.942Y70.48
X60.916Y70.464
X60.889Y70.448
X60.862Y70.434
X60.835Y70.42
X60.808Y70.406
X60.78Y70.394
X60.751Y70.382
X60.723Y70.37
X60.694Y70.36
X60.665Y70.35
X60.636Y70.341
X60.606Y70.332
X60.576Y70.325
X60.547Y70.318
X60.517Y70.312
X60.486Y70.306
X60.456Y70.301
X60.426Y70.297
X60.395Y70.294
X60.365Y70.292
X60.334Y70.29
X60.303Y70.289
X60.279Y70.289
X58.065Y70.288
X58.066Y63.443
X60.285Y63.443
X60.315Y63.443
X60.346Y63.441
X60.376Y63.439
X60.334Y62.941
X60.352Y62.94
X60.37Y62.938
X60.388Y62.935
X60.407Y62.932
X60.425Y62.929
X60.443Y62.925
X60.461Y62.921
X60.478Y62.916
X60.496Y62.911
X60.514Y62.905
X60.531Y62.899
X60.548Y62.893
X60.565Y62.886
X60.582Y62.879
X60.599Y62.871
X60.616Y62.863
X60.632Y62.855
X60.648Y62.846
X60.664Y62.837
X60.68Y62.827
X60.695Y62.817
X60.71Y62.806
X60.725Y62.796
X60.74Y62.785
X60.754Y62.773
X60.768Y62.761
X60.782Y62.749
X60.796Y62.736
X60.809Y62.724
X60.822Y62.71
X60.834Y62.697
X60.846Y62.683
X60.858Y62.669
X60.87Y62.655
X60.881Y62.64
X60.892Y62.625
X60.902Y62.61
X60.912Y62.594
X60.922Y62.579
X60.931Y62.563
X60.94Y62.547
X60.948Y62.53
X60.956Y62.514
X60.964Y62.497
X60.971Y62.48
X60.978Y62.463
X60.985Y62.446
X60.991Y62.429
X60.996Y62.411
X61.001Y62.393
X61.006Y62.375
X61.01Y62.358
X61.014Y62.34
X61.017Y62.321
X61.02Y62.303
X61.023Y62.285
X61.025Y62.267
X61.026Y62.248
X61.028Y62.23
X61.028Y62.212
X61.028Y62.193
Y60.056
X62.915
X64.326Y60.057
X64.325Y73.624
X62.915
X61.028Y73.623
Y71.539
X61.028Y71.52
X61.028Y71.502
X61.026Y71.484
X61.025Y71.465
X61.023Y71.447
X61.02Y71.429
X61.017Y71.411
X61.014Y71.392
X61.01Y71.374
X61.006Y71.357
X61.001Y71.339
X60.996Y71.321
X60.991Y71.304
X60.985Y71.286
X60.978Y71.269
X60.971Y71.252
X60.964Y71.235
X60.956Y71.218
X60.948Y71.202
X60.94Y71.185
X60.931Y71.169
X60.922Y71.153
X60.912Y71.138
X60.902Y71.122
X60.892Y71.107
X60.881Y71.092
X60.87Y71.077
X60.858Y71.063
X60.846Y71.049
X60.834Y71.035
X60.822Y71.022
X60.809Y71.008
X60.796Y70.996
X60.782Y70.983
X60.768Y70.971
X60.754Y70.959
X60.74Y70.948
X60.725Y70.936
X60.71Y70.926
X60.695Y70.915
X60.68Y70.905
X60.664Y70.896
X60.648Y70.886
X60.632Y70.877
X60.616Y70.869
X60.599Y70.861
X60.582Y70.853
X60.566Y70.846
X60.548Y70.839
X60.531Y70.833
X60.514Y70.827
X60.496Y70.821
X60.479Y70.816
X60.461Y70.811
X60.443Y70.807
X60.425Y70.803
X60.407Y70.8
X60.389Y70.797
X60.37Y70.794
X60.352Y70.792
X60.334Y70.791
X60.315Y70.79
X60.297Y70.789
X60.279Y70.789
X57.565Y70.788
X57.566Y62.943
X60.278
X60.297Y62.943
X60.315Y62.942
X60.334Y62.941
G0Z2
(Tool: D = 1.5 mm  type END flutes 2)
S12000M03
G00 Z2.0

X62.529Y61.615
G1Z-8.5F100
X62.764Y61.616F200
X62.763Y72.117
X62.529Y72.117
X62.529Y61.615
X62.029Y61.115
X63.264Y61.116
X63.263Y72.617
X62.029Y72.617
X62.029Y61.115
X61.529Y60.615
X63.764Y60.616
X63.763Y73.117
X61.528Y73.117
X61.529Y60.615
X61.029Y60.115
X64.264Y60.116
X64.263Y73.617
X61.028Y73.617
X61.029Y60.115
G0Z2
X62.529Y61.615
G1Z-9.754F100
X62.764Y61.616F200
X62.763Y72.117
X62.529Y72.117
X62.529Y61.615
X62.029Y61.115
X63.264Y61.116
X63.263Y72.617
X62.029Y72.617
X62.029Y61.115
X61.529Y60.615
X63.764Y60.616
X63.763Y73.117
X61.528Y73.117
X61.529Y60.615
X61.029Y60.115
X64.264Y60.116
X64.263Y73.617
X61.028Y73.617
X61.029Y60.115
G0Z2
(Tool: D = 1.5 mm  type END flutes 2)
S12000M03
G00 Z2.0

X62.029Y61.115
G1Z-11.75F100
X62.514Y61.116F200
X62.513Y72.617
X62.028Y72.617
X62.029Y61.115
Z-13.75F100
X62.514Y61.116F200
X62.513Y72.617
X62.028Y72.617
X62.029Y61.115
Z-15.75F100
X62.514Y61.116F200
X62.513Y72.617
X62.028Y72.617
X62.029Y61.115
Z-17.75F100
X62.514Y61.116F200
X62.513Y72.617
X62.028Y72.617
X62.029Y61.115
Z-17.754F100
X62.514Y61.116F200
X62.513Y72.617
X62.028Y72.617
X62.029Y61.115
G0Z2
(Tool: D = 1.5 mm  type END flutes 2)
S12000M03
G00 Z2.0

X7.997Y39.201
G1Z-3.987F100
Z0F200
G0Z2
Y55.201
G1Z-3.987F100
Z0F200
G0Z2
X74Y75.601
G1Z-14.487F100
Z0F200
G0Z2
X95.5Y76.357
G1Z-20.465F100
Z0F200
G0Z2
X114.501Y75.864
G1Z-20.465F100
Z0F200
G0Z2
X108.501Y13.74
G1Z-20.465F100
Z0F200
G0Z2
X95.5Y13.246
G1Z-20.465F100
Z0F200
G0Z2
X74Y14.003
G1Z-14.487F100
Z0F200
G0Z2
 
