(Created with grbl post processor 2023/09/24 11:13)
G21
(G-code generated with BlenderCAM and NC library)
G17G90
(Tool: D = 1.5 mm  type END flutes 2)
S12000M03
G00 Z2.0

G0X0Y0Z2
X4.275Y15.349
G1Z-2.297F100
Y74.15Z-2.297F200
G0Z2
X5.025Y15.349
G1Z-2.297F100
Y74.15Z-2.297F200
G0Z2
X5.775Y15.349
G1Z-3F100
Y74.15F200
G0Z2
X6.525Y15.349
G1Z-3F100
Y74.15F200
G0Z2
X7.275Y15.349
G1Z-3F100
Y74.15F200
G0Z2
X8.025Y15.349
G1Z-3F100
Y74.15F200
G0Z2
X8.775Y15.349
G1Z-3F100
Y74.15F200
G0Z2
X5.775Y15.349
G1Z-3.497F100
Y74.15Z-3.497F200
G0Z2
X6.525Y15.349
G1Z-3.497F100
Y17.749F200
Y17.949Z-6F100
Y43.349F200
Y43.549Z-3.497
Y46.149
Y46.349Z-6F100
Y71.75F200
Y71.95Z-3.497
Y74.15Z-3.497
G0Z2
X7.275Y15.349
G1Z-3.497F100
Y17.749F200
Y17.949Z-5.058F100
Y18.949F200
Y19.149Z-6F100
Y39.949F200
Y40.149Z-5.058
Y43.349Z-5.058
Y43.549Z-3.497
Y46.149
Y46.349Z-5.058F100
Y48.349F200
Y48.549Z-6F100
Y69.35Z-5.999F200
Y69.55Z-5.058
Y71.75Z-5.058
Y71.95Z-3.497
Y74.15Z-3.497
G0Z2
X8.025Y15.349
G1Z-3.497F100
Y17.549F200
Y17.749Z-5.058F100
Y18.949F200
Y19.149Z-6F100
Y39.949F200
Y40.149Z-5.058
Y43.349Z-5.058
Y43.549Z-3.497
Y46.149
Y46.349Z-5.058F100
Y48.349F200
Y48.549Z-6F100
Y69.35F200
Y69.55Z-5.058
Y71.75Z-5.058
Y71.95Z-3.497
Y74.15Z-3.497
G0Z2
X8.775Y15.349
G1Z-3.497F100
Y17.549F200
Y17.749Z-5.058F100
Y18.949F200
Y19.149Z-6F100
Y39.949F200
Y40.149Z-5.058
Y43.349Z-5.058
Y43.549Z-3.497
Y46.149
Y46.349Z-5.058F100
Y48.349F200
Y48.549Z-6F100
Y69.35F200
Y69.55Z-5.058
Y71.95Z-5.058
Y72.15Z-3.497
Y74.15Z-3.497
G0Z2
X6.525Y46.349
G1Z-6F100
Z-9
Y71.75F200
Z-6
G0Z2
X7.275Y48.549
G1Z-6F100
Z-9
Y69.35F200
Z-5.999
G0Z2
X8.025Y48.549
G1Z-6F100
Z-9
Y69.35F200
Z-6
G0Z2
X8.775Y48.549
G1Z-6F100
Z-9
Y69.35F200
Z-6
G0Z2
X6.525Y17.949
G1Z-6F100
Z-9
Y43.349Z-9F200
Z-6
G0Z2
X7.275Y19.149
G1Z-6F100
Z-9
Y39.949F200
Z-6
G0Z2
X8.025Y19.149
G1Z-6F100
Z-9
Y39.949Z-9F200
Z-6
G0Z2
X8.775Y19.149
G1Z-6F100
Z-9
Y39.949Z-9F200
Z-6
G0Z2
X6.525Y46.349
G1Z-9F100
Z-12
Y71.75F200
Z-9
G0Z2
X7.275Y48.549
G1Z-9F100
Z-12
Y55.749F200
Y55.949Z-10.053
Y64.149Z-10.053
Y64.349Z-12F100
Y69.35F200
Z-9
G0Z2
X8.025Y48.549
G1Z-9F100
Z-12
Y55.749F200
Y55.949Z-10.053
Y64.149Z-10.053
Y64.349Z-12F100
Y69.35F200
Z-9
G0Z2
X8.775Y48.549
G1Z-9F100
Z-12
Y55.749F200
Y55.949Z-10.053
Y64.149Z-10.053
Y64.349Z-12F100
Y69.35F200
Z-9
G0Z2
X6.525Y17.949
G1Z-9F100
Z-12
Y43.349F200
Z-9
G0Z2
X7.275Y19.149
G1Z-9F100
Z-12
Y26.349F200
Y26.549Z-10.053
Y34.749Z-10.053
Y34.949Z-12F100
Y39.949F200
Z-9
G0Z2
X8.025Y19.149
G1Z-9F100
Z-12
Y26.349F200
Y26.549Z-10.053
Y34.749Z-10.053
Y34.949Z-12F100
Y39.949F200
Z-9
G0Z2
X8.775Y19.149
G1Z-9F100
Z-12
Y26.349F200
Y26.549Z-10.053
Y34.749Z-10.053
Y34.949Z-12F100
Y39.949F200
Z-9
G0Z2
X6.525Y46.349
G1Z-11.999F100
Z-15
Y71.75F200
Z-12
G0Z2
X7.275Y64.349
G1Z-12F100
Z-15
Y69.35F200
Z-12
G0Z2
X8.025Y64.349
G1Z-12F100
Z-15
Y69.35F200
Z-12
G0Z2
X8.775Y64.349
G1Z-12F100
Z-15
Y69.35F200
Z-12
G0Z2
X7.275Y48.549
G1Z-12F100
Z-15
Y55.749F200
Z-12
G0Z2
X8.025Y48.549
G1Z-12F100
Z-15
Y55.749F200
Z-12
G0Z2
X8.775Y48.549
G1Z-12F100
Z-15
Y55.749F200
Z-12
G0Z2
X6.525Y17.949
G1Z-12F100
Z-15
Y43.349F200
Z-12
G0Z2
X7.275Y34.949
G1Z-12F100
Z-15
Y39.949Z-15F200
Z-12
G0Z2
X8.025Y34.949
G1Z-12F100
Z-15
Y39.949F200
Z-12
G0Z2
X8.775Y34.949
G1Z-12F100
Z-15
Y39.949F200
Z-12
G0Z2
X7.275Y19.149
G1Z-12F100
Z-15
Y26.349F200
Z-12
G0Z2
X8.025Y19.149
G1Z-12F100
Z-15
Y26.349Z-15F200
Z-12
G0Z2
X8.775Y19.149
G1Z-12F100
Z-15
Y26.349Z-15F200
Z-12
G0Z2
X6.525Y17.949
G1Z-15F100
Z-17.999
Y43.349Z-17.999F200
Z-15
G0Z2
Y46.349
G1Z-15F100
Z-17.999
Y71.75Z-17.999F200
Z-15
G0Z2
X7.275Y64.349
G1Z-15F100
Z-17.999
Y69.35Z-17.999F200
Z-15
G0Z2
X8.025Y64.349
G1Z-15F100
Z-17.997
Y69.35Z-17.997F200
Z-15
G0Z2
X8.775Y64.349
G1Z-15F100
Z-17.997
Y69.35Z-17.997F200
Z-15
G0Z2
X7.275Y48.549
G1Z-15F100
Z-17.999
Y55.749Z-17.999F200
Z-15
G0Z2
X8.025Y48.549
G1Z-15F100
Z-17.997
Y55.749Z-17.997F200
Z-15
G0Z2
X8.775Y48.549
G1Z-15F100
Z-17.997
Y55.749Z-17.997F200
Z-15
G0Z2
X7.275Y34.949
G1Z-15F100
Z-17.999
Y39.949Z-17.999F200
Z-15
G0Z2
X8.025Y34.949
G1Z-15F100
Z-17.997
Y39.949Z-17.997F200
Z-15
G0Z2
X8.775Y34.949
G1Z-15F100
Z-17.997
Y39.949Z-17.997F200
Z-15
G0Z2
X7.275Y19.149
G1Z-14.999F100
Z-17.999
Y26.349Z-17.999F200
Z-15
G0Z2
X8.025Y19.149
G1Z-15F100
Z-17.997
Y26.349Z-17.997F200
Z-15
G0Z2
X8.775Y19.149
G1Z-14.999F100
Z-17.997
Y26.349Z-17.997F200
Z-15
G0Z2
(Tool: D = 1.5 mm  type END flutes 2)
S12000M03
G00 Z2.0

X59.325Y15.349
G1Z-3F100
Y74.15F200
G0Z2
X60.075Y15.349
G1Z-3F100
Y74.15F200
G0Z2
X60.825Y15.349
G1Z-3F100
Y74.15F200
G0Z2
X61.575Y15.349
G1Z-3F100
Y74.15F200
G0Z2
X62.325Y15.349
G1Z-3F100
Y74.15F200
G0Z2
X63.075Y15.349
G1Z-3F100
Y74.15F200
G0Z2
X63.825Y38.149
G1Z-0.001F100
Y38.349Z-1.997
Y51.349Z-1.997F200
G0Z2
X59.325Y15.349
G1Z-3.497F100
Y31.349Z-3.497F200
Y31.549Z-5.058F100
Y33.549Z-5.058F200
Y33.749Z-6F100
Y54.549F200
Y54.749Z-5.058
Y57.949Z-5.058
Y58.149Z-3.497
Y74.15Z-3.497
G0Z2
X60.075Y15.349
G1Z-3.497F100
Y31.349Z-3.497F200
Y31.549Z-5.058F100
Y33.549Z-5.058F200
Y33.749Z-6F100
Y54.549F200
Y54.749Z-5.058
Y57.949Z-5.058
Y58.149Z-3.497
Y74.15Z-3.497
G0Z2
X60.825Y15.349
G1Z-3.497F100
Y31.349Z-3.497F200
Y31.549Z-5.058F100
Y33.549Z-5.058F200
Y33.749Z-6F100
Y54.549F200
Y54.749Z-5.058
Y57.949Z-5.058
Y58.149Z-3.497
Y74.15Z-3.497
G0Z2
X61.575Y15.349
G1Z-3.497F100
Y31.349Z-3.497F200
Y31.549Z-6F100
Y57.949F200
Y58.149Z-3.497
Y74.15Z-3.497
G0Z2
X62.325Y15.349
G1Z-3.497F100
Y74.15Z-3.497F200
G0Z2
X63.075Y15.349
G1Z-3.497F100
Y74.15Z-3.497F200
G0Z2
X59.325Y33.749
G1Z-6F100
Z-9
Y54.549Z-9F200
Z-6
G0Z2
X60.075Y33.749
G1Z-6F100
Z-9
Y54.549F200
Z-6
G0Z2
X60.825Y33.749
G1Z-6F100
Z-9
Y54.549F200
Z-6
G0Z2
X61.575Y31.549
G1Z-6F100
Z-9
Y57.949F200
Z-6
G0Z2
X59.325Y33.749
G1Z-9F100
Z-12
Y41.149F200
Y41.349Z-10.053
Y49.549Z-10.053
Y49.749Z-12F100
Y54.549F200
Z-9
G0Z2
X60.075Y33.749
G1Z-9F100
Z-12
Y41.149F200
Y41.349Z-10.053
Y49.549Z-10.053
Y49.749Z-12F100
Y54.549F200
Z-9
G0Z2
X60.825Y33.749
G1Z-9F100
Z-12
Y41.149F200
Y41.349Z-10.053
Y49.549Z-10.053
Y49.749Z-12F100
Y54.549F200
Z-9
G0Z2
X61.575Y31.549
G1Z-9F100
Z-12
Y57.949F200
Z-9
G0Z2
X59.325Y49.749
G1Z-12F100
Z-15
Y54.549F200
Z-12
G0Z2
X60.075Y49.749
G1Z-12F100
Z-15
Y54.549F200
Z-12
G0Z2
X60.825Y49.749
G1Z-12F100
Z-15
Y54.549F200
Z-12
G0Z2
X59.325Y33.749
G1Z-12F100
Z-15
Y41.149Z-15F200
Z-12
G0Z2
X60.075Y33.749
G1Z-12F100
Z-15
Y41.149Z-15F200
Z-12
G0Z2
X60.825Y33.749
G1Z-12F100
Z-15
Y41.149Z-15F200
Z-12
G0Z2
X61.575Y31.549
G1Z-12F100
Z-15
Y57.949F200
Z-12
G0Z2
X59.325Y49.749
G1Z-15F100
Z-17.997
Y54.549Z-17.997F200
Z-15
G0Z2
X60.075Y49.749
G1Z-15F100
Z-17.999
Y54.549Z-17.999F200
Z-15
G0Z2
X60.825Y49.749
G1Z-15F100
Z-17.999
Y54.549Z-17.999F200
Z-15
G0Z2
X59.325Y33.749
G1Z-14.999F100
Z-17.997
Y41.149Z-17.997F200
Z-15
G0Z2
X60.075Y33.749
G1Z-14.999F100
Z-17.999
Y41.149Z-17.999F200
Z-15
G0Z2
X60.825Y33.749
G1Z-14.999F100
Z-17.999
Y41.149Z-17.999F200
Z-15
G0Z2
X61.575Y31.549
G1Z-15F100
Z-17.999
Y57.949Z-17.999F200
Z-15
G0Z2
(Tool: D = 1.5 mm  type END flutes 2)
S12000M03
G00 Z2.0

X26.347Y0.5
G1Z-17.3F100
Z-10.8F200
Z-10.015
Y0.567Z-9.818
Y0.653Z-9.239
Y0.844Z-8.477
Y1.108Z-7.738
Y1.444Z-7.028
Y1.848Z-6.355
Y2.315Z-5.724
Y2.843Z-5.143
Y3.424Z-4.615
Y4.055Z-4.148
Y4.728Z-3.744
Y5.438Z-3.408
Y6.177Z-3.144
Y6.939Z-2.953
Y7.715Z-2.838
Y8.5Z-2.8
Y12.049
Z-1.679
Y12.072Z-1.449
Y12.139Z-1.228
Y12.248Z-1.024
Y12.395Z-0.845
Y12.574Z-0.698
Y12.778Z-0.589
Y12.999Z-0.522
Y13.229Z-0.5
Y35.783
G0Z2
X30.347Y0.5
G1Z-17.3F100
Z-10.8F200
Z-10.015
Y0.567Z-9.818
Y0.653Z-9.239
Y0.844Z-8.477
Y1.108Z-7.738
Y1.444Z-7.028
Y1.848Z-6.355
Y2.315Z-5.724
Y2.843Z-5.143
Y3.424Z-4.615
Y4.055Z-4.148
Y4.728Z-3.744
Y5.438Z-3.408
Y6.177Z-3.144
Y6.939Z-2.953
Y7.715Z-2.838
Y8.5Z-2.8
Y12.049
Z-1.679
Y12.072Z-1.449
Y12.139Z-1.228
Y12.248Z-1.024
Y12.395Z-0.845
Y12.574Z-0.698
Y12.778Z-0.589
Y12.999Z-0.522
Y13.229Z-0.5
Y35.783
G0Z2
X34.347Y0.5
G1Z-17.3F100
Z-10.8F200
Z-10.015
Y0.567Z-9.818
Y0.653Z-9.239
Y0.844Z-8.477
Y1.108Z-7.738
Y1.444Z-7.028
Y1.848Z-6.355
Y2.315Z-5.724
Y2.843Z-5.143
Y3.424Z-4.615
Y4.055Z-4.148
Y4.728Z-3.744
Y5.438Z-3.408
Y6.177Z-3.144
Y6.939Z-2.953
Y7.715Z-2.838
Y8.5Z-2.8
Y12.049
Z-1.679
Y12.072Z-1.449
Y12.139Z-1.228
Y12.248Z-1.024
Y12.395Z-0.845
Y12.574Z-0.698
Y12.778Z-0.589
Y12.999Z-0.522
Y13.229Z-0.5
Y35.783
G0Z2
X38.347Y0.5
G1Z-17.3F100
Z-10.8F200
Z-10.015
Y0.567Z-9.818
Y0.653Z-9.239
Y0.844Z-8.477
Y1.108Z-7.738
Y1.444Z-7.028
Y1.848Z-6.355
Y2.315Z-5.724
Y2.843Z-5.143
Y3.424Z-4.615
Y4.055Z-4.148
Y4.728Z-3.744
Y5.438Z-3.408
Y6.177Z-3.144
Y6.939Z-2.953
Y7.715Z-2.838
Y8.5Z-2.8
Y12.049
Z-1.679
Y12.072Z-1.449
Y12.139Z-1.228
Y12.248Z-1.024
Y12.395Z-0.845
Y12.574Z-0.698
Y12.778Z-0.589
Y12.999Z-0.522
Y13.229Z-0.5
Y35.783
G0Z2
X42.347Y0.5
G1Z-17.3F100
Z-10.8F200
Z-10.015
Y0.567Z-9.818
Y0.653Z-9.239
Y0.844Z-8.477
Y1.108Z-7.738
Y1.444Z-7.028
Y1.848Z-6.355
Y2.315Z-5.724
Y2.843Z-5.143
Y3.424Z-4.615
Y4.055Z-4.148
Y4.728Z-3.744
Y5.438Z-3.408
Y6.177Z-3.144
Y6.939Z-2.953
Y7.715Z-2.838
Y8.5Z-2.8
Y12.049
Z-1.679
Y12.072Z-1.449
Y12.139Z-1.228
Y12.248Z-1.024
Y12.395Z-0.845
Y12.574Z-0.698
Y12.778Z-0.589
Y12.999Z-0.522
Y13.229Z-0.5
Y35.783
G0Z2
X46.347Y0.5
G1Z-17.3F100
Z-10.8F200
Z-10.015
Y0.567Z-9.818
Y0.653Z-9.239
Y0.844Z-8.477
Y1.108Z-7.738
Y1.444Z-7.028
Y1.848Z-6.355
Y2.315Z-5.724
Y2.843Z-5.143
Y3.424Z-4.615
Y4.055Z-4.148
Y4.728Z-3.744
Y5.438Z-3.408
Y6.177Z-3.144
Y6.939Z-2.953
Y7.715Z-2.838
Y8.5Z-2.8
Y12.049
Z-1.679
Y12.072Z-1.449
Y12.139Z-1.228
Y12.248Z-1.024
Y12.395Z-0.845
Y12.574Z-0.698
Y12.778Z-0.589
Y12.999Z-0.522
Y13.229Z-0.5
Y35.783
G0Z2
X50.347Y0.5
G1Z-17.3F100
Z-10.8F200
Z-10.015
Y0.567Z-9.818
Y0.653Z-9.239
Y0.844Z-8.477
Y1.108Z-7.738
Y1.444Z-7.028
Y1.848Z-6.355
Y2.315Z-5.724
Y2.843Z-5.143
Y3.424Z-4.615
Y4.055Z-4.148
Y4.728Z-3.744
Y5.438Z-3.408
Y6.177Z-3.144
Y6.939Z-2.953
Y7.715Z-2.838
Y8.5Z-2.8
Y12.049
Z-1.679
Y12.072Z-1.449
Y12.139Z-1.228
Y12.248Z-1.024
Y12.395Z-0.845
Y12.574Z-0.698
Y12.778Z-0.589
Y12.999Z-0.522
Y13.229Z-0.5
Y35.783
G0Z2
X54.347Y0.5
G1Z-17.3F100
Z-10.8F200
Z-10.015
Y0.567Z-9.818
Y0.653Z-9.239
Y0.844Z-8.477
Y1.108Z-7.738
Y1.444Z-7.028
Y1.848Z-6.355
Y2.315Z-5.724
Y2.843Z-5.143
Y3.424Z-4.615
Y4.055Z-4.148
Y4.728Z-3.744
Y5.438Z-3.408
Y6.177Z-3.144
Y6.939Z-2.953
Y7.715Z-2.838
Y8.5Z-2.8
Y12.049
Z-1.679
Y12.072Z-1.449
Y12.139Z-1.228
Y12.248Z-1.024
Y12.395Z-0.845
Y12.574Z-0.698
Y12.778Z-0.589
Y12.999Z-0.522
Y13.229Z-0.5
Y35.783
G0Z2
X58.347Y0.5
G1Z-17.3F100
Z-10.8F200
Z-10.015
Y0.567Z-9.818
Y0.653Z-9.239
Y0.844Z-8.477
Y1.108Z-7.738
Y1.444Z-7.028
Y1.848Z-6.355
Y2.315Z-5.724
Y2.843Z-5.143
Y3.424Z-4.615
Y4.055Z-4.148
Y4.728Z-3.744
Y5.438Z-3.408
Y6.177Z-3.144
Y6.939Z-2.953
Y7.715Z-2.838
Y8.5Z-2.8
Y12.049
Z-1.679
Y12.072Z-1.449
Y12.139Z-1.228
Y12.248Z-1.024
Y12.395Z-0.845
Y12.574Z-0.698
Y12.778Z-0.589
Y12.999Z-0.522
Y13.229Z-0.5
Y35.783
G0Z2
X62.347Y0.5
G1Z-17.3F100
Z-10.8F200
Z-10.015
Y0.567Z-9.818
Y0.653Z-9.239
Y0.844Z-8.477
Y1.108Z-7.738
Y1.444Z-7.028
Y1.848Z-6.355
Y2.315Z-5.724
Y2.843Z-5.143
Y3.424Z-4.615
Y4.055Z-4.148
Y4.728Z-3.744
Y5.438Z-3.408
Y6.177Z-3.144
Y6.939Z-2.953
Y7.715Z-2.838
Y8.5Z-2.8
Y12.049
Z-1.679
Y12.072Z-1.449
Y12.139Z-1.228
Y12.248Z-1.024
Y12.395Z-0.845
Y12.574Z-0.698
Y12.778Z-0.589
Y12.999Z-0.522
Y13.229Z-0.5
Y35.783
G0Z2
X66.347Y0.5
G1Z-17.3F100
Z-10.8F200
Z-10.015
Y0.567Z-9.818
Y0.653Z-9.239
Y0.844Z-8.477
Y1.108Z-7.738
Y1.444Z-7.028
Y1.848Z-6.355
Y2.315Z-5.724
Y2.843Z-5.143
Y3.424Z-4.615
Y4.055Z-4.148
Y4.728Z-3.744
Y5.438Z-3.408
Y6.177Z-3.144
Y6.939Z-2.953
Y7.715Z-2.838
Y8.5Z-2.8
Y12.049
Z-1.679
Y12.072Z-1.449
Y12.139Z-1.228
Y12.248Z-1.024
Y12.395Z-0.845
Y12.574Z-0.698
Y12.778Z-0.589
Y12.999Z-0.522
Y13.229Z-0.5
Y35.783
G0Z2
X70.347Y0.5
G1Z-17.3F100
Z-10.8F200
Z-10.015
Y0.567Z-9.818
Y0.653Z-9.239
Y0.844Z-8.477
Y1.108Z-7.738
Y1.444Z-7.028
Y1.848Z-6.355
Y2.315Z-5.724
Y2.843Z-5.143
Y3.424Z-4.615
Y4.055Z-4.148
Y4.728Z-3.744
Y5.438Z-3.408
Y6.177Z-3.144
Y6.939Z-2.953
Y7.715Z-2.838
Y8.5Z-2.8
Y12.049
Z-1.679
Y12.072Z-1.449
Y12.139Z-1.228
Y12.248Z-1.024
Y12.395Z-0.845
Y12.574Z-0.698
Y12.778Z-0.589
Y12.999Z-0.522
Y13.229Z-0.5
Y35.783
G0Z2
X74.347Y0.5
G1Z-17.3F100
Z-10.8F200
Z-10.015
Y0.567Z-9.818
Y0.653Z-9.239
Y0.844Z-8.477
Y1.108Z-7.738
Y1.444Z-7.028
Y1.848Z-6.355
Y2.315Z-5.724
Y2.843Z-5.143
Y3.424Z-4.615
Y4.055Z-4.148
Y4.728Z-3.744
Y5.438Z-3.408
Y6.177Z-3.144
Y6.939Z-2.953
Y7.715Z-2.838
Y8.5Z-2.8
Y12.049
Z-1.679
Y12.072Z-1.449
Y12.139Z-1.228
Y12.248Z-1.024
Y12.395Z-0.845
Y12.574Z-0.698
Y12.778Z-0.589
Y12.999Z-0.522
Y13.229Z-0.5
Y35.783
G0Z2
Y89.1
G1Z-17.3F100
Z-10.8F200
Z-10.015
Y89.032Z-9.818
Y88.946Z-9.239
Y88.755Z-8.477
Y88.491Z-7.738
Y88.155Z-7.028
Y87.751Z-6.355
Y87.284Z-5.724
Y86.756Z-5.143
Y86.175Z-4.615
Y85.544Z-4.148
Y84.871Z-3.744
Y84.161Z-3.408
Y83.422Z-3.144
Y82.66Z-2.953
Y81.884Z-2.838
Y81.1Z-2.8
Y77.55
Z-1.679
Y77.527Z-1.449
Y77.46Z-1.228
Y77.351Z-1.024
Y77.204Z-0.845
Y77.025Z-0.698
Y76.821Z-0.589
Y76.6Z-0.522
Y76.37Z-0.5
Y53.816
G0Z2
X70.347Y89.1
G1Z-17.3F100
Z-10.8F200
Z-10.015
Y89.032Z-9.818
Y88.946Z-9.239
Y88.755Z-8.477
Y88.491Z-7.738
Y88.155Z-7.028
Y87.751Z-6.355
Y87.284Z-5.724
Y86.756Z-5.143
Y86.175Z-4.615
Y85.544Z-4.148
Y84.871Z-3.744
Y84.161Z-3.408
Y83.422Z-3.144
Y82.66Z-2.953
Y81.884Z-2.838
Y81.1Z-2.8
Y77.55
Z-1.679
Y77.527Z-1.449
Y77.46Z-1.228
Y77.351Z-1.024
Y77.204Z-0.845
Y77.025Z-0.698
Y76.821Z-0.589
Y76.6Z-0.522
Y76.37Z-0.5
Y53.816
G0Z2
X66.347Y89.1
G1Z-17.3F100
Z-10.8F200
Z-10.015
Y89.032Z-9.818
Y88.946Z-9.239
Y88.755Z-8.477
Y88.491Z-7.738
Y88.155Z-7.028
Y87.751Z-6.355
Y87.284Z-5.724
Y86.756Z-5.143
Y86.175Z-4.615
Y85.544Z-4.148
Y84.871Z-3.744
Y84.161Z-3.408
Y83.422Z-3.144
Y82.66Z-2.953
Y81.884Z-2.838
Y81.1Z-2.8
Y77.55
Z-1.679
Y77.527Z-1.449
Y77.46Z-1.228
Y77.351Z-1.024
Y77.204Z-0.845
Y77.025Z-0.698
Y76.821Z-0.589
Y76.6Z-0.522
Y76.37Z-0.5
Y53.816
G0Z2
X62.347Y89.1
G1Z-17.3F100
Z-10.8F200
Z-10.015
Y89.032Z-9.818
Y88.946Z-9.239
Y88.755Z-8.477
Y88.491Z-7.738
Y88.155Z-7.028
Y87.751Z-6.355
Y87.284Z-5.724
Y86.756Z-5.143
Y86.175Z-4.615
Y85.544Z-4.148
Y84.871Z-3.744
Y84.161Z-3.408
Y83.422Z-3.144
Y82.66Z-2.953
Y81.884Z-2.838
Y81.1Z-2.8
Y77.55
Z-1.679
Y77.527Z-1.449
Y77.46Z-1.228
Y77.351Z-1.024
Y77.204Z-0.845
Y77.025Z-0.698
Y76.821Z-0.589
Y76.6Z-0.522
Y76.37Z-0.5
Y53.816
G0Z2
X58.347Y89.1
G1Z-17.3F100
Z-10.8F200
Z-10.015
Y89.032Z-9.818
Y88.946Z-9.239
Y88.755Z-8.477
Y88.491Z-7.738
Y88.155Z-7.028
Y87.751Z-6.355
Y87.284Z-5.724
Y86.756Z-5.143
Y86.175Z-4.615
Y85.544Z-4.148
Y84.871Z-3.744
Y84.161Z-3.408
Y83.422Z-3.144
Y82.66Z-2.953
Y81.884Z-2.838
Y81.1Z-2.8
Y77.55
Z-1.679
Y77.527Z-1.449
Y77.46Z-1.228
Y77.351Z-1.024
Y77.204Z-0.845
Y77.025Z-0.698
Y76.821Z-0.589
Y76.6Z-0.522
Y76.37Z-0.5
Y53.816
G0Z2
X54.347Y89.1
G1Z-17.3F100
Z-10.8F200
Z-10.015
Y89.032Z-9.818
Y88.946Z-9.239
Y88.755Z-8.477
Y88.491Z-7.738
Y88.155Z-7.028
Y87.751Z-6.355
Y87.284Z-5.724
Y86.756Z-5.143
Y86.175Z-4.615
Y85.544Z-4.148
Y84.871Z-3.744
Y84.161Z-3.408
Y83.422Z-3.144
Y82.66Z-2.953
Y81.884Z-2.838
Y81.1Z-2.8
Y77.55
Z-1.679
Y77.527Z-1.449
Y77.46Z-1.228
Y77.351Z-1.024
Y77.204Z-0.845
Y77.025Z-0.698
Y76.821Z-0.589
Y76.6Z-0.522
Y76.37Z-0.5
Y53.816
G0Z2
X50.347Y89.1
G1Z-17.3F100
Z-10.8F200
Z-10.015
Y89.032Z-9.818
Y88.946Z-9.239
Y88.755Z-8.477
Y88.491Z-7.738
Y88.155Z-7.028
Y87.751Z-6.355
Y87.284Z-5.724
Y86.756Z-5.143
Y86.175Z-4.615
Y85.544Z-4.148
Y84.871Z-3.744
Y84.161Z-3.408
Y83.422Z-3.144
Y82.66Z-2.953
Y81.884Z-2.838
Y81.1Z-2.8
Y77.55
Z-1.679
Y77.527Z-1.449
Y77.46Z-1.228
Y77.351Z-1.024
Y77.204Z-0.845
Y77.025Z-0.698
Y76.821Z-0.589
Y76.6Z-0.522
Y76.37Z-0.5
Y53.816
G0Z2
X46.347Y89.1
G1Z-17.3F100
Z-10.8F200
Z-10.015
Y89.032Z-9.818
Y88.946Z-9.239
Y88.755Z-8.477
Y88.491Z-7.738
Y88.155Z-7.028
Y87.751Z-6.355
Y87.284Z-5.724
Y86.756Z-5.143
Y86.175Z-4.615
Y85.544Z-4.148
Y84.871Z-3.744
Y84.161Z-3.408
Y83.422Z-3.144
Y82.66Z-2.953
Y81.884Z-2.838
Y81.1Z-2.8
Y77.55
Z-1.679
Y77.527Z-1.449
Y77.46Z-1.228
Y77.351Z-1.024
Y77.204Z-0.845
Y77.025Z-0.698
Y76.821Z-0.589
Y76.6Z-0.522
Y76.37Z-0.5
Y53.816
G0Z2
X42.347Y89.1
G1Z-17.3F100
Z-10.8F200
Z-10.015
Y89.032Z-9.818
Y88.946Z-9.239
Y88.755Z-8.477
Y88.491Z-7.738
Y88.155Z-7.028
Y87.751Z-6.355
Y87.284Z-5.724
Y86.756Z-5.143
Y86.175Z-4.615
Y85.544Z-4.148
Y84.871Z-3.744
Y84.161Z-3.408
Y83.422Z-3.144
Y82.66Z-2.953
Y81.884Z-2.838
Y81.1Z-2.8
Y77.55
Z-1.679
Y77.527Z-1.449
Y77.46Z-1.228
Y77.351Z-1.024
Y77.204Z-0.845
Y77.025Z-0.698
Y76.821Z-0.589
Y76.6Z-0.522
Y76.37Z-0.5
Y53.816
G0Z2
X38.347Y89.1
G1Z-17.3F100
Z-10.8F200
Z-10.015
Y89.032Z-9.818
Y88.946Z-9.239
Y88.755Z-8.477
Y88.491Z-7.738
Y88.155Z-7.028
Y87.751Z-6.355
Y87.284Z-5.724
Y86.756Z-5.143
Y86.175Z-4.615
Y85.544Z-4.148
Y84.871Z-3.744
Y84.161Z-3.408
Y83.422Z-3.144
Y82.66Z-2.953
Y81.884Z-2.838
Y81.1Z-2.8
Y77.55
Z-1.679
Y77.527Z-1.449
Y77.46Z-1.228
Y77.351Z-1.024
Y77.204Z-0.845
Y77.025Z-0.698
Y76.821Z-0.589
Y76.6Z-0.522
Y76.37Z-0.5
Y53.816
G0Z2
X34.347Y89.1
G1Z-17.3F100
Z-10.8F200
Z-10.015
Y89.032Z-9.818
Y88.946Z-9.239
Y88.755Z-8.477
Y88.491Z-7.738
Y88.155Z-7.028
Y87.751Z-6.355
Y87.284Z-5.724
Y86.756Z-5.143
Y86.175Z-4.615
Y85.544Z-4.148
Y84.871Z-3.744
Y84.161Z-3.408
Y83.422Z-3.144
Y82.66Z-2.953
Y81.884Z-2.838
Y81.1Z-2.8
Y77.55
Z-1.679
Y77.527Z-1.449
Y77.46Z-1.228
Y77.351Z-1.024
Y77.204Z-0.845
Y77.025Z-0.698
Y76.821Z-0.589
Y76.6Z-0.522
Y76.37Z-0.5
Y53.816
G0Z2
X30.347Y89.1
G1Z-17.3F100
Z-10.8F200
Z-10.015
Y89.032Z-9.818
Y88.946Z-9.239
Y88.755Z-8.477
Y88.491Z-7.738
Y88.155Z-7.028
Y87.751Z-6.355
Y87.284Z-5.724
Y86.756Z-5.143
Y86.175Z-4.615
Y85.544Z-4.148
Y84.871Z-3.744
Y84.161Z-3.408
Y83.422Z-3.144
Y82.66Z-2.953
Y81.884Z-2.838
Y81.1Z-2.8
Y77.55
Z-1.679
Y77.527Z-1.449
Y77.46Z-1.228
Y77.351Z-1.024
Y77.204Z-0.845
Y77.025Z-0.698
Y76.821Z-0.589
Y76.6Z-0.522
Y76.37Z-0.5
Y53.816
G0Z2
X26.347Y89.1
G1Z-17.3F100
Z-10.8F200
Z-10.015
Y89.032Z-9.818
Y88.946Z-9.239
Y88.755Z-8.477
Y88.491Z-7.738
Y88.155Z-7.028
Y87.751Z-6.355
Y87.284Z-5.724
Y86.756Z-5.143
Y86.175Z-4.615
Y85.544Z-4.148
Y84.871Z-3.744
Y84.161Z-3.408
Y83.422Z-3.144
Y82.66Z-2.953
Y81.884Z-2.838
Y81.1Z-2.8
Y77.55
Z-1.679
Y77.527Z-1.449
Y77.46Z-1.228
Y77.351Z-1.024
Y77.204Z-0.845
Y77.025Z-0.698
Y76.821Z-0.589
Y76.6Z-0.522
Y76.37Z-0.5
Y53.816
G0Z2
 
