(Created with grbl post processor 2023/09/24 11:13)
G21
(G-code generated with BlenderCAM and NC library)
G17G90
(Tool: D = 3.0 mm  type END flutes 2)
S12000M03
G00 Z2.0

G0X0Y0Z2
X132.9Y27.9
G1Z-2F200
Y62.899F400
X132.6
Y26.6
X134.2
Y64.199
X131.3
X131.3Y25.3
X135.5
Y65.499
X130
Y24
X136.8
Y66.799
X128.7
X128.7Y22.7
X138.1
Y68.1
X127.4
Y21.4
X139.4
Y69.4
X126.1Y69.399
X126.1Y20.1
X140.7
Y70.7
X124.8
Y18.8
X142
Y72
X123.5Y71.999
X123.5Y17.5
X143.3
Y73.3
X122.2
Y16.2
X144.6
Y74.6
X120.9Y74.599
X120.9Y14.9
X145.9
Y75.9
X119.6
Y13.6
X147.2
Y77.2
X119.1
G0Z2
Y12.3
G1Z-2F200
X148.3F400
G0Z2
X132.9Y27.9
G1Z-4F200
Y62.899F400
X132.6
Y26.6
X134.2
Y64.199
X131.3
X131.3Y25.3
X135.5
Y65.499
X130
Y24
X136.8
Y66.799
X128.7
X128.7Y22.7
X138.1
Y68.1
X127.4
Y21.4
X139.4
Y69.4
X126.1Y69.399
X126.1Y20.1
X140.7
Y70.7
X124.8
Y18.8
X142
Y72
X123.5Y71.999
X123.5Y17.5
X143.3
Y72.2Z-4
Y72.399Z-2.299
Y73.3Z-2.299
X122.2
Y72.399Z-2.299
Y72.2Z-4F200
Y17.4F400
Y17.199Z-2.299
Y16.2
X144.6
Y17.199
Y17.4Z-4F200
Y72.2Z-4F400
Y72.399Z-2.299
Y74.6Z-2.299
X120.9Y74.599Z-2.299
Y72.399Z-2.299
Y72.2Z-4F200
Y17.4F400
Y17.199Z-2.299
X120.9Y14.9
X145.9
Y17.199
Y17.4Z-4F200
Y72.2Z-4F400
Y72.399Z-2.299
Y75.9Z-2.299
X119.6Z-2.299
Y72.399Z-2.299
Y72.2Z-4F200
Y17.4F400
Y17.199Z-2.299
Y13.6Z-2.299
X147.2
Y17.199Z-2.299
Y17.4Z-4F200
Y72.2Z-4F400
Y72.399Z-2.299
Y77.2Z-2.299
X119.1Z-2.299
G0Z2
Y12.3
G1Z-2.299F200
X148.3Z-2.299F400
G0Z2
X132.9Y27.9
G1Z-6F200
Y62.899F400
X132.6
Y26.6
X134.2
Y64.199
X131.3
X131.3Y25.3
X135.5
Y65.499
X130
Y24
X136.8
Y66.799
X128.7
X128.7Y22.7
X138.1
Y68.1
X127.4
Y21.4
X139.4
Y69.4
X126.1Y69.399
X126.1Y20.1
X140.7
Y70.7
X124.8
Y18.8
X142
Y72
X123.5Y71.999
X123.5Y17.5
X143.3
Y72.2
Z-4
G0Z2
X122.2
G1Z-4F200
Z-6
Y17.4F400
Z-4
G0Z2
X144.6
G1Z-4F200
Z-6
Y72.2F400
Z-4
G0Z2
X120.9
G1Z-4F200
Z-6
Y17.4F400
Z-4
G0Z2
X145.9
G1Z-4F200
Z-6
Y72.2F400
Z-4
G0Z2
X119.6
G1Z-4F200
Z-6
Y17.4F400
Z-4
G0Z2
X147.2
G1Z-4F200
Z-6
Y72.2F400
Z-4
G0Z2
X132.9Y27.9
G1Z-8F200
Y62.899F400
X132.6
Y26.6
X134.2
Y64.199
X131.3
X131.3Y25.3
X135.5
Y65.499
X130
Y24
X136.8
Y66.799
X128.7
X128.7Y22.7
X138.1
Y68.1
X127.4
Y21.4
X139.4
Y69.4
X126.1Y69.399
X126.1Y20.1
X140.7
Y70.7
X124.8
Y18.8
X142
Y72
X123.5Y71.999
X123.5Y17.5
X143.3
Y72.2
Z-6
G0Z2
X122.2
G1Z-6F200
Z-8
Y17.4Z-7.999F400
Z-6
G0Z2
X144.6
G1Z-6F200
Z-8
Y72.2F400
Z-6
G0Z2
X120.9
G1Z-6F200
Z-8
Y17.4Z-7.999F400
Z-6
G0Z2
X145.9
G1Z-6F200
Z-8
Y72.2F400
Z-6
G0Z2
X119.6
G1Z-6F200
Z-8
Y17.4Z-7.999F400
Z-6
G0Z2
X147.2
G1Z-6F200
Z-8
Y72.2F400
Z-6
G0Z2
X132.9Y27.9
G1Z-9.798F200
Y62.899Z-9.798F400
X132.6
Y26.6Z-9.798
X134.2
Y64.199Z-9.798
X131.3
X131.3Y25.3Z-9.798
X135.5
Y65.499Z-9.798
X130
Y24Z-9.798
X136.8
Y66.799Z-9.798
X128.7
X128.7Y22.7Z-9.798
X138.1Z-9.798
Y68.1Z-9.798
X127.4Z-9.798
Y21.4Z-9.798
X138.1Z-9.798
X138.3Z-9.799
X139.4
Y69.4Z-9.799
X138.3
X138.1Z-9.798
X126.1Y69.399
X126.1Y20.1Z-9.798
X138.1Z-9.798
X138.3Z-9.799
X140.7
Y70.7Z-9.799
X138.3
X138.1Z-9.798
X124.8Z-9.798
Y18.8Z-9.798
X138.1Z-9.798
X138.3Z-9.799
X142
Y72Z-9.799
X138.3
X138.1Z-9.798
X123.5Y71.999Z-9.798
X123.5Y17.5Z-9.798
X138.1Z-9.798
X138.3Z-9.799
X143.3
Y72.2Z-9.799
Z-8
G0Z2
X122.2
G1Z-7.999F200
Z-9.798
Y17.4Z-9.798F400
Z-7.999
G0Z2
X144.6
G1Z-8F200
Z-9.799
Y72.2Z-9.799F400
Z-8
G0Z2
X120.9
G1Z-7.999F200
Z-9.798
Y17.4Z-9.798F400
Z-7.999
G0Z2
X145.9
G1Z-8F200
Z-9.799
Y72.2Z-9.799F400
Z-8
G0Z2
X119.6
G1Z-7.999F200
Z-9.798
Y17.4Z-9.798F400
Z-7.999
G0Z2
X147.2
G1Z-8F200
Z-9.799
Y72.2Z-9.799F400
Z-8
G0Z2
(Tool: D = 3.0 mm  type END flutes 2)
S12000M03
G00 Z2.0

X29.741Y44.56
G1Z-2F200
X35.089Y44.573F400
X35.144Y44.8
X35.083Y45.05
X29.741
X29.741Y44.56
X28.241Y43.056
X36.295Y43.076
X36.365Y43.418
X36.439Y43.759
X36.518Y44.1
X36.601Y44.44
X36.693Y44.799
X36.609Y45.124
X36.526Y45.464
X36.447Y45.805
X36.372Y46.147
X36.302Y46.489
X36.29Y46.55
X28.241
X28.241Y43.056
X26.742Y41.553
X37.556Y41.579
X37.619Y41.977
X37.704Y42.457
X37.766Y42.782
X37.832Y43.107
X37.903Y43.43
X37.977Y43.753
X38.056Y44.075
X38.138Y44.396
X38.224Y44.716
X38.247Y44.8
X38.147Y45.168
X38.064Y45.489
X37.986Y45.811
X37.911Y46.133
X37.84Y46.457
X37.773Y46.782
X37.71Y47.107
X37.651Y47.433
X37.596Y47.76
X37.551Y48.05
X26.741
X26.742Y41.553
X25.242Y40.049
X38.876Y40.054
X38.904Y40.325
X38.94Y40.636
X38.98Y40.946
X39.024Y41.256
X39.072Y41.565
X39.123Y41.874
X39.178Y42.182
X39.237Y42.489
X39.3Y42.796
X39.366Y43.102
X39.437Y43.407
X39.511Y43.711
X39.588Y44.014
X39.67Y44.316
X39.755Y44.617
X39.808Y44.799
X39.679Y45.248
X39.597Y45.55
X39.519Y45.853
X39.445Y46.157
X39.374Y46.462
X39.307Y46.768
X39.244Y47.074
X39.185Y47.381
X39.129Y47.689
X39.077Y47.998
X39.029Y48.307
X38.985Y48.617
X38.945Y48.927
X38.908Y49.238
X38.875Y49.55
X25.241
X25.242Y40.049
X23.742Y38.549
X40.272
X40.295Y38.986
X40.314Y39.28
X40.338Y39.573
X40.364Y39.867
X40.395Y40.16
X40.429Y40.452
X40.467Y40.744
X40.508Y41.036
X40.553Y41.327
X40.601Y41.617
X40.653Y41.907
X40.708Y42.197
X40.767Y42.485
X40.83Y42.773
X40.896Y43.06
X40.966Y43.346
X41.039Y43.631
X41.115Y43.916
X41.195Y44.199
X41.279Y44.482
X41.366Y44.763
X41.377Y44.799
X41.289Y45.083
X41.205Y45.365
X41.125Y45.648
X41.048Y45.932
X40.974Y46.218
X40.904Y46.504
X40.838Y46.791
X40.775Y47.078
X40.715Y47.367
X40.659Y47.656
X40.607Y47.946
X40.558Y48.236
X40.513Y48.527
X40.471Y48.819
X40.433Y49.111
X40.399Y49.403
X40.368Y49.696
X40.341Y49.989
X40.317Y50.283
X40.297Y50.577
X40.28Y50.871
X40.272Y51.05
X23.741
X23.742Y38.549
X22.242Y37.049
X41.751
X41.752Y37.79
X41.757Y38.066
X41.765Y38.342
X41.777Y38.618
X41.792Y38.894
X41.81Y39.169
X41.832Y39.444
X41.857Y39.719
X41.886Y39.994
X41.918Y40.268
X41.953Y40.542
X41.992Y40.816
X42.033Y41.088
X42.079Y41.361
X42.127Y41.633
X42.179Y41.904
X42.235Y42.174
X42.293Y42.444
X42.355Y42.713
X42.421Y42.982
X42.489Y43.249
X42.561Y43.516
X42.636Y43.781
X42.714Y44.046
X42.796Y44.31
X42.881Y44.573
X42.957Y44.8
X42.846Y45.132
X42.725Y45.518
X42.646Y45.783
X42.571Y46.048
X42.498Y46.315
X42.429Y46.582
X42.364Y46.85
X42.301Y47.119
X42.242Y47.389
X42.187Y47.659
X42.134Y47.93
X42.085Y48.202
X42.039Y48.474
X41.997Y48.747
X41.958Y49.021
X41.922Y49.294
X41.89Y49.569
X41.861Y49.843
X41.835Y50.118
X41.813Y50.393
X41.794Y50.669
X41.779Y50.944
X41.767Y51.22
X41.758Y51.496
X41.753Y51.772
X41.751Y52.066
X41.75Y52.55
X22.241
X22.242Y37.049
X20.742Y35.549
X43.251Y35.549
X43.252Y37.772
X43.256Y38.029
X43.264Y38.287
X43.275Y38.544
X43.289Y38.802
X43.306Y39.059
X43.327Y39.316
X43.35Y39.572
X43.377Y39.829
X43.406Y40.085
X43.439Y40.34
X43.475Y40.595
X43.514Y40.85
X43.557Y41.104
X43.602Y41.358
X43.651Y41.611
X43.702Y41.864
X43.757Y42.115
X43.815Y42.367
X43.876Y42.617
X43.94Y42.867
X44.007Y43.115
X44.077Y43.363
X44.15Y43.611
X44.226Y43.857
X44.305Y44.102
X44.387Y44.346
X44.472Y44.59
X44.548Y44.8
X44.438Y45.106
X44.316Y45.462
X44.237Y45.707
X44.16Y45.953
X44.087Y46.2
X44.016Y46.448
X43.949Y46.697
X43.885Y46.946
X43.823Y47.197
X43.765Y47.448
X43.71Y47.699
X43.658Y47.952
X43.609Y48.205
X43.563Y48.458
X43.52Y48.713
X43.481Y48.967
X43.444Y49.222
X43.411Y49.478
X43.381Y49.734
X43.354Y49.99
X43.33Y50.247
X43.309Y50.504
X43.291Y50.761
X43.277Y51.018
X43.266Y51.275
X43.257Y51.533
X43.252Y51.791
X43.251Y52.066
X43.25Y54.05
X20.741
X20.742Y35.549
X19.242Y34.049
X44.751
X44.752Y37.753
X44.756Y37.992
X44.763Y38.232
X44.773Y38.471
X44.786Y38.71
X44.802Y38.948
X44.821Y39.187
X44.843Y39.425
X44.867Y39.663
X44.895Y39.901
X44.926Y40.138
X44.959Y40.375
X44.995Y40.612
X45.035Y40.848
X45.077Y41.083
X45.122Y41.318
X45.17Y41.553
X45.22Y41.787
X45.274Y42.02
X45.331Y42.252
X45.39Y42.484
X45.452Y42.715
X45.517Y42.946
X45.585Y43.175
X45.656Y43.404
X45.729Y43.631
X45.805Y43.858
X45.884Y44.084
X45.966Y44.309
X46.051Y44.533
X46.138Y44.756
X46.156Y44.8
X46.064Y45.032
X45.979Y45.255
X45.897Y45.48
X45.817Y45.706
X45.741Y45.933
X45.667Y46.16
X45.596Y46.389
X45.527Y46.618
X45.462Y46.848
X45.399Y47.079
X45.34Y47.311
X45.283Y47.543
X45.229Y47.776
X45.177Y48.01
X45.129Y48.244
X45.084Y48.479
X45.041Y48.715
X45.001Y48.951
X44.964Y49.187
X44.931Y49.424
X44.9Y49.661
X44.872Y49.899
X44.846Y50.137
X44.824Y50.375
X44.805Y50.614
X44.788Y50.853
X44.775Y51.091
X44.765Y51.331
X44.757Y51.57
X44.752Y51.809
X44.751Y52.066
X44.75Y55.55
X19.241
X19.242Y34.049
X17.742Y32.549
X46.251
X46.252Y37.735
X46.256Y37.955
X46.262Y38.176
X46.271Y38.397
X46.283Y38.617
X46.298Y38.838
X46.315Y39.058
X46.336Y39.278
X46.358Y39.498
X46.384Y39.717
X46.412Y39.936
X46.443Y40.155
X46.476Y40.373
X46.513Y40.591
X46.551Y40.809
X46.593Y41.026
X46.637Y41.242
X46.684Y41.458
X46.733Y41.673
X46.786Y41.888
X46.84Y42.102
X46.898Y42.315
X46.958Y42.528
X47.02Y42.74
X47.086Y42.951
X47.153Y43.161
X47.224Y43.37
X47.297Y43.579
X47.372Y43.786
X47.45Y43.993
X47.531Y44.199
X47.614Y44.403
X47.699Y44.607
X47.783Y44.799
X47.667Y45.069
X47.544Y45.366
X47.463Y45.572
X47.385Y45.778
X47.309Y45.986
X47.236Y46.194
X47.165Y46.403
X47.097Y46.613
X47.031Y46.824
X46.968Y47.036
X46.908Y47.248
X46.85Y47.461
X46.795Y47.675
X46.742Y47.89
X46.692Y48.105
X46.645Y48.321
X46.6Y48.537
X46.558Y48.754
X46.519Y48.971
X46.482Y49.189
X46.448Y49.407
X46.417Y49.626
X46.388Y49.845
X46.362Y50.064
X46.339Y50.284
X46.319Y50.504
X46.301Y50.724
X46.286Y50.945
X46.273Y51.165
X46.264Y51.386
X46.257Y51.607
X46.252Y51.827
X46.25Y52.066
X46.25Y57.05
X17.741
X17.742Y32.549
X16.242Y31.049
X47.751Y31.049
X47.752Y37.716
X47.755Y37.919
X47.761Y38.121
X47.77Y38.323
X47.781Y38.525
X47.794Y38.727
X47.81Y38.929
X47.828Y39.131
X47.849Y39.332
X47.872Y39.534
X47.898Y39.734
X47.927Y39.935
X47.957Y40.135
X47.99Y40.335
X48.026Y40.534
X48.064Y40.733
X48.105Y40.931
X48.148Y41.129
X48.193Y41.327
X48.241Y41.523
X48.291Y41.719
X48.343Y41.915
X48.398Y42.11
X48.456Y42.304
X48.516Y42.498
X48.578Y42.69
X48.642Y42.882
X48.709Y43.073
X48.778Y43.264
X48.85Y43.453
X48.923Y43.642
X49Y43.829
X49.078Y44.016
X49.159Y44.202
X49.242Y44.386
X49.327Y44.57
X49.414Y44.753
X49.437Y44.8
X49.343Y44.996
X49.257Y45.179
X49.174Y45.364
X49.093Y45.549
X49.014Y45.736
X48.937Y45.923
X48.863Y46.111
X48.791Y46.301
X48.721Y46.491
X48.654Y46.682
X48.589Y46.874
X48.527Y47.066
X48.467Y47.26
X48.409Y47.454
X48.353Y47.648
X48.3Y47.844
X48.25Y48.04
X48.201Y48.236
X48.156Y48.434
X48.112Y48.631
X48.071Y48.83
X48.033Y49.028
X47.997Y49.228
X47.963Y49.427
X47.932Y49.627
X47.903Y49.828
X47.877Y50.029
X47.853Y50.23
X47.832Y50.431
X47.813Y50.633
X47.797Y50.835
X47.783Y51.037
X47.771Y51.239
X47.762Y51.441
X47.756Y51.643
X47.752Y51.846
X47.75Y52.066
X47.75Y58.55
X16.241
X16.242Y31.049
X14.742Y29.549
X49.251Y29.549
X49.252Y37.698
X49.255Y37.882
X49.26Y38.066
X49.268Y38.25
X49.278Y38.433
X49.29Y38.617
X49.304Y38.801
X49.321Y38.984
X49.34Y39.167
X49.361Y39.35
X49.385Y39.532
X49.41Y39.715
X49.438Y39.897
X49.468Y40.078
X49.501Y40.259
X49.535Y40.44
X49.572Y40.621
X49.611Y40.8
X49.652Y40.98
X49.696Y41.159
X49.741Y41.337
X49.789Y41.515
X49.839Y41.692
X49.891Y41.869
X49.945Y42.044
X50.002Y42.22
X50.061Y42.394
X50.121Y42.568
X50.184Y42.741
X50.249Y42.913
X50.316Y43.085
X50.385Y43.255
X50.457Y43.425
X50.53Y43.594
X50.605Y43.762
X50.683Y43.929
X50.762Y44.095
X50.844Y44.26
X50.928Y44.424
X51.013Y44.587
X51.101Y44.749
X51.129Y44.8
X51.031Y44.98
X50.945Y45.143
X50.861Y45.306
X50.779Y45.471
X50.699Y45.637
X50.621Y45.804
X50.545Y45.971
X50.471Y46.14
X50.4Y46.31
X50.33Y46.48
X50.262Y46.651
X50.197Y46.823
X50.134Y46.996
X50.073Y47.17
X50.014Y47.344
X49.957Y47.519
X49.902Y47.695
X49.849Y47.871
X49.799Y48.048
X49.751Y48.226
X49.705Y48.404
X49.661Y48.583
X49.619Y48.762
X49.58Y48.942
X49.543Y49.122
X49.507Y49.303
X49.475Y49.484
X49.444Y49.666
X49.416Y49.848
X49.39Y50.03
X49.366Y50.212
X49.344Y50.395
X49.325Y50.578
X49.308Y50.761
X49.293Y50.945
X49.28Y51.128
X49.27Y51.312
X49.261Y51.496
X49.256Y51.68
X49.252Y51.864
X49.251Y52.067
X49.25Y60.05
X14.741
X14.742Y29.549
X13.242Y28.049
X50.751
X50.751Y37.679
X50.754Y37.845
X50.759Y38.01
X50.766Y38.176
X50.775Y38.341
X50.786Y38.507
X50.799Y38.672
X50.814Y38.837
X50.831Y39.002
X50.85Y39.166
X50.871Y39.33
X50.894Y39.495
X50.919Y39.658
X50.946Y39.822
X50.975Y39.985
X51.006Y40.148
X51.04Y40.31
X51.075Y40.472
X51.112Y40.633
X51.151Y40.794
X51.192Y40.955
X51.235Y41.115
X51.28Y41.274
X51.327Y41.433
X51.375Y41.591
X51.426Y41.749
X51.479Y41.906
X51.534Y42.063
X51.59Y42.218
X51.649Y42.373
X51.709Y42.528
X51.771Y42.681
X51.835Y42.834
X51.901Y42.986
X51.969Y43.137
X52.039Y43.287
X52.11Y43.437
X52.184Y43.585
X52.259Y43.733
X52.336Y43.879
X52.415Y44.025
X52.495Y44.17
X52.578Y44.314
X52.662Y44.456
X52.748Y44.598
X52.835Y44.739
X52.874Y44.8
X52.767Y44.969
X52.681Y45.111
X52.596Y45.253
X52.514Y45.397
X52.433Y45.541
X52.354Y45.687
X52.276Y45.833
X52.201Y45.981
X52.127Y46.129
X52.055Y46.278
X51.985Y46.428
X51.916Y46.579
X51.85Y46.731
X51.785Y46.884
X51.723Y47.037
X51.662Y47.191
X51.603Y47.346
X51.546Y47.501
X51.491Y47.658
X51.438Y47.815
X51.387Y47.972
X51.337Y48.13
X51.29Y48.289
X51.245Y48.448
X51.201Y48.608
X51.16Y48.769
X51.12Y48.93
X51.083Y49.091
X51.047Y49.253
X51.014Y49.415
X50.982Y49.578
X50.953Y49.741
X50.925Y49.904
X50.9Y50.068
X50.876Y50.232
X50.854Y50.396
X50.835Y50.56
X50.817Y50.725
X50.802Y50.89
X50.789Y51.055
X50.777Y51.22
X50.768Y51.386
X50.76Y51.551
X50.755Y51.717
X50.752Y51.883
X50.751Y52.067
X50.75Y61.55
X13.241
X13.242Y28.049
X11.742Y26.549
X52.251Y26.549
X52.251Y37.661
X52.254Y37.808
X52.258Y37.955
X52.264Y38.102
X52.272Y38.249
X52.282Y38.396
X52.293Y38.543
X52.307Y38.69
X52.322Y38.836
X52.339Y38.982
X52.357Y39.129
X52.378Y39.274
X52.4Y39.42
X52.424Y39.565
X52.45Y39.71
X52.478Y39.855
X52.507Y39.999
X52.538Y40.143
X52.571Y40.287
X52.606Y40.43
X52.642Y40.572
X52.68Y40.715
X52.72Y40.856
X52.762Y40.998
X52.805Y41.138
X52.85Y41.279
X52.897Y41.418
X52.946Y41.557
X52.996Y41.696
X53.048Y41.833
X53.102Y41.971
X53.157Y42.107
X53.214Y42.243
X53.273Y42.378
X53.333Y42.512
X53.395Y42.646
X53.458Y42.779
X53.524Y42.911
X53.59Y43.042
X53.659Y43.172
X53.729Y43.302
X53.8Y43.431
X53.874Y43.558
X53.948Y43.685
X54.025Y43.811
X54.103Y43.936
X54.182Y44.06
X54.263Y44.183
X54.345Y44.305
X54.429Y44.426
X54.514Y44.546
X54.601Y44.665
X54.702Y44.799
X54.623Y44.904
X54.536Y45.022
X54.45Y45.142
X54.366Y45.263
X54.283Y45.385
X54.202Y45.508
X54.122Y45.631
X54.044Y45.756
X53.967Y45.882
X53.892Y46.009
X53.819Y46.136
X53.747Y46.265
X53.676Y46.394
X53.608Y46.524
X53.54Y46.655
X53.475Y46.787
X53.411Y46.92
X53.348Y47.053
X53.288Y47.187
X53.229Y47.322
X53.171Y47.458
X53.116Y47.594
X53.061Y47.731
X53.009Y47.869
X52.958Y48.007
X52.909Y48.146
X52.862Y48.285
X52.817Y48.425
X52.773Y48.566
X52.731Y48.707
X52.69Y48.849
X52.652Y48.991
X52.615Y49.133
X52.58Y49.276
X52.546Y49.42
X52.515Y49.563
X52.485Y49.708
X52.457Y49.852
X52.431Y49.997
X52.406Y50.142
X52.383Y50.288
X52.362Y50.434
X52.343Y50.58
X52.326Y50.726
X52.31Y50.872
X52.296Y51.019
X52.285Y51.166
X52.274Y51.312
X52.266Y51.459
X52.259Y51.607
X52.255Y51.754
X52.252Y51.901
X52.251Y52.067
X52.25Y63.05
X11.741
X11.742Y26.549
X10.242Y25.049
X53.75Y25.049
X53.751Y37.642
X53.753Y37.771
X53.757Y37.9
X53.762Y38.029
X53.769Y38.157
X53.778Y38.286
X53.788Y38.414
X53.799Y38.543
X53.813Y38.671
X53.827Y38.799
X53.844Y38.927
X53.862Y39.054
X53.881Y39.182
X53.902Y39.309
X53.925Y39.436
X53.949Y39.562
X53.974Y39.688
X54.002Y39.814
X54.03Y39.94
X54.061Y40.065
X54.093Y40.19
X54.126Y40.315
X54.161Y40.439
X54.197Y40.562
X54.235Y40.685
X54.275Y40.808
X54.316Y40.93
X54.358Y41.052
X54.402Y41.173
X54.448Y41.294
X54.494Y41.414
X54.543Y41.533
X54.593Y41.652
X54.644Y41.77
X54.697Y41.888
X54.751Y42.004
X54.806Y42.121
X54.863Y42.236
X54.922Y42.351
X54.982Y42.465
X55.043Y42.579
X55.106Y42.691
X55.17Y42.803
X55.235Y42.914
X55.302Y43.024
X55.37Y43.134
X55.439Y43.242
X55.51Y43.35
X55.582Y43.457
X55.655Y43.563
X55.73Y43.668
X55.806Y43.772
X55.883Y43.875
X55.962Y43.977
X56.041Y44.078
X56.122Y44.179
X56.204Y44.278
X56.288Y44.376
X56.372Y44.473
X56.458Y44.569
X56.545Y44.665
X56.633Y44.759
X56.672Y44.8
X56.57Y44.907
X56.483Y45.002
X56.397Y45.098
X56.312Y45.195
X56.228Y45.293
X56.146Y45.392
X56.065Y45.492
X55.984Y45.593
X55.906Y45.695
X55.828Y45.797
X55.752Y45.901
X55.677Y46.006
X55.603Y46.112
X55.531Y46.218
X55.459Y46.326
X55.39Y46.434
X55.321Y46.543
X55.254Y46.653
X55.188Y46.764
X55.124Y46.876
X55.061Y46.988
X54.999Y47.101
X54.939Y47.215
X54.88Y47.33
X54.823Y47.445
X54.767Y47.561
X54.712Y47.678
X54.659Y47.795
X54.607Y47.913
X54.557Y48.032
X54.508Y48.151
X54.461Y48.271
X54.415Y48.391
X54.371Y48.512
X54.328Y48.634
X54.286Y48.756
X54.247Y48.878
X54.208Y49.001
X54.171Y49.125
X54.136Y49.249
X54.102Y49.373
X54.07Y49.498
X54.039Y49.623
X54.01Y49.748
X53.982Y49.874
X53.956Y50
X53.931Y50.127
X53.908Y50.254
X53.887Y50.381
X53.867Y50.508
X53.849Y50.635
X53.832Y50.763
X53.817Y50.891
X53.803Y51.019
X53.791Y51.148
X53.78Y51.276
X53.772Y51.404
X53.764Y51.533
X53.758Y51.662
X53.754Y51.791
X53.752Y51.919
X53.75Y52.067
X53.75Y64.55
X10.241
X10.242Y25.049
X8.742Y23.549
X55.25Y23.549
X55.251Y37.624
X55.253Y37.734
X55.256Y37.845
X55.261Y37.955
X55.266Y38.065
X55.274Y38.176
X55.282Y38.286
X55.292Y38.396
X55.303Y38.506
X55.316Y38.615
X55.33Y38.725
X55.345Y38.834
X55.362Y38.943
X55.38Y39.052
X55.399Y39.161
X55.42Y39.27
X55.442Y39.378
X55.465Y39.486
X55.49Y39.593
X55.516Y39.701
X55.543Y39.808
X55.572Y39.914
X55.602Y40.021
X55.633Y40.127
X55.665Y40.232
X55.699Y40.337
X55.734Y40.442
X55.771Y40.546
X55.808Y40.65
X55.847Y40.754
X55.887Y40.857
X55.929Y40.959
X55.971Y41.061
X56.015Y41.162
X56.06Y41.263
X56.107Y41.363
X56.154Y41.463
X56.203Y41.562
X56.253Y41.66
X56.305Y41.758
X56.357Y41.855
X56.411Y41.952
X56.466Y42.048
X56.522Y42.143
X56.579Y42.237
X56.637Y42.331
X56.697Y42.424
X56.757Y42.517
X56.819Y42.608
X56.882Y42.699
X56.946Y42.789
X57.011Y42.878
X57.077Y42.967
X57.144Y43.054
X57.212Y43.141
X57.282Y43.227
X57.352Y43.312
X57.424Y43.396
X57.496Y43.48
X57.57Y43.562
X57.644Y43.644
X57.72Y43.724
X57.796Y43.804
X57.874Y43.883
X57.952Y43.96
X58.031Y44.037
X58.112Y44.113
X58.193Y44.188
X58.275Y44.262
X58.358Y44.335
X58.442Y44.406
X58.527Y44.477
X58.612Y44.547
X58.699Y44.616
X58.786Y44.683
X58.874Y44.75
X58.942Y44.8
X58.816Y44.893
X58.728Y44.961
X58.641Y45.029
X58.555Y45.098
X58.47Y45.169
X58.386Y45.24
X58.303Y45.313
X58.22Y45.386
X58.139Y45.461
X58.058Y45.536
X57.979Y45.613
X57.9Y45.69
X57.822Y45.769
X57.745Y45.848
X57.669Y45.928
X57.595Y46.009
X57.521Y46.092
X57.448Y46.175
X57.376Y46.259
X57.305Y46.343
X57.236Y46.429
X57.167Y46.515
X57.099Y46.603
X57.033Y46.691
X56.967Y46.78
X56.903Y46.87
X56.84Y46.96
X56.778Y47.052
X56.717Y47.144
X56.657Y47.236
X56.598Y47.33
X56.541Y47.424
X56.484Y47.519
X56.429Y47.615
X56.375Y47.711
X56.322Y47.808
X56.27Y47.906
X56.22Y48.004
X56.171Y48.103
X56.123Y48.202
X56.076Y48.302
X56.03Y48.403
X55.986Y48.504
X55.943Y48.606
X55.901Y48.708
X55.86Y48.811
X55.821Y48.914
X55.783Y49.018
X55.746Y49.122
X55.711Y49.226
X55.677Y49.331
X55.644Y49.437
X55.612Y49.543
X55.582Y49.649
X55.553Y49.755
X55.525Y49.862
X55.498Y49.969
X55.473Y50.077
X55.45Y50.185
X55.427Y50.293
X55.406Y50.401
X55.386Y50.51
X55.368Y50.619
X55.351Y50.728
X55.335Y50.837
X55.321Y50.947
X55.308Y51.057
X55.296Y51.166
X55.285Y51.276
X55.276Y51.386
X55.269Y51.497
X55.262Y51.607
X55.257Y51.717
X55.254Y51.828
X55.252Y51.938
X55.25Y52.067
X55.25Y66.05
X8.741
X8.742Y23.549
X7.242Y22.049
X56.75Y22.049
X56.751Y37.605
X56.752Y37.697
X56.755Y37.789
X56.759Y37.881
X56.764Y37.973
X56.77Y38.065
X56.777Y38.157
X56.785Y38.249
X56.794Y38.34
X56.805Y38.432
X56.816Y38.523
X56.829Y38.614
X56.843Y38.705
X56.858Y38.796
X56.874Y38.887
X56.891Y38.977
X56.909Y39.067
X56.929Y39.157
X56.949Y39.247
X56.971Y39.336
X56.994Y39.425
X57.017Y39.514
X57.042Y39.603
X57.068Y39.691
X57.095Y39.779
X57.123Y39.867
X57.153Y39.954
X57.183Y40.041
X57.214Y40.128
X57.247Y40.214
X57.28Y40.3
X57.314Y40.385
X57.35Y40.47
X57.387Y40.554
X57.424Y40.638
X57.463Y40.722
X57.502Y40.805
X57.543Y40.887
X57.585Y40.969
X57.628Y41.051
X57.671Y41.132
X57.716Y41.212
X57.762Y41.292
X57.808Y41.372
X57.856Y41.451
X57.904Y41.529
X57.954Y41.606
X58.004Y41.683
X58.056Y41.76
X58.108Y41.835
X58.161Y41.91
X58.216Y41.985
X58.271Y42.058
X58.327Y42.131
X58.384Y42.204
X58.441Y42.275
X58.5Y42.346
X58.559Y42.417
X58.62Y42.486
X58.681Y42.555
X58.743Y42.623
X58.806Y42.69
X58.87Y42.756
X58.934Y42.822
X59Y42.887
X59.066Y42.951
X59.133Y43.014
X59.2Y43.077
X59.269Y43.138
X59.338Y43.199
X59.408Y43.259
X59.478Y43.318
X59.55Y43.376
X59.622Y43.433
X59.695Y43.489
X59.768Y43.545
X59.842Y43.599
X59.917Y43.653
X59.992Y43.706
X60.068Y43.758
X60.145Y43.808
X60.223Y43.858
X60.3Y43.907
X60.379Y43.955
X60.458Y44.002
X60.538Y44.048
X60.618Y44.093
X60.699Y44.137
X60.78Y44.181
X60.862Y44.223
X60.944Y44.264
X61.027Y44.304
X61.111Y44.343
X61.194Y44.381
X61.279Y44.418
X61.363Y44.454
X61.449Y44.489
X61.534Y44.523
X61.62Y44.555
X61.707Y44.587
X61.793Y44.618
X61.88Y44.647
X61.968Y44.676
X62.056Y44.703
X62.144Y44.73
X62.232Y44.755
X62.321Y44.779
X62.399Y44.799
X62.268Y44.834
X62.179Y44.859
X62.091Y44.885
X62.003Y44.912
X61.915Y44.94
X61.828Y44.969
X61.741Y44.999
X61.655Y45.031
X61.569Y45.063
X61.483Y45.097
X61.398Y45.131
X61.313Y45.167
X61.228Y45.203
X61.144Y45.241
X61.061Y45.279
X60.978Y45.319
X60.895Y45.36
X60.813Y45.401
X60.731Y45.444
X60.65Y45.488
X60.57Y45.532
X60.49Y45.578
X60.411Y45.625
X60.332Y45.672
X60.254Y45.721
X60.176Y45.77
X60.099Y45.821
X60.023Y45.872
X59.947Y45.925
X59.872Y45.978
X59.798Y46.032
X59.724Y46.087
X59.651Y46.143
X59.579Y46.2
X59.507Y46.258
X59.436Y46.317
X59.366Y46.376
X59.296Y46.436
X59.228Y46.498
X59.16Y46.56
X59.092Y46.623
X59.026Y46.686
X58.96Y46.751
X58.896Y46.816
X58.832Y46.882
X58.768Y46.949
X58.706Y47.017
X58.644Y47.085
X58.584Y47.154
X58.524Y47.224
X58.465Y47.295
X58.407Y47.366
X58.349Y47.438
X58.293Y47.511
X58.238Y47.585
X58.183Y47.659
X58.129Y47.733
X58.077Y47.809
X58.025Y47.885
X57.974Y47.962
X57.924Y48.039
X57.875Y48.117
X57.827Y48.195
X57.78Y48.275
X57.734Y48.354
X57.689Y48.435
X57.645Y48.515
X57.602Y48.597
X57.56Y48.678
X57.519Y48.761
X57.479Y48.844
X57.44Y48.927
X57.402Y49.011
X57.365Y49.095
X57.329Y49.18
X57.294Y49.265
X57.26Y49.351
X57.227Y49.437
X57.195Y49.523
X57.165Y49.61
X57.135Y49.697
X57.106Y49.784
X57.079Y49.872
X57.053Y49.96
X57.027Y50.049
X57.003Y50.138
X56.98Y50.227
X56.958Y50.316
X56.937Y50.406
X56.917Y50.496
X56.898Y50.586
X56.881Y50.676
X56.864Y50.767
X56.849Y50.857
X56.835Y50.948
X56.821Y51.039
X56.809Y51.131
X56.798Y51.222
X56.789Y51.313
X56.78Y51.405
X56.772Y51.497
X56.766Y51.589
X56.761Y51.68
X56.756Y51.772
X56.753Y51.864
X56.751Y51.956
X56.75Y52.067
X56.75Y67.55
X7.241
X7.242Y22.049
X5.742Y20.549
X58.251Y20.549
X58.251Y37.587
X58.252Y37.661
X58.254Y37.734
X58.257Y37.808
X58.261Y37.881
X58.266Y37.955
X58.271Y38.028
X58.278Y38.102
X58.285Y38.175
X58.293Y38.248
X58.303Y38.321
X58.313Y38.394
X58.324Y38.467
X58.336Y38.539
X58.349Y38.612
X58.362Y38.684
X58.377Y38.756
X58.392Y38.828
X58.409Y38.9
X58.426Y38.972
X58.444Y39.043
X58.463Y39.114
X58.483Y39.185
X58.504Y39.256
X58.525Y39.326
X58.548Y39.396
X58.571Y39.466
X58.595Y39.536
X58.62Y39.605
X58.646Y39.674
X58.673Y39.743
X58.7Y39.811
X58.729Y39.879
X58.758Y39.946
X58.788Y40.014
X58.819Y40.08
X58.85Y40.147
X58.883Y40.213
X58.916Y40.279
X58.95Y40.344
X58.985Y40.409
X59.021Y40.473
X59.057Y40.537
X59.095Y40.601
X59.133Y40.664
X59.172Y40.726
X59.211Y40.788
X59.252Y40.85
X59.293Y40.911
X59.334Y40.972
X59.377Y41.032
X59.42Y41.091
X59.464Y41.15
X59.509Y41.209
X59.555Y41.267
X59.601Y41.324
X59.648Y41.381
X59.695Y41.437
X59.744Y41.492
X59.793Y41.547
X59.842Y41.602
X59.892Y41.656
X59.943Y41.709
X59.995Y41.761
X60.047Y41.813
X60.1Y41.865
X60.153Y41.915
X60.208Y41.965
X60.262Y42.014
X60.318Y42.063
X60.373Y42.111
X60.43Y42.158
X60.487Y42.205
X60.545Y42.25
X60.603Y42.296
X60.662Y42.34
X60.721Y42.384
X60.781Y42.427
X60.841Y42.469
X60.902Y42.51
X60.963Y42.551
X61.025Y42.591
X61.087Y42.63
X61.15Y42.669
X61.213Y42.706
X61.277Y42.743
X61.341Y42.779
X61.406Y42.815
X61.471Y42.849
X61.536Y42.883
X61.602Y42.916
X61.669Y42.948
X61.735Y42.979
X61.802Y43.01
X61.87Y43.039
X61.937Y43.068
X62.006Y43.096
X62.074Y43.123
X62.143Y43.149
X62.212Y43.175
X62.281Y43.199
X62.351Y43.223
X62.421Y43.246
X62.491Y43.268
X62.562Y43.289
X62.633Y43.309
X62.704Y43.329
X62.775Y43.347
X62.846Y43.365
X62.918Y43.382
X62.99Y43.398
X63.062Y43.413
X63.134Y43.427
X63.207Y43.44
X63.279Y43.453
X63.352Y43.464
X63.425Y43.475
X63.498Y43.484
X63.571Y43.493
X63.644Y43.501
X63.717Y43.508
X63.791Y43.514
X63.864Y43.519
X63.938Y43.524
X64.011Y43.527
X64.085Y43.529
X64.158Y43.531
X64.25Y43.532
X70.051Y43.532
X70.05Y46.067
X64.195Y46.068
X64.122Y46.069
X64.048Y46.071
X63.974Y46.074
X63.901Y46.077
X63.827Y46.082
X63.754Y46.088
X63.681Y46.094
X63.607Y46.102
X63.534Y46.11
X63.461Y46.119
X63.388Y46.13
X63.316Y46.141
X63.243Y46.152
X63.17Y46.165
X63.098Y46.179
X63.026Y46.194
X62.954Y46.209
X62.882Y46.225
X62.811Y46.243
X62.739Y46.261
X62.668Y46.28
X62.597Y46.3
X62.526Y46.32
X62.456Y46.342
X62.386Y46.364
X62.316Y46.388
X62.247Y46.412
X62.177Y46.437
X62.108Y46.463
X62.04Y46.489
X61.972Y46.517
X61.904Y46.545
X61.836Y46.575
X61.769Y46.605
X61.702Y46.635
X61.635Y46.667
X61.569Y46.7
X61.504Y46.733
X61.438Y46.767
X61.374Y46.802
X61.309Y46.838
X61.245Y46.874
X61.182Y46.911
X61.119Y46.949
X61.056Y46.988
X60.994Y47.028
X60.933Y47.068
X60.871Y47.109
X60.811Y47.151
X60.751Y47.194
X60.691Y47.237
X60.632Y47.281
X60.574Y47.326
X60.516Y47.371
X60.459Y47.417
X60.402Y47.464
X60.346Y47.512
X60.29Y47.56
X60.235Y47.609
X60.181Y47.659
X60.127Y47.709
X60.074Y47.76
X60.021Y47.811
X59.969Y47.864
X59.918Y47.917
X59.867Y47.97
X59.817Y48.024
X59.768Y48.079
X59.719Y48.134
X59.672Y48.19
X59.624Y48.247
X59.578Y48.304
X59.532Y48.361
X59.487Y48.419
X59.442Y48.478
X59.399Y48.537
X59.356Y48.597
X59.314Y48.658
X59.272Y48.718
X59.231Y48.78
X59.191Y48.842
X59.152Y48.904
X59.114Y48.967
X59.076Y49.03
X59.039Y49.094
X59.003Y49.158
X58.968Y49.222
X58.933Y49.287
X58.9Y49.353
X58.867Y49.419
X58.835Y49.485
X58.803Y49.552
X58.773Y49.619
X58.743Y49.686
X58.714Y49.754
X58.686Y49.822
X58.659Y49.89
X58.633Y49.959
X58.608Y50.028
X58.583Y50.098
X58.559Y50.167
X58.536Y50.237
X58.514Y50.308
X58.493Y50.378
X58.473Y50.449
X58.453Y50.52
X58.435Y50.591
X58.417Y50.663
X58.4Y50.734
X58.385Y50.806
X58.37Y50.878
X58.355Y50.951
X58.342Y51.023
X58.33Y51.096
X58.318Y51.168
X58.308Y51.241
X58.298Y51.314
X58.289Y51.387
X58.281Y51.461
X58.274Y51.534
X58.268Y51.607
X58.263Y51.681
X58.259Y51.754
X58.255Y51.828
X58.253Y51.901
X58.251Y51.975
X58.251Y52.067
X58.25Y69.05
X5.741
X5.742Y20.549
X4.5Y19.049
X57.571Y19.049
X59.751Y19.049
X59.751Y37.569
X59.752Y37.624
X59.753Y37.679
X59.755Y37.734
X59.758Y37.789
X59.761Y37.845
X59.766Y37.9
X59.77Y37.955
X59.776Y38.01
X59.782Y38.064
X59.789Y38.119
X59.797Y38.174
X59.805Y38.229
X59.814Y38.283
X59.823Y38.337
X59.833Y38.392
X59.844Y38.446
X59.856Y38.5
X59.868Y38.554
X59.881Y38.607
X59.895Y38.661
X59.909Y38.714
X59.924Y38.767
X59.939Y38.82
X59.955Y38.873
X59.972Y38.926
X59.989Y38.978
X60.007Y39.03
X60.026Y39.082
X60.046Y39.134
X60.065Y39.186
X60.086Y39.237
X60.107Y39.288
X60.129Y39.339
X60.152Y39.389
X60.175Y39.439
X60.198Y39.489
X60.223Y39.539
X60.248Y39.588
X60.273Y39.637
X60.299Y39.685
X60.326Y39.734
X60.353Y39.782
X60.381Y39.829
X60.41Y39.877
X60.439Y39.924
X60.469Y39.97
X60.499Y40.017
X60.53Y40.062
X60.561Y40.108
X60.593Y40.153
X60.625Y40.198
X60.658Y40.242
X60.692Y40.286
X60.726Y40.329
X60.76Y40.372
X60.795Y40.415
X60.831Y40.457
X60.867Y40.499
X60.904Y40.54
X60.941Y40.581
X60.979Y40.621
X61.017Y40.661
X61.056Y40.701
X61.095Y40.74
X61.134Y40.778
X61.174Y40.816
X61.215Y40.854
X61.256Y40.891
X61.297Y40.927
X61.339Y40.963
X61.382Y40.999
X61.424Y41.034
X61.468Y41.068
X61.511Y41.102
X61.555Y41.135
X61.6Y41.168
X61.644Y41.2
X61.69Y41.232
X61.735Y41.263
X61.781Y41.294
X61.828Y41.324
X61.874Y41.353
X61.921Y41.382
X61.969Y41.41
X62.016Y41.438
X62.065Y41.465
X62.113Y41.492
X62.162Y41.518
X62.211Y41.543
X62.26Y41.568
X62.31Y41.592
X62.36Y41.615
X62.41Y41.638
X62.461Y41.66
X62.511Y41.682
X62.563Y41.703
X62.614Y41.724
X62.665Y41.743
X62.717Y41.762
X62.769Y41.781
X62.821Y41.799
X62.874Y41.816
X62.927Y41.833
X62.98Y41.849
X63.033Y41.864
X63.086Y41.878
X63.139Y41.892
X63.193Y41.906
X63.247Y41.918
X63.301Y41.93
X63.355Y41.942
X63.409Y41.952
X63.463Y41.962
X63.517Y41.972
X63.572Y41.98
X63.627Y41.988
X63.681Y41.996
X63.736Y42.002
X63.791Y42.008
X63.846Y42.014
X63.901Y42.018
X63.956Y42.022
X64.011Y42.025
X64.066Y42.028
X64.122Y42.03
X64.177Y42.031
X64.25Y42.032
X71.55Y42.032
Y47.567
X64.214Y47.567
X64.158Y47.568
X64.103Y47.57
X64.048Y47.572
X63.993Y47.575
X63.938Y47.578
X63.883Y47.582
X63.828Y47.587
X63.773Y47.593
X63.718Y47.599
X63.663Y47.606
X63.608Y47.613
X63.554Y47.621
X63.499Y47.63
X63.445Y47.64
X63.391Y47.65
X63.337Y47.661
X63.283Y47.673
X63.229Y47.685
X63.175Y47.698
X63.121Y47.711
X63.068Y47.725
X63.015Y47.74
X62.962Y47.756
X62.909Y47.772
X62.856Y47.789
X62.804Y47.806
X62.752Y47.824
X62.7Y47.843
X62.648Y47.862
X62.597Y47.882
X62.546Y47.903
X62.495Y47.924
X62.444Y47.946
X62.393Y47.968
X62.343Y47.991
X62.293Y48.015
X62.244Y48.039
X62.195Y48.064
X62.146Y48.09
X62.097Y48.116
X62.049Y48.143
X62.001Y48.17
X61.953Y48.198
X61.906Y48.226
X61.859Y48.256
X61.812Y48.285
X61.766Y48.315
X61.72Y48.346
X61.675Y48.377
X61.629Y48.409
X61.585Y48.442
X61.54Y48.475
X61.497Y48.508
X61.453Y48.542
X61.41Y48.577
X61.367Y48.612
X61.325Y48.648
X61.284Y48.684
X61.242Y48.721
X61.201Y48.758
X61.161Y48.795
X61.121Y48.834
X61.082Y48.872
X61.043Y48.911
X61.004Y48.951
X60.966Y48.991
X60.929Y49.032
X60.892Y49.073
X60.855Y49.114
X60.819Y49.156
X60.784Y49.198
X60.749Y49.241
X60.714Y49.284
X60.681Y49.328
X60.647Y49.372
X60.614Y49.416
X60.582Y49.461
X60.55Y49.506
X60.519Y49.552
X60.489Y49.598
X60.459Y49.644
X60.429Y49.691
X60.4Y49.738
X60.372Y49.785
X60.344Y49.833
X60.317Y49.881
X60.291Y49.93
X60.265Y49.978
X60.239Y50.027
X60.215Y50.077
X60.191Y50.126
X60.167Y50.176
X60.144Y50.227
X60.122Y50.277
X60.1Y50.328
X60.079Y50.379
X60.059Y50.43
X60.039Y50.482
X60.02Y50.534
X60.001Y50.586
X59.984Y50.638
X59.966Y50.69
X59.95Y50.743
X59.934Y50.796
X59.919Y50.849
X59.904Y50.902
X59.89Y50.956
X59.877Y51.009
X59.864Y51.063
X59.852Y51.117
X59.841Y51.171
X59.83Y51.225
X59.82Y51.28
X59.811Y51.334
X59.802Y51.389
X59.794Y51.443
X59.787Y51.498
X59.78Y51.553
X59.774Y51.608
X59.769Y51.663
X59.764Y51.718
X59.76Y51.773
X59.757Y51.828
X59.754Y51.883
X59.752Y51.938
X59.751Y51.993
X59.751Y52.067
X59.75Y70.55
X4.463Y70.551
X4.408Y70.552
X4.353Y70.553
X4.297Y70.555
X4.241Y70.558
X4.241Y19.041
X4.316Y19.045
X4.371Y19.047
X4.426Y19.048
X4.5Y19.049
Y17.549
X57.571Y17.549
X61.251Y17.549
X61.251Y37.55
X61.251Y37.587
X61.252Y37.624
X61.253Y37.661
X61.255Y37.697
X61.257Y37.734
X61.26Y37.771
X61.263Y37.808
X61.267Y37.844
X61.271Y37.881
X61.275Y37.917
X61.28Y37.954
X61.286Y37.99
X61.292Y38.027
X61.298Y38.063
X61.305Y38.099
X61.312Y38.135
X61.319Y38.171
X61.328Y38.207
X61.336Y38.243
X61.345Y38.279
X61.354Y38.314
X61.364Y38.35
X61.374Y38.385
X61.385Y38.42
X61.396Y38.455
X61.408Y38.49
X61.42Y38.525
X61.432Y38.56
X61.445Y38.594
X61.458Y38.629
X61.472Y38.663
X61.486Y38.697
X61.501Y38.731
X61.515Y38.764
X61.531Y38.798
X61.547Y38.831
X61.563Y38.864
X61.579Y38.897
X61.596Y38.93
X61.614Y38.962
X61.631Y38.994
X61.649Y39.026
X61.668Y39.058
X61.687Y39.09
X61.706Y39.121
X61.726Y39.152
X61.746Y39.183
X61.766Y39.214
X61.787Y39.244
X61.808Y39.274
X61.83Y39.304
X61.852Y39.334
X61.874Y39.363
X61.897Y39.392
X61.92Y39.421
X61.943Y39.449
X61.967Y39.477
X61.991Y39.505
X62.015Y39.533
X62.04Y39.56
X62.065Y39.587
X62.091Y39.614
X62.116Y39.64
X62.142Y39.666
X62.169Y39.692
X62.195Y39.717
X62.222Y39.742
X62.25Y39.767
X62.277Y39.791
X62.305Y39.815
X62.333Y39.839
X62.362Y39.862
X62.39Y39.885
X62.419Y39.908
X62.449Y39.93
X62.478Y39.952
X62.508Y39.974
X62.538Y39.995
X62.569Y40.016
X62.599Y40.036
X62.63Y40.056
X62.661Y40.076
X62.692Y40.095
X62.724Y40.114
X62.756Y40.133
X62.788Y40.151
X62.82Y40.169
X62.853Y40.186
X62.885Y40.203
X62.918Y40.22
X62.951Y40.236
X62.985Y40.252
X63.018Y40.267
X63.052Y40.282
X63.085Y40.296
X63.12Y40.31
X63.154Y40.324
X63.188Y40.337
X63.223Y40.35
X63.257Y40.363
X63.292Y40.375
X63.327Y40.386
X63.362Y40.397
X63.397Y40.408
X63.433Y40.418
X63.468Y40.428
X63.504Y40.437
X63.539Y40.446
X63.575Y40.455
X63.611Y40.463
X63.647Y40.47
X63.683Y40.478
X63.719Y40.484
X63.756Y40.491
X63.792Y40.497
X63.829Y40.502
X63.865Y40.507
X63.902Y40.511
X63.938Y40.515
X63.975Y40.519
X64.011Y40.522
X64.048Y40.525
X64.085Y40.527
X64.122Y40.529
X64.158Y40.53
X64.195Y40.531
X64.25Y40.532
X73.05Y40.532
X73.05Y49.067
X64.232Y49.067
X64.195Y49.068
X64.158Y49.069
X64.122Y49.07
X64.085Y49.072
X64.048Y49.074
X64.011Y49.077
X63.975Y49.08
X63.938Y49.084
X63.902Y49.088
X63.865Y49.092
X63.829Y49.097
X63.792Y49.102
X63.756Y49.108
X63.72Y49.115
X63.683Y49.121
X63.647Y49.129
X63.611Y49.136
X63.575Y49.144
X63.539Y49.153
X63.504Y49.162
X63.468Y49.171
X63.433Y49.181
X63.397Y49.191
X63.362Y49.202
X63.327Y49.213
X63.292Y49.224
X63.257Y49.236
X63.223Y49.249
X63.188Y49.262
X63.154Y49.275
X63.12Y49.289
X63.086Y49.303
X63.052Y49.317
X63.018Y49.332
X62.985Y49.347
X62.951Y49.363
X62.918Y49.379
X62.885Y49.396
X62.853Y49.413
X62.82Y49.43
X62.788Y49.448
X62.756Y49.466
X62.724Y49.485
X62.693Y49.504
X62.661Y49.523
X62.63Y49.543
X62.599Y49.563
X62.569Y49.583
X62.538Y49.604
X62.508Y49.625
X62.478Y49.647
X62.449Y49.669
X62.419Y49.691
X62.39Y49.714
X62.362Y49.737
X62.333Y49.76
X62.305Y49.784
X62.277Y49.808
X62.25Y49.832
X62.222Y49.857
X62.195Y49.882
X62.169Y49.907
X62.142Y49.933
X62.116Y49.959
X62.091Y49.985
X62.065Y50.012
X62.04Y50.039
X62.015Y50.066
X61.991Y50.094
X61.967Y50.122
X61.943Y50.15
X61.92Y50.178
X61.897Y50.207
X61.874Y50.236
X61.852Y50.265
X61.83Y50.295
X61.808Y50.325
X61.787Y50.355
X61.766Y50.385
X61.746Y50.416
X61.726Y50.447
X61.706Y50.478
X61.687Y50.509
X61.668Y50.541
X61.649Y50.572
X61.631Y50.604
X61.614Y50.637
X61.596Y50.669
X61.579Y50.702
X61.563Y50.735
X61.547Y50.768
X61.531Y50.801
X61.515Y50.835
X61.501Y50.868
X61.486Y50.902
X61.472Y50.936
X61.458Y50.97
X61.445Y51.005
X61.432Y51.039
X61.42Y51.074
X61.408Y51.109
X61.396Y51.144
X61.385Y51.179
X61.374Y51.214
X61.364Y51.249
X61.354Y51.285
X61.345Y51.32
X61.336Y51.356
X61.328Y51.392
X61.319Y51.428
X61.312Y51.464
X61.305Y51.5
X61.298Y51.536
X61.292Y51.572
X61.286Y51.609
X61.28Y51.645
X61.275Y51.682
X61.271Y51.718
X61.267Y51.755
X61.263Y51.791
X61.26Y51.828
X61.257Y51.865
X61.255Y51.901
X61.253Y51.938
X61.252Y51.975
X61.251Y52.012
X61.251Y52.067
X61.25Y72.05
X4.481Y72.051
X4.445Y72.051
X4.408Y72.052
X4.371Y72.053
X4.334Y72.055
X4.298Y72.057
X4.261Y72.06
X4.224Y72.063
X4.188Y72.067
X4.151Y72.071
X4.114Y72.075
X4.078Y72.08
X4.042Y72.086
X4.005Y72.092
X3.969Y72.098
X3.933Y72.105
X3.897Y72.112
X3.861Y72.119
X3.825Y72.128
X3.789Y72.136
X3.753Y72.145
X3.718Y72.154
X3.682Y72.164
X3.647Y72.174
X3.612Y72.185
X3.576Y72.196
X3.542Y72.208
X3.507Y72.22
X3.472Y72.232
X3.438Y72.245
X3.403Y72.258
X3.369Y72.272
X3.335Y72.286
X3.301Y72.3
X3.268Y72.315
X3.234Y72.331
X3.201Y72.346
X3.168Y72.363
X3.135Y72.379
X3.102Y72.396
X3.07Y72.413
X3.037Y72.431
X3.005Y72.449
X2.974Y72.468
X2.942Y72.487
X2.911Y72.506
X2.88Y72.526
X2.849Y72.546
X2.818Y72.566
X2.788Y72.587
X2.741Y72.621
X2.741Y16.979
X2.788Y17.012
X2.818Y17.033
X2.849Y17.053
X2.879Y17.073
X2.91Y17.093
X2.942Y17.112
X2.973Y17.131
X3.005Y17.15
X3.037Y17.168
X3.069Y17.185
X3.102Y17.203
X3.135Y17.22
X3.168Y17.236
X3.201Y17.252
X3.234Y17.268
X3.267Y17.284
X3.301Y17.298
X3.335Y17.313
X3.369Y17.327
X3.403Y17.341
X3.437Y17.354
X3.472Y17.367
X3.507Y17.379
X3.541Y17.391
X3.576Y17.403
X3.611Y17.414
X3.647Y17.425
X3.682Y17.435
X3.717Y17.445
X3.753Y17.454
X3.789Y17.463
X3.825Y17.471
X3.861Y17.48
X3.897Y17.487
X3.933Y17.494
X3.969Y17.501
X4.005Y17.507
X4.041Y17.513
X4.078Y17.519
X4.114Y17.524
X4.151Y17.528
X4.188Y17.532
X4.224Y17.536
X4.261Y17.539
X4.298Y17.542
X4.334Y17.544
X4.371Y17.546
X4.408Y17.547
X4.445Y17.548
X4.5Y17.549
Y16.049
X57.572
X62.751Y16.049
Y37.532
X62.751Y37.569
X62.752Y37.605
X62.755Y37.642
X62.758Y37.679
X62.762Y37.715
X62.767Y37.752
X62.773Y37.788
X62.779Y37.824
X62.787Y37.86
X62.795Y37.896
X62.805Y37.932
X62.815Y37.967
X62.826Y38.002
X62.838Y38.037
X62.851Y38.072
X62.865Y38.106
X62.879Y38.14
X62.895Y38.173
X62.911Y38.206
X62.928Y38.239
X62.945Y38.271
X62.964Y38.303
X62.983Y38.334
X63.003Y38.365
X63.024Y38.396
X63.046Y38.425
X63.068Y38.455
X63.091Y38.483
X63.115Y38.512
X63.139Y38.539
X63.164Y38.566
X63.19Y38.592
X63.216Y38.618
X63.243Y38.643
X63.271Y38.668
X63.299Y38.691
X63.328Y38.714
X63.357Y38.737
X63.387Y38.758
X63.417Y38.779
X63.448Y38.799
X63.479Y38.818
X63.511Y38.837
X63.543Y38.855
X63.576Y38.872
X63.609Y38.888
X63.643Y38.903
X63.676Y38.918
X63.711Y38.931
X63.745Y38.944
X63.78Y38.956
X63.815Y38.967
X63.85Y38.977
X63.886Y38.987
X63.922Y38.995
X63.958Y39.003
X63.994Y39.01
X64.03Y39.016
X64.067Y39.021
X64.103Y39.025
X64.14Y39.028
X64.177Y39.03
X64.214Y39.031
X64.25Y39.032
X74.476Y39.032
X74.544Y39.039
X74.551Y39.107
X74.55Y50.492
X74.544Y50.56
X74.476Y50.567
X64.25
X64.214Y50.568
X64.177Y50.569
X64.14Y50.571
X64.103Y50.574
X64.067Y50.578
X64.03Y50.583
X63.994Y50.589
X63.958Y50.596
X63.922Y50.604
X63.886Y50.612
X63.85Y50.621
X63.815Y50.632
X63.78Y50.643
X63.745Y50.655
X63.711Y50.668
X63.676Y50.681
X63.643Y50.696
X63.609Y50.711
X63.576Y50.727
X63.543Y50.744
X63.511Y50.762
X63.479Y50.781
X63.448Y50.8
X63.417Y50.82
X63.387Y50.841
X63.357Y50.862
X63.328Y50.885
X63.299Y50.908
X63.271Y50.931
X63.243Y50.956
X63.216Y50.981
X63.19Y51.006
X63.164Y51.033
X63.139Y51.06
X63.115Y51.087
X63.091Y51.116
X63.068Y51.144
X63.046Y51.174
X63.024Y51.203
X63.003Y51.234
X62.983Y51.265
X62.964Y51.296
X62.945Y51.328
X62.928Y51.36
X62.911Y51.393
X62.895Y51.426
X62.879Y51.459
X62.865Y51.493
X62.851Y51.527
X62.838Y51.562
X62.826Y51.597
X62.815Y51.632
X62.805Y51.667
X62.795Y51.703
X62.787Y51.738
X62.779Y51.774
X62.773Y51.811
X62.767Y51.847
X62.762Y51.883
X62.758Y51.92
X62.755Y51.957
X62.752Y51.994
X62.751Y52.03
X62.751Y52.067
X62.75Y73.55
X4.5
X4.463Y73.551
X4.426Y73.552
X4.39Y73.555
X4.353Y73.558
X4.316Y73.562
X4.28Y73.567
X4.243Y73.573
X4.207Y73.579
X4.171Y73.587
X4.135Y73.595
X4.1Y73.605
X4.065Y73.615
X4.029Y73.626
X3.995Y73.638
X3.96Y73.651
X3.926Y73.665
X3.892Y73.679
X3.859Y73.694
X3.826Y73.711
X3.793Y73.728
X3.761Y73.745
X3.729Y73.764
X3.697Y73.783
X3.667Y73.803
X3.636Y73.824
X3.606Y73.846
X3.577Y73.868
X3.548Y73.891
X3.52Y73.915
X3.493Y73.939
X3.466Y73.964
X3.439Y73.99
X3.414Y74.016
X3.389Y74.043
X3.364Y74.071
X3.34Y74.099
X3.317Y74.127
X3.295Y74.157
X3.274Y74.187
X3.253Y74.217
X3.233Y74.248
X3.213Y74.279
X3.195Y74.311
X3.177Y74.343
X3.16Y74.376
X3.144Y74.409
X3.129Y74.442
X3.114Y74.476
X3.1Y74.51
X3.088Y74.545
X3.076Y74.58
X3.065Y74.615
X3.054Y74.65
X3.045Y74.686
X3.036Y74.722
X3.029Y74.758
X3.022Y74.794
X3.016Y74.83
X3.011Y74.867
X3.007Y74.903
X3.004Y74.94
X3.002Y74.977
X3Y75.013
X3Y75.05
X2.999Y77.545
X1.24Y77.545
X1.241Y12.438
X3Y12.438
Y14.549
X3Y14.585
X3.002Y14.622
X3.004Y14.659
X3.007Y14.696
X3.011Y14.732
X3.016Y14.769
X3.022Y14.805
X3.029Y14.841
X3.036Y14.877
X3.045Y14.913
X3.054Y14.949
X3.064Y14.984
X3.076Y15.019
X3.088Y15.054
X3.1Y15.088
X3.114Y15.123
X3.129Y15.156
X3.144Y15.19
X3.16Y15.223
X3.177Y15.256
X3.195Y15.288
X3.213Y15.32
X3.233Y15.351
X3.253Y15.382
X3.273Y15.412
X3.295Y15.442
X3.317Y15.471
X3.34Y15.5
X3.364Y15.528
X3.388Y15.556
X3.413Y15.583
X3.439Y15.609
X3.466Y15.635
X3.493Y15.66
X3.52Y15.684
X3.548Y15.708
X3.577Y15.731
X3.606Y15.753
X3.636Y15.775
X3.667Y15.796
X3.697Y15.816
X3.729Y15.835
X3.761Y15.854
X3.793Y15.871
X3.825Y15.888
X3.859Y15.904
X3.892Y15.92
X3.926Y15.934
X3.96Y15.948
X3.995Y15.961
X4.029Y15.973
X4.064Y15.984
X4.1Y15.994
X4.135Y16.004
X4.171Y16.012
X4.207Y16.02
X4.243Y16.026
X4.28Y16.032
X4.316Y16.037
X4.353Y16.041
X4.39Y16.044
X4.426Y16.047
X4.463Y16.048
X4.5Y16.049
G0Z2
(Tool: D = 3.0 mm  type END flutes 2)
S12000M03
G00 Z2.0

X29.741Y44.549
G1Z-2.3F200
X34.25F400
X34.25Y45.05
X29.741
X29.741Y44.549
X28.241Y43.049
X35.75
X35.75Y46.55
X28.241
X28.241Y43.049
X26.742Y41.549
X37.25
X37.25Y48.05
X26.741
X26.742Y41.549
X25.242Y40.049
X38.75
X38.75Y49.55
X25.241
X25.242Y40.049
X23.742Y38.549
X40.25
X40.25Y51.05
X23.741
X23.742Y38.549
X22.242Y37.049
X41.75
X41.75Y52.55
X22.241
X22.242Y37.049
X20.742Y35.549
X43.25Y35.549
X43.25Y54.05
X20.741
X20.742Y35.549
X19.242Y34.049
X44.75
X44.75Y55.55
X19.241
X19.242Y34.049
X17.742Y32.549
X46.25
X46.25Y57.05
X17.741
X17.742Y32.549
X16.242Y31.049
X47.75Y31.049
X47.75Y58.55
X16.241
X16.242Y31.049
X14.742Y29.549
X49.25Y29.549
X49.25Y60.05
X14.741
X14.742Y29.549
X13.242Y28.049
X50.75
X50.75Y61.55
X13.241
X13.242Y28.049
X11.742Y26.549
X52.25Y26.549
X52.25Y63.05
X11.741
X11.742Y26.549
X10.242Y25.049
X53.75Y25.049
X53.75Y64.55
X10.241
X10.242Y25.049
X8.742Y23.549
X55.25Y23.549
X55.25Y66.05
X8.741
X8.742Y23.549
X7.242Y22.049
X56.75Y22.049
X56.75Y67.55
X7.241
X7.242Y22.049
X5.742Y20.549
X58.25Y20.549
X58.25Y69.05
X5.741
X5.742Y20.549
X4.5Y19.049
X57.571Y19.049
X59.75Y19.049
X59.75Y70.55
X4.463Y70.551
X4.408Y70.552
X4.353Y70.553
X4.297Y70.555
X4.241Y70.558
X4.241Y19.041
X4.316Y19.045
X4.371Y19.047
X4.426Y19.048
X4.5Y19.049
Y17.549
X57.571Y17.549
X61.25Y17.549
X61.25Y72.05
X4.481Y72.051
X4.445Y72.051
X4.408Y72.052
X4.371Y72.053
X4.334Y72.055
X4.298Y72.057
X4.261Y72.06
X4.224Y72.063
X4.188Y72.067
X4.151Y72.071
X4.114Y72.075
X4.078Y72.08
X4.042Y72.086
X4.005Y72.092
X3.969Y72.098
X3.933Y72.105
X3.897Y72.112
X3.861Y72.119
X3.825Y72.128
X3.789Y72.136
X3.753Y72.145
X3.718Y72.154
X3.682Y72.164
X3.647Y72.174
X3.612Y72.185
X3.576Y72.196
X3.542Y72.208
X3.507Y72.22
X3.472Y72.232
X3.438Y72.245
X3.403Y72.258
X3.369Y72.272
X3.335Y72.286
X3.301Y72.3
X3.268Y72.315
X3.234Y72.331
X3.201Y72.346
X3.168Y72.363
X3.135Y72.379
X3.102Y72.396
X3.07Y72.413
X3.037Y72.431
X3.005Y72.449
X2.974Y72.468
X2.942Y72.487
X2.911Y72.506
X2.88Y72.526
X2.849Y72.546
X2.818Y72.566
X2.788Y72.587
X2.741Y72.621
X2.741Y16.979
X2.788Y17.012
X2.818Y17.033
X2.849Y17.053
X2.879Y17.073
X2.91Y17.093
X2.942Y17.112
X2.973Y17.131
X3.005Y17.15
X3.037Y17.168
X3.069Y17.185
X3.102Y17.203
X3.135Y17.22
X3.168Y17.236
X3.201Y17.252
X3.234Y17.268
X3.267Y17.284
X3.301Y17.298
X3.335Y17.313
X3.369Y17.327
X3.403Y17.341
X3.437Y17.354
X3.472Y17.367
X3.507Y17.379
X3.541Y17.391
X3.576Y17.403
X3.611Y17.414
X3.647Y17.425
X3.682Y17.435
X3.717Y17.445
X3.753Y17.454
X3.789Y17.463
X3.825Y17.471
X3.861Y17.48
X3.897Y17.487
X3.933Y17.494
X3.969Y17.501
X4.005Y17.507
X4.041Y17.513
X4.078Y17.519
X4.114Y17.524
X4.151Y17.528
X4.188Y17.532
X4.224Y17.536
X4.261Y17.539
X4.298Y17.542
X4.334Y17.544
X4.371Y17.546
X4.408Y17.547
X4.445Y17.548
X4.5Y17.549
Y16.049
X57.572
X62.75Y16.049
X62.75Y73.55
X4.5
X4.463Y73.551
X4.426Y73.552
X4.39Y73.555
X4.353Y73.558
X4.316Y73.562
X4.28Y73.567
X4.243Y73.573
X4.207Y73.579
X4.171Y73.587
X4.135Y73.595
X4.1Y73.605
X4.065Y73.615
X4.029Y73.626
X3.995Y73.638
X3.96Y73.651
X3.926Y73.665
X3.892Y73.679
X3.859Y73.694
X3.826Y73.711
X3.793Y73.728
X3.761Y73.745
X3.729Y73.764
X3.697Y73.783
X3.667Y73.803
X3.636Y73.824
X3.606Y73.846
X3.577Y73.868
X3.548Y73.891
X3.52Y73.915
X3.493Y73.939
X3.466Y73.964
X3.439Y73.99
X3.414Y74.016
X3.389Y74.043
X3.364Y74.071
X3.34Y74.099
X3.317Y74.127
X3.295Y74.157
X3.274Y74.187
X3.253Y74.217
X3.233Y74.248
X3.213Y74.279
X3.195Y74.311
X3.177Y74.343
X3.16Y74.376
X3.144Y74.409
X3.129Y74.442
X3.114Y74.476
X3.1Y74.51
X3.088Y74.545
X3.076Y74.58
X3.065Y74.615
X3.054Y74.65
X3.045Y74.686
X3.036Y74.722
X3.029Y74.758
X3.022Y74.794
X3.016Y74.83
X3.011Y74.867
X3.007Y74.903
X3.004Y74.94
X3.002Y74.977
X3Y75.013
X3Y75.05
X2.999Y77.545
X1.24Y77.545
X1.241Y12.438
X3Y12.438
Y14.549
X3Y14.585
X3.002Y14.622
X3.004Y14.659
X3.007Y14.696
X3.011Y14.732
X3.016Y14.769
X3.022Y14.805
X3.029Y14.841
X3.036Y14.877
X3.045Y14.913
X3.054Y14.949
X3.064Y14.984
X3.076Y15.019
X3.088Y15.054
X3.1Y15.088
X3.114Y15.123
X3.129Y15.156
X3.144Y15.19
X3.16Y15.223
X3.177Y15.256
X3.195Y15.288
X3.213Y15.32
X3.233Y15.351
X3.253Y15.382
X3.273Y15.412
X3.295Y15.442
X3.317Y15.471
X3.34Y15.5
X3.364Y15.528
X3.388Y15.556
X3.413Y15.583
X3.439Y15.609
X3.466Y15.635
X3.493Y15.66
X3.52Y15.684
X3.548Y15.708
X3.577Y15.731
X3.606Y15.753
X3.636Y15.775
X3.667Y15.796
X3.697Y15.816
X3.729Y15.835
X3.761Y15.854
X3.793Y15.871
X3.825Y15.888
X3.859Y15.904
X3.892Y15.92
X3.926Y15.934
X3.96Y15.948
X3.995Y15.961
X4.029Y15.973
X4.064Y15.984
X4.1Y15.994
X4.135Y16.004
X4.171Y16.012
X4.207Y16.02
X4.243Y16.026
X4.28Y16.032
X4.316Y16.037
X4.353Y16.041
X4.39Y16.044
X4.426Y16.047
X4.463Y16.048
X4.5Y16.049
G0Z2
(Tool: D = 3.0 mm  type END flutes 2)
S12000M03
G00 Z2.0

X32.999Y44.549
G1Z-4F200
X34.753Y44.549F400
Y45.049
X32.999Y45.049
X32.999Y44.549
X31.499Y43.049
X36.253Y43.049
Y46.549
X31.499Y46.549
X31.499Y43.049
X29.999Y41.549
X37.753Y41.549
Y48.049
X29.999Y48.049
X29.999Y41.549
X28.499Y40.049
X39.253Y40.049
Y49.549
X28.499Y49.549
X28.499Y40.049
X26.999Y38.549
X40.753Y38.549
Y51.049
X26.999Y51.049
X26.999Y38.549
X25.499Y37.049
X42.253Y37.049
Y52.549
X25.499Y52.549
X25.499Y37.049
X23.999Y35.549
X43.753Y35.549
Y54.049
X23.999Y54.049
X23.999Y35.549
X22.499Y34.049
X45.253Y34.049
Y55.549
X22.499Y55.549
X22.499Y34.049
X20.999Y32.549
X46.753Y32.549
Y57.049
X20.999Y57.049
X20.999Y32.549
X19.499Y31.049
X48.253Y31.049
Y58.549
X19.499Y58.549
X19.499Y31.049
X17.999Y29.549
X49.753Y29.549
Y60.049
X17.999Y60.049
X17.999Y29.549
X16.499Y28.049
X51.253Y28.049
Y61.549
X16.499Y61.549
X16.499Y28.049
X14.999Y26.549
X52.753Y26.549
Y63.049
X14.999Y63.049
X14.999Y26.549
X13.499Y25.049
X54.253Y25.049
Y64.549
X13.499Y64.549
X13.499Y25.049
X11.999Y23.549
X55.753Y23.549
Y66.049
X11.999Y66.049
X11.999Y23.549
X10.499Y22.049
X57.253Y22.049
Y67.549
X10.499Y67.549
X10.499Y22.049
X8.999Y20.549
X58.753Y20.549
Y69.049
X8.999Y69.049
X8.999Y20.549
X7.5Y19.049
X60.253Y19.049
Y70.549
X7.499Y70.548
X7.5Y19.049
X6Y17.549
X61.753Y17.549
Y72.049
X5.999Y72.048
X6Y17.549
G0Z2
X32.999Y44.549
G1Z-6F200
X34.753Y44.549F400
Y45.049
X32.999Y45.049
X32.999Y44.549
X31.499Y43.049
X36.253Y43.049
Y46.549
X31.499Y46.549
X31.499Y43.049
X29.999Y41.549
X37.753Y41.549
Y48.049
X29.999Y48.049
X29.999Y41.549
X28.499Y40.049
X39.253Y40.049
Y49.549
X28.499Y49.549
X28.499Y40.049
X26.999Y38.549
X40.753Y38.549
Y51.049
X26.999Y51.049
X26.999Y38.549
X25.499Y37.049
X42.253Y37.049
Y52.549
X25.499Y52.549
X25.499Y37.049
X23.999Y35.549
X43.753Y35.549
Y54.049
X23.999Y54.049
X23.999Y35.549
X22.499Y34.049
X45.253Y34.049
Y55.549
X22.499Y55.549
X22.499Y34.049
X20.999Y32.549
X46.753Y32.549
Y57.049
X20.999Y57.049
X20.999Y32.549
X19.499Y31.049
X48.253Y31.049
Y58.549
X19.499Y58.549
X19.499Y31.049
X17.999Y29.549
X49.753Y29.549
Y60.049
X17.999Y60.049
X17.999Y29.549
X16.499Y28.049
X51.253Y28.049
Y61.549
X16.499Y61.549
X16.499Y28.049
X14.999Y26.549
X52.753Y26.549
Y63.049
X14.999Y63.049
X14.999Y26.549
X13.499Y25.049
X54.253Y25.049
Y64.549
X13.499Y64.549
X13.499Y25.049
X11.999Y23.549
X55.753Y23.549
Y66.049
X11.999Y66.049
X11.999Y23.549
X10.499Y22.049
X57.253Y22.049
Y67.549
X10.499Y67.549
X10.499Y22.049
X8.999Y20.549
X58.753Y20.549
Y69.049
X8.999Y69.049
X8.999Y20.549
X7.5Y19.049
X60.253Y19.049
Y70.549
X7.499Y70.548
X7.5Y19.049
X6Y17.549
X61.753Y17.549
Y72.049
X5.999Y72.048
X6Y17.549
G0Z2
X32.999Y44.549
G1Z-8F200
X34.753Y44.549F400
Y45.049
X32.999Y45.049
X32.999Y44.549
X31.499Y43.049
X36.253Y43.049
Y46.549
X31.499Y46.549
X31.499Y43.049
X29.999Y41.549
X37.753Y41.549
Y48.049
X29.999Y48.049
X29.999Y41.549
X28.499Y40.049
X39.253Y40.049
Y49.549
X28.499Y49.549
X28.499Y40.049
X26.999Y38.549
X40.753Y38.549
Y51.049
X26.999Y51.049
X26.999Y38.549
X25.499Y37.049
X42.253Y37.049
Y52.549
X25.499Y52.549
X25.499Y37.049
X23.999Y35.549
X43.753Y35.549
Y54.049
X23.999Y54.049
X23.999Y35.549
X22.499Y34.049
X45.253Y34.049
Y55.549
X22.499Y55.549
X22.499Y34.049
X20.999Y32.549
X46.753Y32.549
Y57.049
X20.999Y57.049
X20.999Y32.549
X19.499Y31.049
X48.253Y31.049
Y58.549
X19.499Y58.549
X19.499Y31.049
X17.999Y29.549
X49.753Y29.549
Y60.049
X17.999Y60.049
X17.999Y29.549
X16.499Y28.049
X51.253Y28.049
Y61.549
X16.499Y61.549
X16.499Y28.049
X14.999Y26.549
X52.753Y26.549
Y63.049
X14.999Y63.049
X14.999Y26.549
X13.499Y25.049
X54.253Y25.049
Y64.549
X13.499Y64.549
X13.499Y25.049
X11.999Y23.549
X55.753Y23.549
Y66.049
X11.999Y66.049
X11.999Y23.549
X10.499Y22.049
X57.253Y22.049
Y67.549
X10.499Y67.549
X10.499Y22.049
X8.999Y20.549
X58.753Y20.549
Y69.049
X8.999Y69.049
X8.999Y20.549
X7.5Y19.049
X60.253Y19.049
Y70.549
X7.499Y70.548
X7.5Y19.049
X6Y17.549
X61.753Y17.549
Y72.049
X5.999Y72.048
X6Y17.549
G0Z2
X32.999Y44.549
G1Z-10F200
X34.753Y44.549F400
Y45.049
X32.999Y45.049
X32.999Y44.549
X31.499Y43.049
X36.253Y43.049
Y46.549
X31.499Y46.549
X31.499Y43.049
X29.999Y41.549
X37.753Y41.549
Y48.049
X29.999Y48.049
X29.999Y41.549
X28.499Y40.049
X39.253Y40.049
Y49.549
X28.499Y49.549
X28.499Y40.049
X26.999Y38.549
X40.753Y38.549
Y51.049
X26.999Y51.049
X26.999Y38.549
X25.499Y37.049
X42.253Y37.049
Y52.549
X25.499Y52.549
X25.499Y37.049
X23.999Y35.549
X43.753Y35.549
Y54.049
X23.999Y54.049
X23.999Y35.549
X22.499Y34.049
X45.253Y34.049
Y55.549
X22.499Y55.549
X22.499Y34.049
X20.999Y32.549
X46.753Y32.549
Y57.049
X20.999Y57.049
X20.999Y32.549
X19.499Y31.049
X48.253Y31.049
Y58.549
X19.499Y58.549
X19.499Y31.049
X17.999Y29.549
X49.753Y29.549
Y60.049
X17.999Y60.049
X17.999Y29.549
X16.499Y28.049
X51.253Y28.049
Y61.549
X16.499Y61.549
X16.499Y28.049
X14.999Y26.549
X52.753Y26.549
Y63.049
X14.999Y63.049
X14.999Y26.549
X13.499Y25.049
X54.253Y25.049
Y64.549
X13.499Y64.549
X13.499Y25.049
X11.999Y23.549
X55.753Y23.549
Y66.049
X11.999Y66.049
X11.999Y23.549
X10.499Y22.049
X57.253Y22.049
Y67.549
X10.499Y67.549
X10.499Y22.049
X8.999Y20.549
X58.753Y20.549
Y69.049
X8.999Y69.049
X8.999Y20.549
X7.5Y19.049
X60.253Y19.049
Y70.549
X7.499Y70.548
X7.5Y19.049
X6Y17.549
X61.753Y17.549
Y72.049
X5.999Y72.048
X6Y17.549
G0Z2
(Tool: D = 3.0 mm  type END flutes 2)
S12000M03
G00 Z2.0

X32.749Y40.049
G1Z-12F200
X35.253Y40.049F400
Y49.549
X32.749Y49.549
X32.749Y40.049
X31.249Y38.549
X36.753Y38.549
Y51.049
X31.249Y51.049
X31.249Y38.549
X29.749Y37.049
X38.253Y37.049
Y52.549
X29.749Y52.549
X29.749Y37.049
X28.249Y35.549
X39.753Y35.549
Y54.049
X28.249Y54.049
X28.249Y35.549
X26.749Y34.049
X41.253Y34.049
Y55.549
X26.749Y55.549
X26.749Y34.049
X25.249Y32.549
X42.753Y32.549
Y57.049
X25.249Y57.049
X25.249Y32.549
X23.749Y31.049
X44.253Y31.049
Y58.549
X23.749Y58.549
X23.749Y31.049
X22.249Y29.549
X45.753Y29.549
Y60.049
X22.249Y60.049
X22.249Y29.549
X20.749Y28.049
X47.253Y28.049
Y61.549
X20.749Y61.549
X20.749Y28.049
X19.249Y26.549
X48.753Y26.549
Y63.049
X19.249Y63.049
X19.249Y26.549
X17.749Y25.049
X50.253Y25.049
Y64.549
X17.749Y64.549
X17.749Y25.049
X16.249Y23.549
X51.753Y23.549
Y66.049
X16.249Y66.049
X16.249Y23.549
X14.749Y22.049
X53.253Y22.049
Y67.549
X14.749Y67.549
X14.749Y22.049
X13.249Y20.549
X54.753Y20.549
Y69.049
X13.249Y69.049
X13.249Y20.549
X11.75Y19.049
X56.253Y19.049
Y70.549
X11.749Y70.549
X11.75Y19.049
X10.25Y17.549
X57.753Y17.549
Y72.049
X10.249Y72.048
X10.25Y17.549
G0Z2
X32.749Y40.049
G1Z-14F200
X35.253Y40.049F400
Y49.549
X32.749Y49.549
X32.749Y40.049
X31.249Y38.549
X36.753Y38.549
Y51.049
X31.249Y51.049
X31.249Y38.549
X29.749Y37.049
X38.253Y37.049
Y52.549
X29.749Y52.549
X29.749Y37.049
X28.249Y35.549
X39.753Y35.549
Y54.049
X28.249Y54.049
X28.249Y35.549
X26.749Y34.049
X41.253Y34.049
Y55.549
X26.749Y55.549
X26.749Y34.049
X25.249Y32.549
X42.753Y32.549
Y57.049
X25.249Y57.049
X25.249Y32.549
X23.749Y31.049
X44.253Y31.049
Y58.549
X23.749Y58.549
X23.749Y31.049
X22.249Y29.549
X45.753Y29.549
Y60.049
X22.249Y60.049
X22.249Y29.549
X20.749Y28.049
X47.253Y28.049
Y61.549
X20.749Y61.549
X20.749Y28.049
X19.249Y26.549
X48.753Y26.549
Y63.049
X19.249Y63.049
X19.249Y26.549
X17.749Y25.049
X50.253Y25.049
Y64.549
X17.749Y64.549
X17.749Y25.049
X16.249Y23.549
X51.753Y23.549
Y66.049
X16.249Y66.049
X16.249Y23.549
X14.749Y22.049
X53.253Y22.049
Y67.549
X14.749Y67.549
X14.749Y22.049
X13.249Y20.549
X54.753Y20.549
Y69.049
X13.249Y69.049
X13.249Y20.549
X11.75Y19.049
X56.253Y19.049
Y70.549
X11.749Y70.549
X11.75Y19.049
X10.25Y17.549
X57.753Y17.549
Y72.049
X10.249Y72.048
X10.25Y17.549
G0Z2
X32.749Y40.049
G1Z-15F200
X35.253Y40.049F400
Y49.549
X32.749Y49.549
X32.749Y40.049
X31.249Y38.549
X36.753Y38.549
Y51.049
X31.249Y51.049
X31.249Y38.549
X29.749Y37.049
X38.253Y37.049
Y52.549
X29.749Y52.549
X29.749Y37.049
X28.249Y35.549
X39.753Y35.549
Y54.049
X28.249Y54.049
X28.249Y35.549
X26.749Y34.049
X41.253Y34.049
Y55.549
X26.749Y55.549
X26.749Y34.049
X25.249Y32.549
X42.753Y32.549
Y57.049
X25.249Y57.049
X25.249Y32.549
X23.749Y31.049
X44.253Y31.049
Y58.549
X23.749Y58.549
X23.749Y31.049
X22.249Y29.549
X45.753Y29.549
Y60.049
X22.249Y60.049
X22.249Y29.549
X20.749Y28.049
X47.253Y28.049
Y61.549
X20.749Y61.549
X20.749Y28.049
X19.249Y26.549
X48.753Y26.549
Y63.049
X19.249Y63.049
X19.249Y26.549
X17.749Y25.049
X50.253Y25.049
Y64.549
X17.749Y64.549
X17.749Y25.049
X16.249Y23.549
X51.753Y23.549
Y66.049
X16.249Y66.049
X16.249Y23.549
X14.749Y22.049
X53.253Y22.049
Y67.549
X14.749Y67.549
X14.749Y22.049
X13.249Y20.549
X54.753Y20.549
Y69.049
X13.249Y69.049
X13.249Y20.549
X11.75Y19.049
X56.253Y19.049
Y70.549
X11.749Y70.549
X11.75Y19.049
X10.25Y17.549
X57.753Y17.549
Y72.049
X10.249Y72.048
X10.25Y17.549
G0Z2
(Tool: D = 3.0 mm  type END flutes 2)
S12000M03
G00 Z2.0

X14.749Y22.049
G1Z-17F200
X53.252Y22.049F400
X53.252Y23.588
X14.749Y23.587
X14.749Y22.049
X13.249Y20.549
X54.752Y20.549
X54.751Y25.088
X13.249Y25.087
X13.249Y20.549
X11.749Y19.049
X56.253Y19.049
X56.251Y26.588
X11.749Y26.587
X11.749Y19.049
X10.249Y17.549
X57.751Y17.549
Y18.069
X57.751Y18.106
X57.753Y18.153
X57.75Y28.088
X10.249Y28.087
X10.249Y17.549
G0Z2
X14.749Y36.636
G1Z-17F200
X53.252Y36.637F400
X53.252Y38.275
X14.749Y38.275
X14.749Y36.636
X13.249Y35.136
X54.752Y35.137
X54.751Y39.775
X13.249Y39.775
X13.249Y35.136
X11.749Y33.636
X56.253Y33.637
X56.251Y41.275
X11.749Y41.275
X11.749Y33.636
X10.249Y32.136
X57.751Y32.137
Y32.97
X57.751Y33.007
X57.753Y33.054
X57.75Y42.775
X10.249Y42.775
X10.249Y32.136
G0Z2
X14.749Y51.324
G1Z-17F200
X53.252Y51.324F400
X53.251Y52.963
X14.749Y52.962
X14.749Y51.324
X13.249Y49.824
X54.753Y49.824
X54.751Y54.463
X13.249Y54.462
X13.249Y49.824
X11.749Y48.324
X56.251Y48.324
X56.251Y48.885
X56.251Y48.923
X56.253Y48.985
X56.25Y55.963
X11.749Y55.962
X11.749Y48.324
X10.249Y46.824
X57.751Y46.824
Y48.867
X57.751Y48.904
X57.753Y48.951
X57.75Y57.463
X10.249Y57.462
X10.249Y46.824
G0Z2
X14.749Y66.011
G1Z-17F200
X53.252F400
X53.252Y67.549
X14.749Y67.549
X14.749Y66.011
X13.249Y64.511
X54.752
X54.751Y69.049
X13.249Y69.049
X13.249Y64.511
X11.749Y63.011
X56.253
X56.251Y70.549
X11.749Y70.549
X11.749Y63.011
X10.249Y61.511
X57.751
Y62.72
X57.751Y62.756
X57.753Y62.804
X57.75Y72.049
X10.249Y72.048
X10.249Y61.511
G0Z2
X14.749Y22.049
G1Z-17.999F200
X53.252Y22.049F400
X53.252Y23.588
X14.749Y23.587
X14.749Y22.049
X13.249Y20.549
X54.752Y20.549
X54.751Y25.088
X13.249Y25.087
X13.249Y20.549
X11.749Y19.049
X56.253Y19.049
X56.251Y26.588
X11.749Y26.587
X11.749Y19.049
X10.249Y17.549
X57.751Y17.549
Y18.069
X57.751Y18.106
X57.753Y18.153
X57.75Y28.088
X10.249Y28.087
X10.249Y17.549
G0Z2
X14.749Y36.636
G1Z-17.999F200
X53.252Y36.637F400
X53.252Y38.275
X14.749Y38.275
X14.749Y36.636
X13.249Y35.136
X54.752Y35.137
X54.751Y39.775
X13.249Y39.775
X13.249Y35.136
X11.749Y33.636
X56.253Y33.637
X56.251Y41.275
X11.749Y41.275
X11.749Y33.636
X10.249Y32.136
X57.751Y32.137
Y32.97
X57.751Y33.007
X57.753Y33.054
X57.75Y42.775
X10.249Y42.775
X10.249Y32.136
G0Z2
X14.749Y51.324
G1Z-17.999F200
X53.252Y51.324F400
X53.251Y52.963
X14.749Y52.962
X14.749Y51.324
X13.249Y49.824
X54.753Y49.824
X54.751Y54.463
X13.249Y54.462
X13.249Y49.824
X11.749Y48.324
X56.251Y48.324
X56.251Y48.885
X56.251Y48.923
X56.253Y48.985
X56.25Y55.963
X11.749Y55.962
X11.749Y48.324
X10.249Y46.824
X57.751Y46.824
Y48.867
X57.751Y48.904
X57.753Y48.951
X57.75Y57.463
X10.249Y57.462
X10.249Y46.824
G0Z2
X14.749Y66.011
G1Z-17.999F200
X53.252F400
X53.252Y67.549
X14.749Y67.549
X14.749Y66.011
X13.249Y64.511
X54.752
X54.751Y69.049
X13.249Y69.049
X13.249Y64.511
X11.749Y63.011
X56.253
X56.251Y70.549
X11.749Y70.549
X11.749Y63.011
X10.249Y61.511
X57.751
Y62.72
X57.751Y62.756
X57.753Y62.804
X57.75Y72.049
X10.249Y72.048
X10.249Y61.511
G0Z2
(Tool: D = 1.5 mm  type END flutes 2)
S12000M03
G00 Z2.0

X26.591Y17.513
G1Z1.214F150
X26.826Y17.56F300
Z-2.785F150
X26.813Y17.605F300
X26.791Y17.647
X26.761Y17.683
X26.724Y17.713
X26.683Y17.735
X26.638Y17.749
X26.591Y17.753
X26.544Y17.749
X26.499Y17.735
X26.458Y17.713
X26.421Y17.683
X26.391Y17.647
X26.369Y17.605
X26.356Y17.56
X26.351Y17.513
X26.356Y17.466
X26.369Y17.421
X26.391Y17.38
X26.421Y17.344
X26.458Y17.314
X26.499Y17.291
X26.544Y17.278
X26.591Y17.273
X26.638Y17.278
X26.683Y17.291
X26.724Y17.314
X26.761Y17.343
X26.791Y17.38
X26.813Y17.421
X26.827Y17.466
X26.831Y17.513
X26.826Y17.56
X27.566Y17.707
X27.509Y17.894
X27.417Y18.065
X27.294Y18.216
X27.143Y18.34
X26.971Y18.431
X26.785Y18.488
X26.591Y18.507
X26.397Y18.488
X26.211Y18.431
X26.039Y18.339
X25.888Y18.216
X25.765Y18.065
X25.673Y17.894
X25.616Y17.707
X25.597Y17.513
X25.616Y17.319
X25.673Y17.133
X25.765Y16.961
X25.888Y16.811
X26.039Y16.687
X26.211Y16.595
X26.397Y16.539
X26.591Y16.52
X26.785Y16.539
X26.971Y16.595
X27.143Y16.687
X27.294Y16.811
X27.417Y16.961
X27.509Y17.133
X27.566Y17.319
X27.585Y17.513
X27.566Y17.707
Z1.214
X26.826Y17.56
Z-4.785F150
X26.813Y17.605F300
X26.791Y17.647
X26.761Y17.683
X26.724Y17.713
X26.683Y17.735
X26.638Y17.749
X26.591Y17.753
X26.544Y17.749
X26.499Y17.735
X26.458Y17.713
X26.421Y17.683
X26.391Y17.647
X26.369Y17.605
X26.356Y17.56
X26.351Y17.513
X26.356Y17.466
X26.369Y17.421
X26.391Y17.38
X26.421Y17.344
X26.458Y17.314
X26.499Y17.291
X26.544Y17.278
X26.591Y17.273
X26.638Y17.278
X26.683Y17.291
X26.724Y17.314
X26.761Y17.343
X26.791Y17.38
X26.813Y17.421
X26.827Y17.466
X26.831Y17.513
X26.826Y17.56
X27.566Y17.707
X27.509Y17.894
X27.417Y18.065
X27.294Y18.216
X27.143Y18.34
X26.971Y18.431
X26.785Y18.488
X26.591Y18.507
X26.397Y18.488
X26.211Y18.431
X26.039Y18.339
X25.888Y18.216
X25.765Y18.065
X25.673Y17.894
X25.616Y17.707
X25.597Y17.513
X25.616Y17.319
X25.673Y17.133
X25.765Y16.961
X25.888Y16.811
X26.039Y16.687
X26.211Y16.595
X26.397Y16.539
X26.591Y16.52
X26.785Y16.539
X26.971Y16.595
X27.143Y16.687
X27.294Y16.811
X27.417Y16.961
X27.509Y17.133
X27.566Y17.319
X27.585Y17.513
X27.566Y17.707
Z1.214
X26.826Y17.56
Z-6.785F150
X26.813Y17.605F300
X26.791Y17.647
X26.761Y17.683
X26.724Y17.713
X26.683Y17.735
X26.638Y17.749
X26.591Y17.753
X26.544Y17.749
X26.499Y17.735
X26.458Y17.713
X26.421Y17.683
X26.391Y17.647
X26.369Y17.605
X26.356Y17.56
X26.351Y17.513
X26.356Y17.466
X26.369Y17.421
X26.391Y17.38
X26.421Y17.344
X26.458Y17.314
X26.499Y17.291
X26.544Y17.278
X26.591Y17.273
X26.638Y17.278
X26.683Y17.291
X26.724Y17.314
X26.761Y17.343
X26.791Y17.38
X26.813Y17.421
X26.827Y17.466
X26.831Y17.513
X26.826Y17.56
X27.566Y17.707
X27.509Y17.894
X27.417Y18.065
X27.294Y18.216
X27.143Y18.34
X26.971Y18.431
X26.785Y18.488
X26.591Y18.507
X26.397Y18.488
X26.211Y18.431
X26.039Y18.339
X25.888Y18.216
X25.765Y18.065
X25.673Y17.894
X25.616Y17.707
X25.597Y17.513
X25.616Y17.319
X25.673Y17.133
X25.765Y16.961
X25.888Y16.811
X26.039Y16.687
X26.211Y16.595
X26.397Y16.539
X26.591Y16.52
X26.785Y16.539
X26.971Y16.595
X27.143Y16.687
X27.294Y16.811
X27.417Y16.961
X27.509Y17.133
X27.566Y17.319
X27.585Y17.513
X27.566Y17.707
Z1.214
X26.826Y17.56
Z-8.785F150
X26.813Y17.605F300
X26.791Y17.647
X26.761Y17.683
X26.724Y17.713
X26.683Y17.735
X26.638Y17.749
X26.591Y17.753
X26.544Y17.749
X26.499Y17.735
X26.458Y17.713
X26.421Y17.683
X26.391Y17.647
X26.369Y17.605
X26.356Y17.56
X26.351Y17.513
X26.356Y17.466
X26.369Y17.421
X26.391Y17.38
X26.421Y17.344
X26.458Y17.314
X26.499Y17.291
X26.544Y17.278
X26.591Y17.273
X26.638Y17.278
X26.683Y17.291
X26.724Y17.314
X26.761Y17.343
X26.791Y17.38
X26.813Y17.421
X26.827Y17.466
X26.831Y17.513
X26.826Y17.56
X27.566Y17.707
X27.509Y17.894
X27.417Y18.065
X27.294Y18.216
X27.143Y18.34
X26.971Y18.431
X26.785Y18.488
X26.591Y18.507
X26.397Y18.488
X26.211Y18.431
X26.039Y18.339
X25.888Y18.216
X25.765Y18.065
X25.673Y17.894
X25.616Y17.707
X25.597Y17.513
X25.616Y17.319
X25.673Y17.133
X25.765Y16.961
X25.888Y16.811
X26.039Y16.687
X26.211Y16.595
X26.397Y16.539
X26.591Y16.52
X26.785Y16.539
X26.971Y16.595
X27.143Y16.687
X27.294Y16.811
X27.417Y16.961
X27.509Y17.133
X27.566Y17.319
X27.585Y17.513
X27.566Y17.707
Z1.214
X26.826Y17.56
Z-10.785F150
X26.813Y17.605F300
X26.791Y17.647
X26.761Y17.683
X26.724Y17.713
X26.683Y17.735
X26.638Y17.749
X26.591Y17.753
X26.544Y17.749
X26.499Y17.735
X26.458Y17.713
X26.421Y17.683
X26.391Y17.647
X26.369Y17.605
X26.356Y17.56
X26.351Y17.513
X26.356Y17.466
X26.369Y17.421
X26.391Y17.38
X26.421Y17.344
X26.458Y17.314
X26.499Y17.291
X26.544Y17.278
X26.591Y17.273
X26.638Y17.278
X26.683Y17.291
X26.724Y17.314
X26.761Y17.343
X26.791Y17.38
X26.813Y17.421
X26.827Y17.466
X26.831Y17.513
X26.826Y17.56
X27.566Y17.707
X27.509Y17.894
X27.417Y18.065
X27.294Y18.216
X27.143Y18.34
X26.971Y18.431
X26.785Y18.488
X26.591Y18.507
X26.397Y18.488
X26.211Y18.431
X26.039Y18.339
X25.888Y18.216
X25.765Y18.065
X25.673Y17.894
X25.616Y17.707
X25.597Y17.513
X25.616Y17.319
X25.673Y17.133
X25.765Y16.961
X25.888Y16.811
X26.039Y16.687
X26.211Y16.595
X26.397Y16.539
X26.591Y16.52
X26.785Y16.539
X26.971Y16.595
X27.143Y16.687
X27.294Y16.811
X27.417Y16.961
X27.509Y17.133
X27.566Y17.319
X27.585Y17.513
X27.566Y17.707
Z1.214
X26.826Y17.56
Z-12.785F150
X26.813Y17.605F300
X26.791Y17.647
X26.761Y17.683
X26.724Y17.713
X26.683Y17.735
X26.638Y17.749
X26.591Y17.753
X26.544Y17.749
X26.499Y17.735
X26.458Y17.713
X26.421Y17.683
X26.391Y17.647
X26.369Y17.605
X26.356Y17.56
X26.351Y17.513
X26.356Y17.466
X26.369Y17.421
X26.391Y17.38
X26.421Y17.344
X26.458Y17.314
X26.499Y17.291
X26.544Y17.278
X26.591Y17.273
X26.638Y17.278
X26.683Y17.291
X26.724Y17.314
X26.761Y17.343
X26.791Y17.38
X26.813Y17.421
X26.827Y17.466
X26.831Y17.513
X26.826Y17.56
X27.566Y17.707
X27.509Y17.894
X27.417Y18.065
X27.294Y18.216
X27.143Y18.34
X26.971Y18.431
X26.785Y18.488
X26.591Y18.507
X26.397Y18.488
X26.211Y18.431
X26.039Y18.339
X25.888Y18.216
X25.765Y18.065
X25.673Y17.894
X25.616Y17.707
X25.597Y17.513
X25.616Y17.319
X25.673Y17.133
X25.765Y16.961
X25.888Y16.811
X26.039Y16.687
X26.211Y16.595
X26.397Y16.539
X26.591Y16.52
X26.785Y16.539
X26.971Y16.595
X27.143Y16.687
X27.294Y16.811
X27.417Y16.961
X27.509Y17.133
X27.566Y17.319
X27.585Y17.513
X27.566Y17.707
Z1.214
X26.826Y17.56
Z-14.785F150
X26.813Y17.605F300
X26.791Y17.647
X26.761Y17.683
X26.724Y17.713
X26.683Y17.735
X26.638Y17.749
X26.591Y17.753
X26.544Y17.749
X26.499Y17.735
X26.458Y17.713
X26.421Y17.683
X26.391Y17.647
X26.369Y17.605
X26.356Y17.56
X26.351Y17.513
X26.356Y17.466
X26.369Y17.421
X26.391Y17.38
X26.421Y17.344
X26.458Y17.314
X26.499Y17.291
X26.544Y17.278
X26.591Y17.273
X26.638Y17.278
X26.683Y17.291
X26.724Y17.314
X26.761Y17.343
X26.791Y17.38
X26.813Y17.421
X26.827Y17.466
X26.831Y17.513
X26.826Y17.56
X27.566Y17.707
X27.509Y17.894
X27.417Y18.065
X27.294Y18.216
X27.143Y18.34
X26.971Y18.431
X26.785Y18.488
X26.591Y18.507
X26.397Y18.488
X26.211Y18.431
X26.039Y18.339
X25.888Y18.216
X25.765Y18.065
X25.673Y17.894
X25.616Y17.707
X25.597Y17.513
X25.616Y17.319
X25.673Y17.133
X25.765Y16.961
X25.888Y16.811
X26.039Y16.687
X26.211Y16.595
X26.397Y16.539
X26.591Y16.52
X26.785Y16.539
X26.971Y16.595
X27.143Y16.687
X27.294Y16.811
X27.417Y16.961
X27.509Y17.133
X27.566Y17.319
X27.585Y17.513
X27.566Y17.707
Z1.214
X26.826Y17.56
Z-16.785F150
X26.813Y17.605F300
X26.791Y17.647
X26.761Y17.683
X26.724Y17.713
X26.683Y17.735
X26.638Y17.749
X26.591Y17.753
X26.544Y17.749
X26.499Y17.735
X26.458Y17.713
X26.421Y17.683
X26.391Y17.647
X26.369Y17.605
X26.356Y17.56
X26.351Y17.513
X26.356Y17.466
X26.369Y17.421
X26.391Y17.38
X26.421Y17.344
X26.458Y17.314
X26.499Y17.291
X26.544Y17.278
X26.591Y17.273
X26.638Y17.278
X26.683Y17.291
X26.724Y17.314
X26.761Y17.343
X26.791Y17.38
X26.813Y17.421
X26.827Y17.466
X26.831Y17.513
X26.826Y17.56
X27.566Y17.707
X27.509Y17.894
X27.417Y18.065
X27.294Y18.216
X27.143Y18.34
X26.971Y18.431
X26.785Y18.488
X26.591Y18.507
X26.397Y18.488
X26.211Y18.431
X26.039Y18.339
X25.888Y18.216
X25.765Y18.065
X25.673Y17.894
X25.616Y17.707
X25.597Y17.513
X25.616Y17.319
X25.673Y17.133
X25.765Y16.961
X25.888Y16.811
X26.039Y16.687
X26.211Y16.595
X26.397Y16.539
X26.591Y16.52
X26.785Y16.539
X26.971Y16.595
X27.143Y16.687
X27.294Y16.811
X27.417Y16.961
X27.509Y17.133
X27.566Y17.319
X27.585Y17.513
X27.566Y17.707
Z1.214
X26.826Y17.56
Z-18.785F150
X26.813Y17.605F300
X26.791Y17.647
X26.761Y17.683
X26.724Y17.713
X26.683Y17.735
X26.638Y17.749
X26.591Y17.753
X26.544Y17.749
X26.499Y17.735
X26.458Y17.713
X26.421Y17.683
X26.391Y17.647
X26.369Y17.605
X26.356Y17.56
X26.351Y17.513
X26.356Y17.466
X26.369Y17.421
X26.391Y17.38
X26.421Y17.344
X26.458Y17.314
X26.499Y17.291
X26.544Y17.278
X26.591Y17.273
X26.638Y17.278
X26.683Y17.291
X26.724Y17.314
X26.761Y17.343
X26.791Y17.38
X26.813Y17.421
X26.827Y17.466
X26.831Y17.513
X26.826Y17.56
X27.566Y17.707
X27.509Y17.894
X27.417Y18.065
X27.294Y18.216
X27.143Y18.34
X26.971Y18.431
X26.785Y18.488
X26.591Y18.507
X26.397Y18.488
X26.211Y18.431
X26.039Y18.339
X25.888Y18.216
X25.765Y18.065
X25.673Y17.894
X25.616Y17.707
X25.597Y17.513
X25.616Y17.319
X25.673Y17.133
X25.765Y16.961
X25.888Y16.811
X26.039Y16.687
X26.211Y16.595
X26.397Y16.539
X26.591Y16.52
X26.785Y16.539
X26.971Y16.595
X27.143Y16.687
X27.294Y16.811
X27.417Y16.961
X27.509Y17.133
X27.566Y17.319
X27.585Y17.513
X27.566Y17.707
Z1.214
X26.826Y17.56
Z-20.785F150
X26.813Y17.605F300
X26.791Y17.647
X26.761Y17.683
X26.724Y17.713
X26.683Y17.735
X26.638Y17.749
X26.591Y17.753
X26.544Y17.749
X26.499Y17.735
X26.458Y17.713
X26.421Y17.683
X26.391Y17.647
X26.369Y17.605
X26.356Y17.56
X26.351Y17.513
X26.356Y17.466
X26.369Y17.421
X26.391Y17.38
X26.421Y17.344
X26.458Y17.314
X26.499Y17.291
X26.544Y17.278
X26.591Y17.273
X26.638Y17.278
X26.683Y17.291
X26.724Y17.314
X26.761Y17.343
X26.791Y17.38
X26.813Y17.421
X26.827Y17.466
X26.831Y17.513
X26.826Y17.56
X27.566Y17.707
X27.509Y17.894
X27.417Y18.065
X27.294Y18.216
X27.143Y18.34
X26.971Y18.431
X26.785Y18.488
X26.591Y18.507
X26.397Y18.488
X26.211Y18.431
X26.039Y18.339
X25.888Y18.216
X25.765Y18.065
X25.673Y17.894
X25.616Y17.707
X25.597Y17.513
X25.616Y17.319
X25.673Y17.133
X25.765Y16.961
X25.888Y16.811
X26.039Y16.687
X26.211Y16.595
X26.397Y16.539
X26.591Y16.52
X26.785Y16.539
X26.971Y16.595
X27.143Y16.687
X27.294Y16.811
X27.417Y16.961
X27.509Y17.133
X27.566Y17.319
X27.585Y17.513
X27.566Y17.707
Z1.214
G0Z2
X79.994Y8.033
X80.23Y8.08
X80.216Y8.125
X80.194Y8.167
X80.164Y8.203
X80.127Y8.233
X80.086Y8.255
X80.041Y8.269
X79.994Y8.274
X79.947Y8.269
X79.902Y8.255
X79.861Y8.233
X79.825Y8.203
X79.795Y8.167
X79.772Y8.125
X79.759Y8.08
X79.754Y8.034
X79.759Y7.986
X79.772Y7.942
X79.795Y7.9
X79.824Y7.864
X79.861Y7.834
X79.902Y7.812
X79.947Y7.798
X79.994Y7.793
X80.041Y7.798
X80.086Y7.812
X80.128Y7.834
X80.164Y7.864
X80.194Y7.9
X80.216Y7.942
X80.23Y7.987
X80.234Y8.033
X80.23Y8.08
X80.969Y8.228
X80.912Y8.414
X80.82Y8.586
X80.697Y8.736
X80.546Y8.86
X80.375Y8.952
X80.188Y9.008
X79.994Y9.027
X79.8Y9.008
X79.614Y8.952
X79.442Y8.86
X79.292Y8.736
X79.168Y8.585
X79.076Y8.414
X79.02Y8.227
X79.001Y8.034
X79.02Y7.839
X79.076Y7.653
X79.168Y7.481
X79.292Y7.331
X79.442Y7.207
X79.614Y7.115
X79.8Y7.059
X79.994Y7.04
X80.188Y7.059
X80.375Y7.115
X80.546Y7.207
X80.697Y7.331
X80.821Y7.482
X80.912Y7.653
X80.969Y7.84
X80.988Y8.033
X80.969Y8.228
X80.23Y8.08
G1Z1.71F150
X80.216Y8.125F300
X80.194Y8.167
X80.164Y8.203
X80.127Y8.233
X80.086Y8.255
X80.041Y8.269
X79.994Y8.274
X79.947Y8.269
X79.902Y8.255
X79.861Y8.233
X79.825Y8.203
X79.795Y8.167
X79.772Y8.125
X79.759Y8.08
X79.754Y8.034
X79.759Y7.986
X79.772Y7.942
X79.795Y7.9
X79.824Y7.864
X79.861Y7.834
X79.902Y7.812
X79.947Y7.798
X79.994Y7.793
X80.041Y7.798
X80.086Y7.812
X80.128Y7.834
X80.164Y7.864
X80.194Y7.9
X80.216Y7.942
X80.23Y7.987
X80.234Y8.033
X80.23Y8.08
X80.969Y8.228
X80.912Y8.414
X80.82Y8.586
X80.697Y8.736
X80.546Y8.86
X80.375Y8.952
X80.188Y9.008
X79.994Y9.027
X79.8Y9.008
X79.614Y8.952
X79.442Y8.86
X79.292Y8.736
X79.168Y8.585
X79.076Y8.414
X79.02Y8.227
X79.001Y8.034
X79.02Y7.839
X79.076Y7.653
X79.168Y7.481
X79.292Y7.331
X79.442Y7.207
X79.614Y7.115
X79.8Y7.059
X79.994Y7.04
X80.188Y7.059
X80.375Y7.115
X80.546Y7.207
X80.697Y7.331
X80.821Y7.482
X80.912Y7.653
X80.969Y7.84
X80.988Y8.033
X80.969Y8.228
G0Z2
X80.23Y8.08
G1Z-0.289F150
X80.216Y8.125F300
X80.194Y8.167
X80.164Y8.203
X80.127Y8.233
X80.086Y8.255
X80.041Y8.269
X79.994Y8.274
X79.947Y8.269
X79.902Y8.255
X79.861Y8.233
X79.825Y8.203
X79.795Y8.167
X79.772Y8.125
X79.759Y8.08
X79.754Y8.034
X79.759Y7.986
X79.772Y7.942
X79.795Y7.9
X79.824Y7.864
X79.861Y7.834
X79.902Y7.812
X79.947Y7.798
X79.994Y7.793
X80.041Y7.798
X80.086Y7.812
X80.128Y7.834
X80.164Y7.864
X80.194Y7.9
X80.216Y7.942
X80.23Y7.987
X80.234Y8.033
X80.23Y8.08
X80.969Y8.228
X80.912Y8.414
X80.82Y8.586
X80.697Y8.736
X80.546Y8.86
X80.375Y8.952
X80.188Y9.008
X79.994Y9.027
X79.8Y9.008
X79.614Y8.952
X79.442Y8.86
X79.292Y8.736
X79.168Y8.585
X79.076Y8.414
X79.02Y8.227
X79.001Y8.034
X79.02Y7.839
X79.076Y7.653
X79.168Y7.481
X79.292Y7.331
X79.442Y7.207
X79.614Y7.115
X79.8Y7.059
X79.994Y7.04
X80.188Y7.059
X80.375Y7.115
X80.546Y7.207
X80.697Y7.331
X80.821Y7.482
X80.912Y7.653
X80.969Y7.84
X80.988Y8.033
X80.969Y8.228
G0Z2
X80.23Y8.08
G1Z-2.289F150
X80.216Y8.125F300
X80.194Y8.167
X80.164Y8.203
X80.127Y8.233
X80.086Y8.255
X80.041Y8.269
X79.994Y8.274
X79.947Y8.269
X79.902Y8.255
X79.861Y8.233
X79.825Y8.203
X79.795Y8.167
X79.772Y8.125
X79.759Y8.08
X79.754Y8.034
X79.759Y7.986
X79.772Y7.942
X79.795Y7.9
X79.824Y7.864
X79.861Y7.834
X79.902Y7.812
X79.947Y7.798
X79.994Y7.793
X80.041Y7.798
X80.086Y7.812
X80.128Y7.834
X80.164Y7.864
X80.194Y7.9
X80.216Y7.942
X80.23Y7.987
X80.234Y8.033
X80.23Y8.08
X80.969Y8.228
X80.912Y8.414
X80.82Y8.586
X80.697Y8.736
X80.546Y8.86
X80.375Y8.952
X80.188Y9.008
X79.994Y9.027
X79.8Y9.008
X79.614Y8.952
X79.442Y8.86
X79.292Y8.736
X79.168Y8.585
X79.076Y8.414
X79.02Y8.227
X79.001Y8.034
X79.02Y7.839
X79.076Y7.653
X79.168Y7.481
X79.292Y7.331
X79.442Y7.207
X79.614Y7.115
X79.8Y7.059
X79.994Y7.04
X80.188Y7.059
X80.375Y7.115
X80.546Y7.207
X80.697Y7.331
X80.821Y7.482
X80.912Y7.653
X80.969Y7.84
X80.988Y8.033
X80.969Y8.228
G0Z2
X80.23Y8.08
G1Z-4.289F150
X80.216Y8.125F300
X80.194Y8.167
X80.164Y8.203
X80.127Y8.233
X80.086Y8.255
X80.041Y8.269
X79.994Y8.274
X79.947Y8.269
X79.902Y8.255
X79.861Y8.233
X79.825Y8.203
X79.795Y8.167
X79.772Y8.125
X79.759Y8.08
X79.754Y8.034
X79.759Y7.986
X79.772Y7.942
X79.795Y7.9
X79.824Y7.864
X79.861Y7.834
X79.902Y7.812
X79.947Y7.798
X79.994Y7.793
X80.041Y7.798
X80.086Y7.812
X80.128Y7.834
X80.164Y7.864
X80.194Y7.9
X80.216Y7.942
X80.23Y7.987
X80.234Y8.033
X80.23Y8.08
X80.969Y8.228
X80.912Y8.414
X80.82Y8.586
X80.697Y8.736
X80.546Y8.86
X80.375Y8.952
X80.188Y9.008
X79.994Y9.027
X79.8Y9.008
X79.614Y8.952
X79.442Y8.86
X79.292Y8.736
X79.168Y8.585
X79.076Y8.414
X79.02Y8.227
X79.001Y8.034
X79.02Y7.839
X79.076Y7.653
X79.168Y7.481
X79.292Y7.331
X79.442Y7.207
X79.614Y7.115
X79.8Y7.059
X79.994Y7.04
X80.188Y7.059
X80.375Y7.115
X80.546Y7.207
X80.697Y7.331
X80.821Y7.482
X80.912Y7.653
X80.969Y7.84
X80.988Y8.033
X80.969Y8.228
G0Z2
X80.23Y8.08
G1Z-6.289F150
X80.216Y8.125F300
X80.194Y8.167
X80.164Y8.203
X80.127Y8.233
X80.086Y8.255
X80.041Y8.269
X79.994Y8.274
X79.947Y8.269
X79.902Y8.255
X79.861Y8.233
X79.825Y8.203
X79.795Y8.167
X79.772Y8.125
X79.759Y8.08
X79.754Y8.034
X79.759Y7.986
X79.772Y7.942
X79.795Y7.9
X79.824Y7.864
X79.861Y7.834
X79.902Y7.812
X79.947Y7.798
X79.994Y7.793
X80.041Y7.798
X80.086Y7.812
X80.128Y7.834
X80.164Y7.864
X80.194Y7.9
X80.216Y7.942
X80.23Y7.987
X80.234Y8.033
X80.23Y8.08
X80.969Y8.228
X80.912Y8.414
X80.82Y8.586
X80.697Y8.736
X80.546Y8.86
X80.375Y8.952
X80.188Y9.008
X79.994Y9.027
X79.8Y9.008
X79.614Y8.952
X79.442Y8.86
X79.292Y8.736
X79.168Y8.585
X79.076Y8.414
X79.02Y8.227
X79.001Y8.034
X79.02Y7.839
X79.076Y7.653
X79.168Y7.481
X79.292Y7.331
X79.442Y7.207
X79.614Y7.115
X79.8Y7.059
X79.994Y7.04
X80.188Y7.059
X80.375Y7.115
X80.546Y7.207
X80.697Y7.331
X80.821Y7.482
X80.912Y7.653
X80.969Y7.84
X80.988Y8.033
X80.969Y8.228
G0Z2
X80.23Y8.08
G1Z-8.289F150
X80.216Y8.125F300
X80.194Y8.167
X80.164Y8.203
X80.127Y8.233
X80.086Y8.255
X80.041Y8.269
X79.994Y8.274
X79.947Y8.269
X79.902Y8.255
X79.861Y8.233
X79.825Y8.203
X79.795Y8.167
X79.772Y8.125
X79.759Y8.08
X79.754Y8.034
X79.759Y7.986
X79.772Y7.942
X79.795Y7.9
X79.824Y7.864
X79.861Y7.834
X79.902Y7.812
X79.947Y7.798
X79.994Y7.793
X80.041Y7.798
X80.086Y7.812
X80.128Y7.834
X80.164Y7.864
X80.194Y7.9
X80.216Y7.942
X80.23Y7.987
X80.234Y8.033
X80.23Y8.08
X80.969Y8.228
X80.912Y8.414
X80.82Y8.586
X80.697Y8.736
X80.546Y8.86
X80.375Y8.952
X80.188Y9.008
X79.994Y9.027
X79.8Y9.008
X79.614Y8.952
X79.442Y8.86
X79.292Y8.736
X79.168Y8.585
X79.076Y8.414
X79.02Y8.227
X79.001Y8.034
X79.02Y7.839
X79.076Y7.653
X79.168Y7.481
X79.292Y7.331
X79.442Y7.207
X79.614Y7.115
X79.8Y7.059
X79.994Y7.04
X80.188Y7.059
X80.375Y7.115
X80.546Y7.207
X80.697Y7.331
X80.821Y7.482
X80.912Y7.653
X80.969Y7.84
X80.988Y8.033
X80.969Y8.228
G0Z2
X80.23Y8.08
G1Z-10.289F150
X80.216Y8.125F300
X80.194Y8.167
X80.164Y8.203
X80.127Y8.233
X80.086Y8.255
X80.041Y8.269
X79.994Y8.274
X79.947Y8.269
X79.902Y8.255
X79.861Y8.233
X79.825Y8.203
X79.795Y8.167
X79.772Y8.125
X79.759Y8.08
X79.754Y8.034
X79.759Y7.986
X79.772Y7.942
X79.795Y7.9
X79.824Y7.864
X79.861Y7.834
X79.902Y7.812
X79.947Y7.798
X79.994Y7.793
X80.041Y7.798
X80.086Y7.812
X80.128Y7.834
X80.164Y7.864
X80.194Y7.9
X80.216Y7.942
X80.23Y7.987
X80.234Y8.033
X80.23Y8.08
X80.969Y8.228
X80.912Y8.414
X80.82Y8.586
X80.697Y8.736
X80.546Y8.86
X80.375Y8.952
X80.188Y9.008
X79.994Y9.027
X79.8Y9.008
X79.614Y8.952
X79.442Y8.86
X79.292Y8.736
X79.168Y8.585
X79.076Y8.414
X79.02Y8.227
X79.001Y8.034
X79.02Y7.839
X79.076Y7.653
X79.168Y7.481
X79.292Y7.331
X79.442Y7.207
X79.614Y7.115
X79.8Y7.059
X79.994Y7.04
X80.188Y7.059
X80.375Y7.115
X80.546Y7.207
X80.697Y7.331
X80.821Y7.482
X80.912Y7.653
X80.969Y7.84
X80.988Y8.033
X80.969Y8.228
G0Z2
X80.23Y8.08
G1Z-12.289F150
X80.216Y8.125F300
X80.194Y8.167
X80.164Y8.203
X80.127Y8.233
X80.086Y8.255
X80.041Y8.269
X79.994Y8.274
X79.947Y8.269
X79.902Y8.255
X79.861Y8.233
X79.825Y8.203
X79.795Y8.167
X79.772Y8.125
X79.759Y8.08
X79.754Y8.034
X79.759Y7.986
X79.772Y7.942
X79.795Y7.9
X79.824Y7.864
X79.861Y7.834
X79.902Y7.812
X79.947Y7.798
X79.994Y7.793
X80.041Y7.798
X80.086Y7.812
X80.128Y7.834
X80.164Y7.864
X80.194Y7.9
X80.216Y7.942
X80.23Y7.987
X80.234Y8.033
X80.23Y8.08
X80.969Y8.228
X80.912Y8.414
X80.82Y8.586
X80.697Y8.736
X80.546Y8.86
X80.375Y8.952
X80.188Y9.008
X79.994Y9.027
X79.8Y9.008
X79.614Y8.952
X79.442Y8.86
X79.292Y8.736
X79.168Y8.585
X79.076Y8.414
X79.02Y8.227
X79.001Y8.034
X79.02Y7.839
X79.076Y7.653
X79.168Y7.481
X79.292Y7.331
X79.442Y7.207
X79.614Y7.115
X79.8Y7.059
X79.994Y7.04
X80.188Y7.059
X80.375Y7.115
X80.546Y7.207
X80.697Y7.331
X80.821Y7.482
X80.912Y7.653
X80.969Y7.84
X80.988Y8.033
X80.969Y8.228
G0Z2
X80.23Y8.08
G1Z-14.289F150
X80.216Y8.125F300
X80.194Y8.167
X80.164Y8.203
X80.127Y8.233
X80.086Y8.255
X80.041Y8.269
X79.994Y8.274
X79.947Y8.269
X79.902Y8.255
X79.861Y8.233
X79.825Y8.203
X79.795Y8.167
X79.772Y8.125
X79.759Y8.08
X79.754Y8.034
X79.759Y7.986
X79.772Y7.942
X79.795Y7.9
X79.824Y7.864
X79.861Y7.834
X79.902Y7.812
X79.947Y7.798
X79.994Y7.793
X80.041Y7.798
X80.086Y7.812
X80.128Y7.834
X80.164Y7.864
X80.194Y7.9
X80.216Y7.942
X80.23Y7.987
X80.234Y8.033
X80.23Y8.08
X80.969Y8.228
X80.912Y8.414
X80.82Y8.586
X80.697Y8.736
X80.546Y8.86
X80.375Y8.952
X80.188Y9.008
X79.994Y9.027
X79.8Y9.008
X79.614Y8.952
X79.442Y8.86
X79.292Y8.736
X79.168Y8.585
X79.076Y8.414
X79.02Y8.227
X79.001Y8.034
X79.02Y7.839
X79.076Y7.653
X79.168Y7.481
X79.292Y7.331
X79.442Y7.207
X79.614Y7.115
X79.8Y7.059
X79.994Y7.04
X80.188Y7.059
X80.375Y7.115
X80.546Y7.207
X80.697Y7.331
X80.821Y7.482
X80.912Y7.653
X80.969Y7.84
X80.988Y8.033
X80.969Y8.228
G0Z2
X130.004Y8.029
X130.239Y8.076
G1Z1.702F150
X130.225Y8.121F300
X130.203Y8.162
X130.173Y8.199
X130.137Y8.229
X130.095Y8.251
X130.05Y8.264
X130.004Y8.269
X129.956Y8.264
X129.912Y8.251
X129.87Y8.228
X129.834Y8.199
X129.804Y8.162
X129.782Y8.121
X129.768Y8.076
X129.763Y8.029
X129.768Y7.982
X129.782Y7.937
X129.804Y7.895
X129.834Y7.859
X129.87Y7.829
X129.912Y7.807
X129.957Y7.793
X130.004Y7.789
X130.05Y7.793
X130.095Y7.807
X130.137Y7.829
X130.173Y7.859
X130.203Y7.896
X130.225Y7.937
X130.239Y7.982
X130.244Y8.029
X130.239Y8.076
X130.978Y8.223
X130.922Y8.409
X130.83Y8.581
X130.706Y8.731
X130.555Y8.855
X130.384Y8.947
X130.197Y9.004
X130.004Y9.023
X129.809Y9.003
X129.623Y8.947
X129.451Y8.855
X129.301Y8.732
X129.177Y8.581
X129.085Y8.409
X129.029Y8.223
X129.01Y8.029
X129.029Y7.835
X129.085Y7.649
X129.177Y7.477
X129.301Y7.326
X129.452Y7.202
X129.623Y7.111
X129.81Y7.054
X130.004Y7.035
X130.197Y7.054
X130.384Y7.111
X130.556Y7.203
X130.706Y7.326
X130.83Y7.477
X130.922Y7.649
X130.978Y7.835
X130.997Y8.029
X130.978Y8.223
G0Z2
X130.239Y8.076
G1Z-0.297F150
X130.225Y8.121F300
X130.203Y8.162
X130.173Y8.199
X130.137Y8.229
X130.095Y8.251
X130.05Y8.264
X130.004Y8.269
X129.956Y8.264
X129.912Y8.251
X129.87Y8.228
X129.834Y8.199
X129.804Y8.162
X129.782Y8.121
X129.768Y8.076
X129.763Y8.029
X129.768Y7.982
X129.782Y7.937
X129.804Y7.895
X129.834Y7.859
X129.87Y7.829
X129.912Y7.807
X129.957Y7.793
X130.004Y7.789
X130.05Y7.793
X130.095Y7.807
X130.137Y7.829
X130.173Y7.859
X130.203Y7.896
X130.225Y7.937
X130.239Y7.982
X130.244Y8.029
X130.239Y8.076
X130.978Y8.223
X130.922Y8.409
X130.83Y8.581
X130.706Y8.731
X130.555Y8.855
X130.384Y8.947
X130.197Y9.004
X130.004Y9.023
X129.809Y9.003
X129.623Y8.947
X129.451Y8.855
X129.301Y8.732
X129.177Y8.581
X129.085Y8.409
X129.029Y8.223
X129.01Y8.029
X129.029Y7.835
X129.085Y7.649
X129.177Y7.477
X129.301Y7.326
X129.452Y7.202
X129.623Y7.111
X129.81Y7.054
X130.004Y7.035
X130.197Y7.054
X130.384Y7.111
X130.556Y7.203
X130.706Y7.326
X130.83Y7.477
X130.922Y7.649
X130.978Y7.835
X130.997Y8.029
X130.978Y8.223
G0Z2
X130.239Y8.076
G1Z-2.297F150
X130.225Y8.121F300
X130.203Y8.162
X130.173Y8.199
X130.137Y8.229
X130.095Y8.251
X130.05Y8.264
X130.004Y8.269
X129.956Y8.264
X129.912Y8.251
X129.87Y8.228
X129.834Y8.199
X129.804Y8.162
X129.782Y8.121
X129.768Y8.076
X129.763Y8.029
X129.768Y7.982
X129.782Y7.937
X129.804Y7.895
X129.834Y7.859
X129.87Y7.829
X129.912Y7.807
X129.957Y7.793
X130.004Y7.789
X130.05Y7.793
X130.095Y7.807
X130.137Y7.829
X130.173Y7.859
X130.203Y7.896
X130.225Y7.937
X130.239Y7.982
X130.244Y8.029
X130.239Y8.076
X130.978Y8.223
X130.922Y8.409
X130.83Y8.581
X130.706Y8.731
X130.555Y8.855
X130.384Y8.947
X130.197Y9.004
X130.004Y9.023
X129.809Y9.003
X129.623Y8.947
X129.451Y8.855
X129.301Y8.732
X129.177Y8.581
X129.085Y8.409
X129.029Y8.223
X129.01Y8.029
X129.029Y7.835
X129.085Y7.649
X129.177Y7.477
X129.301Y7.326
X129.452Y7.202
X129.623Y7.111
X129.81Y7.054
X130.004Y7.035
X130.197Y7.054
X130.384Y7.111
X130.556Y7.203
X130.706Y7.326
X130.83Y7.477
X130.922Y7.649
X130.978Y7.835
X130.997Y8.029
X130.978Y8.223
G0Z2
X130.239Y8.076
G1Z-4.297F150
X130.225Y8.121F300
X130.203Y8.162
X130.173Y8.199
X130.137Y8.229
X130.095Y8.251
X130.05Y8.264
X130.004Y8.269
X129.956Y8.264
X129.912Y8.251
X129.87Y8.228
X129.834Y8.199
X129.804Y8.162
X129.782Y8.121
X129.768Y8.076
X129.763Y8.029
X129.768Y7.982
X129.782Y7.937
X129.804Y7.895
X129.834Y7.859
X129.87Y7.829
X129.912Y7.807
X129.957Y7.793
X130.004Y7.789
X130.05Y7.793
X130.095Y7.807
X130.137Y7.829
X130.173Y7.859
X130.203Y7.896
X130.225Y7.937
X130.239Y7.982
X130.244Y8.029
X130.239Y8.076
X130.978Y8.223
X130.922Y8.409
X130.83Y8.581
X130.706Y8.731
X130.555Y8.855
X130.384Y8.947
X130.197Y9.004
X130.004Y9.023
X129.809Y9.003
X129.623Y8.947
X129.451Y8.855
X129.301Y8.732
X129.177Y8.581
X129.085Y8.409
X129.029Y8.223
X129.01Y8.029
X129.029Y7.835
X129.085Y7.649
X129.177Y7.477
X129.301Y7.326
X129.452Y7.202
X129.623Y7.111
X129.81Y7.054
X130.004Y7.035
X130.197Y7.054
X130.384Y7.111
X130.556Y7.203
X130.706Y7.326
X130.83Y7.477
X130.922Y7.649
X130.978Y7.835
X130.997Y8.029
X130.978Y8.223
G0Z2
X130.239Y8.076
G1Z-6.297F150
X130.225Y8.121F300
X130.203Y8.162
X130.173Y8.199
X130.137Y8.229
X130.095Y8.251
X130.05Y8.264
X130.004Y8.269
X129.956Y8.264
X129.912Y8.251
X129.87Y8.228
X129.834Y8.199
X129.804Y8.162
X129.782Y8.121
X129.768Y8.076
X129.763Y8.029
X129.768Y7.982
X129.782Y7.937
X129.804Y7.895
X129.834Y7.859
X129.87Y7.829
X129.912Y7.807
X129.957Y7.793
X130.004Y7.789
X130.05Y7.793
X130.095Y7.807
X130.137Y7.829
X130.173Y7.859
X130.203Y7.896
X130.225Y7.937
X130.239Y7.982
X130.244Y8.029
X130.239Y8.076
X130.978Y8.223
X130.922Y8.409
X130.83Y8.581
X130.706Y8.731
X130.555Y8.855
X130.384Y8.947
X130.197Y9.004
X130.004Y9.023
X129.809Y9.003
X129.623Y8.947
X129.451Y8.855
X129.301Y8.732
X129.177Y8.581
X129.085Y8.409
X129.029Y8.223
X129.01Y8.029
X129.029Y7.835
X129.085Y7.649
X129.177Y7.477
X129.301Y7.326
X129.452Y7.202
X129.623Y7.111
X129.81Y7.054
X130.004Y7.035
X130.197Y7.054
X130.384Y7.111
X130.556Y7.203
X130.706Y7.326
X130.83Y7.477
X130.922Y7.649
X130.978Y7.835
X130.997Y8.029
X130.978Y8.223
G0Z2
X130.239Y8.076
G1Z-8.297F150
X130.225Y8.121F300
X130.203Y8.162
X130.173Y8.199
X130.137Y8.229
X130.095Y8.251
X130.05Y8.264
X130.004Y8.269
X129.956Y8.264
X129.912Y8.251
X129.87Y8.228
X129.834Y8.199
X129.804Y8.162
X129.782Y8.121
X129.768Y8.076
X129.763Y8.029
X129.768Y7.982
X129.782Y7.937
X129.804Y7.895
X129.834Y7.859
X129.87Y7.829
X129.912Y7.807
X129.957Y7.793
X130.004Y7.789
X130.05Y7.793
X130.095Y7.807
X130.137Y7.829
X130.173Y7.859
X130.203Y7.896
X130.225Y7.937
X130.239Y7.982
X130.244Y8.029
X130.239Y8.076
X130.978Y8.223
X130.922Y8.409
X130.83Y8.581
X130.706Y8.731
X130.555Y8.855
X130.384Y8.947
X130.197Y9.004
X130.004Y9.023
X129.809Y9.003
X129.623Y8.947
X129.451Y8.855
X129.301Y8.732
X129.177Y8.581
X129.085Y8.409
X129.029Y8.223
X129.01Y8.029
X129.029Y7.835
X129.085Y7.649
X129.177Y7.477
X129.301Y7.326
X129.452Y7.202
X129.623Y7.111
X129.81Y7.054
X130.004Y7.035
X130.197Y7.054
X130.384Y7.111
X130.556Y7.203
X130.706Y7.326
X130.83Y7.477
X130.922Y7.649
X130.978Y7.835
X130.997Y8.029
X130.978Y8.223
G0Z2
X130.239Y8.076
G1Z-10.297F150
X130.225Y8.121F300
X130.203Y8.162
X130.173Y8.199
X130.137Y8.229
X130.095Y8.251
X130.05Y8.264
X130.004Y8.269
X129.956Y8.264
X129.912Y8.251
X129.87Y8.228
X129.834Y8.199
X129.804Y8.162
X129.782Y8.121
X129.768Y8.076
X129.763Y8.029
X129.768Y7.982
X129.782Y7.937
X129.804Y7.895
X129.834Y7.859
X129.87Y7.829
X129.912Y7.807
X129.957Y7.793
X130.004Y7.789
X130.05Y7.793
X130.095Y7.807
X130.137Y7.829
X130.173Y7.859
X130.203Y7.896
X130.225Y7.937
X130.239Y7.982
X130.244Y8.029
X130.239Y8.076
X130.978Y8.223
X130.922Y8.409
X130.83Y8.581
X130.706Y8.731
X130.555Y8.855
X130.384Y8.947
X130.197Y9.004
X130.004Y9.023
X129.809Y9.003
X129.623Y8.947
X129.451Y8.855
X129.301Y8.732
X129.177Y8.581
X129.085Y8.409
X129.029Y8.223
X129.01Y8.029
X129.029Y7.835
X129.085Y7.649
X129.177Y7.477
X129.301Y7.326
X129.452Y7.202
X129.623Y7.111
X129.81Y7.054
X130.004Y7.035
X130.197Y7.054
X130.384Y7.111
X130.556Y7.203
X130.706Y7.326
X130.83Y7.477
X130.922Y7.649
X130.978Y7.835
X130.997Y8.029
X130.978Y8.223
G0Z2
X130.239Y8.076
G1Z-12.297F150
X130.225Y8.121F300
X130.203Y8.162
X130.173Y8.199
X130.137Y8.229
X130.095Y8.251
X130.05Y8.264
X130.004Y8.269
X129.956Y8.264
X129.912Y8.251
X129.87Y8.228
X129.834Y8.199
X129.804Y8.162
X129.782Y8.121
X129.768Y8.076
X129.763Y8.029
X129.768Y7.982
X129.782Y7.937
X129.804Y7.895
X129.834Y7.859
X129.87Y7.829
X129.912Y7.807
X129.957Y7.793
X130.004Y7.789
X130.05Y7.793
X130.095Y7.807
X130.137Y7.829
X130.173Y7.859
X130.203Y7.896
X130.225Y7.937
X130.239Y7.982
X130.244Y8.029
X130.239Y8.076
X130.978Y8.223
X130.922Y8.409
X130.83Y8.581
X130.706Y8.731
X130.555Y8.855
X130.384Y8.947
X130.197Y9.004
X130.004Y9.023
X129.809Y9.003
X129.623Y8.947
X129.451Y8.855
X129.301Y8.732
X129.177Y8.581
X129.085Y8.409
X129.029Y8.223
X129.01Y8.029
X129.029Y7.835
X129.085Y7.649
X129.177Y7.477
X129.301Y7.326
X129.452Y7.202
X129.623Y7.111
X129.81Y7.054
X130.004Y7.035
X130.197Y7.054
X130.384Y7.111
X130.556Y7.203
X130.706Y7.326
X130.83Y7.477
X130.922Y7.649
X130.978Y7.835
X130.997Y8.029
X130.978Y8.223
G0Z2
X130.239Y8.076
G1Z-14.297F150
X130.225Y8.121F300
X130.203Y8.162
X130.173Y8.199
X130.137Y8.229
X130.095Y8.251
X130.05Y8.264
X130.004Y8.269
X129.956Y8.264
X129.912Y8.251
X129.87Y8.228
X129.834Y8.199
X129.804Y8.162
X129.782Y8.121
X129.768Y8.076
X129.763Y8.029
X129.768Y7.982
X129.782Y7.937
X129.804Y7.895
X129.834Y7.859
X129.87Y7.829
X129.912Y7.807
X129.957Y7.793
X130.004Y7.789
X130.05Y7.793
X130.095Y7.807
X130.137Y7.829
X130.173Y7.859
X130.203Y7.896
X130.225Y7.937
X130.239Y7.982
X130.244Y8.029
X130.239Y8.076
X130.978Y8.223
X130.922Y8.409
X130.83Y8.581
X130.706Y8.731
X130.555Y8.855
X130.384Y8.947
X130.197Y9.004
X130.004Y9.023
X129.809Y9.003
X129.623Y8.947
X129.451Y8.855
X129.301Y8.732
X129.177Y8.581
X129.085Y8.409
X129.029Y8.223
X129.01Y8.029
X129.029Y7.835
X129.085Y7.649
X129.177Y7.477
X129.301Y7.326
X129.452Y7.202
X129.623Y7.111
X129.81Y7.054
X130.004Y7.035
X130.197Y7.054
X130.384Y7.111
X130.556Y7.203
X130.706Y7.326
X130.83Y7.477
X130.922Y7.649
X130.978Y7.835
X130.997Y8.029
X130.978Y8.223
G0Z2
X130.239Y8.076
G1Z-16.297F150
X130.225Y8.121F300
X130.203Y8.162
X130.173Y8.199
X130.137Y8.229
X130.095Y8.251
X130.05Y8.264
X130.004Y8.269
X129.956Y8.264
X129.912Y8.251
X129.87Y8.228
X129.834Y8.199
X129.804Y8.162
X129.782Y8.121
X129.768Y8.076
X129.763Y8.029
X129.768Y7.982
X129.782Y7.937
X129.804Y7.895
X129.834Y7.859
X129.87Y7.829
X129.912Y7.807
X129.957Y7.793
X130.004Y7.789
X130.05Y7.793
X130.095Y7.807
X130.137Y7.829
X130.173Y7.859
X130.203Y7.896
X130.225Y7.937
X130.239Y7.982
X130.244Y8.029
X130.239Y8.076
X130.978Y8.223
X130.922Y8.409
X130.83Y8.581
X130.706Y8.731
X130.555Y8.855
X130.384Y8.947
X130.197Y9.004
X130.004Y9.023
X129.809Y9.003
X129.623Y8.947
X129.451Y8.855
X129.301Y8.732
X129.177Y8.581
X129.085Y8.409
X129.029Y8.223
X129.01Y8.029
X129.029Y7.835
X129.085Y7.649
X129.177Y7.477
X129.301Y7.326
X129.452Y7.202
X129.623Y7.111
X129.81Y7.054
X130.004Y7.035
X130.197Y7.054
X130.384Y7.111
X130.556Y7.203
X130.706Y7.326
X130.83Y7.477
X130.922Y7.649
X130.978Y7.835
X130.997Y8.029
X130.978Y8.223
G0Z2
X130.004Y81.529
X130.239Y81.576
G1Z1.702F150
X130.225Y81.621F300
X130.203Y81.662
X130.173Y81.699
X130.137Y81.729
X130.095Y81.751
X130.05Y81.764
X130.004Y81.769
X129.956Y81.764
X129.912Y81.751
X129.87Y81.728
X129.834Y81.699
X129.804Y81.662
X129.782Y81.621
X129.768Y81.576
X129.763Y81.529
X129.768Y81.482
X129.782Y81.437
X129.804Y81.395
X129.834Y81.359
X129.87Y81.329
X129.912Y81.307
X129.957Y81.293
X130.004Y81.289
X130.05Y81.293
X130.095Y81.307
X130.137Y81.329
X130.173Y81.359
X130.203Y81.396
X130.225Y81.437
X130.239Y81.482
X130.244Y81.529
X130.239Y81.576
X130.978Y81.723
X130.922Y81.909
X130.83Y82.081
X130.706Y82.231
X130.555Y82.355
X130.384Y82.447
X130.197Y82.504
X130.004Y82.523
X129.809Y82.503
X129.623Y82.447
X129.451Y82.355
X129.301Y82.232
X129.177Y82.081
X129.085Y81.909
X129.029Y81.723
X129.01Y81.529
X129.029Y81.335
X129.085Y81.149
X129.177Y80.977
X129.301Y80.826
X129.452Y80.702
X129.623Y80.611
X129.81Y80.554
X130.004Y80.535
X130.197Y80.554
X130.384Y80.611
X130.556Y80.703
X130.706Y80.826
X130.83Y80.977
X130.922Y81.149
X130.978Y81.335
X130.997Y81.529
X130.978Y81.723
G0Z2
X130.239Y81.576
G1Z-0.297F150
X130.225Y81.621F300
X130.203Y81.662
X130.173Y81.699
X130.137Y81.729
X130.095Y81.751
X130.05Y81.764
X130.004Y81.769
X129.956Y81.764
X129.912Y81.751
X129.87Y81.728
X129.834Y81.699
X129.804Y81.662
X129.782Y81.621
X129.768Y81.576
X129.763Y81.529
X129.768Y81.482
X129.782Y81.437
X129.804Y81.395
X129.834Y81.359
X129.87Y81.329
X129.912Y81.307
X129.957Y81.293
X130.004Y81.289
X130.05Y81.293
X130.095Y81.307
X130.137Y81.329
X130.173Y81.359
X130.203Y81.396
X130.225Y81.437
X130.239Y81.482
X130.244Y81.529
X130.239Y81.576
X130.978Y81.723
X130.922Y81.909
X130.83Y82.081
X130.706Y82.231
X130.555Y82.355
X130.384Y82.447
X130.197Y82.504
X130.004Y82.523
X129.809Y82.503
X129.623Y82.447
X129.451Y82.355
X129.301Y82.232
X129.177Y82.081
X129.085Y81.909
X129.029Y81.723
X129.01Y81.529
X129.029Y81.335
X129.085Y81.149
X129.177Y80.977
X129.301Y80.826
X129.452Y80.702
X129.623Y80.611
X129.81Y80.554
X130.004Y80.535
X130.197Y80.554
X130.384Y80.611
X130.556Y80.703
X130.706Y80.826
X130.83Y80.977
X130.922Y81.149
X130.978Y81.335
X130.997Y81.529
X130.978Y81.723
G0Z2
X130.239Y81.576
G1Z-2.297F150
X130.225Y81.621F300
X130.203Y81.662
X130.173Y81.699
X130.137Y81.729
X130.095Y81.751
X130.05Y81.764
X130.004Y81.769
X129.956Y81.764
X129.912Y81.751
X129.87Y81.728
X129.834Y81.699
X129.804Y81.662
X129.782Y81.621
X129.768Y81.576
X129.763Y81.529
X129.768Y81.482
X129.782Y81.437
X129.804Y81.395
X129.834Y81.359
X129.87Y81.329
X129.912Y81.307
X129.957Y81.293
X130.004Y81.289
X130.05Y81.293
X130.095Y81.307
X130.137Y81.329
X130.173Y81.359
X130.203Y81.396
X130.225Y81.437
X130.239Y81.482
X130.244Y81.529
X130.239Y81.576
X130.978Y81.723
X130.922Y81.909
X130.83Y82.081
X130.706Y82.231
X130.555Y82.355
X130.384Y82.447
X130.197Y82.504
X130.004Y82.523
X129.809Y82.503
X129.623Y82.447
X129.451Y82.355
X129.301Y82.232
X129.177Y82.081
X129.085Y81.909
X129.029Y81.723
X129.01Y81.529
X129.029Y81.335
X129.085Y81.149
X129.177Y80.977
X129.301Y80.826
X129.452Y80.702
X129.623Y80.611
X129.81Y80.554
X130.004Y80.535
X130.197Y80.554
X130.384Y80.611
X130.556Y80.703
X130.706Y80.826
X130.83Y80.977
X130.922Y81.149
X130.978Y81.335
X130.997Y81.529
X130.978Y81.723
G0Z2
X130.239Y81.576
G1Z-4.297F150
X130.225Y81.621F300
X130.203Y81.662
X130.173Y81.699
X130.137Y81.729
X130.095Y81.751
X130.05Y81.764
X130.004Y81.769
X129.956Y81.764
X129.912Y81.751
X129.87Y81.728
X129.834Y81.699
X129.804Y81.662
X129.782Y81.621
X129.768Y81.576
X129.763Y81.529
X129.768Y81.482
X129.782Y81.437
X129.804Y81.395
X129.834Y81.359
X129.87Y81.329
X129.912Y81.307
X129.957Y81.293
X130.004Y81.289
X130.05Y81.293
X130.095Y81.307
X130.137Y81.329
X130.173Y81.359
X130.203Y81.396
X130.225Y81.437
X130.239Y81.482
X130.244Y81.529
X130.239Y81.576
X130.978Y81.723
X130.922Y81.909
X130.83Y82.081
X130.706Y82.231
X130.555Y82.355
X130.384Y82.447
X130.197Y82.504
X130.004Y82.523
X129.809Y82.503
X129.623Y82.447
X129.451Y82.355
X129.301Y82.232
X129.177Y82.081
X129.085Y81.909
X129.029Y81.723
X129.01Y81.529
X129.029Y81.335
X129.085Y81.149
X129.177Y80.977
X129.301Y80.826
X129.452Y80.702
X129.623Y80.611
X129.81Y80.554
X130.004Y80.535
X130.197Y80.554
X130.384Y80.611
X130.556Y80.703
X130.706Y80.826
X130.83Y80.977
X130.922Y81.149
X130.978Y81.335
X130.997Y81.529
X130.978Y81.723
G0Z2
X130.239Y81.576
G1Z-6.297F150
X130.225Y81.621F300
X130.203Y81.662
X130.173Y81.699
X130.137Y81.729
X130.095Y81.751
X130.05Y81.764
X130.004Y81.769
X129.956Y81.764
X129.912Y81.751
X129.87Y81.728
X129.834Y81.699
X129.804Y81.662
X129.782Y81.621
X129.768Y81.576
X129.763Y81.529
X129.768Y81.482
X129.782Y81.437
X129.804Y81.395
X129.834Y81.359
X129.87Y81.329
X129.912Y81.307
X129.957Y81.293
X130.004Y81.289
X130.05Y81.293
X130.095Y81.307
X130.137Y81.329
X130.173Y81.359
X130.203Y81.396
X130.225Y81.437
X130.239Y81.482
X130.244Y81.529
X130.239Y81.576
X130.978Y81.723
X130.922Y81.909
X130.83Y82.081
X130.706Y82.231
X130.555Y82.355
X130.384Y82.447
X130.197Y82.504
X130.004Y82.523
X129.809Y82.503
X129.623Y82.447
X129.451Y82.355
X129.301Y82.232
X129.177Y82.081
X129.085Y81.909
X129.029Y81.723
X129.01Y81.529
X129.029Y81.335
X129.085Y81.149
X129.177Y80.977
X129.301Y80.826
X129.452Y80.702
X129.623Y80.611
X129.81Y80.554
X130.004Y80.535
X130.197Y80.554
X130.384Y80.611
X130.556Y80.703
X130.706Y80.826
X130.83Y80.977
X130.922Y81.149
X130.978Y81.335
X130.997Y81.529
X130.978Y81.723
G0Z2
X130.239Y81.576
G1Z-8.297F150
X130.225Y81.621F300
X130.203Y81.662
X130.173Y81.699
X130.137Y81.729
X130.095Y81.751
X130.05Y81.764
X130.004Y81.769
X129.956Y81.764
X129.912Y81.751
X129.87Y81.728
X129.834Y81.699
X129.804Y81.662
X129.782Y81.621
X129.768Y81.576
X129.763Y81.529
X129.768Y81.482
X129.782Y81.437
X129.804Y81.395
X129.834Y81.359
X129.87Y81.329
X129.912Y81.307
X129.957Y81.293
X130.004Y81.289
X130.05Y81.293
X130.095Y81.307
X130.137Y81.329
X130.173Y81.359
X130.203Y81.396
X130.225Y81.437
X130.239Y81.482
X130.244Y81.529
X130.239Y81.576
X130.978Y81.723
X130.922Y81.909
X130.83Y82.081
X130.706Y82.231
X130.555Y82.355
X130.384Y82.447
X130.197Y82.504
X130.004Y82.523
X129.809Y82.503
X129.623Y82.447
X129.451Y82.355
X129.301Y82.232
X129.177Y82.081
X129.085Y81.909
X129.029Y81.723
X129.01Y81.529
X129.029Y81.335
X129.085Y81.149
X129.177Y80.977
X129.301Y80.826
X129.452Y80.702
X129.623Y80.611
X129.81Y80.554
X130.004Y80.535
X130.197Y80.554
X130.384Y80.611
X130.556Y80.703
X130.706Y80.826
X130.83Y80.977
X130.922Y81.149
X130.978Y81.335
X130.997Y81.529
X130.978Y81.723
G0Z2
X130.239Y81.576
G1Z-10.297F150
X130.225Y81.621F300
X130.203Y81.662
X130.173Y81.699
X130.137Y81.729
X130.095Y81.751
X130.05Y81.764
X130.004Y81.769
X129.956Y81.764
X129.912Y81.751
X129.87Y81.728
X129.834Y81.699
X129.804Y81.662
X129.782Y81.621
X129.768Y81.576
X129.763Y81.529
X129.768Y81.482
X129.782Y81.437
X129.804Y81.395
X129.834Y81.359
X129.87Y81.329
X129.912Y81.307
X129.957Y81.293
X130.004Y81.289
X130.05Y81.293
X130.095Y81.307
X130.137Y81.329
X130.173Y81.359
X130.203Y81.396
X130.225Y81.437
X130.239Y81.482
X130.244Y81.529
X130.239Y81.576
X130.978Y81.723
X130.922Y81.909
X130.83Y82.081
X130.706Y82.231
X130.555Y82.355
X130.384Y82.447
X130.197Y82.504
X130.004Y82.523
X129.809Y82.503
X129.623Y82.447
X129.451Y82.355
X129.301Y82.232
X129.177Y82.081
X129.085Y81.909
X129.029Y81.723
X129.01Y81.529
X129.029Y81.335
X129.085Y81.149
X129.177Y80.977
X129.301Y80.826
X129.452Y80.702
X129.623Y80.611
X129.81Y80.554
X130.004Y80.535
X130.197Y80.554
X130.384Y80.611
X130.556Y80.703
X130.706Y80.826
X130.83Y80.977
X130.922Y81.149
X130.978Y81.335
X130.997Y81.529
X130.978Y81.723
G0Z2
X130.239Y81.576
G1Z-12.297F150
X130.225Y81.621F300
X130.203Y81.662
X130.173Y81.699
X130.137Y81.729
X130.095Y81.751
X130.05Y81.764
X130.004Y81.769
X129.956Y81.764
X129.912Y81.751
X129.87Y81.728
X129.834Y81.699
X129.804Y81.662
X129.782Y81.621
X129.768Y81.576
X129.763Y81.529
X129.768Y81.482
X129.782Y81.437
X129.804Y81.395
X129.834Y81.359
X129.87Y81.329
X129.912Y81.307
X129.957Y81.293
X130.004Y81.289
X130.05Y81.293
X130.095Y81.307
X130.137Y81.329
X130.173Y81.359
X130.203Y81.396
X130.225Y81.437
X130.239Y81.482
X130.244Y81.529
X130.239Y81.576
X130.978Y81.723
X130.922Y81.909
X130.83Y82.081
X130.706Y82.231
X130.555Y82.355
X130.384Y82.447
X130.197Y82.504
X130.004Y82.523
X129.809Y82.503
X129.623Y82.447
X129.451Y82.355
X129.301Y82.232
X129.177Y82.081
X129.085Y81.909
X129.029Y81.723
X129.01Y81.529
X129.029Y81.335
X129.085Y81.149
X129.177Y80.977
X129.301Y80.826
X129.452Y80.702
X129.623Y80.611
X129.81Y80.554
X130.004Y80.535
X130.197Y80.554
X130.384Y80.611
X130.556Y80.703
X130.706Y80.826
X130.83Y80.977
X130.922Y81.149
X130.978Y81.335
X130.997Y81.529
X130.978Y81.723
G0Z2
X130.239Y81.576
G1Z-14.297F150
X130.225Y81.621F300
X130.203Y81.662
X130.173Y81.699
X130.137Y81.729
X130.095Y81.751
X130.05Y81.764
X130.004Y81.769
X129.956Y81.764
X129.912Y81.751
X129.87Y81.728
X129.834Y81.699
X129.804Y81.662
X129.782Y81.621
X129.768Y81.576
X129.763Y81.529
X129.768Y81.482
X129.782Y81.437
X129.804Y81.395
X129.834Y81.359
X129.87Y81.329
X129.912Y81.307
X129.957Y81.293
X130.004Y81.289
X130.05Y81.293
X130.095Y81.307
X130.137Y81.329
X130.173Y81.359
X130.203Y81.396
X130.225Y81.437
X130.239Y81.482
X130.244Y81.529
X130.239Y81.576
X130.978Y81.723
X130.922Y81.909
X130.83Y82.081
X130.706Y82.231
X130.555Y82.355
X130.384Y82.447
X130.197Y82.504
X130.004Y82.523
X129.809Y82.503
X129.623Y82.447
X129.451Y82.355
X129.301Y82.232
X129.177Y82.081
X129.085Y81.909
X129.029Y81.723
X129.01Y81.529
X129.029Y81.335
X129.085Y81.149
X129.177Y80.977
X129.301Y80.826
X129.452Y80.702
X129.623Y80.611
X129.81Y80.554
X130.004Y80.535
X130.197Y80.554
X130.384Y80.611
X130.556Y80.703
X130.706Y80.826
X130.83Y80.977
X130.922Y81.149
X130.978Y81.335
X130.997Y81.529
X130.978Y81.723
G0Z2
X130.239Y81.576
G1Z-16.297F150
X130.225Y81.621F300
X130.203Y81.662
X130.173Y81.699
X130.137Y81.729
X130.095Y81.751
X130.05Y81.764
X130.004Y81.769
X129.956Y81.764
X129.912Y81.751
X129.87Y81.728
X129.834Y81.699
X129.804Y81.662
X129.782Y81.621
X129.768Y81.576
X129.763Y81.529
X129.768Y81.482
X129.782Y81.437
X129.804Y81.395
X129.834Y81.359
X129.87Y81.329
X129.912Y81.307
X129.957Y81.293
X130.004Y81.289
X130.05Y81.293
X130.095Y81.307
X130.137Y81.329
X130.173Y81.359
X130.203Y81.396
X130.225Y81.437
X130.239Y81.482
X130.244Y81.529
X130.239Y81.576
X130.978Y81.723
X130.922Y81.909
X130.83Y82.081
X130.706Y82.231
X130.555Y82.355
X130.384Y82.447
X130.197Y82.504
X130.004Y82.523
X129.809Y82.503
X129.623Y82.447
X129.451Y82.355
X129.301Y82.232
X129.177Y82.081
X129.085Y81.909
X129.029Y81.723
X129.01Y81.529
X129.029Y81.335
X129.085Y81.149
X129.177Y80.977
X129.301Y80.826
X129.452Y80.702
X129.623Y80.611
X129.81Y80.554
X130.004Y80.535
X130.197Y80.554
X130.384Y80.611
X130.556Y80.703
X130.706Y80.826
X130.83Y80.977
X130.922Y81.149
X130.978Y81.335
X130.997Y81.529
X130.978Y81.723
G0Z2
X79.994Y81.533
X80.23Y81.58
X80.216Y81.625
X80.194Y81.667
X80.164Y81.703
X80.127Y81.733
X80.086Y81.755
X80.041Y81.769
X79.994Y81.774
X79.947Y81.769
X79.902Y81.755
X79.861Y81.733
X79.825Y81.703
X79.795Y81.667
X79.772Y81.625
X79.759Y81.58
X79.754Y81.534
X79.759Y81.486
X79.772Y81.442
X79.795Y81.4
X79.824Y81.364
X79.861Y81.334
X79.902Y81.312
X79.947Y81.298
X79.994Y81.293
X80.041Y81.298
X80.086Y81.312
X80.128Y81.334
X80.164Y81.364
X80.194Y81.4
X80.216Y81.442
X80.23Y81.487
X80.234Y81.533
X80.23Y81.58
X80.969Y81.728
X80.912Y81.914
X80.82Y82.086
X80.697Y82.236
X80.546Y82.36
X80.375Y82.452
X80.188Y82.508
X79.994Y82.527
X79.8Y82.508
X79.614Y82.452
X79.442Y82.36
X79.292Y82.236
X79.168Y82.085
X79.076Y81.914
X79.02Y81.727
X79.001Y81.534
X79.02Y81.339
X79.076Y81.153
X79.168Y80.981
X79.292Y80.831
X79.442Y80.707
X79.614Y80.615
X79.8Y80.559
X79.994Y80.54
X80.188Y80.559
X80.375Y80.615
X80.546Y80.707
X80.697Y80.831
X80.821Y80.982
X80.912Y81.153
X80.969Y81.34
X80.988Y81.533
X80.969Y81.728
X80.23Y81.58
G1Z1.71F150
X80.216Y81.625F300
X80.194Y81.667
X80.164Y81.703
X80.127Y81.733
X80.086Y81.755
X80.041Y81.769
X79.994Y81.774
X79.947Y81.769
X79.902Y81.755
X79.861Y81.733
X79.825Y81.703
X79.795Y81.667
X79.772Y81.625
X79.759Y81.58
X79.754Y81.534
X79.759Y81.486
X79.772Y81.442
X79.795Y81.4
X79.824Y81.364
X79.861Y81.334
X79.902Y81.312
X79.947Y81.298
X79.994Y81.293
X80.041Y81.298
X80.086Y81.312
X80.128Y81.334
X80.164Y81.364
X80.194Y81.4
X80.216Y81.442
X80.23Y81.487
X80.234Y81.533
X80.23Y81.58
X80.969Y81.728
X80.912Y81.914
X80.82Y82.086
X80.697Y82.236
X80.546Y82.36
X80.375Y82.452
X80.188Y82.508
X79.994Y82.527
X79.8Y82.508
X79.614Y82.452
X79.442Y82.36
X79.292Y82.236
X79.168Y82.085
X79.076Y81.914
X79.02Y81.727
X79.001Y81.534
X79.02Y81.339
X79.076Y81.153
X79.168Y80.981
X79.292Y80.831
X79.442Y80.707
X79.614Y80.615
X79.8Y80.559
X79.994Y80.54
X80.188Y80.559
X80.375Y80.615
X80.546Y80.707
X80.697Y80.831
X80.821Y80.982
X80.912Y81.153
X80.969Y81.34
X80.988Y81.533
X80.969Y81.728
G0Z2
X80.23Y81.58
G1Z-0.289F150
X80.216Y81.625F300
X80.194Y81.667
X80.164Y81.703
X80.127Y81.733
X80.086Y81.755
X80.041Y81.769
X79.994Y81.774
X79.947Y81.769
X79.902Y81.755
X79.861Y81.733
X79.825Y81.703
X79.795Y81.667
X79.772Y81.625
X79.759Y81.58
X79.754Y81.534
X79.759Y81.486
X79.772Y81.442
X79.795Y81.4
X79.824Y81.364
X79.861Y81.334
X79.902Y81.312
X79.947Y81.298
X79.994Y81.293
X80.041Y81.298
X80.086Y81.312
X80.128Y81.334
X80.164Y81.364
X80.194Y81.4
X80.216Y81.442
X80.23Y81.487
X80.234Y81.533
X80.23Y81.58
X80.969Y81.728
X80.912Y81.914
X80.82Y82.086
X80.697Y82.236
X80.546Y82.36
X80.375Y82.452
X80.188Y82.508
X79.994Y82.527
X79.8Y82.508
X79.614Y82.452
X79.442Y82.36
X79.292Y82.236
X79.168Y82.085
X79.076Y81.914
X79.02Y81.727
X79.001Y81.534
X79.02Y81.339
X79.076Y81.153
X79.168Y80.981
X79.292Y80.831
X79.442Y80.707
X79.614Y80.615
X79.8Y80.559
X79.994Y80.54
X80.188Y80.559
X80.375Y80.615
X80.546Y80.707
X80.697Y80.831
X80.821Y80.982
X80.912Y81.153
X80.969Y81.34
X80.988Y81.533
X80.969Y81.728
G0Z2
X80.23Y81.58
G1Z-2.289F150
X80.216Y81.625F300
X80.194Y81.667
X80.164Y81.703
X80.127Y81.733
X80.086Y81.755
X80.041Y81.769
X79.994Y81.774
X79.947Y81.769
X79.902Y81.755
X79.861Y81.733
X79.825Y81.703
X79.795Y81.667
X79.772Y81.625
X79.759Y81.58
X79.754Y81.534
X79.759Y81.486
X79.772Y81.442
X79.795Y81.4
X79.824Y81.364
X79.861Y81.334
X79.902Y81.312
X79.947Y81.298
X79.994Y81.293
X80.041Y81.298
X80.086Y81.312
X80.128Y81.334
X80.164Y81.364
X80.194Y81.4
X80.216Y81.442
X80.23Y81.487
X80.234Y81.533
X80.23Y81.58
X80.969Y81.728
X80.912Y81.914
X80.82Y82.086
X80.697Y82.236
X80.546Y82.36
X80.375Y82.452
X80.188Y82.508
X79.994Y82.527
X79.8Y82.508
X79.614Y82.452
X79.442Y82.36
X79.292Y82.236
X79.168Y82.085
X79.076Y81.914
X79.02Y81.727
X79.001Y81.534
X79.02Y81.339
X79.076Y81.153
X79.168Y80.981
X79.292Y80.831
X79.442Y80.707
X79.614Y80.615
X79.8Y80.559
X79.994Y80.54
X80.188Y80.559
X80.375Y80.615
X80.546Y80.707
X80.697Y80.831
X80.821Y80.982
X80.912Y81.153
X80.969Y81.34
X80.988Y81.533
X80.969Y81.728
G0Z2
X80.23Y81.58
G1Z-4.289F150
X80.216Y81.625F300
X80.194Y81.667
X80.164Y81.703
X80.127Y81.733
X80.086Y81.755
X80.041Y81.769
X79.994Y81.774
X79.947Y81.769
X79.902Y81.755
X79.861Y81.733
X79.825Y81.703
X79.795Y81.667
X79.772Y81.625
X79.759Y81.58
X79.754Y81.534
X79.759Y81.486
X79.772Y81.442
X79.795Y81.4
X79.824Y81.364
X79.861Y81.334
X79.902Y81.312
X79.947Y81.298
X79.994Y81.293
X80.041Y81.298
X80.086Y81.312
X80.128Y81.334
X80.164Y81.364
X80.194Y81.4
X80.216Y81.442
X80.23Y81.487
X80.234Y81.533
X80.23Y81.58
