(Created with grbl post processor 2023/09/24 11:13)
G21
(G-code generated with BlenderCAM and NC library)
G17G90
(Tool: D = 1.5 mm  type END flutes 2)
S12000M03
G00 Z2.0

G0X0Y0Z2
X26.591Y17.513
G1Z1.214F75
X26.257Y17.447F150
Z-22.785F75
X26.276Y17.383F150
X26.308Y17.324
X26.35Y17.273
X26.402Y17.23
X26.461Y17.199
X26.525Y17.179
X26.591Y17.173
X26.657Y17.179
X26.721Y17.199
X26.78Y17.23
X26.832Y17.272
X26.874Y17.324
X26.906Y17.383
X26.925Y17.447
X26.932Y17.513
X26.925Y17.58
X26.906Y17.644
X26.874Y17.703
X26.832Y17.754
X26.78Y17.797
X26.721Y17.828
X26.657Y17.847
X26.591Y17.854
X26.524Y17.847
X26.461Y17.828
X26.402Y17.796
X26.35Y17.754
X26.308Y17.702
X26.276Y17.644
X26.257Y17.58
X26.25Y17.513
X26.257Y17.447
Z-24.785F75
X26.276Y17.383F150
X26.308Y17.324
X26.35Y17.273
X26.402Y17.23
X26.461Y17.199
X26.525Y17.179
X26.591Y17.173
X26.657Y17.179
X26.721Y17.199
X26.78Y17.23
X26.832Y17.272
X26.874Y17.324
X26.906Y17.383
X26.925Y17.447
X26.932Y17.513
X26.925Y17.58
X26.906Y17.644
X26.874Y17.703
X26.832Y17.754
X26.78Y17.797
X26.721Y17.828
X26.657Y17.847
X26.591Y17.854
X26.524Y17.847
X26.461Y17.828
X26.402Y17.796
X26.35Y17.754
X26.308Y17.702
X26.276Y17.644
X26.257Y17.58
X26.25Y17.513
X26.257Y17.447
Z-25.785F75
X26.276Y17.383F150
X26.308Y17.324
X26.35Y17.273
X26.402Y17.23
X26.461Y17.199
X26.525Y17.179
X26.591Y17.173
X26.657Y17.179
X26.721Y17.199
X26.78Y17.23
X26.832Y17.272
X26.874Y17.324
X26.906Y17.383
X26.925Y17.447
X26.932Y17.513
X26.925Y17.58
X26.906Y17.644
X26.874Y17.703
X26.832Y17.754
X26.78Y17.797
X26.721Y17.828
X26.657Y17.847
X26.591Y17.854
X26.524Y17.847
X26.461Y17.828
X26.402Y17.796
X26.35Y17.754
X26.308Y17.702
X26.276Y17.644
X26.257Y17.58
X26.25Y17.513
X26.257Y17.447
Z1.214
G0Z2
X79.994Y8.033
X79.66Y7.967
G1Z-16.289F75
X79.68Y7.903F150
X79.711Y7.844
X79.753Y7.793
X79.805Y7.75
X79.864Y7.719
X79.928Y7.699
X79.994Y7.693
X80.061Y7.699
X80.125Y7.719
X80.184Y7.75
X80.235Y7.793
X80.278Y7.844
X80.309Y7.903
X80.328Y7.967
X80.335Y8.033
X80.328Y8.1
X80.309Y8.164
X80.277Y8.223
X80.235Y8.274
X80.183Y8.317
X80.125Y8.348
X80.061Y8.368
X79.994Y8.374
X79.928Y8.367
X79.864Y8.348
X79.805Y8.317
X79.753Y8.274
X79.711Y8.222
X79.68Y8.164
X79.66Y8.1
X79.654Y8.034
X79.66Y7.967
Z-18.289F75
X79.68Y7.903F150
X79.711Y7.844
X79.753Y7.793
X79.805Y7.75
X79.864Y7.719
X79.928Y7.699
X79.994Y7.693
X80.061Y7.699
X80.125Y7.719
X80.184Y7.75
X80.235Y7.793
X80.278Y7.844
X80.309Y7.903
X80.328Y7.967
X80.335Y8.033
X80.328Y8.1
X80.309Y8.164
X80.277Y8.223
X80.235Y8.274
X80.183Y8.317
X80.125Y8.348
X80.061Y8.368
X79.994Y8.374
X79.928Y8.367
X79.864Y8.348
X79.805Y8.317
X79.753Y8.274
X79.711Y8.222
X79.68Y8.164
X79.66Y8.1
X79.654Y8.034
X79.66Y7.967
Z-19.289F75
X79.68Y7.903F150
X79.711Y7.844
X79.753Y7.793
X79.805Y7.75
X79.864Y7.719
X79.928Y7.699
X79.994Y7.693
X80.061Y7.699
X80.125Y7.719
X80.184Y7.75
X80.235Y7.793
X80.278Y7.844
X80.309Y7.903
X80.328Y7.967
X80.335Y8.033
X80.328Y8.1
X80.309Y8.164
X80.277Y8.223
X80.235Y8.274
X80.183Y8.317
X80.125Y8.348
X80.061Y8.368
X79.994Y8.374
X79.928Y8.367
X79.864Y8.348
X79.805Y8.317
X79.753Y8.274
X79.711Y8.222
X79.68Y8.164
X79.66Y8.1
X79.654Y8.034
X79.66Y7.967
G0Z2
X130.004Y8.029
X129.67Y7.962
G1Z-18.297F75
X129.689Y7.899F150
X129.72Y7.84
X129.763Y7.788
X129.814Y7.746
X129.873Y7.714
X129.937Y7.695
X130.004Y7.688
X130.07Y7.695
X130.134Y7.714
X130.193Y7.746
X130.244Y7.788
X130.287Y7.84
X130.318Y7.899
X130.338Y7.962
X130.344Y8.029
X130.337Y8.096
X130.318Y8.159
X130.287Y8.218
X130.244Y8.27
X130.193Y8.312
X130.134Y8.344
X130.07Y8.363
X130.004Y8.369
X129.937Y8.363
X129.873Y8.344
X129.814Y8.312
X129.763Y8.27
X129.72Y8.218
X129.689Y8.159
X129.669Y8.095
X129.663Y8.029
X129.67Y7.962
Z-20.297F75
X129.689Y7.899F150
X129.72Y7.84
X129.763Y7.788
X129.814Y7.746
X129.873Y7.714
X129.937Y7.695
X130.004Y7.688
X130.07Y7.695
X130.134Y7.714
X130.193Y7.746
X130.244Y7.788
X130.287Y7.84
X130.318Y7.899
X130.338Y7.962
X130.344Y8.029
X130.337Y8.096
X130.318Y8.159
X130.287Y8.218
X130.244Y8.27
X130.193Y8.312
X130.134Y8.344
X130.07Y8.363
X130.004Y8.369
X129.937Y8.363
X129.873Y8.344
X129.814Y8.312
X129.763Y8.27
X129.72Y8.218
X129.689Y8.159
X129.669Y8.095
X129.663Y8.029
X129.67Y7.962
Z-21.297F75
X129.689Y7.899F150
X129.72Y7.84
X129.763Y7.788
X129.814Y7.746
X129.873Y7.714
X129.937Y7.695
X130.004Y7.688
X130.07Y7.695
X130.134Y7.714
X130.193Y7.746
X130.244Y7.788
X130.287Y7.84
X130.318Y7.899
X130.338Y7.962
X130.344Y8.029
X130.337Y8.096
X130.318Y8.159
X130.287Y8.218
X130.244Y8.27
X130.193Y8.312
X130.134Y8.344
X130.07Y8.363
X130.004Y8.369
X129.937Y8.363
X129.873Y8.344
X129.814Y8.312
X129.763Y8.27
X129.72Y8.218
X129.689Y8.159
X129.669Y8.095
X129.663Y8.029
X129.67Y7.962
G0Z2
X130.004Y81.529
X129.67Y81.462
G1Z-18.297F75
X129.689Y81.399F150
X129.72Y81.34
X129.763Y81.288
X129.814Y81.246
X129.873Y81.214
X129.937Y81.195
X130.004Y81.188
X130.07Y81.195
X130.134Y81.214
X130.193Y81.246
X130.244Y81.288
X130.287Y81.34
X130.318Y81.399
X130.338Y81.462
X130.344Y81.529
X130.337Y81.596
X130.318Y81.659
X130.287Y81.718
X130.244Y81.77
X130.193Y81.812
X130.134Y81.844
X130.07Y81.863
X130.004Y81.869
X129.937Y81.863
X129.873Y81.844
X129.814Y81.812
X129.763Y81.77
X129.72Y81.718
X129.689Y81.659
X129.669Y81.595
X129.663Y81.529
X129.67Y81.462
Z-20.297F75
X129.689Y81.399F150
X129.72Y81.34
X129.763Y81.288
X129.814Y81.246
X129.873Y81.214
X129.937Y81.195
X130.004Y81.188
X130.07Y81.195
X130.134Y81.214
X130.193Y81.246
X130.244Y81.288
X130.287Y81.34
X130.318Y81.399
X130.338Y81.462
X130.344Y81.529
X130.337Y81.596
X130.318Y81.659
X130.287Y81.718
X130.244Y81.77
X130.193Y81.812
X130.134Y81.844
X130.07Y81.863
X130.004Y81.869
X129.937Y81.863
X129.873Y81.844
X129.814Y81.812
X129.763Y81.77
X129.72Y81.718
X129.689Y81.659
X129.669Y81.595
X129.663Y81.529
X129.67Y81.462
Z-21.297F75
X129.689Y81.399F150
X129.72Y81.34
X129.763Y81.288
X129.814Y81.246
X129.873Y81.214
X129.937Y81.195
X130.004Y81.188
X130.07Y81.195
X130.134Y81.214
X130.193Y81.246
X130.244Y81.288
X130.287Y81.34
X130.318Y81.399
X130.338Y81.462
X130.344Y81.529
X130.337Y81.596
X130.318Y81.659
X130.287Y81.718
X130.244Y81.77
X130.193Y81.812
X130.134Y81.844
X130.07Y81.863
X130.004Y81.869
X129.937Y81.863
X129.873Y81.844
X129.814Y81.812
X129.763Y81.77
X129.72Y81.718
X129.689Y81.659
X129.669Y81.595
X129.663Y81.529
X129.67Y81.462
G0Z2
X79.994Y81.533
X79.66Y81.467
G1Z-16.289F75
X79.68Y81.403F150
X79.711Y81.344
X79.753Y81.293
X79.805Y81.25
X79.864Y81.219
X79.928Y81.199
X79.994Y81.193
X80.061Y81.199
X80.125Y81.219
X80.184Y81.25
X80.235Y81.293
X80.278Y81.344
X80.309Y81.403
X80.328Y81.467
X80.335Y81.533
X80.328Y81.6
X80.309Y81.664
X80.277Y81.723
X80.235Y81.774
X80.183Y81.817
X80.125Y81.848
X80.061Y81.868
X79.994Y81.874
X79.928Y81.867
X79.864Y81.848
X79.805Y81.817
X79.753Y81.774
X79.711Y81.722
X79.68Y81.664
X79.66Y81.6
X79.654Y81.534
X79.66Y81.467
Z-18.289F75
X79.68Y81.403F150
X79.711Y81.344
X79.753Y81.293
X79.805Y81.25
X79.864Y81.219
X79.928Y81.199
X79.994Y81.193
X80.061Y81.199
X80.125Y81.219
X80.184Y81.25
X80.235Y81.293
X80.278Y81.344
X80.309Y81.403
X80.328Y81.467
X80.335Y81.533
X80.328Y81.6
X80.309Y81.664
X80.277Y81.723
X80.235Y81.774
X80.183Y81.817
X80.125Y81.848
X80.061Y81.868
X79.994Y81.874
X79.928Y81.867
X79.864Y81.848
X79.805Y81.817
X79.753Y81.774
X79.711Y81.722
X79.68Y81.664
X79.66Y81.6
X79.654Y81.534
X79.66Y81.467
Z-19.289F75
X79.68Y81.403F150
X79.711Y81.344
X79.753Y81.293
X79.805Y81.25
X79.864Y81.219
X79.928Y81.199
X79.994Y81.193
X80.061Y81.199
X80.125Y81.219
X80.184Y81.25
X80.235Y81.293
X80.278Y81.344
X80.309Y81.403
X80.328Y81.467
X80.335Y81.533
X80.328Y81.6
X80.309Y81.664
X80.277Y81.723
X80.235Y81.774
X80.183Y81.817
X80.125Y81.848
X80.061Y81.868
X79.994Y81.874
X79.928Y81.867
X79.864Y81.848
X79.805Y81.817
X79.753Y81.774
X79.711Y81.722
X79.68Y81.664
X79.66Y81.6
X79.654Y81.534
X79.66Y81.467
G0Z2
X37.002Y71.565
G1Z1.214F75
X36.668Y71.498F150
Z-22.785F75
X36.688Y71.435F150
X36.719Y71.376
X36.762Y71.324
X36.813Y71.282
X36.872Y71.25
X36.936Y71.231
X37.002Y71.224
X37.069Y71.231
X37.133Y71.25
X37.192Y71.282
X37.243Y71.324
X37.286Y71.376
X37.317Y71.435
X37.336Y71.499
X37.343Y71.565
X37.336Y71.632
X37.317Y71.695
X37.286Y71.754
X37.243Y71.806
X37.191Y71.848
X37.133Y71.88
X37.069Y71.899
X37.002Y71.906
X36.936Y71.899
X36.872Y71.88
X36.813Y71.848
X36.762Y71.806
X36.719Y71.754
X36.688Y71.695
X36.668Y71.631
X36.662Y71.565
X36.668Y71.498
Z-24.785F75
X36.688Y71.435F150
X36.719Y71.376
X36.762Y71.324
X36.813Y71.282
X36.872Y71.25
X36.936Y71.231
X37.002Y71.224
X37.069Y71.231
X37.133Y71.25
X37.192Y71.282
X37.243Y71.324
X37.286Y71.376
X37.317Y71.435
X37.336Y71.499
X37.343Y71.565
X37.336Y71.632
X37.317Y71.695
X37.286Y71.754
X37.243Y71.806
X37.191Y71.848
X37.133Y71.88
X37.069Y71.899
X37.002Y71.906
X36.936Y71.899
X36.872Y71.88
X36.813Y71.848
X36.762Y71.806
X36.719Y71.754
X36.688Y71.695
X36.668Y71.631
X36.662Y71.565
X36.668Y71.498
Z-25.785F75
X36.688Y71.435F150
X36.719Y71.376
X36.762Y71.324
X36.813Y71.282
X36.872Y71.25
X36.936Y71.231
X37.002Y71.224
X37.069Y71.231
X37.133Y71.25
X37.192Y71.282
X37.243Y71.324
X37.286Y71.376
X37.317Y71.435
X37.336Y71.499
X37.343Y71.565
X37.336Y71.632
X37.317Y71.695
X37.286Y71.754
X37.243Y71.806
X37.191Y71.848
X37.133Y71.88
X37.069Y71.899
X37.002Y71.906
X36.936Y71.899
X36.872Y71.88
X36.813Y71.848
X36.762Y71.806
X36.719Y71.754
X36.688Y71.695
X36.668Y71.631
X36.662Y71.565
X36.668Y71.498
Z1.214
G0Z2
 
