(Created with grbl post processor 2023/09/24 11:13)
G21
(G-code generated with BlenderCAM and NC library)
G17G90
(Tool: D = 3.0 mm  type BALLNOSE flutes 2)
S12000M03
G00 Z2.0

G0X0Y0Z2
X148.349Y-0.999
G1Z-2F200
X-0.851F400
G0Z2
X148.349Y-0.499
G1Z-2F200
X-0.851F400
G0Z2
X148.349Y0
G1Z-2F200
X-0.851Y0F400
G0Z2
X148.349Y0.5
G1Z-2F200
X-0.851F400
G0Z2
X148.349Y1
G1Z-2F200
X-0.851F400
G0Z2
X148.349Y1.5
G1Z-2F200
X-0.851F400
G0Z2
X148.349Y2
G1Z-2F200
X-0.851F400
G0Z2
X148.349Y2.5
G1Z-2F200
X-0.851F400
G0Z2
X148.349Y3
G1Z-2F200
X-0.851F400
G0Z2
X148.349Y3.5
G1Z-2F200
X-0.851F400
G0Z2
X148.349Y4
G1Z-2F200
X-0.851F400
G0Z2
X148.349Y4.5
G1Z-2F200
X-0.851F400
G0Z2
X148.349Y5
G1Z-2F200
X-0.851F400
G0Z2
X148.349Y5.5
G1Z-2F200
X-0.851F400
G0Z2
X148.349Y6
G1Z-2F200
X-0.851F400
G0Z2
X148.349Y6.5
G1Z-2F200
X-0.851F400
G0Z2
X148.349Y7
G1Z-2F200
X-0.851F400
G0Z2
X148.349Y7.5
G1Z-2F200
X-0.851F400
G0Z2
X148.349Y8
G1Z-2F200
X-0.851F400
G0Z2
X148.349Y8.5
G1Z-2F200
X-0.851F400
G0Z2
X148.349Y9
G1Z-2F200
X-0.851F400
G0Z2
X148.349Y9.5
G1Z-2F200
X-0.851F400
G0Z2
X148.349Y10
G1Z-2F200
X-0.851F400
G0Z2
X148.349Y10.5
G1Z-2F200
X118.44Z-2F400
X118.349Z-1.75
X118.149Z-1.492
X117.949Z-1.325
X117.749Z-1.231
X117.549Z-1.194
X117.349Z-1.193
X4.548Z-1.193
X4.348Z-1.207
X4.148Z-1.271
X3.948Z-1.401F200
X3.748Z-1.606
X3.548Z-1.989
X3.541Z-2
X-0.851F400
G0Z2
X148.349Y11
G1Z-2F200
X118.854F400
X118.749Z-1.666
X118.549Z-1.248
X118.349Z-0.993
X118.149Z-0.832
X117.949Z-0.729
X117.749Z-0.667
X117.549Z-0.641
X117.349Z-0.64
X4.548Z-0.64
X4.348Z-0.649
X4.148Z-0.693
X3.948Z-0.775
X3.748Z-0.905F200
X3.548Z-1.108
X3.348Z-1.42
X3.175Z-2
X-0.851Z-2F400
G0Z2
X148.349Y11.5
G1Z-2F200
X119.045F400
X118.949Z-1.721
X118.749Z-1.097
X118.549Z-0.794
X118.349Z-0.604
X118.149Z-0.472
X117.949Z-0.383
X117.749Z-0.328
X117.549Z-0.305
X117.349Z-0.305
X4.548Z-0.305
X4.348Z-0.313
X4.148Z-0.352
X3.948Z-0.423
X3.748Z-0.533
X3.548Z-0.69F200
X3.348Z-0.927
X3.148Z-1.326
X3.01Z-2
X-0.851F400
G0Z2
X148.349Y12
G1Z-2F200
X119.089F400
X118.949Z-1.303
X118.749Z-0.808
X118.549Z-0.554
X118.349Z-0.382
X118.149Z-0.261
X117.949Z-0.178
X117.749Z-0.128
X117.549Z-0.107
X117.349Z-0.106
X4.548Z-0.106
X4.348Z-0.114
X4.148Z-0.15
X3.948Z-0.216
X3.748Z-0.317
X3.548Z-0.461F200
X3.348Z-0.668
X3.148Z-0.999
X2.994Z-2
X-0.851Z-2F400
G0Z2
X148.349Y12.5
G1Z-2F200
X119.097F400
X118.949Z-1.136
X118.749Z-0.689
X118.549Z-0.446
X118.349Z-0.28
X118.149Z-0.164
X117.949Z-0.084
X117.749Z-0.036
X117.549Z-0.016
X117.349Z-0.015
X4.548Z-0.015
X4.348Z-0.023
X4.148Z-0.057
X3.948Z-0.12
X3.748Z-0.217
X3.548Z-0.356F200
X3.348Z-0.555
X3.148Z-0.867
X2.99Z-2
X-0.851Z-2F400
G0Z2
X148.349Y-0.999
G1Z-4F200
X-0.851F400
G0Z2
X148.349Y-0.499
G1Z-4F200
X-0.851F400
G0Z2
X148.349Y0
G1Z-4F200
X-0.851Y0F400
G0Z2
X148.349Y0.5
G1Z-4F200
X-0.851F400
G0Z2
X148.349Y1
G1Z-4F200
X-0.851F400
G0Z2
X148.349Y1.5
G1Z-4F200
X-0.851F400
G0Z2
X148.349Y2
G1Z-4F200
X-0.851F400
G0Z2
X148.349Y2.5
G1Z-4F200
X-0.851F400
G0Z2
X148.349Y3
G1Z-4F200
X148.29F400
X148.149Z-3.904
X147.949Z-3.812
X147.749Z-3.756
X147.549Z-3.733
X147.349Z-3.732
X0.148Z-3.732
X-0.051Z-3.733
X-0.251Z-3.757
X-0.451Z-3.813
X-0.651Z-3.905
X-0.79Z-4F200
X-0.851F400
G0Z2
X148.349Y3.5
G1Z-3.74F200
X148.149Z-3.605F400
X147.949Z-3.513
X147.749Z-3.457
X147.549Z-3.434
X147.349Z-3.433
X0.148Z-3.433
X-0.051Z-3.434
X-0.251Z-3.457
X-0.451Z-3.513
X-0.651Z-3.606
X-0.851Z-3.741F200
G0Z2
X148.349Y4
G1Z-3.485
X148.149Z-3.357F400
X147.949Z-3.269
X147.749Z-3.216
X147.549Z-3.194
X147.349Z-3.193
X0.148Z-3.193
X-0.051Z-3.194
X-0.251Z-3.217
X-0.451Z-3.27
X-0.651Z-3.358
X-0.851Z-3.486F200
G0Z2
X148.349Y4.5
G1Z-3.253
X148.149Z-3.13F400
X147.949Z-3.046
X147.749Z-2.995
X147.549Z-2.973
X147.349Z-2.972
X0.148Z-2.972
X-0.051Z-2.973
X-0.251Z-2.995
X-0.451Z-3.046
X-0.651Z-3.13
X-0.851Z-3.254F200
G0Z2
X148.349Y5
G1Z-3.074
X148.149Z-2.951F400
X147.949Z-2.867
X147.749Z-2.816
X147.549Z-2.794
X147.349Z-2.793
X0.148Z-2.793
X-0.051Z-2.794
X-0.251Z-2.816
X-0.451Z-2.867
X-0.651Z-2.951
X-0.851Z-3.075F200
G0Z2
X148.349Y5.5
G1Z-2.914
X148.149Z-2.795F400
X147.949Z-2.713
X147.749Z-2.664
X147.549Z-2.643
X147.349Z-2.642
X0.148Z-2.642
X-0.051Z-2.643
X-0.251Z-2.664
X-0.451Z-2.714
X-0.651Z-2.796
X-0.851Z-2.915F200
G0Z2
X148.349Y6
G1Z-2.789
X148.149Z-2.67F400
X147.949Z-2.588
X147.749Z-2.538
X147.549Z-2.518
X147.349Z-2.517
X0.148Z-2.517
X-0.051Z-2.518
X-0.251Z-2.539
X-0.451Z-2.589
X-0.651Z-2.67
X-0.851Z-2.79F200
G0Z2
X148.349Y6.5
G1Z-2.695
X148.149Z-2.578F400
X147.949Z-2.498
X147.749Z-2.449
X147.549Z-2.429
X147.349Z-2.428
X0.148Z-2.428
X-0.051Z-2.429
X-0.251Z-2.449
X-0.451Z-2.498
X-0.651Z-2.578
X-0.851Z-2.696F200
G0Z2
X148.349Y7
G1Z-2.621
X148.149Z-2.503F400
X147.949Z-2.423
X147.749Z-2.375
X147.549Z-2.354
X147.349Z-2.354
X0.148Z-2.354
X-0.051Z-2.355
X-0.251Z-2.375
X-0.451Z-2.424
X-0.651Z-2.504
X-0.851Z-2.622F200
G0Z2
X148.349Y7.5
G1Z-2.587
X148.149Z-2.471F400
X147.949Z-2.391
X147.749Z-2.343
X147.549Z-2.323
X147.349Z-2.322
X0.148Z-2.322
X-0.051Z-2.323
X-0.251Z-2.344
X-0.451Z-2.392
X-0.651Z-2.471
X-0.851Z-2.588F200
G0Z2
X148.349Y8
G1Z-2.564
X148.149Z-2.448F400
X147.949Z-2.369
X147.749Z-2.32
X147.549Z-2.3
X147.349Z-2.3
X0.148
X-0.051Z-2.3
X-0.251Z-2.321
X-0.451Z-2.369
X-0.651Z-2.448
X-0.851Z-2.565F200
G0Z2
X148.349Y8.5
G1Z-2.564
X148.149Z-2.448F400
X147.949Z-2.369
X147.749Z-2.32
X147.549Z-2.3
X147.349Z-2.3
X0.148
X-0.051Z-2.3
X-0.251Z-2.321
X-0.451Z-2.369
X-0.651Z-2.448
X-0.851Z-2.565F200
G0Z2
X148.349Y9
G1Z-2.564
X148.149Z-2.448F400
X147.949Z-2.369
X147.749Z-2.32
X147.549Z-2.3
X147.349Z-2.3
X0.148
X-0.051Z-2.3
X-0.251Z-2.321
X-0.451Z-2.369
X-0.651Z-2.448
X-0.851Z-2.565F200
G0Z2
X148.349Y9.5
G1Z-2.564
X148.149Z-2.448F400
X147.949Z-2.369
X147.749Z-2.32
X147.549Z-2.3
X147.349Z-2.3
X0.148Z-2.3
X-0.051Z-2.3
X-0.251Z-2.321
X-0.451Z-2.369
X-0.651Z-2.448
X-0.851Z-2.565F200
G0Z2
X148.349Y10
G1Z-2.564
X148.149Z-2.448F400
X147.949Z-2.369
X147.749Z-2.32
X147.549Z-2.3
X147.349Z-2.3
X0.148
X-0.051Z-2.3
X-0.251Z-2.321
X-0.451Z-2.369
X-0.651Z-2.448
X-0.851Z-2.565F200
G0Z2
X3.541Y10.5
G1Z-2
X3.348Z-2.3
X0.148Z-2.3F400
X-0.051Z-2.3
X-0.251Z-2.321
X-0.451Z-2.369
X-0.651Z-2.448
X-0.851Z-2.565F200
G0Z2
X3.175Y11
G1Z-2
X3.148Z-2.09
X2.948Z-2.3
X0.148Z-2.3F400
X-0.051Z-2.3
X-0.251Z-2.321
X-0.451Z-2.369
X-0.651Z-2.448
X-0.851Z-2.565F200
G0Z2
X3.01Y11.5
G1Z-2
X2.948Z-2.3
X0.148Z-2.3F400
X-0.051Z-2.3
X-0.251Z-2.321
X-0.451Z-2.369
X-0.651Z-2.448
X-0.851Z-2.565F200
G0Z2
X2.994Y12
G1Z-2
X2.948Z-2.3
X0.148Z-2.3F400
X-0.051Z-2.3
X-0.251Z-2.321
X-0.451Z-2.369
X-0.651Z-2.448
X-0.851Z-2.565F200
G0Z2
X2.99Y12.5
G1Z-2
X2.948Z-2.3
X0.148Z-2.3F400
X-0.051Z-2.3
X-0.251Z-2.321
X-0.451Z-2.369
X-0.651Z-2.448
X-0.851Z-2.565F200
G0Z2
X148.349Y10.5
G1Z-2.564
X148.149Z-2.448F400
X147.949Z-2.369
X147.749Z-2.32
X147.549Z-2.3
X147.349Z-2.3
X118.549Z-2.3
X118.44Z-2
G0Z2
X148.349Y11
G1Z-2.564F200
X148.149Z-2.448F400
X147.949Z-2.369
X147.749Z-2.32
X147.549Z-2.3
X147.349Z-2.3
X118.949Z-2.3
X118.854Z-2
G0Z2
X148.349Y11.5
G1Z-2.564F200
X148.149Z-2.448F400
X147.949Z-2.369
X147.749Z-2.32
X147.549Z-2.3
X147.349Z-2.3
X119.149Z-2.3
X119.045Z-2
G0Z2
X148.349Y12
G1Z-2.564F200
X148.149Z-2.448F400
X147.949Z-2.369
X147.749Z-2.32
X147.549Z-2.3
X147.349Z-2.3
X119.149Z-2.3
X119.089Z-2
G0Z2
X148.349Y12.5
G1Z-2.564F200
X148.149Z-2.448F400
X147.949Z-2.369
X147.749Z-2.32
X147.549Z-2.3
X147.349Z-2.3
X119.149Z-2.3
X119.097Z-2
G0Z2
X148.349Y-0.999
G1Z-6F200
X-0.851F400
G0Z2
X148.349Y-0.499
G1Z-6F200
X-0.851F400
G0Z2
X148.349Y0
G1Z-6F200
X-0.851Y0F400
G0Z2
X148.349Y0.5
G1Z-6F200
X147.653F400
X147.549Z-5.982
X147.349Z-5.981
X0.148Z-5.981
X-0.051Z-5.982
X-0.153Z-6
X-0.851
G0Z2
X148.349Y1
G1Z-5.784F200
X148.149Z-5.612F400
X147.949Z-5.494
X147.749Z-5.422
X147.549Z-5.392
X147.349Z-5.391
X0.148Z-5.391
X-0.051Z-5.392
X-0.251Z-5.423
X-0.451Z-5.494
X-0.651Z-5.613F200
X-0.851Z-5.786
G0Z2
X148.349Y1.5
G1Z-5.239
X148.149Z-5.082F400
X147.949Z-4.976
X147.749Z-4.911
X147.549Z-4.883
X147.349Z-4.882
X0.148Z-4.882
X-0.051Z-4.884
X-0.251Z-4.911
X-0.451Z-4.976
X-0.651Z-5.083
X-0.851Z-5.24F200
G0Z2
X148.349Y2
G1Z-4.786
X148.149Z-4.629F400
X147.949Z-4.523
X147.749Z-4.461
X147.549Z-4.436
X147.349Z-4.434
X0.148Z-4.434
X-0.051Z-4.436
X-0.251Z-4.462
X-0.451Z-4.524
X-0.651Z-4.63
X-0.851Z-4.787F200
G0Z2
X148.349Y2.5
G1Z-4.392
X148.149Z-4.247F400
X147.949Z-4.149
X147.749Z-4.089
X147.549Z-4.064
X147.349Z-4.063
X0.148Z-4.063
X-0.051Z-4.064
X-0.251Z-4.089
X-0.451Z-4.15
X-0.651Z-4.248
X-0.851Z-4.393F200
X-0.832Y2.656Z-4.261F400
X-0.813Y2.812Z-4.129
X-0.794Y2.969Z-4.015
X-0.79Y3Z-4
X-0.851Z-4.041F200
G0Z2
X148.349
G1Z-4.04
X148.29Z-4F400
G0Z2
X148.349Y-0.999
G1Z-8F200
X-0.851F400
G0Z2
X148.349Y-0.499
G1Z-8F200
X148.207F400
X148.149Z-7.921
X147.949Z-7.736
X147.749Z-7.623
X147.549Z-7.576
X147.349Z-7.574
X126.149
X125.949Z-7.597
X125.749Z-7.651
X118.749Z-7.651
X118.549Z-7.603
X118.349Z-7.574
X0.148Z-7.574
X-0.051Z-7.577
X-0.251Z-7.624
X-0.451Z-7.737
X-0.651Z-7.923F200
X-0.708Z-8
X-0.851F400
G0Z2
X148.349Y0
G1Z-7.2F200
X148.149Y0Z-6.975F400
X147.949Y0Z-6.821
X147.749Y0Z-6.727
X147.549Y0Z-6.688
X147.349Y0Z-6.687
X0.148Y0Z-6.687
X-0.051Y0Z-6.688
X-0.251Y0Z-6.728
X-0.451Y0Z-6.822
X-0.651Y0Z-6.976F200
X-0.851Y0Z-7.202
X-0.757Y0.067Z-6.973F400
X-0.662Y0.135Z-6.761
X-0.568Y0.202Z-6.57
X-0.473Y0.27Z-6.419
X-0.379Y0.338Z-6.28
X-0.284Y0.405Z-6.153
X-0.19Y0.473Z-6.036
X-0.153Y0.5Z-6
X-0.251Z-6.016
X-0.451Z-6.097
X-0.651Z-6.231F200
X-0.851Z-6.426
G0Z2
X148.349
G1Z-6.424
X148.149Z-6.229F400
X147.949Z-6.096
X147.749Z-6.016
X147.653Z-6
G0Z2
X148.349Y-0.999
G1Z-9.758F200
X148.149Z-9.281F400
X147.949Z-8.987
X147.749Z-8.845
X147.549Z-8.785
X147.349Z-8.782
X126.149
X125.949Z-8.812
X125.749Z-8.921
X125.549Z-9.137F200
X125.349Z-9.551
X125.216Z-10
X119.257F400
X119.149Z-9.599
X118.949Z-9.17
X118.749Z-8.936
X118.549Z-8.818
X118.349Z-8.782
X84.148Z-8.782
X0.148Z-8.782
X-0.051Z-8.785
X-0.251Z-8.845
X-0.451Z-8.989F200
X-0.651Z-9.284
X-0.851Z-9.762
X-0.82Y-0.891Z-9.242F400
X-0.804Y-0.836Z-9.021
X-0.773Y-0.727Z-8.659
X-0.742Y-0.619Z-8.301
X-0.726Y-0.564Z-8.15
X-0.711Y-0.51Z-8.016
X-0.708Y-0.499Z-8
X-0.851Z-8.194F200
G0Z2
X148.349
G1Z-8.192
X148.207Z-8F400
G0Z2
X125.216Y-0.999
G1Z-10F200
X125.149Z-10.228
X124.949Z-12
X119.549F400
X119.349Z-10.341
X119.257Z-10
G0Z2
X124.949
G1Z-12F200
Z-14
X119.549F400
Z-12
G0Z2
X124.949
G1Z-14F200
Z-15.586
X124.816Z-16
X119.66F400
X119.549Z-15.683
Z-14
G0Z2
X124.816
G1Z-16F200
X124.749Z-16.207
X124.549Z-16.562
X124.349Z-16.843
X124.149Z-17.043
X123.949Z-17.226
X123.549Z-17.493
X123.149Z-17.659F400
X122.949Z-17.721
X122.549Z-17.801
X122.349Z-17.808
X122.149
X121.949Z-17.805
X121.549Z-17.725
X121.349Z-17.667
X120.949Z-17.501
X120.749Z-17.372
X120.549Z-17.239
X120.349Z-17.062
X120.149Z-16.862
X119.949Z-16.591
X119.749Z-16.253
X119.66Z-16
G0Z2
(Tool: D = 3.0 mm  type BALLNOSE flutes 2)
S12000M03
G00 Z2.0

X4.348Y76.5
G1Z-0.007F200
X4.148Z-0.041F400
X3.948Z-0.104
X3.748Z-0.201
X3.548Z-0.339F200
X3.348Z-0.537
X3.148Z-0.847
X2.989Z-2
X-0.851F400
G0Z2
X148.349
G1Z-2F200
X119.098F400
X118.949Z-1.115
X118.749Z-0.67
X118.549Z-0.428
X118.349Z-0.264
X118.149Z-0.148
X117.949Z-0.069
X117.749Z-0.02
X117.549Z-0
G0Z2
X148.349Y77
G1Z-2F200
X119.098F400
X118.949Z-1.126
X118.749Z-0.679
X118.549Z-0.436
X118.349Z-0.27
X118.149Z-0.154
X117.949Z-0.074
X117.749Z-0.026
X117.549Z-0.006
X117.349Z-0.005
X4.548Z-0.005
X4.348Z-0.013
X4.148Z-0.047
X3.948Z-0.11
X3.748Z-0.207
X3.548Z-0.347F200
X3.348Z-0.546
X3.148Z-0.857
X2.99Z-2
X-0.851Z-2F400
G0Z2
X148.349Y77.5
G1Z-2F200
X119.092F400
X118.949Z-1.249
X118.749Z-0.777
X118.549Z-0.524
X118.349Z-0.352
X118.149Z-0.231
X117.949Z-0.148
X117.749Z-0.098
X117.549Z-0.077
X117.349Z-0.076
X4.548Z-0.076
X4.348Z-0.084
X4.148Z-0.12
X3.948Z-0.185
X3.748Z-0.286
X3.548Z-0.431F200
X3.348Z-0.638
X3.148Z-0.962
X2.993Z-2
X-0.851Z-2F400
G0Z2
X148.349Y78
G1Z-2F200
X119.063F400
X118.949Z-1.599
X118.749Z-1.018
X118.549Z-0.737
X118.349Z-0.55
X118.149Z-0.419
X117.949Z-0.329
X117.749Z-0.275
X117.549Z-0.252
X117.349Z-0.251
X4.548Z-0.251
X4.348Z-0.26
X4.148Z-0.298
X3.948Z-0.37
X3.748Z-0.479
X3.548Z-0.636F200
X3.348Z-0.861
X3.148Z-1.244
X3.005Z-2
X-0.851Z-2F400
G0Z2
X148.349Y78.5
G1Z-2F200
X118.873F400
X118.749Z-1.507
X118.549Z-1.128
X118.349Z-0.899
X118.149Z-0.749
X117.949Z-0.647
X117.749Z-0.585
X117.549Z-0.559
X117.349Z-0.557
X4.548Z-0.557
X4.348Z-0.567
X4.148Z-0.611
X3.948Z-0.693
X3.748Z-0.818F200
X3.548Z-1.001
X3.348Z-1.298
X3.148Z-1.854
X3.083Z-2
X-0.851F400
G0Z2
X148.349Y79
G1Z-2F200
X118.569F400
X118.549Z-1.965
X118.349Z-1.551
X118.149Z-1.311
X117.949Z-1.171
X117.749Z-1.092
X117.549Z-1.061
X117.349Z-1.059
X4.548Z-1.059
X4.348Z-1.071
X4.148Z-1.125
X3.948Z-1.232
X3.748Z-1.418F200
X3.548Z-1.713
X3.45Z-2
X-0.851F400
G0Z2
X148.349Y79.5
G1Z-2F200
X-0.851F400
G0Z2
X148.349Y80
G1Z-2F200
X-0.851F400
G0Z2
X148.349Y80.5
G1Z-2F200
X-0.851F400
G0Z2
X148.349Y81
G1Z-2F200
X-0.851F400
G0Z2
X148.349Y81.5
G1Z-2F200
X-0.851F400
G0Z2
X148.349Y82
G1Z-2F200
X-0.851F400
G0Z2
X148.349Y82.5
G1Z-2F200
X-0.851F400
G0Z2
X148.349Y83
G1Z-2F200
X-0.851F400
G0Z2
X148.349Y83.5
G1Z-2F200
X-0.851F400
G0Z2
X148.349Y84
G1Z-2F200
X-0.851F400
G0Z2
X148.349Y84.5
G1Z-2F200
X-0.851F400
G0Z2
X148.349Y85
G1Z-2F200
X-0.851F400
G0Z2
X148.349Y85.5
G1Z-2F200
X-0.851F400
G0Z2
X148.349Y86
G1Z-2F200
X-0.851F400
G0Z2
X148.349Y86.5
G1Z-2F200
X-0.851F400
G0Z2
X148.349Y87
G1Z-2F200
X-0.851F400
G0Z2
X148.349Y87.5
G1Z-2F200
X-0.851F400
G0Z2
X148.349Y88
G1Z-2F200
X-0.851F400
G0Z2
X148.349Y88.5
G1Z-2F200
X-0.851F400
G0Z2
X148.349Y89
G1Z-2F200
X-0.851F400
G0Z2
X148.349Y89.5
G1Z-2F200
X-0.851F400
G0Z2
X148.349Y90
G1Z-2F200
X-0.851F400
G0Z2
X148.349Y90.5
G1Z-2F200
X-0.851F400
G0Z2
X2.989Y76.5
G1Z-2F200
X2.948Z-2.299
X0.348F400
X0.148Z-2.305
X-0.051Z-2.335
X-0.251Z-2.393
X-0.451Z-2.483
X-0.651Z-2.612F200
X-0.851Z-2.795
G0Z2
X2.99Y77
G1Z-2
X2.948Z-2.299
X0.548F400
X0.348Z-2.3
X0.148Z-2.316
X-0.051Z-2.358
X-0.251Z-2.429
X-0.451Z-2.533
X-0.651Z-2.679F200
X-0.851Z-2.889
G0Z2
X2.993Y77.5
G1Z-2
X2.948Z-2.299
X0.548Z-2.299F400
X0.348Z-2.307
X0.148Z-2.339
X-0.051Z-2.399
X-0.251Z-2.49
X-0.451Z-2.619F200
X-0.651Z-2.801
X-0.851Z-3.075
G0Z2
X3.005Y78
G1Z-2
X2.948Z-2.299
X0.748Z-2.299F400
X0.548Z-2.301
X0.348Z-2.324
X0.148Z-2.373
X-0.051Z-2.452
X-0.251Z-2.566
X-0.451Z-2.725F200
X-0.651Z-2.957
X-0.851Z-3.362
G0Z2
X3.083Y78.5
G1Z-2
X2.948Z-2.299
X0.948F400
X0.748Z-2.3
X0.548Z-2.315
X0.348Z-2.356
X0.148Z-2.423
X-0.051Z-2.52
X-0.251Z-2.659F200
X-0.451Z-2.859
X-0.651Z-3.172
X-0.851Z-4
G0Z2
X3.45Y79
G1Z-2
X3.348Z-2.299
X0.948Z-2.299F400
X0.748Z-2.313
X0.548Z-2.35
X0.348Z-2.414
X0.148Z-2.508
X-0.051Z-2.64F200
X-0.251Z-2.825
X-0.451Z-3.103
X-0.651Z-4
X-0.851F400
G0Z2
X148.349Y76.5
G1Z-2.563F200
X148.149Z-2.448F400
X147.949Z-2.369
X147.749Z-2.32
X147.549Z-2.3
X147.349Z-2.299
X119.149Z-2.299
X119.098Z-2
G0Z2
X148.349Y77
G1Z-2.563F200
X148.149Z-2.448F400
X147.949Z-2.369
X147.749Z-2.32
X147.549Z-2.3
X147.349Z-2.299
X119.149Z-2.299
X119.098Z-2
G0Z2
X148.349Y77.5
G1Z-2.563F200
X148.149Z-2.448F400
X147.949Z-2.369
X147.749Z-2.32
X147.549Z-2.3
X147.349Z-2.299
X119.149Z-2.299
X119.092Z-2
G0Z2
X148.349Y78
G1Z-2.563F200
X148.149Z-2.448F400
X147.949Z-2.369
X147.749Z-2.32
X147.549Z-2.3
X147.349Z-2.299
X119.149Z-2.299
X119.063Z-2
G0Z2
X148.349Y78.5
G1Z-2.563F200
X148.149Z-2.448F400
X147.949Z-2.369
X147.749Z-2.32
X147.549Z-2.3
X147.349Z-2.299
X118.949Z-2.299
X118.873Z-2
G0Z2
X148.349Y79
G1Z-2.563F200
X148.149Z-2.448F400
X147.949Z-2.369
X147.749Z-2.32
X147.549Z-2.3
X147.349Z-2.299
X118.749Z-2.299
X118.569Z-2
G0Z2
X148.349Y79.5
G1Z-2.563F200
X148.149Z-2.448F400
X147.949Z-2.369
X147.749Z-2.32
X147.549Z-2.3
X147.349Z-2.299
X117.749Z-2.299
X117.549Z-2.168
X117.349Z-2.164
X4.548Z-2.164
X4.348Z-2.207
X4.148Z-2.299
X1.148Z-2.299
X0.948Z-2.31
X0.748Z-2.345
X0.548Z-2.406
X0.348Z-2.497
X0.148Z-2.624F200
X-0.051Z-2.802
X-0.251Z-3.066
X-0.451Z-3.7
X-0.651Z-4
X-0.851F400
G0Z2
X148.349Y80
G1Z-2.563F200
X148.149Z-2.448F400
X147.949Z-2.369
X147.749Z-2.32
X147.549Z-2.3
X147.349Z-2.299
X1.348Z-2.299
X1.148Z-2.31
X0.948Z-2.344
X0.748Z-2.401
X0.548Z-2.486
X0.348Z-2.609F200
X0.148Z-2.78
X-0.051Z-3.032
X-0.251Z-3.537
X-0.451Z-4
X-0.851F400
G0Z2
X148.349Y80.5
G1Z-2.563F200
X148.149Z-2.448F400
X147.949Z-2.369
X147.749Z-2.32
X147.549Z-2.3
X147.349Z-2.299
X1.748Z-2.299
X1.548Z-2.3
X1.348Z-2.315
X1.148Z-2.352
X0.948Z-2.414
X0.748Z-2.504
X0.548Z-2.628F200
X0.348Z-2.8
X0.148Z-3.049
X-0.051Z-3.553
X-0.251Z-4
X-0.851F400
G0Z2
X148.349Y81
G1Z-2.563F200
X148.149Z-2.448F400
X147.949Z-2.369
X147.749Z-2.32
X147.549Z-2.3
X147.349Z-2.299
X1.948Z-2.299
X1.748Z-2.301
X1.548Z-2.32
X1.348Z-2.362
X1.148Z-2.429
X0.948Z-2.524
X0.748Z-2.656F200
X0.548Z-2.838
X0.348Z-3.11
X0.148Z-4
X-0.851F400
G0Z2
X148.349Y81.5
G1Z-2.563F200
X148.149Z-2.448F400
X147.949Z-2.369
X147.749Z-2.32
X147.549Z-2.3
X147.349Z-2.299
X2.148
X1.948Z-2.305
X1.748Z-2.331
X1.548Z-2.377
X1.348Z-2.447
X1.148Z-2.545
X0.948Z-2.684F200
X0.748Z-2.879
X0.548Z-3.177
X0.348Z-4
X-0.851F400
G0Z2
X148.349Y82
G1Z-2.582F200
X148.149Z-2.466F400
X147.949Z-2.386
X147.749Z-2.338
X147.549Z-2.318
X147.349Z-2.317
X2.348Z-2.317
X2.148Z-2.328
X1.948Z-2.36
X1.748Z-2.413
X1.548Z-2.491
X1.348Z-2.603
X1.148Z-2.755F200
X0.948Z-2.967
X0.748Z-3.314
X0.548Z-4
X-0.851F400
G0Z2
X148.349Y82.5
G1Z-2.607F200
X148.149Z-2.491F400
X147.949Z-2.412
X147.749Z-2.363
X147.549Z-2.343
X147.349Z-2.342
X2.748Z-2.342
X2.548Z-2.345
X2.348Z-2.366
X2.148Z-2.408
X1.948Z-2.473
X1.748Z-2.565
X1.548Z-2.691F200
X1.348Z-2.865
X1.148Z-3.122
X0.948Z-4
X-0.851F400
G0Z2
X148.349Y83
G1Z-2.68F200
X148.149Z-2.563F400
X147.949Z-2.483
X147.749Z-2.434
X147.549Z-2.414
X147.349Z-2.413
X2.948Z-2.413
X2.748Z-2.419
X2.548Z-2.443
X2.348Z-2.486
X2.148Z-2.554
X1.948Z-2.654
X1.748Z-2.795F200
X1.548Z-3.003
X1.348Z-3.345
X1.148Z-4
X-0.851F400
G0Z2
X148.349Y83.5
G1Z-2.764F200
X148.149Z-2.645F400
X147.949Z-2.563
X147.749Z-2.514
X147.549Z-2.493
X147.349Z-2.492
X3.348Z-2.492
X3.148Z-2.493
X2.948Z-2.512
X2.748Z-2.553
X2.548Z-2.615
X2.348Z-2.703
X2.148Z-2.825F200
X1.948Z-2.995
X1.748Z-3.254
X1.548Z-4
X-0.851F400
G0Z2
X148.349Y84
G1Z-2.889F200
X148.149Z-2.77F400
X147.949Z-2.688
X147.749Z-2.639
X147.549Z-2.618
X147.349Z-2.617
X3.548Z-2.617
X3.348Z-2.626
X3.148Z-2.655
X2.948Z-2.705
X2.748Z-2.78
X2.548Z-2.888
X2.348Z-3.042F200
X2.148Z-3.281
X1.948Z-4
X-0.851F400
G0Z2
X148.349Y84.5
G1Z-3.038F200
X148.149Z-2.915F400
X147.949Z-2.831
X147.749Z-2.78
X147.549Z-2.758
X147.349Z-2.758
X3.948Z-2.758
X3.748Z-2.76
X3.548Z-2.781
X3.348Z-2.827
X3.148Z-2.895
X2.948Z-2.996
X2.748Z-3.141F200
X2.548Z-3.359
X2.348Z-3.803
X2.148Z-4
X-0.851F400
G0Z2
X148.349Y85
G1Z-3.217F200
X148.149Z-3.094F400
X147.949Z-3.01
X147.749Z-2.959
X147.549Z-2.937
X147.349Z-2.936
X4.348Z-2.936
X4.148Z-2.942
X3.948Z-2.964
X3.748Z-3.006
X3.548Z-3.072
X3.348Z-3.168
X3.148Z-3.307F200
X2.948Z-3.52
X2.76Z-4
X-0.851F400
G0Z2
X148.349Y85.5
G1Z-3.438F200
X148.149Z-3.31F400
X147.949Z-3.222
X147.749Z-3.169
X147.549Z-3.147
X147.349Z-3.146
X4.748Z-3.146
X4.548Z-3.147
X4.348Z-3.165
X4.148Z-3.204
X3.948Z-3.274
X3.748Z-3.379
X3.548Z-3.533F200
X3.348Z-3.78
X3.148Z-4
X-0.851F400
G0Z2
X148.349Y86
G1Z-3.68F200
X148.149Z-3.547F400
X147.949Z-3.459
X147.749Z-3.405
X147.549Z-3.383
X147.349Z-3.382
X5.148Z-3.382
X4.948Z-3.392
X4.748Z-3.419
X4.548Z-3.466
X4.348Z-3.538
X4.148Z-3.643
X3.948Z-3.803F200
X3.812Z-4
X-0.851F400
G0Z2
X148.349Y86.5
G1Z-3.98F200
X148.149Z-3.845F400
X147.949Z-3.752
X147.749Z-3.696
X147.549Z-3.673
X147.349Z-3.672
X5.748Z-3.672
X5.548Z-3.672
X5.348Z-3.684
X5.148Z-3.715
X4.948Z-3.771
X4.748Z-3.858
X4.548Z-3.994F200
X4.543Z-4
X-0.851F400
G0Z2
X148.349Y87
G1Z-4F200
X147.626F400
X147.549Z-3.99
X147.349Z-3.989
X6.148Z-3.989
X5.948Z-3.99
X5.852Z-4
X-0.851
G0Z2
X148.349Y87.5
G1Z-4F200
X-0.851F400
G0Z2
X148.349Y88
G1Z-4F200
X-0.851F400
G0Z2
X148.349Y88.5
G1Z-4F200
X-0.851F400
G0Z2
X148.349Y89
G1Z-4F200
X-0.851F400
G0Z2
X148.349Y89.5
G1Z-4F200
X-0.851F400
G0Z2
X148.349Y90
G1Z-4F200
X-0.851F400
G0Z2
X148.349Y90.5
G1Z-4F200
X-0.851F400
G0Z2
Y78.5
G1Z-4F200
Z-6
X-0.651Y79Z-4F400
Z-6F200
X-0.851F400
X-0.651Y79.5Z-4
Z-6F200
X-0.851F400
X-0.451Y80Z-4
Z-6F200
X-0.851F400
X-0.251Y80.5Z-4
Z-6F200
X-0.851F400
X0.148Y81Z-4
Z-6F200
X-0.851F400
X0.348Y81.5Z-4
Z-6F200
X-0.851F400
X0.548Y82Z-4
Z-6F200
X-0.851F400
G0Z2
X0.948Y82.5
G1Z-4F200
Z-6
X-0.851F400
G0Z2
X1.148Y83
G1Z-4F200
Z-6
X-0.851F400
G0Z2
X1.548Y83.5
G1Z-4F200
Z-6
X-0.851F400
G0Z2
X1.948Y84
G1Z-4F200
Z-6
X-0.851F400
G0Z2
X2.148Y84.5
G1Z-4F200
Z-6
X-0.851F400
G0Z2
X2.76Y85
G1Z-4F200
X2.748Z-4.029
X2.548Z-6
X-0.851F400
G0Z2
X3.148Y85.5
G1Z-4F200
Z-6
X-0.851F400
G0Z2
X3.812Y86
G1Z-4F200
X3.748Z-4.091
X3.548Z-6
X-0.851F400
G0Z2
X4.543Y86.5
G1Z-4F200
X4.348Z-4.228
X4.148Z-6
X-0.851F400
G0Z2
X5.852Y87
G1Z-4F200
X5.748Z-4.01F400
X5.548Z-4.056
X5.348Z-4.133
X5.148Z-4.255F200
X4.948Z-4.453
X4.748Z-6
X-0.851F400
G0Z2
X148.349
G1Z-4.318F200
X148.149Z-4.173F400
X147.949Z-4.075
X147.749Z-4.015
X147.626Z-4
X147.755Y87.089Z-4.082
X147.884Y87.178Z-4.184F200
X148.013Y87.267Z-4.3
X148.142Y87.356Z-4.434
X148.271Y87.446Z-4.586
X148.349Y87.5Z-4.695
X148.149Z-4.544F400
X147.949Z-4.446
X147.749Z-4.386
X147.549Z-4.361
X147.349Z-4.36
X6.748Z-4.36
X6.548Z-4.365
X6.348Z-4.387
X6.148Z-4.432
X5.948Z-4.505
X5.748Z-4.623F200
X5.548Z-4.827
X5.348Z-6
X-0.851F400
G0Z2
X148.349Y88
G1Z-5.148F200
X148.149Z-4.992F400
X147.949Z-4.885
X147.749Z-4.82
X147.549Z-4.793
X147.349Z-4.792
X7.348Z-4.792
X7.148Z-4.794
X6.948Z-4.811
X6.748Z-4.855
X6.548Z-4.933
X6.348Z-5.067F200
X6.148Z-5.339
X5.948Z-6
X-0.851F400
G0Z2
X148.349Y88.5
G1Z-5.674F200
X148.149Z-5.501F400
X147.949Z-5.383
X147.749Z-5.312
X147.549Z-5.282
X147.349Z-5.281
X7.948Z-5.281
X7.748Z-5.288
X7.548Z-5.316
X7.348Z-5.38
X7.148Z-5.498F200
X6.948Z-5.728
X6.748Z-6
X-0.851F400
G0Z2
X148.349Y89
G1Z-6F200
X148.007F400
X147.949Z-5.962
X147.749Z-5.881
X147.549Z-5.847
X147.349Z-5.846
X8.748Z-5.846
X8.548Z-5.848
X8.348Z-5.88
X8.148Z-5.942
X8.053Z-6F200
X-0.851F400
G0Z2
X148.349Y89.5
G1Z-6F200
X-0.851F400
G0Z2
X148.349Y90
G1Z-6F200
X-0.851F400
G0Z2
X148.349Y90.5
G1Z-6F200
X-0.851F400
G0Z2
Y78.5
G1Z-6F200
Z-8
X-0.651Y79Z-6F400
Z-8F200
X-0.851F400
X-0.651Y79.5Z-6
Z-8F200
X-0.851F400
X-0.451Y80Z-6
Z-8F200
X-0.851F400
X-0.251Y80.5Z-6
Z-8F200
X-0.851F400
X0.148Y81Z-6
Z-8F200
X-0.851F400
X0.348Y81.5Z-6
Z-8F200
X-0.851F400
X0.548Y82Z-6
Z-8F200
X-0.851F400
G0Z2
X0.948Y82.5
G1Z-6F200
Z-8
X-0.851F400
G0Z2
X1.148Y83
G1Z-6F200
Z-8
X-0.851F400
G0Z2
X1.548Y83.5
G1Z-6F200
Z-8
X-0.851F400
G0Z2
X1.948Y84
G1Z-6F200
Z-8
X-0.851F400
G0Z2
X2.148Y84.5
G1Z-6F200
Z-8
X-0.851F400
G0Z2
X2.548Y85
G1Z-6F200
Z-8
X-0.851F400
G0Z2
X3.148Y85.5
G1Z-6F200
Z-8
X-0.851F400
G0Z2
X3.548Y86
G1Z-6F200
Z-8
X-0.851F400
G0Z2
X4.148Y86.5
G1Z-6F200
Z-8
X-0.851F400
G0Z2
X4.748Y87
G1Z-6F200
Z-8
X-0.851F400
G0Z2
X5.348Y87.5
G1Z-6F200
Z-8
X-0.851F400
G0Z2
X5.948Y88
G1Z-6F200
Z-8
X-0.851F400
G0Z2
X6.748Y88.5
G1Z-6F200
Z-8
X-0.851F400
G0Z2
X8.053Y89
G1Z-6F200
X7.948Z-6.063
X7.748Z-6.333
X7.548Z-8
X-0.851F400
G0Z2
X148.349
G1Z-6.289F200
X148.149Z-6.094F400
X148.007Z-6
X148.064Y89.083Z-6.143F200
X148.121Y89.166Z-6.297
X148.178Y89.25Z-6.456
X148.235Y89.333Z-6.622
X148.293Y89.417Z-6.823
X148.349Y89.5Z-7.033
X148.149Z-6.808F400
X147.949Z-6.654
X147.749Z-6.562
X147.549Z-6.525
X147.349Z-6.523
X9.748Z-6.523
X9.548Z-6.525
X9.348Z-6.551
X9.148Z-6.608
X8.948Z-6.724F200
X8.748Z-7.052
X8.548Z-8
X-0.851F400
G0Z2
X148.349Y90
G1Z-7.98F200
X148.149Z-7.709F400
X147.949Z-7.525
X147.749Z-7.412
X147.549Z-7.365
X147.349Z-7.363
X10.748Z-7.363
X10.548Z-7.37
X10.348Z-7.414
X10.148Z-7.51
X9.948Z-7.863F200
X9.748Z-8
X-0.851F400
G0Z2
X148.349Y90.5
G1Z-8F200
X-0.851F400
G0Z2
Y78.5
G1Z-7.999F200
Z-10
X-0.651Y79Z-8F400
Z-10F200
X-0.851F400
X-0.651Y79.5Z-7.999
Z-10F200
X-0.851F400
X-0.451Y80Z-8
Z-10F200
X-0.851F400
X-0.251Y80.5Z-8
Z-10F200
X-0.851F400
X0.148Y81Z-8
Z-10F200
X-0.851F400
X0.348Y81.5Z-7.999
Z-10F200
X-0.851F400
X0.548Y82Z-7.999
Z-10F200
X-0.851F400
G0Z2
X0.948Y82.5
G1Z-8F200
Z-10
X-0.851F400
G0Z2
X1.148Y83
G1Z-8F200
Z-10
X-0.851F400
G0Z2
X1.548Y83.5
G1Z-7.999F200
Z-10
X-0.851F400
G0Z2
X1.948Y84
G1Z-7.999F200
Z-10
X-0.851F400
G0Z2
X2.148Y84.5
G1Z-8F200
Z-10
X-0.851F400
G0Z2
X2.548Y85
G1Z-7.999F200
Z-10
X-0.851F400
G0Z2
X3.148Y85.5
G1Z-7.999F200
Z-10
X-0.851F400
G0Z2
X3.548Y86
G1Z-7.999F200
Z-10
X-0.851F400
G0Z2
X4.148Y86.5
G1Z-7.999F200
Z-10
X-0.851F400
G0Z2
X4.748Y87
G1Z-8F200
Z-10
X-0.851F400
G0Z2
X5.348Y87.5
G1Z-7.999F200
Z-10
X-0.851F400
G0Z2
X5.948Y88
G1Z-8F200
Z-10
X-0.851F400
G0Z2
X6.748Y88.5
G1Z-7.999F200
Z-10
X-0.851F400
G0Z2
X7.548Y89
G1Z-8F200
Z-10
X-0.851F400
G0Z2
X8.548Y89.5
G1Z-8F200
Z-10
X-0.851F400
G0Z2
X9.748Y90
G1Z-8F200
Z-10
X-0.851F400
G0Z2
X148.349Y90.5
G1Z-9.359F200
X148.149Z-8.942F400
X147.949Z-8.708
X147.749Z-8.565
X147.549Z-8.505
X147.349Z-8.503
X119.549
X119.349Z-8.503
X64.148Z-8.503
X12.148Z-8.503
X11.948Z-8.508
X11.748Z-8.553
X11.548Z-8.747F200
X11.348Z-10
X-0.851F400
G0Z2
Y78.5
G1Z-10F200
Z-10.049
X-0.651Y79Z-10F400
Z-10.049F200
X-0.851F400
X-0.651Y79.5Z-10
Z-10.049F200
X-0.851F400
X-0.451Y80Z-10
Z-10.049F200
X-0.851F400
X-0.251Y80.5Z-10
Z-10.049F200
X-0.851F400
X0.148Y81Z-10
Z-10.049F200
X-0.851F400
X0.348Y81.5Z-10
Z-10.049F200
X-0.851F400
X0.548Y82Z-10
Z-10.049F200
X-0.851F400
G0Z2
X0.948Y82.5
G1Z-10F200
Z-10.053
X0.748Z-10.05F400
X0.548Z-10.049
X-0.851
G0Z2
X1.148Y83
G1Z-10F200
Z-10.062
X0.348Z-10.051F400
X0.148Z-10.049
X-0.851
G0Z2
X1.548Y83.5
G1Z-10F200
Z-10.073
X-0.051Z-10.052F400
X-0.251Z-10.049
X-0.851
G0Z2
X1.948Y84
G1Z-10F200
Z-10.109
X1.548Z-10.085F400
X1.348Z-10.077
X-0.651Z-10.05
X-0.851Z-10.049
G0Z2
X2.148Y84.5
G1Z-10F200
Z-10.148
X1.148Z-10.088F400
X0.948Z-10.078
X-0.851Z-10.053
G0Z2
X2.548Y85
G1Z-10F200
Z-10.198
X0.548Z-10.08F400
X0.348Z-10.075
X-0.851Z-10.059
G0Z2
X3.148Y85.5
G1Z-10F200
Z-10.298
X2.348Z-10.217F400
X2.148Z-10.201
X0.148Z-10.082
X-0.051Z-10.076
X-0.851Z-10.065
G0Z2
X3.548Y86
G1Z-10F200
Z-10.384
X1.948Z-10.222F400
X1.748Z-10.205
X-0.251Z-10.086
X-0.451Z-10.077
X-0.851Z-10.071
G0Z2
X4.148Y86.5
G1Z-10F200
Z-10.511
X3.748Z-10.456F400
X3.548Z-10.43
X1.548Z-10.228
X1.348Z-10.208
X-0.651Z-10.089
X-0.851Z-10.078
G0Z2
X4.748Y87
G1Z-10F200
Z-10.653
X3.148Z-10.437F400
X2.948Z-10.415
X0.948Z-10.213
X0.748Z-10.199
X-0.851Z-10.104
G0Z2
X5.348Y87.5
G1Z-10F200
Z-10.813
X4.948Z-10.745F400
X4.748Z-10.715
X2.748Z-10.444
X2.548Z-10.421
X0.548Z-10.218
X0.348Z-10.202
X-0.851Z-10.131
G0Z2
X5.948Y88
G1Z-10F200
Z-10.993
X4.548Z-10.754F400
X4.348Z-10.722
X2.348Z-10.451
X2.148Z-10.426
X0.148Z-10.224
X-0.051Z-10.205
X-0.851Z-10.158
G0Z2
X6.748Y88.5
G1Z-10F200
Z-11.223
X6.148Z-11.104F400
X4.148Z-10.763
X3.948Z-10.729
X1.948Z-10.458
X1.748Z-10.432
X-0.251Z-10.229
X-0.451Z-10.209
X-0.651Z-10.197
X-0.851Z-10.185
G0Z2
X7.548Y89
G1Z-10F200
Z-11.47
X5.748Z-11.115F400
X5.548Z-11.079
X3.548Z-10.738
X3.348Z-10.709
X1.348Z-10.438
X1.148Z-10.416
X-0.851Z-10.214
G0Z2
X8.548Y89.5
G1Z-10F200
Z-11.794
X7.548Z-11.565F400
X7.348Z-11.52
X5.348Z-11.125
X5.148Z-11.088
X3.148Z-10.747
X2.948Z-10.716
X0.948Z-10.446
X0.748Z-10.422
X-0.851Z-10.26
G0Z2
X9.748Y90
G1Z-10F200
Z-12
X8.991F400
X8.948Z-11.989
X6.948Z-11.531
X4.948Z-11.136
X4.748Z-11.097
X2.748Z-10.756
X2.548Z-10.724
X0.548Z-10.453
X0.348Z-10.427
X-0.851Z-10.306
G0Z2
X11.348Y90.5
G1Z-10F200
Z-12
X8.54F400
X6.548Z-11.543
X6.348Z-11.502
X4.348Z-11.107
X2.348Z-10.765
X2.148Z-10.731
X0.148Z-10.46
X-0.051Z-10.433
X-0.251Z-10.412
X-0.851Z-10.352
G0Z2
X9.748Y90
G1Z-12F200
Z-12.19
X9.148Z-12.038F400
X8.991Z-12
G0Z2
X11.348Y90.5
G1Z-12F200
Z-12.734
X10.748Z-12.564F400
X10.548Z-12.509
X8.748Z-12.051
X8.54Z-12
G0Z2
 
