(Created with grbl post processor 2023/09/24 11:13)
G21
(G-code generated with BlenderCAM and NC library)
G17G90
(Tool: D = 3.0 mm  type END flutes 2)
S12000M03
G00 Z10.0

G0X0Y0Z10
X-0.313Y-1.467
G1Z-2F150
X-0.341Y-1.461F300
X-0.372Y-1.453
X-0.405Y-1.445
X-0.437Y-1.435
X-0.472Y-1.424
X-0.507Y-1.412
X-0.541Y-1.399
X-0.575Y-1.386
X-0.609Y-1.371
X-0.642Y-1.356
X-0.675Y-1.34
X-0.708Y-1.323
X-0.74Y-1.305
X-0.772Y-1.287
X-0.803Y-1.267
X-0.834Y-1.247
X-0.864Y-1.226
X-0.894Y-1.205
X-0.923Y-1.183
X-0.952Y-1.16
X-0.98Y-1.136
X-1.007Y-1.112
X-1.034Y-1.087
X-1.061Y-1.061
X-1.087Y-1.034
X-1.112Y-1.007
X-1.137Y-0.979
X-1.16Y-0.951
X-1.183Y-0.922
X-1.206Y-0.893
X-1.227Y-0.863
X-1.248Y-0.832
X-1.269Y-0.801
X-1.288Y-0.77
X-1.306Y-0.738
X-1.324Y-0.705
X-1.341Y-0.672
X-1.357Y-0.639
X-1.373Y-0.605
X-1.387Y-0.571
X-1.401Y-0.537
X-1.414Y-0.502
X-1.426Y-0.467
X-1.437Y-0.432
X-1.447Y-0.396
X-1.456Y-0.361
X-1.465Y-0.325
X-1.472Y-0.288
X-1.479Y-0.252
X-1.485Y-0.217
X-1.49Y-0.181
X-1.493Y-0.144
X-1.497Y-0.108
X-1.499Y-0.072
X-1.5Y-0.036
X-1.5Y0
Y73.6
X-1.5Y73.636
X-1.499Y73.673
X-1.422Y75.241
X-1.419Y75.283
X-1.416Y75.318
X-1.412Y75.353
X-1.407Y75.388
X-1.177Y76.941
X-1.17Y76.98
X-1.163Y77.02
X-1.155Y77.058
X-1.148Y77.086
X-0.767Y78.609
X-0.757Y78.646
X-0.746Y78.682
X-0.735Y78.719
X-0.724Y78.75
X-0.195Y80.228
X-0.181Y80.264
X-0.167Y80.3
X-0.153Y80.332
X-0.138Y80.364
X0.532Y81.784
X0.546Y81.813
X0.564Y81.847
X0.582Y81.881
X0.601Y81.914
X1.409Y83.26
X1.43Y83.295
X1.449Y83.324
X1.469Y83.354
X1.49Y83.383
X2.426Y84.644
X2.447Y84.672
X2.469Y84.7
X2.492Y84.727
X2.519Y84.758
X3.574Y85.921
X3.599Y85.948
X3.624Y85.975
X3.651Y86
X3.678Y86.025
X4.845Y87.083
X4.872Y87.107
X4.899Y87.13
X4.927Y87.152
X4.955Y87.173
X6.216Y88.109
X6.245Y88.13
X6.275Y88.15
X6.305Y88.169
X6.339Y88.19
X7.685Y88.998
X7.718Y89.017
X7.752Y89.035
X7.786Y89.053
X7.815Y89.067
X9.235Y89.738
X9.267Y89.753
X9.299Y89.767
X9.335Y89.781
X9.371Y89.795
X10.849Y90.324
X10.898Y90.34
X10.928Y90.35
X10.959Y90.358
X10.99Y90.367
X12.513Y90.748
X12.541Y90.755
X12.579Y90.763
X12.619Y90.77
X12.658Y90.777
X14.211Y91.007
X14.246Y91.012
X14.281Y91.016
X14.316Y91.019
X14.358Y91.022
X15.926Y91.099
X15.963Y91.1
X16Y91.101
X89.737Y91.1
X89.774Y91.1
X89.811Y91.099
X89.848Y91.096
X89.884Y91.093
X89.921Y91.089
X89.957Y91.084
X89.994Y91.078
X90.03Y91.072
X90.066Y91.064
X90.102Y91.056
X90.137Y91.046
X90.173Y91.036
X90.208Y91.025
X90.243Y91.013
X90.277Y91
X90.311Y90.986
X90.345Y90.972
X90.379Y90.956
X90.412Y90.94
X90.444Y90.923
X90.477Y90.906
X90.508Y90.887
X90.54Y90.868
X90.571Y90.848
X90.601Y90.827
X90.631Y90.805
X90.66Y90.783
X90.689Y90.76
X90.717Y90.736
X90.745Y90.712
X90.772Y90.687
X90.799Y90.66
X90.825Y90.634
X90.85Y90.607
X90.874Y90.579
X90.898Y90.551
X90.921Y90.522
X90.943Y90.493
X90.965Y90.463
X90.985Y90.433
X91.006Y90.402
X91.025Y90.371
X91.043Y90.339
X91.061Y90.307
X91.078Y90.274
X91.094Y90.241
X91.11Y90.207
X91.124Y90.174
X91.138Y90.139
X91.151Y90.105
X91.163Y90.07
X91.174Y90.035
X91.184Y90
X91.193Y89.964
X91.202Y89.928
X91.209Y89.892
X91.216Y89.856
X91.222Y89.82
X91.227Y89.783
X91.231Y89.747
X91.234Y89.71
X91.236Y89.673
X91.238Y89.636
X91.238Y89.603
X104.236
X104.237Y89.637
X104.238Y89.674
X104.24Y89.711
X104.244Y89.748
X104.248Y89.785
X104.253Y89.822
X104.259Y89.859
X104.266Y89.896
X104.274Y89.932
X104.282Y89.969
X104.292Y90.005
X104.302Y90.04
X104.314Y90.076
X104.326Y90.111
X104.339Y90.146
X104.353Y90.18
X104.368Y90.215
X104.384Y90.248
X104.4Y90.282
X104.418Y90.315
X104.436Y90.347
X104.455Y90.379
X104.475Y90.411
X104.495Y90.442
X104.517Y90.473
X104.539Y90.503
X104.561Y90.532
X104.585Y90.561
X104.609Y90.589
X104.634Y90.617
X104.66Y90.644
X104.686Y90.671
X104.714Y90.697
X104.741Y90.722
X104.768Y90.746
X104.796Y90.769
X104.825Y90.791
X104.854Y90.813
X104.884Y90.834
X104.914Y90.854
X104.944Y90.874
X104.975Y90.893
X105.007Y90.911
X105.039Y90.928
X105.071Y90.945
X105.104Y90.96
X105.137Y90.975
X105.171Y90.989
X105.204Y91.003
X105.238Y91.015
X105.273Y91.027
X105.308Y91.038
X105.342Y91.048
X105.378Y91.057
X105.413Y91.065
X105.449Y91.072
X105.484Y91.079
X105.52Y91.085
X105.556Y91.09
X105.592Y91.093
X105.628Y91.097
X105.665Y91.099
X105.701Y91.1
X105.737Y91.1
X113.504
X113.541Y91.1
X113.578Y91.099
X114.037Y91.076
X124.963
X125.422Y91.099
X125.459Y91.1
X125.496Y91.1
X147.5
X147.535Y91.1
X147.571Y91.099
X147.606Y91.097
X147.642Y91.094
X147.677Y91.09
X147.713Y91.085
X147.748Y91.08
X147.783Y91.073
X147.819Y91.066
X147.854Y91.058
X147.889Y91.049
X147.924Y91.039
X147.958Y91.029
X147.992Y91.017
X148.026Y91.005
X148.06Y90.992
X148.093Y90.978
X148.126Y90.963
X148.159Y90.948
X148.191Y90.932
X148.223Y90.914
X148.255Y90.897
X148.286Y90.878
X148.316Y90.859
X148.346Y90.839
X148.376Y90.818
X148.405Y90.797
X148.434Y90.774
X148.462Y90.752
X148.489Y90.728
X148.516Y90.704
X148.542Y90.679
X148.568Y90.653
X148.594Y90.627
X148.618Y90.6
X148.642Y90.572
X148.666Y90.544
X148.688Y90.516
X148.71Y90.486
X148.732Y90.457
X148.752Y90.426
X148.772Y90.396
X148.791Y90.364
X148.809Y90.333
X148.827Y90.301
X148.843Y90.268
X148.859Y90.235
X148.874Y90.202
X148.889Y90.168
X148.902Y90.134
X148.915Y90.1
X148.926Y90.065
X148.937Y90.03
X148.947Y89.995
X148.957Y89.96
X148.965Y89.924
X148.972Y89.888
X148.979Y89.852
X148.985Y89.817
X148.99Y89.781
X148.993Y89.744
X148.997Y89.708
X148.999Y89.672
X149Y89.636
X149.001Y89.599
X149Y0
X149Y-0.036
X148.999Y-0.072
X148.997Y-0.108
X148.993Y-0.144
X148.99Y-0.181
X148.985Y-0.217
X148.979Y-0.252
X148.972Y-0.289
X148.965Y-0.325
X148.956Y-0.361
X148.947Y-0.396
X148.937Y-0.432
X148.926Y-0.467
X148.914Y-0.502
X148.901Y-0.537
X148.888Y-0.571
X148.873Y-0.605
X148.858Y-0.638
X148.842Y-0.672
X148.825Y-0.704
X148.807Y-0.737
X148.788Y-0.769
X148.769Y-0.8
X148.749Y-0.831
X148.728Y-0.862
X148.707Y-0.892
X148.684Y-0.921
X148.661Y-0.95
X148.638Y-0.978
X148.613Y-1.006
X148.588Y-1.033
X148.562Y-1.06
X148.535Y-1.086
X148.508Y-1.111
X148.481Y-1.135
X148.453Y-1.159
X148.424Y-1.182
X148.394Y-1.205
X148.364Y-1.226
X148.334Y-1.247
X148.303Y-1.267
X148.272Y-1.287
X148.24Y-1.305
X148.207Y-1.323
X148.175Y-1.34
X148.141Y-1.356
X148.108Y-1.372
X148.074Y-1.386
X148.04Y-1.4
X148.005Y-1.413
X147.97Y-1.425
X147.935Y-1.436
X147.899Y-1.446
X147.863Y-1.456
X147.83Y-1.464
X147.796Y-1.471
X147.762Y-1.477
X147.727Y-1.483
X147.693Y-1.488
X147.659Y-1.492
X147.624Y-1.495
X147.583Y-1.498
X147.541Y-1.5
X147.499Y-1.501
X0Y-1.5
X-0.037Y-1.5
X-0.074Y-1.499
X-0.111Y-1.496
X-0.148Y-1.493
X-0.185Y-1.489
X-0.222Y-1.484
X-0.259Y-1.478
X-0.295Y-1.471
X-0.313Y-1.467
Z-4F150
X-0.341Y-1.461F300
X-0.372Y-1.453
X-0.405Y-1.445
X-0.437Y-1.435
X-0.472Y-1.424
X-0.507Y-1.412
X-0.541Y-1.399
X-0.575Y-1.386
X-0.609Y-1.371
X-0.642Y-1.356
X-0.675Y-1.34
X-0.708Y-1.323
X-0.74Y-1.305
X-0.772Y-1.287
X-0.803Y-1.267
X-0.834Y-1.247
X-0.864Y-1.226
X-0.894Y-1.205
X-0.923Y-1.183
X-0.952Y-1.16
X-0.98Y-1.136
X-1.007Y-1.112
X-1.034Y-1.087
X-1.061Y-1.061
X-1.087Y-1.034
X-1.112Y-1.007
X-1.137Y-0.979
X-1.16Y-0.951
X-1.183Y-0.922
X-1.206Y-0.893
X-1.227Y-0.863
X-1.248Y-0.832
X-1.269Y-0.801
X-1.288Y-0.77
X-1.306Y-0.738
X-1.324Y-0.705
X-1.341Y-0.672
X-1.357Y-0.639
X-1.373Y-0.605
X-1.387Y-0.571
X-1.401Y-0.537
X-1.414Y-0.502
X-1.426Y-0.467
X-1.437Y-0.432
X-1.447Y-0.396
X-1.456Y-0.361
X-1.465Y-0.325
X-1.472Y-0.288
X-1.479Y-0.252
X-1.485Y-0.217
X-1.49Y-0.181
X-1.493Y-0.144
X-1.497Y-0.108
X-1.499Y-0.072
X-1.5Y-0.036
X-1.5Y0
Y73.6
X-1.5Y73.636
X-1.499Y73.673
X-1.422Y75.241
X-1.419Y75.283
X-1.416Y75.318
X-1.412Y75.353
X-1.407Y75.388
X-1.177Y76.941
X-1.17Y76.98
X-1.163Y77.02
X-1.155Y77.058
X-1.148Y77.086
X-0.767Y78.609
X-0.757Y78.646
X-0.746Y78.682
X-0.735Y78.719
X-0.724Y78.75
X-0.195Y80.228
X-0.181Y80.264
X-0.167Y80.3
X-0.153Y80.332
X-0.138Y80.364
X0.532Y81.784
X0.546Y81.813
X0.564Y81.847
X0.582Y81.881
X0.601Y81.914
X1.409Y83.26
X1.43Y83.295
X1.449Y83.324
X1.469Y83.354
X1.49Y83.383
X2.426Y84.644
X2.447Y84.672
X2.469Y84.7
X2.492Y84.727
X2.519Y84.758
X3.574Y85.921
X3.599Y85.948
X3.624Y85.975
X3.651Y86
X3.678Y86.025
X4.845Y87.083
X4.872Y87.107
X4.899Y87.13
X4.927Y87.152
X4.955Y87.173
X6.216Y88.109
X6.245Y88.13
X6.275Y88.15
X6.305Y88.169
X6.339Y88.19
X7.685Y88.998
X7.718Y89.017
X7.752Y89.035
X7.786Y89.053
X7.815Y89.067
X9.235Y89.738
X9.267Y89.753
X9.299Y89.767
X9.335Y89.781
X9.371Y89.795
X10.849Y90.324
X10.898Y90.34
X10.928Y90.35
X10.959Y90.358
X10.99Y90.367
X12.513Y90.748
X12.541Y90.755
X12.579Y90.763
X12.619Y90.77
X12.658Y90.777
X14.211Y91.007
X14.246Y91.012
X14.281Y91.016
X14.316Y91.019
X14.358Y91.022
X15.926Y91.099
X15.963Y91.1
X16Y91.101
X89.737Y91.1
X89.774Y91.1
X89.811Y91.099
X89.848Y91.096
X89.884Y91.093
X89.921Y91.089
X89.957Y91.084
X89.994Y91.078
X90.03Y91.072
X90.066Y91.064
X90.102Y91.056
X90.137Y91.046
X90.173Y91.036
X90.208Y91.025
X90.243Y91.013
X90.277Y91
X90.311Y90.986
X90.345Y90.972
X90.379Y90.956
X90.412Y90.94
X90.444Y90.923
X90.477Y90.906
X90.508Y90.887
X90.54Y90.868
X90.571Y90.848
X90.601Y90.827
X90.631Y90.805
X90.66Y90.783
X90.689Y90.76
X90.717Y90.736
X90.745Y90.712
X90.772Y90.687
X90.799Y90.66
X90.825Y90.634
X90.85Y90.607
X90.874Y90.579
X90.898Y90.551
X90.921Y90.522
X90.943Y90.493
X90.965Y90.463
X90.985Y90.433
X91.006Y90.402
X91.025Y90.371
X91.043Y90.339
X91.061Y90.307
X91.078Y90.274
X91.094Y90.241
X91.11Y90.207
X91.124Y90.174
X91.138Y90.139
X91.151Y90.105
X91.163Y90.07
X91.174Y90.035
X91.184Y90
X91.193Y89.964
X91.202Y89.928
X91.209Y89.892
X91.216Y89.856
X91.222Y89.82
X91.227Y89.783
X91.231Y89.747
X91.234Y89.71
X91.236Y89.673
X91.238Y89.636
X91.238Y89.603
X104.236
X104.237Y89.637
X104.238Y89.674
X104.24Y89.711
X104.244Y89.748
X104.248Y89.785
X104.253Y89.822
X104.259Y89.859
X104.266Y89.896
X104.274Y89.932
X104.282Y89.969
X104.292Y90.005
X104.302Y90.04
X104.314Y90.076
X104.326Y90.111
X104.339Y90.146
X104.353Y90.18
X104.368Y90.215
X104.384Y90.248
X104.4Y90.282
X104.418Y90.315
X104.436Y90.347
X104.455Y90.379
X104.475Y90.411
X104.495Y90.442
X104.517Y90.473
X104.539Y90.503
X104.561Y90.532
X104.585Y90.561
X104.609Y90.589
X104.634Y90.617
X104.66Y90.644
X104.686Y90.671
X104.714Y90.697
X104.741Y90.722
X104.768Y90.746
X104.796Y90.769
X104.825Y90.791
X104.854Y90.813
X104.884Y90.834
X104.914Y90.854
X104.944Y90.874
X104.975Y90.893
X105.007Y90.911
X105.039Y90.928
X105.071Y90.945
X105.104Y90.96
X105.137Y90.975
X105.171Y90.989
X105.204Y91.003
X105.238Y91.015
X105.273Y91.027
X105.308Y91.038
X105.342Y91.048
X105.378Y91.057
X105.413Y91.065
X105.449Y91.072
X105.484Y91.079
X105.52Y91.085
X105.556Y91.09
X105.592Y91.093
X105.628Y91.097
X105.665Y91.099
X105.701Y91.1
X105.737Y91.1
X113.504
X113.541Y91.1
X113.578Y91.099
X114.037Y91.076
X124.963
X125.422Y91.099
X125.459Y91.1
X125.496Y91.1
X147.5
X147.535Y91.1
X147.571Y91.099
X147.606Y91.097
X147.642Y91.094
X147.677Y91.09
X147.713Y91.085
X147.748Y91.08
X147.783Y91.073
X147.819Y91.066
X147.854Y91.058
X147.889Y91.049
X147.924Y91.039
X147.958Y91.029
X147.992Y91.017
X148.026Y91.005
X148.06Y90.992
X148.093Y90.978
X148.126Y90.963
X148.159Y90.948
X148.191Y90.932
X148.223Y90.914
X148.255Y90.897
X148.286Y90.878
X148.316Y90.859
X148.346Y90.839
X148.376Y90.818
X148.405Y90.797
X148.434Y90.774
X148.462Y90.752
X148.489Y90.728
X148.516Y90.704
X148.542Y90.679
X148.568Y90.653
X148.594Y90.627
X148.618Y90.6
X148.642Y90.572
X148.666Y90.544
X148.688Y90.516
X148.71Y90.486
X148.732Y90.457
X148.752Y90.426
X148.772Y90.396
X148.791Y90.364
X148.809Y90.333
X148.827Y90.301
X148.843Y90.268
X148.859Y90.235
X148.874Y90.202
X148.889Y90.168
X148.902Y90.134
X148.915Y90.1
X148.926Y90.065
X148.937Y90.03
X148.947Y89.995
X148.957Y89.96
X148.965Y89.924
X148.972Y89.888
X148.979Y89.852
X148.985Y89.817
X148.99Y89.781
X148.993Y89.744
X148.997Y89.708
X148.999Y89.672
X149Y89.636
X149.001Y89.599
X149Y0
X149Y-0.036
X148.999Y-0.072
X148.997Y-0.108
X148.993Y-0.144
X148.99Y-0.181
X148.985Y-0.217
X148.979Y-0.252
X148.972Y-0.289
X148.965Y-0.325
X148.956Y-0.361
X148.947Y-0.396
X148.937Y-0.432
X148.926Y-0.467
X148.914Y-0.502
X148.901Y-0.537
X148.888Y-0.571
X148.873Y-0.605
X148.858Y-0.638
X148.842Y-0.672
X148.825Y-0.704
X148.807Y-0.737
X148.788Y-0.769
X148.769Y-0.8
X148.749Y-0.831
X148.728Y-0.862
X148.707Y-0.892
X148.684Y-0.921
X148.661Y-0.95
X148.638Y-0.978
X148.613Y-1.006
X148.588Y-1.033
X148.562Y-1.06
X148.535Y-1.086
X148.508Y-1.111
X148.481Y-1.135
X148.453Y-1.159
X148.424Y-1.182
X148.394Y-1.205
X148.364Y-1.226
X148.334Y-1.247
X148.303Y-1.267
X148.272Y-1.287
X148.24Y-1.305
X148.207Y-1.323
X148.175Y-1.34
X148.141Y-1.356
X148.108Y-1.372
X148.074Y-1.386
X148.04Y-1.4
X148.005Y-1.413
X147.97Y-1.425
X147.935Y-1.436
X147.899Y-1.446
X147.863Y-1.456
X147.83Y-1.464
X147.796Y-1.471
X147.762Y-1.477
X147.727Y-1.483
X147.693Y-1.488
X147.659Y-1.492
X147.624Y-1.495
X147.583Y-1.498
X147.541Y-1.5
X147.499Y-1.501
X0Y-1.5
X-0.037Y-1.5
X-0.074Y-1.499
X-0.111Y-1.496
X-0.148Y-1.493
X-0.185Y-1.489
X-0.222Y-1.484
X-0.259Y-1.478
X-0.295Y-1.471
X-0.313Y-1.467
Z-6F150
X-0.341Y-1.461F300
X-0.372Y-1.453
X-0.405Y-1.445
X-0.437Y-1.435
X-0.472Y-1.424
X-0.507Y-1.412
X-0.541Y-1.399
X-0.575Y-1.386
X-0.609Y-1.371
X-0.642Y-1.356
X-0.675Y-1.34
X-0.708Y-1.323
X-0.74Y-1.305
X-0.772Y-1.287
X-0.803Y-1.267
X-0.834Y-1.247
X-0.864Y-1.226
X-0.894Y-1.205
X-0.923Y-1.183
X-0.952Y-1.16
X-0.98Y-1.136
X-1.007Y-1.112
X-1.034Y-1.087
X-1.061Y-1.061
X-1.087Y-1.034
X-1.112Y-1.007
X-1.137Y-0.979
X-1.16Y-0.951
X-1.183Y-0.922
X-1.206Y-0.893
X-1.227Y-0.863
X-1.248Y-0.832
X-1.269Y-0.801
X-1.288Y-0.77
X-1.306Y-0.738
X-1.324Y-0.705
X-1.341Y-0.672
X-1.357Y-0.639
X-1.373Y-0.605
X-1.387Y-0.571
X-1.401Y-0.537
X-1.414Y-0.502
X-1.426Y-0.467
X-1.437Y-0.432
X-1.447Y-0.396
X-1.456Y-0.361
X-1.465Y-0.325
X-1.472Y-0.288
X-1.479Y-0.252
X-1.485Y-0.217
X-1.49Y-0.181
X-1.493Y-0.144
X-1.497Y-0.108
X-1.499Y-0.072
X-1.5Y-0.036
X-1.5Y0
Y73.6
X-1.5Y73.636
X-1.499Y73.673
X-1.422Y75.241
X-1.419Y75.283
X-1.416Y75.318
X-1.412Y75.353
X-1.407Y75.388
X-1.177Y76.941
X-1.17Y76.98
X-1.163Y77.02
X-1.155Y77.058
X-1.148Y77.086
X-0.767Y78.609
X-0.757Y78.646
X-0.746Y78.682
X-0.735Y78.719
X-0.724Y78.75
X-0.195Y80.228
X-0.181Y80.264
X-0.167Y80.3
X-0.153Y80.332
X-0.138Y80.364
X0.532Y81.784
X0.546Y81.813
X0.564Y81.847
X0.582Y81.881
X0.601Y81.914
X1.409Y83.26
X1.43Y83.295
X1.449Y83.324
X1.469Y83.354
X1.49Y83.383
X2.426Y84.644
X2.447Y84.672
X2.469Y84.7
X2.492Y84.727
X2.519Y84.758
X3.574Y85.921
X3.599Y85.948
X3.624Y85.975
X3.651Y86
X3.678Y86.025
X4.845Y87.083
X4.872Y87.107
X4.899Y87.13
X4.927Y87.152
X4.955Y87.173
X6.216Y88.109
X6.245Y88.13
X6.275Y88.15
X6.305Y88.169
X6.339Y88.19
X7.685Y88.998
X7.718Y89.017
X7.752Y89.035
X7.786Y89.053
X7.815Y89.067
X9.235Y89.738
X9.267Y89.753
X9.299Y89.767
X9.335Y89.781
X9.371Y89.795
X10.849Y90.324
X10.898Y90.34
X10.928Y90.35
X10.959Y90.358
X10.99Y90.367
X12.513Y90.748
X12.541Y90.755
X12.579Y90.763
X12.619Y90.77
X12.658Y90.777
X14.211Y91.007
X14.246Y91.012
X14.281Y91.016
X14.316Y91.019
X14.358Y91.022
X15.926Y91.099
X15.963Y91.1
X16Y91.101
X89.737Y91.1
X89.774Y91.1
X89.811Y91.099
X89.848Y91.096
X89.884Y91.093
X89.921Y91.089
X89.957Y91.084
X89.994Y91.078
X90.03Y91.072
X90.066Y91.064
X90.102Y91.056
X90.137Y91.046
X90.173Y91.036
X90.208Y91.025
X90.243Y91.013
X90.277Y91
X90.311Y90.986
X90.345Y90.972
X90.379Y90.956
X90.412Y90.94
X90.444Y90.923
X90.477Y90.906
X90.508Y90.887
X90.54Y90.868
X90.571Y90.848
X90.601Y90.827
X90.631Y90.805
X90.66Y90.783
X90.689Y90.76
X90.717Y90.736
X90.745Y90.712
X90.772Y90.687
X90.799Y90.66
X90.825Y90.634
X90.85Y90.607
X90.874Y90.579
X90.898Y90.551
X90.921Y90.522
X90.943Y90.493
X90.965Y90.463
X90.985Y90.433
X91.006Y90.402
X91.025Y90.371
X91.043Y90.339
X91.061Y90.307
X91.078Y90.274
X91.094Y90.241
X91.11Y90.207
X91.124Y90.174
X91.138Y90.139
X91.151Y90.105
X91.163Y90.07
X91.174Y90.035
X91.184Y90
X91.193Y89.964
X91.202Y89.928
X91.209Y89.892
X91.216Y89.856
X91.222Y89.82
X91.227Y89.783
X91.231Y89.747
X91.234Y89.71
X91.236Y89.673
X91.238Y89.636
X91.238Y89.603
X104.236
X104.237Y89.637
X104.238Y89.674
X104.24Y89.711
X104.244Y89.748
X104.248Y89.785
X104.253Y89.822
X104.259Y89.859
X104.266Y89.896
X104.274Y89.932
X104.282Y89.969
X104.292Y90.005
X104.302Y90.04
X104.314Y90.076
X104.326Y90.111
X104.339Y90.146
X104.353Y90.18
X104.368Y90.215
X104.384Y90.248
X104.4Y90.282
X104.418Y90.315
X104.436Y90.347
X104.455Y90.379
X104.475Y90.411
X104.495Y90.442
X104.517Y90.473
X104.539Y90.503
X104.561Y90.532
X104.585Y90.561
X104.609Y90.589
X104.634Y90.617
X104.66Y90.644
X104.686Y90.671
X104.714Y90.697
X104.741Y90.722
X104.768Y90.746
X104.796Y90.769
X104.825Y90.791
X104.854Y90.813
X104.884Y90.834
X104.914Y90.854
X104.944Y90.874
X104.975Y90.893
X105.007Y90.911
X105.039Y90.928
X105.071Y90.945
X105.104Y90.96
X105.137Y90.975
X105.171Y90.989
X105.204Y91.003
X105.238Y91.015
X105.273Y91.027
X105.308Y91.038
X105.342Y91.048
X105.378Y91.057
X105.413Y91.065
X105.449Y91.072
X105.484Y91.079
X105.52Y91.085
X105.556Y91.09
X105.592Y91.093
X105.628Y91.097
X105.665Y91.099
X105.701Y91.1
X105.737Y91.1
X113.504
X113.541Y91.1
X113.578Y91.099
X114.037Y91.076
X124.963
X125.422Y91.099
X125.459Y91.1
X125.496Y91.1
X147.5
X147.535Y91.1
X147.571Y91.099
X147.606Y91.097
X147.642Y91.094
X147.677Y91.09
X147.713Y91.085
X147.748Y91.08
X147.783Y91.073
X147.819Y91.066
X147.854Y91.058
X147.889Y91.049
X147.924Y91.039
X147.958Y91.029
X147.992Y91.017
X148.026Y91.005
X148.06Y90.992
X148.093Y90.978
X148.126Y90.963
X148.159Y90.948
X148.191Y90.932
X148.223Y90.914
X148.255Y90.897
X148.286Y90.878
X148.316Y90.859
X148.346Y90.839
X148.376Y90.818
X148.405Y90.797
X148.434Y90.774
X148.462Y90.752
X148.489Y90.728
X148.516Y90.704
X148.542Y90.679
X148.568Y90.653
X148.594Y90.627
X148.618Y90.6
X148.642Y90.572
X148.666Y90.544
X148.688Y90.516
X148.71Y90.486
X148.732Y90.457
X148.752Y90.426
X148.772Y90.396
X148.791Y90.364
X148.809Y90.333
X148.827Y90.301
X148.843Y90.268
X148.859Y90.235
X148.874Y90.202
X148.889Y90.168
X148.902Y90.134
X148.915Y90.1
X148.926Y90.065
X148.937Y90.03
X148.947Y89.995
X148.957Y89.96
X148.965Y89.924
X148.972Y89.888
X148.979Y89.852
X148.985Y89.817
X148.99Y89.781
X148.993Y89.744
X148.997Y89.708
X148.999Y89.672
X149Y89.636
X149.001Y89.599
X149Y0
X149Y-0.036
X148.999Y-0.072
X148.997Y-0.108
X148.993Y-0.144
X148.99Y-0.181
X148.985Y-0.217
X148.979Y-0.252
X148.972Y-0.289
X148.965Y-0.325
X148.956Y-0.361
X148.947Y-0.396
X148.937Y-0.432
X148.926Y-0.467
X148.914Y-0.502
X148.901Y-0.537
X148.888Y-0.571
X148.873Y-0.605
X148.858Y-0.638
X148.842Y-0.672
X148.825Y-0.704
X148.807Y-0.737
X148.788Y-0.769
X148.769Y-0.8
X148.749Y-0.831
X148.728Y-0.862
X148.707Y-0.892
X148.684Y-0.921
X148.661Y-0.95
X148.638Y-0.978
X148.613Y-1.006
X148.588Y-1.033
X148.562Y-1.06
X148.535Y-1.086
X148.508Y-1.111
X148.481Y-1.135
X148.453Y-1.159
X148.424Y-1.182
X148.394Y-1.205
X148.364Y-1.226
X148.334Y-1.247
X148.303Y-1.267
X148.272Y-1.287
X148.24Y-1.305
X148.207Y-1.323
X148.175Y-1.34
X148.141Y-1.356
X148.108Y-1.372
X148.074Y-1.386
X148.04Y-1.4
X148.005Y-1.413
X147.97Y-1.425
X147.935Y-1.436
X147.899Y-1.446
X147.863Y-1.456
X147.83Y-1.464
X147.796Y-1.471
X147.762Y-1.477
X147.727Y-1.483
X147.693Y-1.488
X147.659Y-1.492
X147.624Y-1.495
X147.583Y-1.498
X147.541Y-1.5
X147.499Y-1.501
X0Y-1.5
X-0.037Y-1.5
X-0.074Y-1.499
X-0.111Y-1.496
X-0.148Y-1.493
X-0.185Y-1.489
X-0.222Y-1.484
X-0.259Y-1.478
X-0.295Y-1.471
X-0.313Y-1.467
Z-8F150
X-0.341Y-1.461F300
X-0.372Y-1.453
X-0.405Y-1.445
X-0.437Y-1.435
X-0.472Y-1.424
X-0.507Y-1.412
X-0.541Y-1.399
X-0.575Y-1.386
X-0.609Y-1.371
X-0.642Y-1.356
X-0.675Y-1.34
X-0.708Y-1.323
X-0.74Y-1.305
X-0.772Y-1.287
X-0.803Y-1.267
X-0.834Y-1.247
X-0.864Y-1.226
X-0.894Y-1.205
X-0.923Y-1.183
X-0.952Y-1.16
X-0.98Y-1.136
X-1.007Y-1.112
X-1.034Y-1.087
X-1.061Y-1.061
X-1.087Y-1.034
X-1.112Y-1.007
X-1.137Y-0.979
X-1.16Y-0.951
X-1.183Y-0.922
X-1.206Y-0.893
X-1.227Y-0.863
X-1.248Y-0.832
X-1.269Y-0.801
X-1.288Y-0.77
X-1.306Y-0.738
X-1.324Y-0.705
X-1.341Y-0.672
X-1.357Y-0.639
X-1.373Y-0.605
X-1.387Y-0.571
X-1.401Y-0.537
X-1.414Y-0.502
X-1.426Y-0.467
X-1.437Y-0.432
X-1.447Y-0.396
X-1.456Y-0.361
X-1.465Y-0.325
X-1.472Y-0.288
X-1.479Y-0.252
X-1.485Y-0.217
X-1.49Y-0.181
X-1.493Y-0.144
X-1.497Y-0.108
X-1.499Y-0.072
X-1.5Y-0.036
X-1.5Y0
Y73.6
X-1.5Y73.636
X-1.499Y73.673
X-1.422Y75.241
X-1.419Y75.283
X-1.416Y75.318
X-1.412Y75.353
X-1.407Y75.388
X-1.177Y76.941
X-1.17Y76.98
X-1.163Y77.02
X-1.155Y77.058
X-1.148Y77.086
X-0.767Y78.609
X-0.757Y78.646
X-0.746Y78.682
X-0.735Y78.719
X-0.724Y78.75
X-0.195Y80.228
X-0.181Y80.264
X-0.167Y80.3
X-0.153Y80.332
X-0.138Y80.364
X0.532Y81.784
X0.546Y81.813
X0.564Y81.847
X0.582Y81.881
X0.601Y81.914
X1.409Y83.26
X1.43Y83.295
X1.449Y83.324
X1.469Y83.354
X1.49Y83.383
X2.426Y84.644
X2.447Y84.672
X2.469Y84.7
X2.492Y84.727
X2.519Y84.758
X3.574Y85.921
X3.599Y85.948
X3.624Y85.975
X3.651Y86
X3.678Y86.025
X4.845Y87.083
X4.872Y87.107
X4.899Y87.13
X4.927Y87.152
X4.955Y87.173
X6.216Y88.109
X6.245Y88.13
X6.275Y88.15
X6.305Y88.169
X6.339Y88.19
X7.685Y88.998
X7.718Y89.017
X7.752Y89.035
X7.786Y89.053
X7.815Y89.067
X9.235Y89.738
X9.267Y89.753
X9.299Y89.767
X9.335Y89.781
X9.371Y89.795
X10.849Y90.324
X10.898Y90.34
X10.928Y90.35
X10.959Y90.358
X10.99Y90.367
X12.513Y90.748
X12.541Y90.755
X12.579Y90.763
X12.619Y90.77
X12.658Y90.777
X14.211Y91.007
X14.246Y91.012
X14.281Y91.016
X14.316Y91.019
X14.358Y91.022
X15.926Y91.099
X15.963Y91.1
X16Y91.101
X89.737Y91.1
X89.774Y91.1
X89.811Y91.099
X89.848Y91.096
X89.884Y91.093
X89.921Y91.089
X89.957Y91.084
X89.994Y91.078
X90.03Y91.072
X90.066Y91.064
X90.102Y91.056
X90.137Y91.046
X90.173Y91.036
X90.208Y91.025
X90.243Y91.013
X90.277Y91
X90.311Y90.986
X90.345Y90.972
X90.379Y90.956
X90.412Y90.94
X90.444Y90.923
X90.477Y90.906
X90.508Y90.887
X90.54Y90.868
X90.571Y90.848
X90.601Y90.827
X90.631Y90.805
X90.66Y90.783
X90.689Y90.76
X90.717Y90.736
X90.745Y90.712
X90.772Y90.687
X90.799Y90.66
X90.825Y90.634
X90.85Y90.607
X90.874Y90.579
X90.898Y90.551
X90.921Y90.522
X90.943Y90.493
X90.965Y90.463
X90.985Y90.433
X91.006Y90.402
X91.025Y90.371
X91.043Y90.339
X91.061Y90.307
X91.078Y90.274
X91.094Y90.241
X91.11Y90.207
X91.124Y90.174
X91.138Y90.139
X91.151Y90.105
X91.163Y90.07
X91.174Y90.035
X91.184Y90
X91.193Y89.964
X91.202Y89.928
X91.209Y89.892
X91.216Y89.856
X91.222Y89.82
X91.227Y89.783
X91.231Y89.747
X91.234Y89.71
X91.236Y89.673
X91.238Y89.636
X91.238Y89.603
X104.236
X104.237Y89.637
X104.238Y89.674
X104.24Y89.711
X104.244Y89.748
X104.248Y89.785
X104.253Y89.822
X104.259Y89.859
X104.266Y89.896
X104.274Y89.932
X104.282Y89.969
X104.292Y90.005
X104.302Y90.04
X104.314Y90.076
X104.326Y90.111
X104.339Y90.146
X104.353Y90.18
X104.368Y90.215
X104.384Y90.248
X104.4Y90.282
X104.418Y90.315
X104.436Y90.347
X104.455Y90.379
X104.475Y90.411
X104.495Y90.442
X104.517Y90.473
X104.539Y90.503
X104.561Y90.532
X104.585Y90.561
X104.609Y90.589
X104.634Y90.617
X104.66Y90.644
X104.686Y90.671
X104.714Y90.697
X104.741Y90.722
X104.768Y90.746
X104.796Y90.769
X104.825Y90.791
X104.854Y90.813
X104.884Y90.834
X104.914Y90.854
X104.944Y90.874
X104.975Y90.893
X105.007Y90.911
X105.039Y90.928
X105.071Y90.945
X105.104Y90.96
X105.137Y90.975
X105.171Y90.989
X105.204Y91.003
X105.238Y91.015
X105.273Y91.027
X105.308Y91.038
X105.342Y91.048
X105.378Y91.057
X105.413Y91.065
X105.449Y91.072
X105.484Y91.079
X105.52Y91.085
X105.556Y91.09
X105.592Y91.093
X105.628Y91.097
X105.665Y91.099
X105.701Y91.1
X105.737Y91.1
X113.504
X113.541Y91.1
X113.578Y91.099
X114.037Y91.076
X124.963
X125.422Y91.099
X125.459Y91.1
X125.496Y91.1
X147.5
X147.535Y91.1
X147.571Y91.099
X147.606Y91.097
X147.642Y91.094
X147.677Y91.09
X147.713Y91.085
X147.748Y91.08
X147.783Y91.073
X147.819Y91.066
X147.854Y91.058
X147.889Y91.049
X147.924Y91.039
X147.958Y91.029
X147.992Y91.017
X148.026Y91.005
X148.06Y90.992
X148.093Y90.978
X148.126Y90.963
X148.159Y90.948
X148.191Y90.932
X148.223Y90.914
X148.255Y90.897
X148.286Y90.878
X148.316Y90.859
X148.346Y90.839
X148.376Y90.818
X148.405Y90.797
X148.434Y90.774
X148.462Y90.752
X148.489Y90.728
X148.516Y90.704
X148.542Y90.679
X148.568Y90.653
X148.594Y90.627
X148.618Y90.6
X148.642Y90.572
X148.666Y90.544
X148.688Y90.516
X148.71Y90.486
X148.732Y90.457
X148.752Y90.426
X148.772Y90.396
X148.791Y90.364
X148.809Y90.333
X148.827Y90.301
X148.843Y90.268
X148.859Y90.235
X148.874Y90.202
X148.889Y90.168
X148.902Y90.134
X148.915Y90.1
X148.926Y90.065
X148.937Y90.03
X148.947Y89.995
X148.957Y89.96
X148.965Y89.924
X148.972Y89.888
X148.979Y89.852
X148.985Y89.817
X148.99Y89.781
X148.993Y89.744
X148.997Y89.708
X148.999Y89.672
X149Y89.636
X149.001Y89.599
X149Y0
X149Y-0.036
X148.999Y-0.072
X148.997Y-0.108
X148.993Y-0.144
X148.99Y-0.181
X148.985Y-0.217
X148.979Y-0.252
X148.972Y-0.289
X148.965Y-0.325
X148.956Y-0.361
X148.947Y-0.396
X148.937Y-0.432
X148.926Y-0.467
X148.914Y-0.502
X148.901Y-0.537
X148.888Y-0.571
X148.873Y-0.605
X148.858Y-0.638
X148.842Y-0.672
X148.825Y-0.704
X148.807Y-0.737
X148.788Y-0.769
X148.769Y-0.8
X148.749Y-0.831
X148.728Y-0.862
X148.707Y-0.892
X148.684Y-0.921
X148.661Y-0.95
X148.638Y-0.978
X148.613Y-1.006
X148.588Y-1.033
X148.562Y-1.06
X148.535Y-1.086
X148.508Y-1.111
X148.481Y-1.135
X148.453Y-1.159
X148.424Y-1.182
X148.394Y-1.205
X148.364Y-1.226
X148.334Y-1.247
X148.303Y-1.267
X148.272Y-1.287
X148.24Y-1.305
X148.207Y-1.323
X148.175Y-1.34
X148.141Y-1.356
X148.108Y-1.372
X148.074Y-1.386
X148.04Y-1.4
X148.005Y-1.413
X147.97Y-1.425
X147.935Y-1.436
X147.899Y-1.446
X147.863Y-1.456
X147.83Y-1.464
X147.796Y-1.471
X147.762Y-1.477
X147.727Y-1.483
X147.693Y-1.488
X147.659Y-1.492
X147.624Y-1.495
X147.583Y-1.498
X147.541Y-1.5
X147.499Y-1.501
X0Y-1.5
X-0.037Y-1.5
X-0.074Y-1.499
X-0.111Y-1.496
X-0.148Y-1.493
X-0.185Y-1.489
X-0.222Y-1.484
X-0.259Y-1.478
X-0.295Y-1.471
X-0.313Y-1.467
Z-10F150
X-0.341Y-1.461F300
X-0.372Y-1.453
X-0.405Y-1.445
X-0.437Y-1.435
X-0.472Y-1.424
X-0.507Y-1.412
X-0.541Y-1.399
X-0.575Y-1.386
X-0.609Y-1.371
X-0.642Y-1.356
X-0.675Y-1.34
X-0.708Y-1.323
X-0.74Y-1.305
X-0.772Y-1.287
X-0.803Y-1.267
X-0.834Y-1.247
X-0.864Y-1.226
X-0.894Y-1.205
X-0.923Y-1.183
X-0.952Y-1.16
X-0.98Y-1.136
X-1.007Y-1.112
X-1.034Y-1.087
X-1.061Y-1.061
X-1.087Y-1.034
X-1.112Y-1.007
X-1.137Y-0.979
X-1.16Y-0.951
X-1.183Y-0.922
X-1.206Y-0.893
X-1.227Y-0.863
X-1.248Y-0.832
X-1.269Y-0.801
X-1.288Y-0.77
X-1.306Y-0.738
X-1.324Y-0.705
X-1.341Y-0.672
X-1.357Y-0.639
X-1.373Y-0.605
X-1.387Y-0.571
X-1.401Y-0.537
X-1.414Y-0.502
X-1.426Y-0.467
X-1.437Y-0.432
X-1.447Y-0.396
X-1.456Y-0.361
X-1.465Y-0.325
X-1.472Y-0.288
X-1.479Y-0.252
X-1.485Y-0.217
X-1.49Y-0.181
X-1.493Y-0.144
X-1.497Y-0.108
X-1.499Y-0.072
X-1.5Y-0.036
X-1.5Y0
Y73.6
X-1.5Y73.636
X-1.499Y73.673
X-1.422Y75.241
X-1.419Y75.283
X-1.416Y75.318
X-1.412Y75.353
X-1.407Y75.388
X-1.177Y76.941
X-1.17Y76.98
X-1.163Y77.02
X-1.155Y77.058
X-1.148Y77.086
X-0.767Y78.609
X-0.757Y78.646
X-0.746Y78.682
X-0.735Y78.719
X-0.724Y78.75
X-0.195Y80.228
X-0.181Y80.264
X-0.167Y80.3
X-0.153Y80.332
X-0.138Y80.364
X0.532Y81.784
X0.546Y81.813
X0.564Y81.847
X0.582Y81.881
X0.601Y81.914
X1.409Y83.26
X1.43Y83.295
X1.449Y83.324
X1.469Y83.354
X1.49Y83.383
X2.426Y84.644
X2.447Y84.672
X2.469Y84.7
X2.492Y84.727
X2.519Y84.758
X3.574Y85.921
X3.599Y85.948
X3.624Y85.975
X3.651Y86
X3.678Y86.025
X4.845Y87.083
X4.872Y87.107
X4.899Y87.13
X4.927Y87.152
X4.955Y87.173
X6.216Y88.109
X6.245Y88.13
X6.275Y88.15
X6.305Y88.169
X6.339Y88.19
X7.685Y88.998
X7.718Y89.017
X7.752Y89.035
X7.786Y89.053
X7.815Y89.067
X9.235Y89.738
X9.267Y89.753
X9.299Y89.767
X9.335Y89.781
X9.371Y89.795
X10.849Y90.324
X10.898Y90.34
X10.928Y90.35
X10.959Y90.358
X10.99Y90.367
X12.513Y90.748
X12.541Y90.755
X12.579Y90.763
X12.619Y90.77
X12.658Y90.777
X14.211Y91.007
X14.246Y91.012
X14.281Y91.016
X14.316Y91.019
X14.358Y91.022
X15.926Y91.099
X15.963Y91.1
X16Y91.101
X89.737Y91.1
X89.774Y91.1
X89.811Y91.099
X89.848Y91.096
X89.884Y91.093
X89.921Y91.089
X89.957Y91.084
X89.994Y91.078
X90.03Y91.072
X90.066Y91.064
X90.102Y91.056
X90.137Y91.046
X90.173Y91.036
X90.208Y91.025
X90.243Y91.013
X90.277Y91
X90.311Y90.986
X90.345Y90.972
X90.379Y90.956
X90.412Y90.94
X90.444Y90.923
X90.477Y90.906
X90.508Y90.887
X90.54Y90.868
X90.571Y90.848
X90.601Y90.827
X90.631Y90.805
X90.66Y90.783
X90.689Y90.76
X90.717Y90.736
X90.745Y90.712
X90.772Y90.687
X90.799Y90.66
X90.825Y90.634
X90.85Y90.607
X90.874Y90.579
X90.898Y90.551
X90.921Y90.522
X90.943Y90.493
X90.965Y90.463
X90.985Y90.433
X91.006Y90.402
X91.025Y90.371
X91.043Y90.339
X91.061Y90.307
X91.078Y90.274
X91.094Y90.241
X91.11Y90.207
X91.124Y90.174
X91.138Y90.139
X91.151Y90.105
X91.163Y90.07
X91.174Y90.035
X91.184Y90
X91.193Y89.964
X91.202Y89.928
X91.209Y89.892
X91.216Y89.856
X91.222Y89.82
X91.227Y89.783
X91.231Y89.747
X91.234Y89.71
X91.236Y89.673
X91.238Y89.636
X91.238Y89.603
X104.236
X104.237Y89.637
X104.238Y89.674
X104.24Y89.711
X104.244Y89.748
X104.248Y89.785
X104.253Y89.822
X104.259Y89.859
X104.266Y89.896
X104.274Y89.932
X104.282Y89.969
X104.292Y90.005
X104.302Y90.04
X104.314Y90.076
X104.326Y90.111
X104.339Y90.146
X104.353Y90.18
X104.368Y90.215
X104.384Y90.248
X104.4Y90.282
X104.418Y90.315
X104.436Y90.347
X104.455Y90.379
X104.475Y90.411
X104.495Y90.442
X104.517Y90.473
X104.539Y90.503
X104.561Y90.532
X104.585Y90.561
X104.609Y90.589
X104.634Y90.617
X104.66Y90.644
X104.686Y90.671
X104.714Y90.697
X104.741Y90.722
X104.768Y90.746
X104.796Y90.769
X104.825Y90.791
X104.854Y90.813
X104.884Y90.834
X104.914Y90.854
X104.944Y90.874
X104.975Y90.893
X105.007Y90.911
X105.039Y90.928
X105.071Y90.945
X105.104Y90.96
X105.137Y90.975
X105.171Y90.989
X105.204Y91.003
X105.238Y91.015
X105.273Y91.027
X105.308Y91.038
X105.342Y91.048
X105.378Y91.057
X105.413Y91.065
X105.449Y91.072
X105.484Y91.079
X105.52Y91.085
X105.556Y91.09
X105.592Y91.093
X105.628Y91.097
X105.665Y91.099
X105.701Y91.1
X105.737Y91.1
X113.504
X113.541Y91.1
X113.578Y91.099
X114.037Y91.076
X124.963
X125.422Y91.099
X125.459Y91.1
X125.496Y91.1
X147.5
X147.535Y91.1
X147.571Y91.099
X147.606Y91.097
X147.642Y91.094
X147.677Y91.09
X147.713Y91.085
X147.748Y91.08
X147.783Y91.073
X147.819Y91.066
X147.854Y91.058
X147.889Y91.049
X147.924Y91.039
X147.958Y91.029
X147.992Y91.017
X148.026Y91.005
X148.06Y90.992
X148.093Y90.978
X148.126Y90.963
X148.159Y90.948
X148.191Y90.932
X148.223Y90.914
X148.255Y90.897
X148.286Y90.878
X148.316Y90.859
X148.346Y90.839
X148.376Y90.818
X148.405Y90.797
X148.434Y90.774
X148.462Y90.752
X148.489Y90.728
X148.516Y90.704
X148.542Y90.679
X148.568Y90.653
X148.594Y90.627
X148.618Y90.6
X148.642Y90.572
X148.666Y90.544
X148.688Y90.516
X148.71Y90.486
X148.732Y90.457
X148.752Y90.426
X148.772Y90.396
X148.791Y90.364
X148.809Y90.333
X148.827Y90.301
X148.843Y90.268
X148.859Y90.235
X148.874Y90.202
X148.889Y90.168
X148.902Y90.134
X148.915Y90.1
X148.926Y90.065
X148.937Y90.03
X148.947Y89.995
X148.957Y89.96
X148.965Y89.924
X148.972Y89.888
X148.979Y89.852
X148.985Y89.817
X148.99Y89.781
X148.993Y89.744
X148.997Y89.708
X148.999Y89.672
X149Y89.636
X149.001Y89.599
X149Y0
X149Y-0.036
X148.999Y-0.072
X148.997Y-0.108
X148.993Y-0.144
X148.99Y-0.181
X148.985Y-0.217
X148.979Y-0.252
X148.972Y-0.289
X148.965Y-0.325
X148.956Y-0.361
X148.947Y-0.396
X148.937Y-0.432
X148.926Y-0.467
X148.914Y-0.502
X148.901Y-0.537
X148.888Y-0.571
X148.873Y-0.605
X148.858Y-0.638
X148.842Y-0.672
X148.825Y-0.704
X148.807Y-0.737
X148.788Y-0.769
X148.769Y-0.8
X148.749Y-0.831
X148.728Y-0.862
X148.707Y-0.892
X148.684Y-0.921
X148.661Y-0.95
X148.638Y-0.978
X148.613Y-1.006
X148.588Y-1.033
X148.562Y-1.06
X148.535Y-1.086
X148.508Y-1.111
X148.481Y-1.135
X148.453Y-1.159
X148.424Y-1.182
X148.394Y-1.205
X148.364Y-1.226
X148.334Y-1.247
X148.303Y-1.267
X148.272Y-1.287
X148.24Y-1.305
X148.207Y-1.323
X148.175Y-1.34
X148.141Y-1.356
X148.108Y-1.372
X148.074Y-1.386
X148.04Y-1.4
X148.005Y-1.413
X147.97Y-1.425
X147.935Y-1.436
X147.899Y-1.446
X147.863Y-1.456
X147.83Y-1.464
X147.796Y-1.471
X147.762Y-1.477
X147.727Y-1.483
X147.693Y-1.488
X147.659Y-1.492
X147.624Y-1.495
X147.583Y-1.498
X147.541Y-1.5
X147.499Y-1.501
X0Y-1.5
X-0.037Y-1.5
X-0.074Y-1.499
X-0.111Y-1.496
X-0.148Y-1.493
X-0.185Y-1.489
X-0.222Y-1.484
X-0.259Y-1.478
X-0.295Y-1.471
X-0.313Y-1.467
Z-12F150
X-0.341Y-1.461F300
X-0.372Y-1.453
X-0.405Y-1.445
X-0.437Y-1.435
X-0.472Y-1.424
X-0.507Y-1.412
X-0.541Y-1.399
X-0.575Y-1.386
X-0.609Y-1.371
X-0.642Y-1.356
X-0.675Y-1.34
X-0.708Y-1.323
X-0.74Y-1.305
X-0.772Y-1.287
X-0.803Y-1.267
X-0.834Y-1.247
X-0.864Y-1.226
X-0.894Y-1.205
X-0.923Y-1.183
X-0.952Y-1.16
X-0.98Y-1.136
X-1.007Y-1.112
X-1.034Y-1.087
X-1.061Y-1.061
X-1.087Y-1.034
X-1.112Y-1.007
X-1.137Y-0.979
X-1.16Y-0.951
X-1.183Y-0.922
X-1.206Y-0.893
X-1.227Y-0.863
X-1.248Y-0.832
X-1.269Y-0.801
X-1.288Y-0.77
X-1.306Y-0.738
X-1.324Y-0.705
X-1.341Y-0.672
X-1.357Y-0.639
X-1.373Y-0.605
X-1.387Y-0.571
X-1.401Y-0.537
X-1.414Y-0.502
X-1.426Y-0.467
X-1.437Y-0.432
X-1.447Y-0.396
X-1.456Y-0.361
X-1.465Y-0.325
X-1.472Y-0.288
X-1.479Y-0.252
X-1.485Y-0.217
X-1.49Y-0.181
X-1.493Y-0.144
X-1.497Y-0.108
X-1.499Y-0.072
X-1.5Y-0.036
X-1.5Y0
Y73.6
X-1.5Y73.636
X-1.499Y73.673
X-1.422Y75.241
X-1.419Y75.283
X-1.416Y75.318
X-1.412Y75.353
X-1.407Y75.388
X-1.177Y76.941
X-1.17Y76.98
X-1.163Y77.02
X-1.155Y77.058
X-1.148Y77.086
X-0.767Y78.609
X-0.757Y78.646
X-0.746Y78.682
X-0.735Y78.719
X-0.724Y78.75
X-0.195Y80.228
X-0.181Y80.264
X-0.167Y80.3
X-0.153Y80.332
X-0.138Y80.364
X0.532Y81.784
X0.546Y81.813
X0.564Y81.847
X0.582Y81.881
X0.601Y81.914
X1.409Y83.26
X1.43Y83.295
X1.449Y83.324
X1.469Y83.354
X1.49Y83.383
X2.426Y84.644
X2.447Y84.672
X2.469Y84.7
X2.492Y84.727
X2.519Y84.758
X3.574Y85.921
X3.599Y85.948
X3.624Y85.975
X3.651Y86
X3.678Y86.025
X4.845Y87.083
X4.872Y87.107
X4.899Y87.13
X4.927Y87.152
X4.955Y87.173
X6.216Y88.109
X6.245Y88.13
X6.275Y88.15
X6.305Y88.169
X6.339Y88.19
X7.685Y88.998
X7.718Y89.017
X7.752Y89.035
X7.786Y89.053
X7.815Y89.067
X9.235Y89.738
X9.267Y89.753
X9.299Y89.767
X9.335Y89.781
X9.371Y89.795
X10.849Y90.324
X10.898Y90.34
X10.928Y90.35
X10.959Y90.358
X10.99Y90.367
X12.513Y90.748
X12.541Y90.755
X12.579Y90.763
X12.619Y90.77
X12.658Y90.777
X14.211Y91.007
X14.246Y91.012
X14.281Y91.016
X14.316Y91.019
X14.358Y91.022
X15.926Y91.099
X15.963Y91.1
X16Y91.101
X89.737Y91.1
X89.774Y91.1
X89.811Y91.099
X89.848Y91.096
X89.884Y91.093
X89.921Y91.089
X89.957Y91.084
X89.994Y91.078
X90.03Y91.072
X90.066Y91.064
X90.102Y91.056
X90.137Y91.046
X90.173Y91.036
X90.208Y91.025
X90.243Y91.013
X90.277Y91
X90.311Y90.986
X90.345Y90.972
X90.379Y90.956
X90.412Y90.94
X90.444Y90.923
X90.477Y90.906
X90.508Y90.887
X90.54Y90.868
X90.571Y90.848
X90.601Y90.827
X90.631Y90.805
X90.66Y90.783
X90.689Y90.76
X90.717Y90.736
X90.745Y90.712
X90.772Y90.687
X90.799Y90.66
X90.825Y90.634
X90.85Y90.607
X90.874Y90.579
X90.898Y90.551
X90.921Y90.522
X90.943Y90.493
X90.965Y90.463
X90.985Y90.433
X91.006Y90.402
X91.025Y90.371
X91.043Y90.339
X91.061Y90.307
X91.078Y90.274
X91.094Y90.241
X91.11Y90.207
X91.124Y90.174
X91.138Y90.139
X91.151Y90.105
X91.163Y90.07
X91.174Y90.035
X91.184Y90
X91.193Y89.964
X91.202Y89.928
X91.209Y89.892
X91.216Y89.856
X91.222Y89.82
X91.227Y89.783
X91.231Y89.747
X91.234Y89.71
X91.236Y89.673
X91.238Y89.636
X91.238Y89.603
X104.236
X104.237Y89.637
X104.238Y89.674
X104.24Y89.711
X104.244Y89.748
X104.248Y89.785
X104.253Y89.822
X104.259Y89.859
X104.266Y89.896
X104.274Y89.932
X104.282Y89.969
X104.292Y90.005
X104.302Y90.04
X104.314Y90.076
X104.326Y90.111
X104.339Y90.146
X104.353Y90.18
X104.368Y90.215
X104.384Y90.248
X104.4Y90.282
X104.418Y90.315
X104.436Y90.347
X104.455Y90.379
X104.475Y90.411
X104.495Y90.442
X104.517Y90.473
X104.539Y90.503
X104.561Y90.532
X104.585Y90.561
X104.609Y90.589
X104.634Y90.617
X104.66Y90.644
X104.686Y90.671
X104.714Y90.697
X104.741Y90.722
X104.768Y90.746
X104.796Y90.769
X104.825Y90.791
X104.854Y90.813
X104.884Y90.834
X104.914Y90.854
X104.944Y90.874
X104.975Y90.893
X105.007Y90.911
X105.039Y90.928
X105.071Y90.945
X105.104Y90.96
X105.137Y90.975
X105.171Y90.989
X105.204Y91.003
X105.238Y91.015
X105.273Y91.027
X105.308Y91.038
X105.342Y91.048
X105.378Y91.057
X105.413Y91.065
X105.449Y91.072
X105.484Y91.079
X105.52Y91.085
X105.556Y91.09
X105.592Y91.093
X105.628Y91.097
X105.665Y91.099
X105.701Y91.1
X105.737Y91.1
X113.504
X113.541Y91.1
X113.578Y91.099
X114.037Y91.076
X124.963
X125.422Y91.099
X125.459Y91.1
X125.496Y91.1
X147.5
X147.535Y91.1
X147.571Y91.099
X147.606Y91.097
X147.642Y91.094
X147.677Y91.09
X147.713Y91.085
X147.748Y91.08
X147.783Y91.073
X147.819Y91.066
X147.854Y91.058
X147.889Y91.049
X147.924Y91.039
X147.958Y91.029
X147.992Y91.017
X148.026Y91.005
X148.06Y90.992
X148.093Y90.978
X148.126Y90.963
X148.159Y90.948
X148.191Y90.932
X148.223Y90.914
X148.255Y90.897
X148.286Y90.878
X148.316Y90.859
X148.346Y90.839
X148.376Y90.818
X148.405Y90.797
X148.434Y90.774
X148.462Y90.752
X148.489Y90.728
X148.516Y90.704
X148.542Y90.679
X148.568Y90.653
X148.594Y90.627
X148.618Y90.6
X148.642Y90.572
X148.666Y90.544
X148.688Y90.516
X148.71Y90.486
X148.732Y90.457
X148.752Y90.426
X148.772Y90.396
X148.791Y90.364
X148.809Y90.333
X148.827Y90.301
X148.843Y90.268
X148.859Y90.235
X148.874Y90.202
X148.889Y90.168
X148.902Y90.134
X148.915Y90.1
X148.926Y90.065
X148.937Y90.03
X148.947Y89.995
X148.957Y89.96
X148.965Y89.924
X148.972Y89.888
X148.979Y89.852
X148.985Y89.817
X148.99Y89.781
X148.993Y89.744
X148.997Y89.708
X148.999Y89.672
X149Y89.636
X149.001Y89.599
X149Y0
X149Y-0.036
X148.999Y-0.072
X148.997Y-0.108
X148.993Y-0.144
X148.99Y-0.181
X148.985Y-0.217
X148.979Y-0.252
X148.972Y-0.289
X148.965Y-0.325
X148.956Y-0.361
X148.947Y-0.396
X148.937Y-0.432
X148.926Y-0.467
X148.914Y-0.502
X148.901Y-0.537
X148.888Y-0.571
X148.873Y-0.605
X148.858Y-0.638
X148.842Y-0.672
X148.825Y-0.704
X148.807Y-0.737
X148.788Y-0.769
X148.769Y-0.8
X148.749Y-0.831
X148.728Y-0.862
X148.707Y-0.892
X148.684Y-0.921
X148.661Y-0.95
X148.638Y-0.978
X148.613Y-1.006
X148.588Y-1.033
X148.562Y-1.06
X148.535Y-1.086
X148.508Y-1.111
X148.481Y-1.135
X148.453Y-1.159
X148.424Y-1.182
X148.394Y-1.205
X148.364Y-1.226
X148.334Y-1.247
X148.303Y-1.267
X148.272Y-1.287
X148.24Y-1.305
X148.207Y-1.323
X148.175Y-1.34
X148.141Y-1.356
X148.108Y-1.372
X148.074Y-1.386
X148.04Y-1.4
X148.005Y-1.413
X147.97Y-1.425
X147.935Y-1.436
X147.899Y-1.446
X147.863Y-1.456
X147.83Y-1.464
X147.796Y-1.471
X147.762Y-1.477
X147.727Y-1.483
X147.693Y-1.488
X147.659Y-1.492
X147.624Y-1.495
X147.583Y-1.498
X147.541Y-1.5
X147.499Y-1.501
X0Y-1.5
X-0.037Y-1.5
X-0.074Y-1.499
X-0.111Y-1.496
X-0.148Y-1.493
X-0.185Y-1.489
X-0.222Y-1.484
X-0.259Y-1.478
X-0.295Y-1.471
X-0.313Y-1.467
Z-14F150
X-0.341Y-1.461F300
X-0.372Y-1.453
X-0.405Y-1.445
X-0.437Y-1.435
X-0.472Y-1.424
X-0.507Y-1.412
X-0.541Y-1.399
X-0.575Y-1.386
X-0.609Y-1.371
X-0.642Y-1.356
X-0.675Y-1.34
X-0.708Y-1.323
X-0.74Y-1.305
X-0.772Y-1.287
X-0.803Y-1.267
X-0.834Y-1.247
X-0.864Y-1.226
X-0.894Y-1.205
X-0.923Y-1.183
X-0.952Y-1.16
X-0.98Y-1.136
X-1.007Y-1.112
X-1.034Y-1.087
X-1.061Y-1.061
X-1.087Y-1.034
X-1.112Y-1.007
X-1.137Y-0.979
X-1.16Y-0.951
X-1.183Y-0.922
X-1.206Y-0.893
X-1.227Y-0.863
X-1.248Y-0.832
X-1.269Y-0.801
X-1.288Y-0.77
X-1.306Y-0.738
X-1.324Y-0.705
X-1.341Y-0.672
X-1.357Y-0.639
X-1.373Y-0.605
X-1.387Y-0.571
X-1.401Y-0.537
X-1.414Y-0.502
X-1.426Y-0.467
X-1.437Y-0.432
X-1.447Y-0.396
X-1.456Y-0.361
X-1.465Y-0.325
X-1.472Y-0.288
X-1.479Y-0.252
X-1.485Y-0.217
X-1.49Y-0.181
X-1.493Y-0.144
X-1.497Y-0.108
X-1.499Y-0.072
X-1.5Y-0.036
X-1.5Y0
Y73.6
X-1.5Y73.636
X-1.499Y73.673
X-1.422Y75.241
X-1.419Y75.283
X-1.416Y75.318
X-1.412Y75.353
X-1.407Y75.388
X-1.177Y76.941
X-1.17Y76.98
X-1.163Y77.02
X-1.155Y77.058
X-1.148Y77.086
X-0.767Y78.609
X-0.757Y78.646
X-0.746Y78.682
X-0.735Y78.719
X-0.724Y78.75
X-0.195Y80.228
X-0.181Y80.264
X-0.167Y80.3
X-0.153Y80.332
X-0.138Y80.364
X0.532Y81.784
X0.546Y81.813
X0.564Y81.847
X0.582Y81.881
X0.601Y81.914
X1.409Y83.26
X1.43Y83.295
X1.449Y83.324
X1.469Y83.354
X1.49Y83.383
X2.426Y84.644
X2.447Y84.672
X2.469Y84.7
X2.492Y84.727
X2.519Y84.758
X3.574Y85.921
X3.599Y85.948
X3.624Y85.975
X3.651Y86
X3.678Y86.025
X4.845Y87.083
X4.872Y87.107
X4.899Y87.13
X4.927Y87.152
X4.955Y87.173
X6.216Y88.109
X6.245Y88.13
X6.275Y88.15
X6.305Y88.169
X6.339Y88.19
X7.685Y88.998
X7.718Y89.017
X7.752Y89.035
X7.786Y89.053
X7.815Y89.067
X9.235Y89.738
X9.267Y89.753
X9.299Y89.767
X9.335Y89.781
X9.371Y89.795
X10.849Y90.324
X10.898Y90.34
X10.928Y90.35
X10.959Y90.358
X10.99Y90.367
X12.513Y90.748
X12.541Y90.755
X12.579Y90.763
X12.619Y90.77
X12.658Y90.777
X14.211Y91.007
X14.246Y91.012
X14.281Y91.016
X14.316Y91.019
X14.358Y91.022
X15.926Y91.099
X15.963Y91.1
X16Y91.101
X89.737Y91.1
X89.774Y91.1
X89.811Y91.099
X89.848Y91.096
X89.884Y91.093
X89.921Y91.089
X89.957Y91.084
X89.994Y91.078
X90.03Y91.072
X90.066Y91.064
X90.102Y91.056
X90.137Y91.046
X90.173Y91.036
X90.208Y91.025
X90.243Y91.013
X90.277Y91
X90.311Y90.986
X90.345Y90.972
X90.379Y90.956
X90.412Y90.94
X90.444Y90.923
X90.477Y90.906
X90.508Y90.887
X90.54Y90.868
X90.571Y90.848
X90.601Y90.827
X90.631Y90.805
X90.66Y90.783
X90.689Y90.76
X90.717Y90.736
X90.745Y90.712
X90.772Y90.687
X90.799Y90.66
X90.825Y90.634
X90.85Y90.607
X90.874Y90.579
X90.898Y90.551
X90.921Y90.522
X90.943Y90.493
X90.965Y90.463
X90.985Y90.433
X91.006Y90.402
X91.025Y90.371
X91.043Y90.339
X91.061Y90.307
X91.078Y90.274
X91.094Y90.241
X91.11Y90.207
X91.124Y90.174
X91.138Y90.139
X91.151Y90.105
X91.163Y90.07
X91.174Y90.035
X91.184Y90
X91.193Y89.964
X91.202Y89.928
X91.209Y89.892
X91.216Y89.856
X91.222Y89.82
X91.227Y89.783
X91.231Y89.747
X91.234Y89.71
X91.236Y89.673
X91.238Y89.636
X91.238Y89.603
X104.236
X104.237Y89.637
X104.238Y89.674
X104.24Y89.711
X104.244Y89.748
X104.248Y89.785
X104.253Y89.822
X104.259Y89.859
X104.266Y89.896
X104.274Y89.932
X104.282Y89.969
X104.292Y90.005
X104.302Y90.04
X104.314Y90.076
X104.326Y90.111
X104.339Y90.146
X104.353Y90.18
X104.368Y90.215
X104.384Y90.248
X104.4Y90.282
X104.418Y90.315
X104.436Y90.347
X104.455Y90.379
X104.475Y90.411
X104.495Y90.442
X104.517Y90.473
X104.539Y90.503
X104.561Y90.532
X104.585Y90.561
X104.609Y90.589
X104.634Y90.617
X104.66Y90.644
X104.686Y90.671
X104.714Y90.697
X104.741Y90.722
X104.768Y90.746
X104.796Y90.769
X104.825Y90.791
X104.854Y90.813
X104.884Y90.834
X104.914Y90.854
X104.944Y90.874
X104.975Y90.893
X105.007Y90.911
X105.039Y90.928
X105.071Y90.945
X105.104Y90.96
X105.137Y90.975
X105.171Y90.989
X105.204Y91.003
X105.238Y91.015
X105.273Y91.027
X105.308Y91.038
X105.342Y91.048
X105.378Y91.057
X105.413Y91.065
X105.449Y91.072
X105.484Y91.079
X105.52Y91.085
X105.556Y91.09
X105.592Y91.093
X105.628Y91.097
X105.665Y91.099
X105.701Y91.1
X105.737Y91.1
X113.504
X113.541Y91.1
X113.578Y91.099
X114.037Y91.076
X124.963
X125.422Y91.099
X125.459Y91.1
X125.496Y91.1
X147.5
X147.535Y91.1
X147.571Y91.099
X147.606Y91.097
X147.642Y91.094
X147.677Y91.09
X147.713Y91.085
X147.748Y91.08
X147.783Y91.073
X147.819Y91.066
X147.854Y91.058
X147.889Y91.049
X147.924Y91.039
X147.958Y91.029
X147.992Y91.017
X148.026Y91.005
X148.06Y90.992
X148.093Y90.978
X148.126Y90.963
X148.159Y90.948
X148.191Y90.932
X148.223Y90.914
X148.255Y90.897
X148.286Y90.878
X148.316Y90.859
X148.346Y90.839
X148.376Y90.818
X148.405Y90.797
X148.434Y90.774
X148.462Y90.752
X148.489Y90.728
X148.516Y90.704
X148.542Y90.679
X148.568Y90.653
X148.594Y90.627
X148.618Y90.6
X148.642Y90.572
X148.666Y90.544
X148.688Y90.516
X148.71Y90.486
X148.732Y90.457
X148.752Y90.426
X148.772Y90.396
X148.791Y90.364
X148.809Y90.333
X148.827Y90.301
X148.843Y90.268
X148.859Y90.235
X148.874Y90.202
X148.889Y90.168
X148.902Y90.134
X148.915Y90.1
X148.926Y90.065
X148.937Y90.03
X148.947Y89.995
X148.957Y89.96
X148.965Y89.924
X148.972Y89.888
X148.979Y89.852
X148.985Y89.817
X148.99Y89.781
X148.993Y89.744
X148.997Y89.708
X148.999Y89.672
X149Y89.636
X149.001Y89.599
X149Y0
X149Y-0.036
X148.999Y-0.072
X148.997Y-0.108
X148.993Y-0.144
X148.99Y-0.181
X148.985Y-0.217
X148.979Y-0.252
X148.972Y-0.289
X148.965Y-0.325
X148.956Y-0.361
X148.947Y-0.396
X148.937Y-0.432
X148.926Y-0.467
X148.914Y-0.502
X148.901Y-0.537
X148.888Y-0.571
X148.873Y-0.605
X148.858Y-0.638
X148.842Y-0.672
X148.825Y-0.704
X148.807Y-0.737
X148.788Y-0.769
X148.769Y-0.8
X148.749Y-0.831
X148.728Y-0.862
X148.707Y-0.892
X148.684Y-0.921
X148.661Y-0.95
X148.638Y-0.978
X148.613Y-1.006
X148.588Y-1.033
X148.562Y-1.06
X148.535Y-1.086
X148.508Y-1.111
X148.481Y-1.135
X148.453Y-1.159
X148.424Y-1.182
X148.394Y-1.205
X148.364Y-1.226
X148.334Y-1.247
X148.303Y-1.267
X148.272Y-1.287
X148.24Y-1.305
X148.207Y-1.323
X148.175Y-1.34
X148.141Y-1.356
X148.108Y-1.372
X148.074Y-1.386
X148.04Y-1.4
X148.005Y-1.413
X147.97Y-1.425
X147.935Y-1.436
X147.899Y-1.446
X147.863Y-1.456
X147.83Y-1.464
X147.796Y-1.471
X147.762Y-1.477
X147.727Y-1.483
X147.693Y-1.488
X147.659Y-1.492
X147.624Y-1.495
X147.583Y-1.498
X147.541Y-1.5
X147.499Y-1.501
X0Y-1.5
X-0.037Y-1.5
X-0.074Y-1.499
X-0.111Y-1.496
X-0.148Y-1.493
X-0.185Y-1.489
X-0.222Y-1.484
X-0.259Y-1.478
X-0.295Y-1.471
X-0.313Y-1.467
Z-16F150
X-0.341Y-1.461F300
X-0.372Y-1.453
X-0.405Y-1.445
X-0.437Y-1.435
X-0.472Y-1.424
X-0.507Y-1.412
X-0.541Y-1.399
X-0.575Y-1.386
X-0.609Y-1.371
X-0.642Y-1.356
X-0.675Y-1.34
X-0.708Y-1.323
X-0.74Y-1.305
X-0.772Y-1.287
X-0.803Y-1.267
X-0.834Y-1.247
X-0.864Y-1.226
X-0.894Y-1.205
X-0.923Y-1.183
X-0.952Y-1.16
X-0.98Y-1.136
X-1.007Y-1.112
X-1.034Y-1.087
X-1.061Y-1.061
X-1.087Y-1.034
X-1.112Y-1.007
X-1.137Y-0.979
X-1.16Y-0.951
X-1.183Y-0.922
X-1.206Y-0.893
X-1.227Y-0.863
X-1.248Y-0.832
X-1.269Y-0.801
X-1.288Y-0.77
X-1.306Y-0.738
X-1.324Y-0.705
X-1.341Y-0.672
X-1.357Y-0.639
X-1.373Y-0.605
X-1.387Y-0.571
X-1.401Y-0.537
X-1.414Y-0.502
X-1.426Y-0.467
X-1.437Y-0.432
X-1.447Y-0.396
X-1.456Y-0.361
X-1.465Y-0.325
X-1.472Y-0.288
X-1.479Y-0.252
X-1.485Y-0.217
X-1.49Y-0.181
X-1.493Y-0.144
X-1.497Y-0.108
X-1.499Y-0.072
X-1.5Y-0.036
X-1.5Y0
Y73.6
X-1.5Y73.636
X-1.499Y73.673
X-1.422Y75.241
X-1.419Y75.283
X-1.416Y75.318
X-1.412Y75.353
X-1.407Y75.388
X-1.177Y76.941
X-1.17Y76.98
X-1.163Y77.02
X-1.155Y77.058
X-1.148Y77.086
X-0.767Y78.609
X-0.757Y78.646
X-0.746Y78.682
X-0.735Y78.719
X-0.724Y78.75
X-0.195Y80.228
X-0.181Y80.264
X-0.167Y80.3
X-0.153Y80.332
X-0.138Y80.364
X0.532Y81.784
X0.546Y81.813
X0.564Y81.847
X0.582Y81.881
X0.601Y81.914
X1.409Y83.26
X1.43Y83.295
X1.449Y83.324
X1.469Y83.354
X1.49Y83.383
X2.426Y84.644
X2.447Y84.672
X2.469Y84.7
X2.492Y84.727
X2.519Y84.758
X3.574Y85.921
X3.599Y85.948
X3.624Y85.975
X3.651Y86
X3.678Y86.025
X4.845Y87.083
X4.872Y87.107
X4.899Y87.13
X4.927Y87.152
X4.955Y87.173
X6.216Y88.109
X6.245Y88.13
X6.275Y88.15
X6.305Y88.169
X6.339Y88.19
X7.685Y88.998
X7.718Y89.017
X7.752Y89.035
X7.786Y89.053
X7.815Y89.067
X9.235Y89.738
X9.267Y89.753
X9.299Y89.767
X9.335Y89.781
X9.371Y89.795
X10.849Y90.324
X10.898Y90.34
X10.928Y90.35
X10.959Y90.358
X10.99Y90.367
X12.513Y90.748
X12.541Y90.755
X12.579Y90.763
X12.619Y90.77
X12.658Y90.777
X14.211Y91.007
X14.246Y91.012
X14.281Y91.016
X14.316Y91.019
X14.358Y91.022
X15.926Y91.099
X15.963Y91.1
X16Y91.101
X89.737Y91.1
X89.774Y91.1
X89.811Y91.099
X89.848Y91.096
X89.884Y91.093
X89.921Y91.089
X89.957Y91.084
X89.994Y91.078
X90.03Y91.072
X90.066Y91.064
X90.102Y91.056
X90.137Y91.046
X90.173Y91.036
X90.208Y91.025
X90.243Y91.013
X90.277Y91
X90.311Y90.986
X90.345Y90.972
X90.379Y90.956
X90.412Y90.94
X90.444Y90.923
X90.477Y90.906
X90.508Y90.887
X90.54Y90.868
X90.571Y90.848
X90.601Y90.827
X90.631Y90.805
X90.66Y90.783
X90.689Y90.76
X90.717Y90.736
X90.745Y90.712
X90.772Y90.687
X90.799Y90.66
X90.825Y90.634
X90.85Y90.607
X90.874Y90.579
X90.898Y90.551
X90.921Y90.522
X90.943Y90.493
X90.965Y90.463
X90.985Y90.433
X91.006Y90.402
X91.025Y90.371
X91.043Y90.339
X91.061Y90.307
X91.078Y90.274
X91.094Y90.241
X91.11Y90.207
X91.124Y90.174
X91.138Y90.139
X91.151Y90.105
X91.163Y90.07
X91.174Y90.035
X91.184Y90
X91.193Y89.964
X91.202Y89.928
X91.209Y89.892
X91.216Y89.856
X91.222Y89.82
X91.227Y89.783
X91.231Y89.747
X91.234Y89.71
X91.236Y89.673
X91.238Y89.636
X91.238Y89.603
X104.236
X104.237Y89.637
X104.238Y89.674
X104.24Y89.711
X104.244Y89.748
X104.248Y89.785
X104.253Y89.822
X104.259Y89.859
X104.266Y89.896
X104.274Y89.932
X104.282Y89.969
X104.292Y90.005
X104.302Y90.04
X104.314Y90.076
X104.326Y90.111
X104.339Y90.146
X104.353Y90.18
X104.368Y90.215
X104.384Y90.248
X104.4Y90.282
X104.418Y90.315
X104.436Y90.347
X104.455Y90.379
X104.475Y90.411
X104.495Y90.442
X104.517Y90.473
X104.539Y90.503
X104.561Y90.532
X104.585Y90.561
X104.609Y90.589
X104.634Y90.617
X104.66Y90.644
X104.686Y90.671
X104.714Y90.697
X104.741Y90.722
X104.768Y90.746
X104.796Y90.769
X104.825Y90.791
X104.854Y90.813
X104.884Y90.834
X104.914Y90.854
X104.944Y90.874
X104.975Y90.893
X105.007Y90.911
X105.039Y90.928
X105.071Y90.945
X105.104Y90.96
X105.137Y90.975
X105.171Y90.989
X105.204Y91.003
X105.238Y91.015
X105.273Y91.027
X105.308Y91.038
X105.342Y91.048
X105.378Y91.057
X105.413Y91.065
X105.449Y91.072
X105.484Y91.079
X105.52Y91.085
X105.556Y91.09
X105.592Y91.093
X105.628Y91.097
X105.665Y91.099
X105.701Y91.1
X105.737Y91.1
X113.504
X113.541Y91.1
X113.578Y91.099
X114.037Y91.076
X124.963
X125.422Y91.099
X125.459Y91.1
X125.496Y91.1
X147.5
X147.535Y91.1
X147.571Y91.099
X147.606Y91.097
X147.642Y91.094
X147.677Y91.09
X147.713Y91.085
X147.748Y91.08
X147.783Y91.073
X147.819Y91.066
X147.854Y91.058
X147.889Y91.049
X147.924Y91.039
X147.958Y91.029
X147.992Y91.017
X148.026Y91.005
X148.06Y90.992
X148.093Y90.978
X148.126Y90.963
X148.159Y90.948
X148.191Y90.932
X148.223Y90.914
X148.255Y90.897
X148.286Y90.878
X148.316Y90.859
X148.346Y90.839
X148.376Y90.818
X148.405Y90.797
X148.434Y90.774
X148.462Y90.752
X148.489Y90.728
X148.516Y90.704
X148.542Y90.679
X148.568Y90.653
X148.594Y90.627
X148.618Y90.6
X148.642Y90.572
X148.666Y90.544
X148.688Y90.516
X148.71Y90.486
X148.732Y90.457
X148.752Y90.426
X148.772Y90.396
X148.791Y90.364
X148.809Y90.333
X148.827Y90.301
X148.843Y90.268
X148.859Y90.235
X148.874Y90.202
X148.889Y90.168
X148.902Y90.134
X148.915Y90.1
X148.926Y90.065
X148.937Y90.03
X148.947Y89.995
X148.957Y89.96
X148.965Y89.924
X148.972Y89.888
X148.979Y89.852
X148.985Y89.817
X148.99Y89.781
X148.993Y89.744
X148.997Y89.708
X148.999Y89.672
X149Y89.636
X149.001Y89.599
X149Y0
X149Y-0.036
X148.999Y-0.072
X148.997Y-0.108
X148.993Y-0.144
X148.99Y-0.181
X148.985Y-0.217
X148.979Y-0.252
X148.972Y-0.289
X148.965Y-0.325
X148.956Y-0.361
X148.947Y-0.396
X148.937Y-0.432
X148.926Y-0.467
X148.914Y-0.502
X148.901Y-0.537
X148.888Y-0.571
X148.873Y-0.605
X148.858Y-0.638
X148.842Y-0.672
X148.825Y-0.704
X148.807Y-0.737
X148.788Y-0.769
X148.769Y-0.8
X148.749Y-0.831
X148.728Y-0.862
X148.707Y-0.892
X148.684Y-0.921
X148.661Y-0.95
X148.638Y-0.978
X148.613Y-1.006
X148.588Y-1.033
X148.562Y-1.06
X148.535Y-1.086
X148.508Y-1.111
X148.481Y-1.135
X148.453Y-1.159
X148.424Y-1.182
X148.394Y-1.205
X148.364Y-1.226
X148.334Y-1.247
X148.303Y-1.267
X148.272Y-1.287
X148.24Y-1.305
X148.207Y-1.323
X148.175Y-1.34
X148.141Y-1.356
X148.108Y-1.372
X148.074Y-1.386
X148.04Y-1.4
X148.005Y-1.413
X147.97Y-1.425
X147.935Y-1.436
X147.899Y-1.446
X147.863Y-1.456
X147.83Y-1.464
X147.796Y-1.471
X147.762Y-1.477
X147.727Y-1.483
X147.693Y-1.488
X147.659Y-1.492
X147.624Y-1.495
X147.583Y-1.498
X147.541Y-1.5
X147.499Y-1.501
X0Y-1.5
X-0.037Y-1.5
X-0.074Y-1.499
X-0.111Y-1.496
X-0.148Y-1.493
X-0.185Y-1.489
X-0.222Y-1.484
X-0.259Y-1.478
X-0.295Y-1.471
X-0.313Y-1.467
Z-17.999F150
X-0.341Y-1.461F300
X-0.372Y-1.453
X-0.405Y-1.445
X-0.437Y-1.435
X-0.472Y-1.424
X-0.507Y-1.412
X-0.541Y-1.399
X-0.575Y-1.386
X-0.609Y-1.371
X-0.642Y-1.356
X-0.675Y-1.34
X-0.708Y-1.323
X-0.74Y-1.305
X-0.772Y-1.287
X-0.803Y-1.267
X-0.834Y-1.247
X-0.864Y-1.226
X-0.894Y-1.205
X-0.923Y-1.183
X-0.952Y-1.16
X-0.98Y-1.136
X-1.007Y-1.112
X-1.034Y-1.087
X-1.061Y-1.061
X-1.087Y-1.034
X-1.112Y-1.007
X-1.137Y-0.979
X-1.16Y-0.951
X-1.183Y-0.922
X-1.206Y-0.893
X-1.227Y-0.863
X-1.248Y-0.832
X-1.269Y-0.801
X-1.288Y-0.77
X-1.306Y-0.738
X-1.324Y-0.705
X-1.341Y-0.672
X-1.357Y-0.639
X-1.373Y-0.605
X-1.387Y-0.571
X-1.401Y-0.537
X-1.414Y-0.502
X-1.426Y-0.467
X-1.437Y-0.432
X-1.447Y-0.396
X-1.456Y-0.361
X-1.465Y-0.325
X-1.472Y-0.288
X-1.479Y-0.252
X-1.485Y-0.217
X-1.49Y-0.181
X-1.493Y-0.144
X-1.497Y-0.108
X-1.499Y-0.072
X-1.5Y-0.036
X-1.5Y0
Y73.6
X-1.5Y73.636
X-1.499Y73.673
X-1.422Y75.241
X-1.419Y75.283
X-1.416Y75.318
X-1.412Y75.353
X-1.407Y75.388
X-1.177Y76.941
X-1.17Y76.98
X-1.163Y77.02
X-1.155Y77.058
X-1.148Y77.086
X-0.767Y78.609
X-0.757Y78.646
X-0.746Y78.682
X-0.735Y78.719
X-0.724Y78.75
X-0.195Y80.228
X-0.181Y80.264
X-0.167Y80.3
X-0.153Y80.332
X-0.138Y80.364
X0.532Y81.784
X0.546Y81.813
X0.564Y81.847
X0.582Y81.881
X0.601Y81.914
X1.409Y83.26
X1.43Y83.295
X1.449Y83.324
X1.469Y83.354
X1.49Y83.383
X2.426Y84.644
X2.447Y84.672
X2.469Y84.7
X2.492Y84.727
X2.519Y84.758
X3.574Y85.921
X3.599Y85.948
X3.624Y85.975
X3.651Y86
X3.678Y86.025
X4.845Y87.083
X4.872Y87.107
X4.899Y87.13
X4.927Y87.152
X4.955Y87.173
X6.216Y88.109
X6.245Y88.13
X6.275Y88.15
X6.305Y88.169
X6.339Y88.19
X7.685Y88.998
X7.718Y89.017
X7.752Y89.035
X7.786Y89.053
X7.815Y89.067
X9.235Y89.738
X9.267Y89.753
X9.299Y89.767
X9.335Y89.781
X9.371Y89.795
X10.849Y90.324
X10.898Y90.34
X10.928Y90.35
X10.959Y90.358
X10.99Y90.367
X12.513Y90.748
X12.541Y90.755
X12.579Y90.763
X12.619Y90.77
X12.658Y90.777
X14.211Y91.007
X14.246Y91.012
X14.281Y91.016
X14.316Y91.019
X14.358Y91.022
X15.926Y91.099
X15.963Y91.1
X16Y91.101
X89.737Y91.1
X89.774Y91.1
X89.811Y91.099
X89.848Y91.096
X89.884Y91.093
X89.921Y91.089
X89.957Y91.084
X89.994Y91.078
X90.03Y91.072
X90.066Y91.064
X90.102Y91.056
X90.137Y91.046
X90.173Y91.036
X90.208Y91.025
X90.243Y91.013
X90.277Y91
X90.311Y90.986
X90.345Y90.972
X90.379Y90.956
X90.412Y90.94
X90.444Y90.923
X90.477Y90.906
X90.508Y90.887
X90.54Y90.868
X90.571Y90.848
X90.601Y90.827
X90.631Y90.805
X90.66Y90.783
X90.689Y90.76
X90.717Y90.736
X90.745Y90.712
X90.772Y90.687
X90.799Y90.66
X90.825Y90.634
X90.85Y90.607
X90.874Y90.579
X90.898Y90.551
X90.921Y90.522
X90.943Y90.493
X90.965Y90.463
X90.985Y90.433
X91.006Y90.402
X91.025Y90.371
X91.043Y90.339
X91.061Y90.307
X91.078Y90.274
X91.094Y90.241
X91.11Y90.207
X91.124Y90.174
X91.138Y90.139
X91.151Y90.105
X91.163Y90.07
X91.174Y90.035
X91.184Y90
X91.193Y89.964
X91.202Y89.928
X91.209Y89.892
X91.216Y89.856
X91.222Y89.82
X91.227Y89.783
X91.231Y89.747
X91.234Y89.71
X91.236Y89.673
X91.238Y89.636
X91.238Y89.603
X104.236
X104.237Y89.637
X104.238Y89.674
X104.24Y89.711
X104.244Y89.748
X104.248Y89.785
X104.253Y89.822
X104.259Y89.859
X104.266Y89.896
X104.274Y89.932
X104.282Y89.969
X104.292Y90.005
X104.302Y90.04
X104.314Y90.076
X104.326Y90.111
X104.339Y90.146
X104.353Y90.18
X104.368Y90.215
X104.384Y90.248
X104.4Y90.282
X104.418Y90.315
X104.436Y90.347
X104.455Y90.379
X104.475Y90.411
X104.495Y90.442
X104.517Y90.473
X104.539Y90.503
X104.561Y90.532
X104.585Y90.561
X104.609Y90.589
X104.634Y90.617
X104.66Y90.644
X104.686Y90.671
X104.714Y90.697
X104.741Y90.722
X104.768Y90.746
X104.796Y90.769
X104.825Y90.791
X104.854Y90.813
X104.884Y90.834
X104.914Y90.854
X104.944Y90.874
X104.975Y90.893
X105.007Y90.911
X105.039Y90.928
X105.071Y90.945
X105.104Y90.96
X105.137Y90.975
X105.171Y90.989
X105.204Y91.003
X105.238Y91.015
X105.273Y91.027
X105.308Y91.038
X105.342Y91.048
X105.378Y91.057
X105.413Y91.065
X105.449Y91.072
X105.484Y91.079
X105.52Y91.085
X105.556Y91.09
X105.592Y91.093
X105.628Y91.097
X105.665Y91.099
X105.701Y91.1
X105.737Y91.1
X113.504
X113.541Y91.1
X113.578Y91.099
X114.037Y91.076
X124.963
X125.422Y91.099
X125.459Y91.1
X125.496Y91.1
X147.5
X147.535Y91.1
X147.571Y91.099
X147.606Y91.097
X147.642Y91.094
X147.677Y91.09
X147.713Y91.085
X147.748Y91.08
X147.783Y91.073
X147.819Y91.066
X147.854Y91.058
X147.889Y91.049
X147.924Y91.039
X147.958Y91.029
X147.992Y91.017
X148.026Y91.005
X148.06Y90.992
X148.093Y90.978
X148.126Y90.963
X148.159Y90.948
X148.191Y90.932
X148.223Y90.914
X148.255Y90.897
X148.286Y90.878
X148.316Y90.859
X148.346Y90.839
X148.376Y90.818
X148.405Y90.797
X148.434Y90.774
X148.462Y90.752
X148.489Y90.728
X148.516Y90.704
X148.542Y90.679
X148.568Y90.653
X148.594Y90.627
X148.618Y90.6
X148.642Y90.572
X148.666Y90.544
X148.688Y90.516
X148.71Y90.486
X148.732Y90.457
X148.752Y90.426
X148.772Y90.396
X148.791Y90.364
X148.809Y90.333
X148.827Y90.301
X148.843Y90.268
X148.859Y90.235
X148.874Y90.202
X148.889Y90.168
X148.902Y90.134
X148.915Y90.1
X148.926Y90.065
X148.937Y90.03
X148.947Y89.995
X148.957Y89.96
X148.965Y89.924
X148.972Y89.888
X148.979Y89.852
X148.985Y89.817
X148.99Y89.781
X148.993Y89.744
X148.997Y89.708
X148.999Y89.672
X149Y89.636
X149.001Y89.599
X149Y0
X149Y-0.036
X148.999Y-0.072
X148.997Y-0.108
X148.993Y-0.144
X148.99Y-0.181
X148.985Y-0.217
X148.979Y-0.252
X148.972Y-0.289
X148.965Y-0.325
X148.956Y-0.361
X148.947Y-0.396
X148.937Y-0.432
X148.926Y-0.467
X148.914Y-0.502
X148.901Y-0.537
X148.888Y-0.571
X148.873Y-0.605
X148.858Y-0.638
X148.842Y-0.672
X148.825Y-0.704
X148.807Y-0.737
X148.788Y-0.769
X148.769Y-0.8
X148.749Y-0.831
X148.728Y-0.862
X148.707Y-0.892
X148.684Y-0.921
X148.661Y-0.95
X148.638Y-0.978
X148.613Y-1.006
X148.588Y-1.033
X148.562Y-1.06
X148.535Y-1.086
X148.508Y-1.111
X148.481Y-1.135
X148.453Y-1.159
X148.424Y-1.182
X148.394Y-1.205
X148.364Y-1.226
X148.334Y-1.247
X148.303Y-1.267
X148.272Y-1.287
X148.24Y-1.305
X148.207Y-1.323
X148.175Y-1.34
X148.141Y-1.356
X148.108Y-1.372
X148.074Y-1.386
X148.04Y-1.4
X148.005Y-1.413
X147.97Y-1.425
X147.935Y-1.436
X147.899Y-1.446
X147.863Y-1.456
X147.83Y-1.464
X147.796Y-1.471
X147.762Y-1.477
X147.727Y-1.483
X147.693Y-1.488
X147.659Y-1.492
X147.624Y-1.495
X147.583Y-1.498
X147.541Y-1.5
X147.499Y-1.501
X0Y-1.5
X-0.037Y-1.5
X-0.074Y-1.499
X-0.111Y-1.496
X-0.148Y-1.493
X-0.185Y-1.489
X-0.222Y-1.484
X-0.259Y-1.478
X-0.295Y-1.471
X-0.313Y-1.467
G0Z10
 
