(Created with grbl post processor 2023/10/21 15:50)
G21
(G-code generated with BlenderCAM and NC library)
G17G90
(Tool: D = 1.5 mm  type END flutes 2)
S12000M03
G00 Z2.0

G0X0Y0Z2
G1Z-6F75
Z0F150
G0Z2
Y56.8
G1Z-6F75
Z0F150
G0Z2
X140
G1Z-6F75
Z0F150
G0Z2
Y0
G1Z-6F75
Z0F150
G0Z2
(Tool: D = 1.5 mm  type END flutes 2)
S12000M03
G00 Z2.0

X13.811Y10.686
G1Z-0.8F75
X14.953Y10.686F150
X14.867Y10.724
X14.822Y10.744
X14.685Y10.81
X14.582Y10.864
X14.512Y10.903
X14.47Y10.928
X14.34Y11.007
X14.243Y11.071
X14.177Y11.117
X14.138Y11.146
X14.016Y11.237
X13.925Y11.31
X13.865Y11.362
X13.811Y11.411
Y10.686
G0Z2
X22.709Y10.688
G1Z-0.8F75
X26.401Y10.688F150
X26.393Y10.761
X26.26Y10.763
X26.211Y10.765
X26.06Y10.774
X25.943Y10.784
X25.864Y10.794
X25.816Y10.8
X25.665Y10.824
X25.551Y10.845
X25.473Y10.863
X25.425Y10.874
X25.278Y10.912
X25.166Y10.945
X25.09Y10.97
X25.044Y10.986
X24.901Y11.038
X24.793Y11.082
X24.72Y11.114
X24.675Y11.134
X24.538Y11.2
X24.435Y11.254
X24.365Y11.293
X24.323Y11.318
X24.193Y11.397
X24.095Y11.461
X24.03Y11.507
X23.986Y11.539
X23.925Y11.481
X23.888Y11.448
X23.775Y11.346
X23.686Y11.271
X23.623Y11.222
X23.584Y11.192
X23.461Y11.103
X23.365Y11.037
X23.297Y10.994
X23.255Y10.968
X23.125Y10.891
X23.022Y10.835
X22.951Y10.799
X22.907Y10.778
X22.769Y10.714
X22.709Y10.688
X22.516Y11.149
X22.413Y11.108
X22.373Y11.093
X22.241Y11.046
X22.147Y11.017
X22.082Y10.999
X22.041Y10.988
X21.905Y10.955
X21.809Y10.935
X21.742Y10.923
X21.7Y10.916
X21.561Y10.897
X21.464Y10.886
X21.396Y10.881
X21.354Y10.878
X21.214Y10.872
X21.14Y10.871
X16.494Y10.871
X16.426Y10.873
X16.383Y10.875
X16.243Y10.882
X16.146Y10.891
X16.079Y10.899
X16.036Y10.905
X15.898Y10.926
X15.801Y10.944
X15.736Y10.959
X15.694Y10.969
X15.558Y11.004
X15.464Y11.031
X15.4Y11.052
X15.359Y11.066
X15.228Y11.114
X15.137Y11.151
X15.075Y11.178
X15.036Y11.196
X14.91Y11.257
X14.823Y11.302
X14.764Y11.335
X14.727Y11.357
X14.608Y11.43
X14.525Y11.483
X14.47Y11.522
X14.435Y11.547
X14.324Y11.631
X14.247Y11.693
X14.196Y11.737
X14.164Y11.765
X14.061Y11.86
X13.991Y11.929
X13.944Y11.977
X13.915Y12.009
X13.821Y12.113
X13.758Y12.188
X13.717Y12.241
X13.691Y12.276
X13.608Y12.388
X13.553Y12.469
X13.517Y12.526
X13.494Y12.563
X13.423Y12.683
X13.376Y12.77
X13.345Y12.83
X13.311Y12.902
Y10.186
X27.008Y10.187
X26.987Y10.265
X26.977Y10.306
X26.946Y10.441
X26.928Y10.536
X26.917Y10.602
X26.911Y10.644
X26.893Y10.782
X26.884Y10.878
X26.88Y10.945
X26.878Y10.987
X26.874Y11.126
X26.874Y11.223
X26.875Y11.261
X26.346Y11.262
X26.279Y11.263
X26.236Y11.265
X26.096Y11.272
X25.999Y11.281
X25.932Y11.289
X25.889Y11.295
X25.751Y11.316
X25.654Y11.335
X25.588Y11.349
X25.547Y11.359
X25.411Y11.394
X25.317Y11.422
X25.253Y11.443
X25.212Y11.457
X25.081Y11.504
X24.99Y11.541
X24.928Y11.568
X24.889Y11.586
X24.763Y11.647
X24.676Y11.692
X24.617Y11.725
X24.58Y11.747
X24.46Y11.82
X24.378Y11.873
X24.323Y11.912
X24.288Y11.937
X24.176Y12.021
X24.1Y12.083
X24.049Y12.127
X24.017Y12.155
X23.934Y12.231
X23.869Y12.15
X23.825Y12.099
X23.796Y12.067
X23.702Y11.964
X23.633Y11.894
X23.584Y11.847
X23.553Y11.818
X23.449Y11.725
X23.373Y11.662
X23.32Y11.62
X23.286Y11.594
X23.173Y11.511
X23.092Y11.456
X23.035Y11.42
X22.998Y11.397
X22.878Y11.326
X22.792Y11.279
X22.732Y11.249
X22.693Y11.23
X22.566Y11.171
X22.516Y11.149
G0Z2
X24.133Y45.078
G1Z-0.8F75
X26.091Y45.632F150
X26.168Y45.651
X26.215Y45.663
X26.362Y45.696
X26.475Y45.717
X26.553Y45.729
X26.601Y45.736
X26.751Y45.755
X26.864Y45.765
X26.891Y45.804
X26.979Y45.927
X27.049Y46.019
X27.104Y46.087
X22.702
X22.766Y46.059
X22.907Y45.994
X23.013Y45.941
X23.084Y45.903
X23.128Y45.878
X23.261Y45.8
X23.361Y45.737
X23.428Y45.691
X23.469Y45.663
X23.594Y45.572
X23.688Y45.499
X23.75Y45.447
X23.788Y45.414
X23.903Y45.311
X23.989Y45.229
X24.045Y45.171
X24.08Y45.135
X24.133Y45.078
G0Z2
X16.5Y45.587
G1Z-0.8F75
X14.311F150
Y44.769
X14.427Y44.831
X14.571Y44.903
X14.69Y44.957
X14.773Y44.992
X14.823Y45.012
X14.973Y45.07
X15.063Y45.102
X16.5Y45.587
G0Z2
X15.223Y44.628
G1Z-0.8F75
X19.545Y46.087F150
X13.811
Y43.802
X13.905Y43.885
X13.965Y43.935
X14.003Y43.964
X14.121Y44.055
X14.213Y44.121
X14.278Y44.164
X14.318Y44.19
X14.444Y44.269
X14.542Y44.326
X14.611Y44.363
X14.653Y44.385
X14.786Y44.451
X14.889Y44.499
X14.961Y44.529
X15.006Y44.547
X15.144Y44.6
X15.223Y44.628
X15.383Y44.154
X20.029Y45.722
X20.094Y45.742
X20.136Y45.755
X20.273Y45.793
X20.37Y45.816
X20.438Y45.83
X20.48Y45.838
X20.621Y45.862
X20.719Y45.875
X20.788Y45.882
X20.831Y45.886
X20.973Y45.896
X21.073Y45.9
X21.141Y45.9
X21.185Y45.899
X21.327Y45.895
X21.427Y45.889
X21.495Y45.882
X21.538Y45.877
X21.679Y45.859
X21.778Y45.843
X21.845Y45.829
X21.888Y45.82
X22.026Y45.788
X22.123Y45.762
X22.188Y45.742
X22.23Y45.728
X22.364Y45.682
X22.458Y45.647
X22.521Y45.62
X22.561Y45.603
X22.69Y45.544
X22.779Y45.499
X22.84Y45.467
X22.878Y45.445
X23.001Y45.373
X23.085Y45.32
X23.142Y45.282
X23.178Y45.257
X23.293Y45.173
X23.371Y45.112
X23.424Y45.068
X23.457Y45.039
X23.563Y44.945
X23.635Y44.876
X23.683Y44.827
X23.713Y44.795
X23.81Y44.69
X23.874Y44.614
X23.917Y44.561
X23.957Y44.509
X26.221Y45.149
X26.286Y45.166
X26.327Y45.175
X26.462Y45.206
X26.558Y45.224
X26.624Y45.234
X26.666Y45.24
X26.803Y45.258
X26.9Y45.266
X26.967Y45.27
X27.009Y45.272
X27.149Y45.276
X27.203Y45.369
X27.239Y45.426
X27.276Y45.482
X27.3Y45.517
X27.38Y45.63
X27.44Y45.707
X27.482Y45.759
X27.509Y45.791
X27.6Y45.896
X27.667Y45.967
X27.714Y46.015
X27.744Y46.045
X27.845Y46.14
X27.918Y46.204
X27.97Y46.247
X28.003Y46.274
X28.112Y46.359
X28.191Y46.416
X28.247Y46.453
X28.282Y46.477
X28.4Y46.551
X28.46Y46.587
X13.311
X13.311Y42.311
X13.349Y42.389
X13.379Y42.448
X13.41Y42.506
X13.431Y42.542
X13.5Y42.66
X13.552Y42.741
X13.589Y42.795
X13.613Y42.83
X13.693Y42.94
X13.752Y43.016
X13.794Y43.066
X13.821Y43.098
X13.911Y43.2
X13.977Y43.27
X14.024Y43.316
X14.054Y43.345
X14.154Y43.439
X14.226Y43.502
X14.277Y43.543
X14.31Y43.569
X14.418Y43.653
X14.496Y43.708
X14.551Y43.745
X14.586Y43.768
X14.701Y43.84
X14.784Y43.888
X14.842Y43.92
X14.879Y43.939
X15.001Y44
X15.088Y44.04
X15.149Y44.066
X15.188Y44.081
X15.315Y44.131
X15.383Y44.154
X15.543Y43.681
X20.183Y45.246
X20.236Y45.263
X20.272Y45.274
X20.397Y45.308
X20.476Y45.327
X20.531Y45.339
X20.568Y45.345
X20.696Y45.368
X20.776Y45.378
X20.832Y45.384
X20.869Y45.388
X20.998Y45.397
X21.079Y45.4
X21.136Y45.4
X21.173Y45.399
X21.303Y45.396
X21.384Y45.391
X21.44Y45.385
X21.477Y45.381
X21.605Y45.364
X21.685Y45.351
X21.74Y45.34
X21.777Y45.332
X21.903Y45.303
X21.982Y45.282
X22.035Y45.266
X22.071Y45.254
X22.194Y45.212
X22.269Y45.184
X22.321Y45.162
X22.356Y45.147
X22.474Y45.093
X22.546Y45.057
X22.596Y45.03
X22.628Y45.012
X22.74Y44.947
X22.809Y44.903
X22.855Y44.872
X22.886Y44.85
X22.991Y44.774
X23.055Y44.724
X23.098Y44.689
X23.126Y44.664
X23.223Y44.578
X23.282Y44.522
X23.321Y44.482
X23.347Y44.455
X23.435Y44.359
X23.488Y44.298
X23.523Y44.254
X23.546Y44.224
X23.624Y44.121
X23.67Y44.054
X23.701Y44.007
X23.72Y43.975
X23.748Y43.93
X26.351Y44.666
X26.404Y44.68
X26.44Y44.688
X26.563Y44.716
X26.641Y44.731
X26.695Y44.74
X26.731Y44.745
X26.856Y44.76
X26.934Y44.767
X26.989Y44.771
X27.025Y44.772
X27.152Y44.776
X27.231Y44.775
X27.285Y44.773
X27.322Y44.771
X27.447Y44.763
X27.486Y44.847
X27.51Y44.896
X27.536Y44.944
X27.554Y44.976
X27.616Y45.086
X27.658Y45.153
X27.688Y45.199
X27.709Y45.229
X27.782Y45.332
X27.83Y45.395
X27.865Y45.437
X27.888Y45.465
X27.971Y45.561
X28.025Y45.619
X28.064Y45.658
X28.09Y45.683
X28.182Y45.77
X28.241Y45.823
X28.283Y45.858
X28.312Y45.881
X28.412Y45.958
X28.476Y46.005
X28.521Y46.035
X28.551Y46.055
X28.658Y46.123
X28.727Y46.163
X28.775Y46.189
X28.807Y46.206
X28.92Y46.263
X28.975Y46.289
X29.587Y46.564
X30.755Y47.087
X12.811
X12.811Y9.686
X27.75Y9.687
X27.726Y9.732
X27.7Y9.78
X27.677Y9.829
X27.661Y9.862
X27.61Y9.978
X27.58Y10.051
X27.561Y10.102
X27.549Y10.136
X27.509Y10.256
X27.486Y10.332
X27.473Y10.385
X27.464Y10.42
X27.436Y10.543
X27.421Y10.621
X27.412Y10.675
X27.407Y10.711
X27.39Y10.836
X27.383Y10.914
X27.38Y10.969
X27.378Y11.005
X27.374Y11.132
X27.374Y11.211
X27.376Y11.265
X27.378Y11.301
X27.386Y11.428
X27.394Y11.506
X27.401Y11.56
X27.407Y11.596
X27.427Y11.721
X27.437Y11.774
X27.389Y11.77
X27.352Y11.768
X27.225Y11.762
X27.163Y11.761
X26.352Y11.762
X26.297Y11.763
X26.26Y11.764
X26.133Y11.771
X26.054Y11.778
X25.999Y11.785
X25.962Y11.79
X25.836Y11.809
X25.758Y11.824
X25.704Y11.836
X25.668Y11.844
X25.544Y11.876
X25.468Y11.898
X25.415Y11.915
X25.381Y11.927
X25.261Y11.971
X25.187Y12.001
X25.136Y12.023
X25.103Y12.038
X24.988Y12.093
X24.917Y12.13
X24.869Y12.157
X24.837Y12.176
X24.728Y12.242
X24.661Y12.286
X24.616Y12.317
X24.586Y12.339
X24.484Y12.416
X24.422Y12.466
X24.38Y12.501
X24.352Y12.526
X24.258Y12.612
X24.201Y12.668
X24.163Y12.708
X24.138Y12.735
X24.053Y12.83
X24.002Y12.891
X23.967Y12.934
X23.945Y12.964
X23.871Y13.064
X23.847Y13.016
X23.821Y12.967
X23.794Y12.919
X23.776Y12.887
X23.709Y12.778
X23.666Y12.712
X23.634Y12.666
X23.613Y12.637
X23.536Y12.534
X23.486Y12.472
X23.45Y12.43
X23.426Y12.403
X23.34Y12.309
X23.284Y12.252
X23.244Y12.213
X23.217Y12.188
X23.122Y12.103
X23.061Y12.052
X23.017Y12.018
X22.988Y11.996
X22.885Y11.92
X22.819Y11.875
X22.773Y11.845
X22.741Y11.826
X22.632Y11.761
X22.562Y11.723
X22.512Y11.698
X22.479Y11.682
X22.364Y11.628
X22.29Y11.597
X22.239Y11.576
X22.204Y11.564
X22.084Y11.521
X22.008Y11.497
X21.955Y11.482
X21.919Y11.473
X21.795Y11.443
X21.717Y11.426
X21.663Y11.417
X21.626Y11.411
X21.5Y11.393
X21.421Y11.384
X21.366Y11.38
X21.329Y11.378
X21.202Y11.372
X21.14Y11.371
X16.5Y11.371
X16.444Y11.373
X16.408Y11.374
X16.28Y11.381
X16.201Y11.388
X16.146Y11.394
X16.11Y11.399
X15.983Y11.419
X15.905Y11.434
X15.851Y11.445
X15.815Y11.454
X15.692Y11.486
X15.615Y11.508
X15.563Y11.525
X15.528Y11.537
X15.408Y11.581
X15.334Y11.611
X15.283Y11.633
X15.25Y11.648
X15.135Y11.703
X15.064Y11.74
X15.016Y11.767
X14.984Y11.786
X14.875Y11.852
X14.808Y11.896
X14.763Y11.927
X14.733Y11.949
X14.631Y12.025
X14.569Y12.075
X14.527Y12.111
X14.5Y12.136
X14.405Y12.222
X14.348Y12.278
X14.31Y12.318
X14.285Y12.345
X14.2Y12.439
X14.149Y12.501
X14.115Y12.544
X14.092Y12.573
X14.017Y12.676
X13.972Y12.742
X13.942Y12.789
X13.923Y12.82
X13.858Y12.93
X13.82Y13
X13.795Y13.049
X13.779Y13.082
X13.725Y13.198
X13.693Y13.271
X13.673Y13.323
X13.66Y13.357
X13.618Y13.478
X13.594Y13.554
X13.579Y13.607
X13.57Y13.642
X13.539Y13.766
X13.523Y13.844
X13.514Y13.899
X13.508Y13.935
X13.49Y14.061
X13.481Y14.141
X13.477Y14.196
X13.475Y14.232
X13.469Y14.36
X13.468Y14.421
X13.468Y15.39
X13.469Y15.444
X13.471Y15.479
X13.477Y15.603
X13.484Y15.679
X13.49Y15.732
X13.494Y15.768
X13.512Y15.89
X13.526Y15.966
X13.537Y16.018
X13.545Y16.053
X13.575Y16.172
X13.596Y16.247
X13.613Y16.302
X13.594Y16.363
X13.579Y16.416
X13.57Y16.452
X13.539Y16.576
X13.523Y16.654
X13.514Y16.708
X13.508Y16.745
X13.49Y16.871
X13.481Y16.95
X13.477Y17.005
X13.475Y17.042
X13.469Y17.17
X13.468Y17.231
X13.468Y18.2
X13.469Y18.255
X13.471Y18.292
X13.478Y18.42
X13.485Y18.499
X13.491Y18.554
X13.496Y18.59
X13.516Y18.717
X13.53Y18.795
X13.542Y18.849
X13.551Y18.885
X13.582Y19.008
X13.605Y19.085
X13.622Y19.137
X13.643Y19.197
X13.606Y19.299
X13.589Y19.35
X13.564Y19.429
X13.549Y19.48
X13.502Y19.644
X13.489Y19.693
X13.47Y19.771
X13.459Y19.821
X13.423Y19.989
X13.414Y20.037
X13.401Y20.112
X13.394Y20.159
X13.369Y20.333
X13.363Y20.378
X13.355Y20.449
X13.351Y20.494
X13.336Y20.672
X13.333Y20.714
X13.328Y20.823
X13.323Y21.006
X13.323Y21.046
X13.323Y21.15
X13.329Y21.333
X13.33Y21.376
X13.337Y21.485
X13.353Y21.664
X13.357Y21.709
X13.366Y21.78
X13.372Y21.825
X13.397Y22
X13.405Y22.047
X13.419Y22.122
X13.428Y22.169
X13.464Y22.339
X13.476Y22.389
X13.496Y22.466
X13.509Y22.516
X13.556Y22.681
X13.572Y22.731
X13.598Y22.811
X13.615Y22.861
X13.644Y22.941
X13.61Y23.039
X13.594Y23.092
X13.579Y23.145
X13.57Y23.18
X13.539Y23.304
X13.523Y23.382
X13.514Y23.437
X13.508Y23.473
X13.49Y23.599
X13.481Y23.679
X13.477Y23.734
X13.475Y23.771
X13.469Y23.898
X13.468Y23.959
X13.468Y24.929
X13.469Y24.984
X13.471Y25.021
X13.478Y25.149
X13.485Y25.228
X13.491Y25.283
X13.496Y25.319
X13.516Y25.445
X13.53Y25.524
X13.542Y25.578
X13.551Y25.614
X13.57Y25.689
X13.554Y25.741
X13.525Y25.846
X13.509Y25.906
X13.499Y25.946
X13.44Y26.208
X13.429Y26.262
X13.422Y26.298
X13.4Y26.423
X13.392Y26.484
X13.353Y26.793
X13.348Y26.847
X13.338Y26.981
X13.336Y27.013
X13.323Y27.36
X13.324Y27.512
X13.338Y27.869
X13.342Y27.923
X13.354Y28.057
X13.358Y28.089
X13.393Y28.371
X13.402Y28.426
X13.408Y28.462
X13.431Y28.588
X13.443Y28.648
X13.503Y28.91
X13.519Y28.971
X13.53Y29.012
X13.556Y29.102
X13.534Y29.194
X13.523Y29.248
X13.514Y29.303
X13.508Y29.339
X13.49Y29.465
X13.481Y29.545
X13.477Y29.6
X13.475Y29.637
X13.469Y29.764
X13.468Y29.825
X13.468Y30.865
X13.469Y30.922
X13.471Y30.96
X13.478Y31.091
X13.486Y31.173
X13.493Y31.229
X13.498Y31.266
X13.518Y31.396
X13.534Y31.476
X13.546Y31.532
X13.556Y31.569
X13.589Y31.695
X13.606Y31.753
X13.579Y31.846
X13.57Y31.881
X13.539Y32.005
X13.523Y32.083
X13.514Y32.138
X13.508Y32.174
X13.49Y32.3
X13.481Y32.38
X13.477Y32.435
X13.475Y32.472
X13.469Y32.599
X13.468Y32.66
X13.468Y33.63
X13.469Y33.685
X13.471Y33.722
X13.478Y33.85
X13.485Y33.929
X13.491Y33.984
X13.494Y34.002
X13.487Y34.056
X13.481Y34.111
X13.477Y34.166
X13.475Y34.203
X13.469Y34.33
X13.468Y34.392
X13.468Y37.866
X13.469Y37.921
X13.471Y37.958
X13.478Y38.086
X13.485Y38.165
X13.491Y38.22
X13.496Y38.256
X13.516Y38.382
X13.53Y38.461
X13.542Y38.515
X13.551Y38.55
X13.582Y38.674
X13.605Y38.751
X13.622Y38.803
X13.634Y38.838
X13.662Y38.916
X13.65Y38.95
X13.61Y39.067
X13.587Y39.141
X13.573Y39.193
X13.564Y39.228
X13.536Y39.348
X13.52Y39.424
X13.511Y39.477
X13.506Y39.512
X13.488Y39.635
X13.48Y39.712
X13.476Y39.766
X13.474Y39.802
X13.469Y39.925
X13.468Y39.985
X13.468Y40.809
X13.469Y40.863
X13.471Y40.898
X13.477Y41.023
X13.484Y41.1
X13.49Y41.154
X13.495Y41.189
X13.513Y41.313
X13.527Y41.389
X13.539Y41.442
X13.547Y41.477
X13.577Y41.598
X13.598Y41.672
X13.615Y41.724
X13.626Y41.758
X13.668Y41.875
X13.696Y41.948
X13.717Y41.997
X13.732Y42.03
X13.784Y42.143
X13.82Y42.212
X13.845Y42.26
X13.863Y42.291
X13.926Y42.398
X13.968Y42.464
X13.998Y42.509
X14.019Y42.538
X14.092Y42.639
X14.14Y42.7
X14.174Y42.742
X14.198Y42.769
X14.28Y42.862
X14.333Y42.919
X14.371Y42.957
X14.397Y42.982
X14.488Y43.067
X14.547Y43.118
X14.589Y43.152
X14.617Y43.175
X14.715Y43.251
X14.779Y43.296
X14.823Y43.326
X14.853Y43.346
X14.959Y43.412
X15.026Y43.451
X15.074Y43.477
X15.105Y43.493
X15.217Y43.549
X15.287Y43.581
X15.337Y43.602
X15.37Y43.616
X15.486Y43.661
X15.543Y43.681
X15.703Y43.207
X20.337Y44.77
X20.378Y44.784
X20.408Y44.792
X20.521Y44.824
X20.582Y44.838
X20.625Y44.847
X20.655Y44.853
X20.771Y44.873
X20.833Y44.882
X20.876Y44.886
X20.907Y44.889
X21.024Y44.897
X21.086Y44.9
X21.13Y44.9
X21.161Y44.9
X21.278Y44.896
X21.341Y44.892
X21.384Y44.888
X21.415Y44.885
X21.531Y44.87
X21.593Y44.86
X21.636Y44.851
X21.666Y44.845
X21.78Y44.818
X21.841Y44.802
X21.882Y44.79
X21.912Y44.78
X22.023Y44.742
X22.081Y44.72
X22.122Y44.704
X22.15Y44.691
X22.257Y44.642
X22.313Y44.615
X22.351Y44.594
X22.378Y44.579
X22.48Y44.52
X22.533Y44.487
X22.569Y44.462
X22.594Y44.444
X22.689Y44.376
X22.739Y44.337
X22.772Y44.309
X22.796Y44.289
X22.883Y44.211
X22.929Y44.168
X22.959Y44.137
X22.981Y44.114
X23.06Y44.028
X23.101Y43.981
X23.128Y43.947
X23.147Y43.922
X23.218Y43.829
X23.253Y43.777
X23.277Y43.741
X23.294Y43.714
X23.355Y43.614
X23.385Y43.56
X23.405Y43.521
X23.419Y43.493
X23.47Y43.387
X23.491Y43.338
X26.482Y44.183
X26.523Y44.194
X26.552Y44.201
X26.664Y44.226
X26.723Y44.238
X26.765Y44.245
X26.795Y44.249
X26.909Y44.263
X26.969Y44.269
X27.011Y44.271
X27.042Y44.273
X27.156Y44.276
X27.216Y44.276
X27.259Y44.274
X27.289Y44.272
X27.403Y44.265
X27.464Y44.258
X27.506Y44.253
X27.536Y44.248
X27.648Y44.229
X27.708Y44.217
X27.749Y44.208
X27.772Y44.202
X27.785Y44.245
X27.794Y44.274
X27.831Y44.382
X27.852Y44.439
X27.868Y44.478
X27.88Y44.506
X27.927Y44.611
X27.954Y44.665
X27.974Y44.703
X27.988Y44.73
X28.045Y44.829
X28.077Y44.881
X28.101Y44.916
X28.118Y44.941
X28.184Y45.035
X28.221Y45.083
X28.248Y45.116
X28.267Y45.139
X28.342Y45.226
X28.384Y45.27
X28.414Y45.301
X28.435Y45.322
X28.518Y45.401
X28.564Y45.441
X28.597Y45.468
X28.62Y45.487
X28.711Y45.558
X28.76Y45.593
X28.795Y45.617
X28.821Y45.634
X28.917Y45.695
X28.97Y45.726
X29.007Y45.746
X29.034Y45.76
X29.136Y45.812
X29.18Y45.832
X29.792Y46.107
X33.093Y47.587
X12.311
X12.311Y9.186
X28.803Y9.186
X28.754Y9.226
X28.722Y9.255
X28.7Y9.275
X28.618Y9.354
X28.575Y9.397
X28.546Y9.428
X28.526Y9.451
X28.451Y9.538
X28.413Y9.585
X28.388Y9.619
X28.37Y9.643
X28.304Y9.736
X28.271Y9.787
X28.248Y9.824
X28.233Y9.85
X28.176Y9.949
X28.148Y10.003
X28.13Y10.041
X28.117Y10.068
X28.07Y10.172
X28.047Y10.229
X28.032Y10.269
X28.022Y10.297
X27.986Y10.405
X27.969Y10.464
X27.958Y10.505
X27.951Y10.534
X27.925Y10.645
X27.913Y10.705
X27.907Y10.747
X27.902Y10.777
X27.888Y10.89
X27.882Y10.951
X27.879Y10.993
X27.878Y11.023
X27.874Y11.137
X27.874Y11.198
X27.875Y11.241
X27.877Y11.271
X27.884Y11.385
X27.89Y11.445
X27.896Y11.487
X27.9Y11.517
X27.919Y11.63
X27.931Y11.69
X27.94Y11.731
X27.947Y11.76
X27.977Y11.871
X27.991Y11.917
X28.163Y12.466
X28.128Y12.451
X28.088Y12.435
X28.059Y12.425
X27.95Y12.386
X27.892Y12.368
X27.851Y12.356
X27.821Y12.348
X27.709Y12.321
X27.649Y12.308
X27.607Y12.301
X27.576Y12.296
X27.462Y12.279
X27.401Y12.273
X27.358Y12.269
X27.328Y12.267
X27.213Y12.262
X27.163Y12.261
X26.359Y12.262
X26.316Y12.262
X26.285Y12.264
X26.17Y12.27
X26.109Y12.275
X26.066Y12.28
X26.036Y12.284
X25.922Y12.302
X25.861Y12.313
X25.819Y12.322
X25.79Y12.329
X25.678Y12.358
X25.619Y12.375
X25.578Y12.388
X25.549Y12.398
X25.441Y12.437
X25.384Y12.46
X25.344Y12.478
X25.316Y12.49
X25.212Y12.54
X25.158Y12.568
X25.121Y12.589
X25.094Y12.605
X24.995Y12.665
X24.944Y12.698
X24.909Y12.723
X24.884Y12.741
X24.792Y12.81
X24.744Y12.848
X24.711Y12.876
X24.688Y12.896
X24.603Y12.974
X24.559Y13.017
X24.529Y13.048
X24.509Y13.071
X24.431Y13.156
X24.392Y13.203
X24.365Y13.237
X24.347Y13.261
X24.279Y13.354
X24.244Y13.405
X24.221Y13.441
X24.205Y13.467
X24.146Y13.566
X24.12Y13.612
X23.558
X23.514Y13.491
X23.491Y13.434
X23.474Y13.395
X23.461Y13.367
X23.412Y13.263
X23.383Y13.208
X23.362Y13.171
X23.347Y13.144
X23.287Y13.046
X23.254Y12.994
X23.229Y12.959
X23.211Y12.934
X23.142Y12.842
X23.103Y12.794
X23.076Y12.761
X23.055Y12.739
X22.977Y12.653
X22.935Y12.61
X22.904Y12.58
X22.881Y12.559
X22.795Y12.482
X22.748Y12.442
X22.715Y12.416
X22.69Y12.397
X22.597Y12.329
X22.547Y12.294
X22.51Y12.271
X22.484Y12.255
X22.385Y12.196
X22.331Y12.167
X22.293Y12.147
X22.266Y12.134
X22.161Y12.085
X22.105Y12.061
X22.065Y12.045
X22.036Y12.034
X21.927Y11.996
X21.869Y11.978
X21.827Y11.966
X21.798Y11.958
X21.686Y11.931
X21.626Y11.918
X21.583Y11.91
X21.553Y11.906
X21.439Y11.889
X21.378Y11.882
X21.335Y11.879
X21.304Y11.877
X21.189Y11.872
X21.14Y11.871
X16.506Y11.871
X16.463Y11.872
X16.432Y11.873
X16.317Y11.879
X16.256Y11.885
X16.213Y11.89
X16.183Y11.894
X16.069Y11.911
X16.009Y11.923
X15.967Y11.932
X15.937Y11.939
X15.825Y11.968
X15.766Y11.985
X15.725Y11.998
X15.696Y12.008
X15.588Y12.047
X15.531Y12.07
X15.492Y12.087
X15.464Y12.1
X15.36Y12.15
X15.305Y12.178
X15.268Y12.199
X15.241Y12.215
X15.143Y12.274
X15.091Y12.308
X15.056Y12.332
X15.031Y12.351
X14.939Y12.42
X14.891Y12.458
X14.858Y12.486
X14.835Y12.506
X14.75Y12.584
X14.706Y12.627
X14.677Y12.658
X14.656Y12.68
X14.579Y12.766
X14.539Y12.813
X14.513Y12.847
X14.494Y12.871
X14.426Y12.964
X14.391Y13.015
X14.368Y13.051
X14.352Y13.077
X14.293Y13.176
X14.263Y13.23
X14.244Y13.268
X14.231Y13.296
X14.182Y13.4
X14.158Y13.457
X14.142Y13.497
X14.131Y13.526
X14.093Y13.634
X14.074Y13.693
X14.063Y13.734
X14.055Y13.764
X14.027Y13.876
X14.015Y13.936
X14.007Y13.978
X14.002Y14.008
X13.986Y14.123
X13.979Y14.184
X13.976Y14.226
X13.974Y14.257
X13.969Y14.372
X13.968Y14.421
X13.968Y15.385
X13.969Y15.426
X13.97Y15.456
X13.976Y15.567
X13.981Y15.626
X13.985Y15.667
X13.989Y15.697
X14.006Y15.807
X14.016Y15.865
X14.025Y15.906
X14.031Y15.935
X14.058Y16.043
X14.074Y16.1
X14.087Y16.14
X14.096Y16.168
X14.133Y16.273
X14.144Y16.302
X14.131Y16.335
X14.093Y16.444
X14.074Y16.503
X14.063Y16.544
X14.055Y16.574
X14.027Y16.686
X14.015Y16.746
X14.007Y16.788
X14.002Y16.818
X13.986Y16.932
X13.979Y16.993
X13.976Y17.036
X13.974Y17.067
X13.969Y17.182
X13.968Y17.231
X13.968Y18.194
X13.969Y18.237
X13.97Y18.268
X13.976Y18.383
X13.982Y18.444
X13.987Y18.487
X13.991Y18.517
X14.008Y18.631
X14.02Y18.691
X14.029Y18.733
X14.036Y18.763
X14.064Y18.875
X14.082Y18.934
X14.095Y18.975
X14.105Y19.004
X14.144Y19.112
X14.167Y19.169
X14.179Y19.196
X14.15Y19.268
X14.134Y19.311
X14.079Y19.461
X14.065Y19.503
X14.042Y19.574
X14.029Y19.617
X13.985Y19.773
X13.975Y19.814
X13.957Y19.883
X13.948Y19.924
X13.914Y20.085
X13.906Y20.125
X13.895Y20.192
X13.888Y20.231
X13.864Y20.397
X13.86Y20.435
X13.852Y20.498
X13.849Y20.536
X13.835Y20.706
X13.832Y20.742
X13.828Y20.837
X13.823Y21.012
X13.823Y21.046
X13.823Y21.136
X13.828Y21.312
X13.83Y21.348
X13.836Y21.443
X13.85Y21.614
X13.854Y21.652
X13.861Y21.715
X13.866Y21.753
X13.891Y21.92
X13.897Y21.959
X13.909Y22.026
X13.917Y22.066
X13.952Y22.227
X13.961Y22.269
X13.979Y22.338
X13.99Y22.379
X14.034Y22.535
X14.047Y22.578
X14.071Y22.648
X14.085Y22.69
X14.14Y22.841
X14.157Y22.884
X14.18Y22.942
X14.158Y22.995
X14.142Y23.035
X14.131Y23.064
X14.093Y23.172
X14.074Y23.231
X14.063Y23.272
X14.055Y23.302
X14.027Y23.414
X14.015Y23.474
X14.007Y23.516
X14.002Y23.547
X13.986Y23.661
X13.979Y23.722
X13.976Y23.764
X13.974Y23.795
X13.969Y23.91
X13.968Y23.959
X13.968Y24.923
X13.969Y24.966
X13.97Y24.997
X13.976Y25.112
X13.982Y25.173
X13.987Y25.216
X13.991Y25.246
X14.008Y25.36
X14.02Y25.42
X14.029Y25.462
X14.036Y25.492
X14.064Y25.604
X14.082Y25.663
X14.094Y25.701
X14.06Y25.8
X14.045Y25.846
X14.035Y25.879
X14.007Y25.977
X13.995Y26.023
X13.987Y26.057
X13.929Y26.313
X13.92Y26.355
X13.914Y26.385
X13.895Y26.498
X13.888Y26.546
X13.85Y26.845
X13.846Y26.888
X13.837Y27.006
X13.836Y27.033
X13.823Y27.365
X13.824Y27.497
X13.837Y27.839
X13.84Y27.882
X13.851Y28
X13.854Y28.026
X13.889Y28.302
X13.895Y28.344
X13.9Y28.375
X13.921Y28.489
X13.931Y28.537
X13.989Y28.792
X14.001Y28.84
X14.01Y28.873
X14.039Y28.972
X14.054Y29.019
X14.065Y29.052
X14.077Y29.088
X14.063Y29.138
X14.055Y29.168
X14.027Y29.28
X14.015Y29.34
X14.007Y29.382
X14.002Y29.412
X13.986Y29.527
X13.979Y29.588
X13.976Y29.63
X13.974Y29.661
X13.969Y29.776
X13.968Y29.825
X13.968Y30.859
X13.969Y30.903
X13.97Y30.935
X13.977Y31.053
X13.982Y31.116
X13.988Y31.16
X13.992Y31.191
X14.01Y31.308
X14.022Y31.37
X14.032Y31.413
X14.04Y31.444
X14.07Y31.558
X14.088Y31.619
X14.102Y31.661
X14.113Y31.69
X14.135Y31.753
X14.093Y31.873
X14.074Y31.932
X14.063Y31.973
X14.055Y32.003
X14.027Y32.115
X14.015Y32.175
X14.007Y32.217
X14.002Y32.247
X13.986Y32.362
X13.979Y32.423
X13.976Y32.465
X13.974Y32.496
X13.969Y32.611
X13.968Y32.66
X13.968Y33.624
X13.969Y33.667
X13.97Y33.698
X13.976Y33.813
X13.982Y33.874
X13.987Y33.917
X13.999Y34.002
X13.986Y34.093
X13.979Y34.154
X13.976Y34.197
X13.974Y34.227
X13.969Y34.342
X13.968Y34.392
X13.968Y37.86
X13.969Y37.903
X13.97Y37.934
X13.976Y38.049
X13.982Y38.11
X13.987Y38.153
X13.991Y38.183
X14.008Y38.297
X14.02Y38.357
X14.029Y38.399
X14.036Y38.429
X14.064Y38.541
X14.082Y38.6
X14.095Y38.64
X14.105Y38.669
X14.144Y38.778
X14.167Y38.835
X14.184Y38.874
X14.204Y38.916
X14.163Y39.008
X14.147Y39.046
X14.132Y39.085
X14.122Y39.114
X14.086Y39.22
X14.069Y39.277
X14.057Y39.317
X14.05Y39.346
X14.024Y39.455
X14.012Y39.513
X14.005Y39.554
X14Y39.584
X13.985Y39.695
X13.979Y39.754
X13.975Y39.796
X13.974Y39.825
X13.969Y39.937
X13.968Y39.985
X13.968Y40.803
X13.969Y40.845
X13.97Y40.875
X13.976Y40.987
X13.981Y41.047
X13.986Y41.088
X13.99Y41.118
X14.006Y41.229
X14.017Y41.288
X14.026Y41.329
X14.033Y41.358
X14.06Y41.467
X14.076Y41.525
X14.089Y41.565
X14.098Y41.593
X14.136Y41.699
X14.158Y41.755
X14.174Y41.794
X14.186Y41.821
X14.234Y41.923
X14.261Y41.977
X14.281Y42.013
X14.295Y42.039
X14.352Y42.136
X14.384Y42.187
X14.408Y42.222
X14.425Y42.246
X14.491Y42.338
X14.528Y42.385
X14.554Y42.417
X14.574Y42.44
X14.648Y42.524
X14.689Y42.568
X14.719Y42.597
X14.741Y42.618
X14.823Y42.695
X14.868Y42.735
X14.9Y42.761
X14.924Y42.78
X15.013Y42.849
X15.061Y42.884
X15.096Y42.907
X15.121Y42.923
X15.216Y42.983
X15.268Y43.013
X15.305Y43.033
X15.331Y43.047
X15.432Y43.098
X15.486Y43.123
X15.525Y43.139
X15.553Y43.15
X15.658Y43.191
X15.703Y43.207
G0Z2
X29.713Y38.545
G1Z-0.8F75
X29.713Y38.31F150
X29.711Y38.261
X29.705Y38.147
X29.7Y38.087
X29.695Y38.045
X29.691Y38.015
X29.674Y37.902
X29.663Y37.842
X29.654Y37.801
X29.647Y37.771
X29.619Y37.661
X29.61Y37.626
X29.627Y37.563
X29.654Y37.451
X29.667Y37.391
X29.674Y37.349
X29.679Y37.319
X29.696Y37.205
X29.702Y37.144
X29.706Y37.101
X29.707Y37.07
X29.713Y36.955
X29.713Y36.906
Y36.353
X29.723Y36.394
X29.733Y36.434
X29.742Y36.463
X29.773Y36.57
X29.792Y36.627
X29.807Y36.666
X29.817Y36.694
X29.859Y36.798
X29.883Y36.853
X29.901Y36.891
X29.915Y36.917
X29.966Y37.017
X29.996Y37.069
X30.009Y37.092
X29.99Y37.185
X29.982Y37.226
X29.942Y37.458
X29.936Y37.5
X29.927Y37.571
X29.922Y37.613
X29.898Y37.845
X29.894Y37.888
X29.89Y37.96
X29.888Y38.003
X29.88Y38.234
X29.879Y38.278
X29.88Y38.351
X29.881Y38.395
X29.882Y38.441
X29.818Y38.477
X29.781Y38.501
X29.744Y38.525
X29.713Y38.545
G0Z2
X30.212Y31.192
G1Z-0.8F75
X30.213Y31.11F150
Y30.278
X30.506Y30.871
X30.446Y30.931
X30.421Y30.956
X30.336Y31.046
X30.284Y31.103
X30.25Y31.144
X30.212Y31.192
X29.713Y31.165
X29.713Y31.11
X29.713Y30.146
X29.713Y30.103
X29.711Y30.073
X29.705Y29.958
X29.7Y29.896
X29.695Y29.854
X29.691Y29.823
X29.673Y29.709
X29.662Y29.649
X29.653Y29.607
X29.646Y29.577
X29.617Y29.466
X29.6Y29.407
X29.587Y29.366
X29.577Y29.337
X29.537Y29.228
X29.515Y29.171
X29.497Y29.132
X29.485Y29.104
X29.435Y29
X29.406Y28.946
X29.386Y28.908
X29.37Y28.882
X29.31Y28.783
X29.279Y28.735
X29.314Y28.682
X29.33Y28.655
X29.389Y28.556
X29.418Y28.502
X29.438Y28.464
X29.451Y28.437
X29.5Y28.332
X29.524Y28.276
X29.54Y28.236
X29.55Y28.207
X29.589Y28.098
X29.607Y28.04
X29.619Y27.998
X29.627Y27.969
X29.654Y27.857
X29.667Y27.797
X29.674Y27.754
X29.687Y27.67
X29.691Y27.71
X29.694Y27.74
X29.708Y27.853
X29.718Y27.913
X29.726Y27.954
X29.732Y27.984
X29.757Y28.095
X29.772Y28.153
X29.784Y28.194
X29.793Y28.222
X29.828Y28.33
X29.849Y28.387
X29.865Y28.426
X29.877Y28.454
X29.923Y28.558
X29.943Y28.602
X31.131Y31.007
X31.048Y31.067
X31.015Y31.092
X30.983Y31.119
X30.96Y31.138
X30.876Y31.211
X30.832Y31.252
X30.803Y31.281
X30.782Y31.302
X30.705Y31.383
X30.665Y31.427
X30.639Y31.459
X30.62Y31.482
X30.551Y31.57
X30.516Y31.618
X30.492Y31.652
X30.476Y31.677
X30.415Y31.771
X30.385Y31.822
X30.365Y31.859
X30.351Y31.885
X30.3Y31.984
X30.274Y32.038
X30.258Y32.076
X30.246Y32.103
X30.205Y32.207
X30.185Y32.263
X30.172Y32.303
X30.163Y32.331
X30.132Y32.438
X30.117Y32.496
X30.108Y32.536
X30.102Y32.565
X30.08Y32.675
X30.073Y32.722
X29.675Y35.426
X29.673Y35.444
X29.663Y35.395
X29.654Y35.353
X29.647Y35.324
X29.62Y35.214
X29.603Y35.155
X29.599Y35.143
X29.615Y35.091
X29.626Y35.051
X29.633Y35.022
X29.658Y34.914
X29.67Y34.856
X29.677Y34.815
X29.682Y34.786
X29.697Y34.676
X29.703Y34.617
X29.706Y34.576
X29.708Y34.547
X29.713Y34.436
X29.713Y34.388
X29.713Y33.324
X29.713Y33.282
X29.711Y33.252
X29.706Y33.141
X29.701Y33.081
X29.696Y33.04
X29.692Y33.011
X29.676Y32.9
X29.665Y32.841
X29.656Y32.801
X29.65Y32.772
X29.623Y32.663
X29.607Y32.606
X29.594Y32.566
X29.585Y32.538
X29.548Y32.432
X29.526Y32.377
X29.51Y32.338
X29.498Y32.311
X29.457Y32.222
X29.5Y32.131
X29.524Y32.074
X29.54Y32.034
X29.55Y32.006
X29.589Y31.897
X29.607Y31.838
X29.619Y31.797
X29.627Y31.767
X29.654Y31.656
X29.667Y31.595
X29.674Y31.553
X29.679Y31.523
X29.696Y31.409
X29.702Y31.348
X29.706Y31.305
X29.707Y31.274
X29.713Y31.165
G0Z2
X30.113Y25.276
G1Z-0.8F75
X30.142Y25.157F150
X30.158Y25.078
X30.168Y25.024
X30.174Y24.988
X30.192Y24.861
X30.2Y24.782
X30.205Y24.727
X30.207Y24.69
X30.213Y24.563
X30.213Y24.501
X30.213Y23.532
X30.212Y23.477
X30.211Y23.44
X30.204Y23.312
X30.197Y23.233
X30.19Y23.178
X30.181Y23.116
X30.195Y23.017
X30.2Y22.962
X30.205Y22.907
X30.207Y22.87
X30.213Y22.743
X30.213Y22.681
Y22.4
X30.247Y22.45
X30.268Y22.48
X30.343Y22.584
X30.392Y22.648
X30.427Y22.69
X30.451Y22.718
X30.535Y22.815
X30.59Y22.873
X30.63Y22.912
X30.656Y22.938
X30.75Y23.025
X30.765Y23.039
X31.02Y24.672
X30.98Y24.69
X30.866Y24.744
X30.796Y24.78
X30.748Y24.806
X30.717Y24.824
X30.609Y24.888
X30.543Y24.931
X30.498Y24.961
X30.469Y24.982
X30.367Y25.057
X30.306Y25.105
X30.264Y25.14
X30.237Y25.164
X30.143Y25.248
X30.113Y25.276
X30.457Y25.639
X30.41Y25.686
X30.389Y25.708
X30.312Y25.791
X30.273Y25.837
X30.246Y25.87
X30.228Y25.893
X30.159Y25.984
X30.124Y26.033
X30.101Y26.068
X30.084Y26.094
X30.025Y26.191
X29.995Y26.243
X29.975Y26.28
X29.962Y26.307
X29.912Y26.409
X29.887Y26.464
X29.871Y26.504
X29.86Y26.532
X29.82Y26.638
X29.801Y26.695
X29.788Y26.736
X29.78Y26.765
X29.751Y26.874
X29.737Y26.933
X29.729Y26.975
X29.713Y27.062
X29.713Y26.323
X29.713Y26.281
X29.711Y26.252
X29.706Y26.14
X29.701Y26.081
X29.696Y26.04
X29.692Y26.011
X29.676Y25.9
X29.665Y25.842
X29.657Y25.802
X29.65Y25.773
X29.624Y25.664
X29.608Y25.607
X29.595Y25.568
X29.586Y25.54
X29.549Y25.435
X29.543Y25.418
X29.581Y25.312
X29.594Y25.271
X29.607Y25.23
X29.619Y25.189
X29.627Y25.159
X29.654Y25.047
X29.667Y24.987
X29.674Y24.945
X29.679Y24.914
X29.696Y24.8
X29.702Y24.739
X29.706Y24.696
X29.707Y24.666
X29.713Y24.551
X29.713Y24.501
X29.713Y23.538
X29.713Y23.495
X29.711Y23.464
X29.705Y23.349
X29.7Y23.288
X29.695Y23.245
X29.691Y23.215
X29.676Y23.116
X29.692Y23.004
X29.698Y22.962
X29.702Y22.919
X29.706Y22.876
X29.707Y22.846
X29.713Y22.73
X29.713Y22.681
X29.713Y21.718
X29.713Y21.675
X29.711Y21.644
X29.705Y21.529
X29.7Y21.468
X29.695Y21.425
X29.691Y21.395
X29.673Y21.281
X29.662Y21.221
X29.653Y21.179
X29.646Y21.149
X29.617Y21.037
X29.6Y20.978
X29.587Y20.937
X29.577Y20.908
X29.555Y20.849
X29.589Y20.754
X29.607Y20.696
X29.619Y20.654
X29.627Y20.625
X29.654Y20.513
X29.667Y20.453
X29.674Y20.41
X29.679Y20.38
X29.696Y20.266
X29.702Y20.205
X29.706Y20.162
X29.707Y20.132
X29.713Y20.016
X29.713Y19.967
X29.713Y19.004
X29.713Y18.961
X29.711Y18.93
X29.705Y18.815
X29.701Y18.766
X29.706Y18.71
X29.707Y18.679
X29.713Y18.564
X29.713Y18.515
Y18.063
X30.267Y21.201
X30.275Y21.243
X30.282Y21.273
X30.308Y21.386
X30.324Y21.445
X30.336Y21.487
X30.346Y21.516
X30.383Y21.625
X30.405Y21.683
X30.421Y21.723
X30.433Y21.751
X30.481Y21.857
X30.508Y21.912
X30.529Y21.95
X30.544Y21.977
X30.601Y22.077
X30.634Y22.129
X30.658Y22.165
X30.676Y22.19
X30.743Y22.285
X30.781Y22.333
X30.808Y22.367
X30.828Y22.39
X30.904Y22.477
X30.947Y22.522
X30.977Y22.552
X30.999Y22.574
X31.084Y22.653
X31.13Y22.693
X31.163Y22.721
X31.213Y22.76
X31.232Y22.789
X31.581Y25.006
X31.529Y25.02
X31.489Y25.032
X31.448Y25.045
X31.42Y25.054
X31.313Y25.093
X31.257Y25.115
X31.218Y25.131
X31.19Y25.144
X31.088Y25.192
X31.034Y25.22
X30.997Y25.24
X30.97Y25.255
X30.873Y25.313
X30.822Y25.346
X30.787Y25.369
X30.762Y25.387
X30.671Y25.454
X30.623Y25.491
X30.591Y25.518
X30.568Y25.538
X30.483Y25.614
X30.457Y25.639
G0Z2
X29.713Y16.624
G1Z-0.8F75
Y15.632F150
X29.755Y15.66
X29.79Y15.683
X29.84Y15.714
X29.901Y16.144
X29.869Y16.207
X29.842Y16.264
X29.825Y16.304
X29.813Y16.333
X29.77Y16.443
X29.75Y16.502
X29.737Y16.544
X29.713Y16.624
X30.187Y16.787
X30.177Y16.823
X30.17Y16.853
X30.164Y16.884
X30.159Y16.909
X30.141Y17.012
X30.135Y17.056
X30.131Y17.087
X30.129Y17.112
X30.122Y17.216
X30.12Y17.26
X30.12Y17.291
X30.12Y17.316
X30.123Y17.422
X30.126Y17.465
X30.128Y17.496
X30.131Y17.521
X30.145Y17.625
X30.151Y17.663
X30.758Y21.108
X30.764Y21.138
X30.769Y21.162
X30.793Y21.263
X30.804Y21.304
X30.812Y21.334
X30.82Y21.357
X30.853Y21.455
X30.868Y21.496
X30.88Y21.524
X30.89Y21.547
X30.932Y21.641
X30.951Y21.68
X30.966Y21.707
X30.978Y21.729
X31.029Y21.818
X31.052Y21.855
X31.069Y21.88
X31.083Y21.901
X31.143Y21.985
X31.17Y22.019
X31.189Y22.043
X31.205Y22.062
X31.273Y22.139
X31.303Y22.171
X31.324Y22.193
X31.342Y22.21
X31.418Y22.281
X31.45Y22.309
X31.474Y22.329
X31.493Y22.344
X31.575Y22.407
X31.593Y22.42
X31.643Y22.503
X31.666Y22.539
X31.683Y22.565
X31.712Y22.604
X31.718Y22.66
X31.722Y22.684
X32.152Y25.424
X32.068Y25.429
X32.026Y25.432
X31.996Y25.436
X31.889Y25.451
X31.859Y25.456
X31.83Y25.461
X31.8Y25.468
X31.696Y25.493
X31.666Y25.501
X31.637Y25.509
X31.609Y25.518
X31.507Y25.554
X31.479Y25.564
X31.451Y25.576
X31.423Y25.587
X31.325Y25.633
X31.298Y25.646
X31.271Y25.66
X31.245Y25.674
X31.152Y25.728
X31.126Y25.744
X31.101Y25.76
X31.076Y25.777
X30.989Y25.84
X30.965Y25.859
X30.941Y25.877
X30.918Y25.897
X30.837Y25.968
X30.815Y25.988
X30.793Y26.009
X30.772Y26.031
X30.699Y26.109
X30.678Y26.132
X30.659Y26.155
X30.64Y26.178
X30.574Y26.263
X30.556Y26.288
X30.539Y26.312
X30.522Y26.337
X30.465Y26.429
X30.45Y26.455
X30.435Y26.481
X30.421Y26.507
X30.373Y26.604
X30.36Y26.631
X30.348Y26.659
X30.336Y26.687
X30.298Y26.787
X30.287Y26.815
X30.278Y26.844
X30.269Y26.873
X30.241Y26.977
X30.233Y27.006
X30.226Y27.035
X30.22Y27.065
X30.202Y27.171
X30.197Y27.201
X30.194Y27.231
X30.191Y27.261
X30.182Y27.368
X30.181Y27.398
X30.18Y27.428
X30.18Y27.458
X30.182Y27.566
X30.183Y27.596
X30.185Y27.626
X30.188Y27.656
X30.201Y27.763
X30.205Y27.793
X30.21Y27.823
X30.215Y27.852
X30.238Y27.957
X30.245Y27.987
X30.253Y28.016
X30.261Y28.045
X30.294Y28.147
X30.304Y28.176
X30.315Y28.204
X30.326Y28.232
X30.369Y28.331
X30.381Y28.358
X30.392Y28.38
X31.79Y31.209
X31.692Y31.253
X31.655Y31.272
X31.629Y31.286
X31.537Y31.338
X31.512Y31.354
X31.486Y31.369
X31.462Y31.386
X31.375Y31.447
X31.351Y31.464
X31.328Y31.483
X31.305Y31.501
X31.224Y31.57
X31.202Y31.59
X31.181Y31.61
X31.159Y31.631
X31.086Y31.707
X31.066Y31.729
X31.046Y31.751
X31.027Y31.774
X30.961Y31.857
X30.943Y31.88
X30.926Y31.904
X30.909Y31.929
X30.851Y32.018
X30.835Y32.043
X30.82Y32.068
X30.806Y32.094
X30.757Y32.188
X30.744Y32.215
X30.731Y32.242
X30.719Y32.269
X30.679Y32.367
X30.669Y32.395
X30.659Y32.422
X30.649Y32.451
X30.619Y32.552
X30.611Y32.581
X30.604Y32.609
X30.597Y32.638
X30.576Y32.742
X30.571Y32.771
X30.568Y32.795
X30.17Y35.493
X30.167Y35.523
X30.156Y35.629
X30.153Y35.658
X30.152Y35.688
X30.151Y35.718
X30.15Y35.824
X30.151Y35.854
X30.152Y35.884
X30.154Y35.914
X30.163Y36.019
X30.166Y36.049
X30.17Y36.079
X30.175Y36.108
X30.195Y36.213
X30.201Y36.242
X30.208Y36.271
X30.215Y36.3
X30.245Y36.402
X30.253Y36.43
X30.263Y36.459
X30.273Y36.487
X30.312Y36.585
X30.324Y36.613
X30.336Y36.64
X30.349Y36.667
X30.397Y36.762
X30.411Y36.788
X30.426Y36.814
X30.441Y36.84
X30.498Y36.929
X30.515Y36.954
X30.532Y36.979
X30.546Y36.997
X30.501Y37.185
X30.494Y37.218
X30.481Y37.278
X30.475Y37.311
X30.437Y37.535
X30.431Y37.568
X30.423Y37.63
X30.419Y37.664
X30.396Y37.887
X30.393Y37.922
X30.389Y37.985
X30.387Y38.02
X30.38Y38.242
X30.379Y38.277
X30.38Y38.342
X30.38Y38.377
X30.388Y38.598
X30.39Y38.633
X30.395Y38.699
X30.4Y38.747
X30.368Y38.76
X30.271Y38.802
X30.231Y38.821
X30.203Y38.836
X30.18Y38.848
X30.088Y38.899
X30.05Y38.922
X30.023Y38.939
X30.002Y38.953
X29.915Y39.014
X29.88Y39.041
X29.855Y39.06
X29.836Y39.077
X29.755Y39.146
X29.723Y39.176
X29.7Y39.198
X29.682Y39.216
X29.609Y39.293
X29.58Y39.326
X29.56Y39.35
X29.544Y39.37
X29.479Y39.454
X29.453Y39.49
X29.435Y39.516
X29.422Y39.537
X29.366Y39.628
X29.344Y39.666
X29.329Y39.694
X29.317Y39.716
X29.27Y39.812
X29.252Y39.852
X29.24Y39.881
X29.231Y39.905
X29.194Y40.004
X29.182Y40.04
X29.14Y40.174
X29.133Y40.149
X29.124Y40.12
X29.115Y40.091
X29.083Y40.001
X29.115Y39.911
X29.128Y39.87
X29.136Y39.841
X29.163Y39.736
X29.17Y39.706
X29.176Y39.676
X29.181Y39.646
X29.197Y39.539
X29.201Y39.508
X29.204Y39.478
X29.207Y39.448
X29.212Y39.339
X29.213Y39.309
X29.213Y39.284
X29.213Y38.34
X29.213Y38.31
X29.208Y38.202
X29.206Y38.171
X29.203Y38.141
X29.2Y38.111
X29.184Y38.004
X29.179Y37.974
X29.174Y37.945
X29.167Y37.915
X29.142Y37.81
X29.134Y37.781
X29.125Y37.752
X29.116Y37.723
X29.082Y37.626
X29.114Y37.536
X29.127Y37.495
X29.135Y37.466
X29.142Y37.442
X29.166Y37.342
X29.175Y37.3
X29.181Y37.27
X29.185Y37.246
X29.199Y37.144
X29.204Y37.101
X29.207Y37.07
X29.208Y37.046
X29.213Y36.943
X29.213Y36.906
X29.213Y35.892
X29.213Y35.862
X29.208Y35.754
X29.206Y35.724
X29.203Y35.694
X29.2Y35.663
X29.184Y35.557
X29.179Y35.527
X29.174Y35.497
X29.168Y35.468
X29.142Y35.363
X29.134Y35.334
X29.126Y35.305
X29.116Y35.276
X29.081Y35.174
X29.069Y35.143
X29.081Y35.112
X29.116Y35.013
X29.125Y34.985
X29.133Y34.957
X29.141Y34.928
X29.166Y34.826
X29.172Y34.797
X29.178Y34.768
X29.183Y34.739
X29.198Y34.635
X29.202Y34.606
X29.205Y34.576
X29.207Y34.547
X29.212Y34.442
X29.213Y34.412
X29.213Y34.388
X29.213Y33.33
X29.213Y33.3
X29.208Y33.194
X29.206Y33.165
X29.204Y33.135
X29.2Y33.105
X29.185Y33.001
X29.181Y32.971
X29.175Y32.942
X29.169Y32.913
X29.144Y32.81
X29.137Y32.781
X29.129Y32.752
X29.12Y32.724
X29.085Y32.624
X29.075Y32.596
X29.064Y32.568
X29.053Y32.541
X29.009Y32.444
X28.996Y32.417
X28.983Y32.391
X28.969Y32.365
X28.916Y32.273
X28.901Y32.247
X28.885Y32.223
X28.901Y32.197
X28.954Y32.109
X28.974Y32.071
X28.988Y32.044
X28.999Y32.022
X29.043Y31.928
X29.06Y31.889
X29.071Y31.86
X29.079Y31.837
X29.114Y31.74
X29.127Y31.699
X29.135Y31.67
X29.142Y31.646
X29.166Y31.546
X29.175Y31.504
X29.181Y31.474
X29.185Y31.449
X29.199Y31.348
X29.204Y31.305
X29.207Y31.274
X29.212Y31.165
X29.213Y31.135
X29.213Y31.11
X29.213Y30.152
X29.213Y30.122
X29.208Y30.013
X29.206Y29.982
X29.203Y29.952
X29.199Y29.921
X29.196Y29.897
X29.181Y29.795
X29.173Y29.753
X29.166Y29.723
X29.161Y29.699
X29.135Y29.599
X29.123Y29.558
X29.114Y29.528
X29.106Y29.505
X29.071Y29.408
X29.055Y29.368
X29.043Y29.34
X29.033Y29.318
X28.988Y29.225
X28.968Y29.187
X28.954Y29.16
X28.941Y29.139
X28.888Y29.051
X28.865Y29.015
X28.847Y28.989
X28.833Y28.97
X28.771Y28.887
X28.744Y28.853
X28.724Y28.83
X28.708Y28.812
X28.638Y28.735
X28.655Y28.716
X28.724Y28.64
X28.752Y28.607
X28.771Y28.583
X28.786Y28.563
X28.847Y28.48
X28.871Y28.445
X28.888Y28.419
X28.901Y28.398
X28.954Y28.31
X28.974Y28.272
X28.988Y28.245
X28.999Y28.223
X29.043Y28.129
X29.06Y28.09
X29.071Y28.061
X29.079Y28.038
X29.114Y27.941
X29.127Y27.9
X29.135Y27.871
X29.142Y27.847
X29.166Y27.747
X29.175Y27.705
X29.181Y27.675
X29.197Y27.567
X29.201Y27.537
X29.204Y27.506
X29.207Y27.475
X29.212Y27.366
X29.213Y27.336
X29.213Y27.311
X29.213Y26.329
X29.213Y26.299
X29.208Y26.194
X29.206Y26.164
X29.204Y26.135
X29.2Y26.105
X29.186Y26.001
X29.181Y25.971
X29.176Y25.942
X29.169Y25.913
X29.145Y25.811
X29.137Y25.782
X29.129Y25.753
X29.121Y25.725
X29.086Y25.625
X29.076Y25.598
X29.066Y25.57
X29.054Y25.543
X29.011Y25.447
X28.997Y25.418
X29.043Y25.32
X29.06Y25.28
X29.071Y25.252
X29.079Y25.229
X29.114Y25.132
X29.127Y25.091
X29.135Y25.061
X29.142Y25.037
X29.166Y24.937
X29.175Y24.895
X29.181Y24.865
X29.197Y24.757
X29.201Y24.727
X29.204Y24.696
X29.207Y24.666
X29.212Y24.557
X29.213Y24.526
X29.213Y24.501
X29.213Y23.544
X29.213Y23.513
X29.208Y23.404
X29.206Y23.374
X29.203Y23.343
X29.199Y23.313
X29.196Y23.288
X29.181Y23.186
X29.173Y23.144
X29.167Y23.116
X29.175Y23.075
X29.181Y23.045
X29.197Y22.937
X29.201Y22.907
X29.204Y22.876
X29.207Y22.846
X29.212Y22.737
X29.213Y22.706
X29.213Y22.681
X29.213Y21.724
X29.213Y21.693
X29.208Y21.584
X29.206Y21.554
X29.203Y21.523
X29.199Y21.493
X29.196Y21.468
X29.181Y21.366
X29.173Y21.324
X29.166Y21.294
X29.161Y21.27
X29.135Y21.17
X29.123Y21.129
X29.114Y21.1
X29.106Y21.077
X29.071Y20.98
X29.055Y20.94
X29.043Y20.912
X29.013Y20.849
X29.043Y20.786
X29.06Y20.746
X29.071Y20.718
X29.079Y20.695
X29.114Y20.597
X29.127Y20.557
X29.135Y20.527
X29.142Y20.503
X29.166Y20.403
X29.175Y20.361
X29.181Y20.331
X29.197Y20.223
X29.201Y20.193
X29.204Y20.162
X29.207Y20.132
X29.212Y20.023
X29.213Y19.992
X29.213Y19.967
X29.213Y19.01
X29.213Y18.979
X29.208Y18.87
X29.206Y18.839
X29.203Y18.809
X29.198Y18.766
X29.203Y18.722
X29.207Y18.679
X29.212Y18.57
X29.213Y18.54
X29.213Y18.515
X29.213Y14.805
X29.213Y14.775
X29.208Y14.666
X29.206Y14.635
X29.203Y14.604
X29.199Y14.574
X29.196Y14.55
X29.181Y14.448
X29.173Y14.406
X29.166Y14.376
X29.161Y14.352
X29.135Y14.252
X29.123Y14.211
X29.114Y14.181
X29.106Y14.158
X29.071Y14.061
X29.055Y14.021
X29.043Y13.993
X29.033Y13.971
X28.988Y13.878
X28.968Y13.84
X28.954Y13.813
X28.941Y13.792
X28.888Y13.703
X28.865Y13.667
X28.847Y13.642
X28.782Y13.554
X28.763Y13.53
X28.744Y13.506
X28.724Y13.483
X28.708Y13.465
X28.639Y13.388
X28.609Y13.358
X28.587Y13.336
X28.506Y13.263
X28.483Y13.243
X28.459Y13.223
X28.435Y13.204
X28.416Y13.189
X28.333Y13.128
X28.297Y13.104
X28.271Y13.087
X28.25Y13.074
X28.162Y13.021
X28.124Y13.001
X28.097Y12.987
X28.075Y12.976
X27.982Y12.932
X27.942Y12.915
X27.914Y12.904
X27.891Y12.895
X27.794Y12.861
X27.753Y12.848
X27.723Y12.84
X27.699Y12.833
X27.599Y12.809
X27.557Y12.8
X27.527Y12.794
X27.503Y12.79
X27.401Y12.775
X27.358Y12.771
X27.328Y12.768
X27.303Y12.767
X27.2Y12.762
X27.163Y12.761
X26.365Y12.761
X26.334Y12.762
X26.31Y12.763
X26.207Y12.768
X26.164Y12.772
X26.133Y12.775
X26.109Y12.779
X26.007Y12.794
X25.965Y12.802
X25.935Y12.809
X25.911Y12.814
X25.811Y12.84
X25.77Y12.852
X25.741Y12.861
X25.718Y12.869
X25.621Y12.904
X25.581Y12.92
X25.553Y12.932
X25.53Y12.942
X25.437Y12.987
X25.399Y13.006
X25.372Y13.021
X25.351Y13.034
X25.263Y13.087
X25.227Y13.11
X25.202Y13.128
X25.182Y13.142
X25.099Y13.204
X25.066Y13.231
X25.042Y13.251
X25.024Y13.267
X24.948Y13.336
X24.917Y13.366
X24.896Y13.388
X24.879Y13.406
X24.81Y13.483
X24.782Y13.516
X24.763Y13.54
X24.748Y13.559
X24.687Y13.642
X24.663Y13.678
X24.646Y13.703
X24.634Y13.724
X24.581Y13.813
X24.56Y13.851
X24.546Y13.878
X24.535Y13.9
X24.492Y13.993
X24.475Y14.033
X24.463Y14.061
X24.445Y14.112
X23.166
X23.155Y14.045
X23.15Y14.015
X23.143Y13.985
X23.137Y13.961
X23.112Y13.862
X23.1Y13.82
X23.091Y13.791
X23.083Y13.768
X23.048Y13.671
X23.032Y13.631
X23.02Y13.603
X23.009Y13.581
X22.965Y13.488
X22.945Y13.45
X22.93Y13.423
X22.918Y13.402
X22.865Y13.313
X22.841Y13.277
X22.824Y13.252
X22.809Y13.232
X22.748Y13.15
X22.721Y13.116
X22.701Y13.093
X22.685Y13.074
X22.615Y12.998
X22.585Y12.967
X22.563Y12.946
X22.483Y12.873
X22.459Y12.852
X22.436Y12.833
X22.412Y12.814
X22.392Y12.799
X22.309Y12.738
X22.274Y12.713
X22.248Y12.697
X22.227Y12.684
X22.139Y12.631
X22.101Y12.611
X22.074Y12.597
X22.052Y12.586
X21.958Y12.542
X21.919Y12.525
X21.89Y12.514
X21.867Y12.505
X21.77Y12.471
X21.729Y12.458
X21.7Y12.449
X21.676Y12.443
X21.576Y12.418
X21.534Y12.41
X21.504Y12.404
X21.48Y12.4
X21.378Y12.385
X21.335Y12.381
X21.304Y12.378
X21.28Y12.377
X21.177Y12.372
X21.14Y12.371
X16.512Y12.371
X16.481Y12.372
X16.457Y12.373
X16.354Y12.378
X16.311Y12.382
X16.281Y12.385
X16.256Y12.389
X16.154Y12.404
X16.112Y12.412
X16.082Y12.418
X16.058Y12.424
X15.958Y12.449
X15.917Y12.461
X15.888Y12.471
X15.865Y12.479
X15.768Y12.514
X15.728Y12.53
X15.7Y12.542
X15.677Y12.552
X15.584Y12.597
X15.546Y12.616
X15.52Y12.631
X15.498Y12.644
X15.41Y12.697
X15.374Y12.72
X15.349Y12.738
X15.329Y12.752
X15.246Y12.814
X15.213Y12.841
X15.189Y12.86
X15.171Y12.877
X15.095Y12.946
X15.064Y12.976
X15.043Y12.998
X15.026Y13.016
X14.957Y13.093
X14.93Y13.126
X14.91Y13.15
X14.896Y13.169
X14.834Y13.252
X14.81Y13.287
X14.794Y13.313
X14.781Y13.334
X14.728Y13.423
X14.707Y13.46
X14.693Y13.488
X14.683Y13.51
X14.639Y13.603
X14.622Y13.642
X14.611Y13.671
X14.602Y13.694
X14.568Y13.791
X14.555Y13.832
X14.546Y13.862
X14.54Y13.885
X14.515Y13.985
X14.506Y14.027
X14.501Y14.058
X14.497Y14.082
X14.482Y14.184
X14.477Y14.226
X14.475Y14.257
X14.473Y14.282
X14.469Y14.384
X14.468Y14.421
X14.468Y15.379
X14.469Y15.408
X14.473Y15.514
X14.475Y15.543
X14.478Y15.573
X14.481Y15.602
X14.496Y15.707
X14.501Y15.736
X14.506Y15.765
X14.512Y15.794
X14.537Y15.897
X14.544Y15.926
X14.552Y15.954
X14.561Y15.983
X14.595Y16.082
X14.605Y16.11
X14.616Y16.138
X14.628Y16.165
X14.671Y16.261
X14.691Y16.302
X14.646Y16.396
X14.634Y16.424
X14.622Y16.452
X14.611Y16.481
X14.602Y16.504
X14.568Y16.601
X14.555Y16.642
X14.546Y16.671
X14.54Y16.695
X14.515Y16.795
X14.506Y16.837
X14.501Y16.867
X14.497Y16.891
X14.482Y16.993
X14.477Y17.036
X14.475Y17.067
X14.473Y17.091
X14.469Y17.194
X14.468Y17.231
X14.468Y18.188
X14.469Y18.219
X14.47Y18.243
X14.475Y18.346
X14.479Y18.389
X14.482Y18.419
X14.485Y18.444
X14.501Y18.546
X14.509Y18.588
X14.515Y18.618
X14.521Y18.642
X14.546Y18.742
X14.558Y18.783
X14.568Y18.812
X14.576Y18.835
X14.611Y18.932
X14.626Y18.972
X14.639Y19
X14.649Y19.022
X14.693Y19.116
X14.713Y19.154
X14.731Y19.185
X14.717Y19.214
X14.656Y19.351
X14.642Y19.384
X14.617Y19.447
X14.604Y19.481
X14.552Y19.624
X14.541Y19.657
X14.521Y19.72
X14.51Y19.754
X14.468Y19.901
X14.46Y19.934
X14.445Y19.995
X14.437Y20.028
X14.405Y20.181
X14.399Y20.213
X14.388Y20.272
X14.383Y20.303
X14.36Y20.462
X14.356Y20.492
X14.35Y20.548
X14.347Y20.578
X14.333Y20.741
X14.331Y20.769
X14.329Y20.822
X14.327Y20.85
X14.323Y21.019
X14.323Y21.096
X14.323Y21.123
X14.328Y21.292
X14.329Y21.32
X14.332Y21.373
X14.334Y21.401
X14.348Y21.565
X14.351Y21.595
X14.357Y21.651
X14.361Y21.681
X14.384Y21.84
X14.39Y21.871
X14.4Y21.93
X14.406Y21.962
X14.439Y22.115
X14.447Y22.148
X14.462Y22.209
X14.471Y22.242
X14.513Y22.39
X14.523Y22.424
X14.543Y22.486
X14.555Y22.52
X14.607Y22.662
X14.62Y22.696
X14.645Y22.759
X14.66Y22.793
X14.732Y22.953
X14.713Y22.988
X14.693Y23.026
X14.683Y23.048
X14.639Y23.141
X14.622Y23.181
X14.611Y23.209
X14.602Y23.232
X14.568Y23.329
X14.555Y23.37
X14.546Y23.4
X14.54Y23.423
X14.515Y23.523
X14.506Y23.565
X14.501Y23.596
X14.497Y23.62
X14.482Y23.722
X14.477Y23.765
X14.475Y23.795
X14.473Y23.82
X14.469Y23.923
X14.468Y23.959
X14.468Y24.917
X14.469Y24.948
X14.47Y24.972
X14.475Y25.075
X14.479Y25.118
X14.482Y25.148
X14.485Y25.173
X14.501Y25.275
X14.509Y25.317
X14.515Y25.347
X14.521Y25.371
X14.546Y25.47
X14.558Y25.512
X14.568Y25.541
X14.576Y25.564
X14.611Y25.661
X14.625Y25.697
X14.613Y25.729
X14.534Y25.958
X14.524Y25.99
X14.516Y26.017
X14.49Y26.108
X14.481Y26.141
X14.474Y26.168
X14.417Y26.418
X14.411Y26.448
X14.392Y26.555
X14.387Y26.585
X14.384Y26.609
X14.348Y26.898
X14.344Y26.93
X14.336Y27.031
X14.323Y27.37
X14.323Y27.483
X14.336Y27.808
X14.338Y27.841
X14.347Y27.942
X14.384Y28.233
X14.388Y28.263
X14.392Y28.288
X14.411Y28.39
X14.418Y28.426
X14.475Y28.674
X14.484Y28.708
X14.491Y28.735
X14.518Y28.827
X14.528Y28.861
X14.537Y28.887
X14.606Y29.086
X14.574Y29.178
X14.564Y29.207
X14.555Y29.236
X14.546Y29.266
X14.54Y29.289
X14.515Y29.389
X14.506Y29.431
X14.501Y29.462
X14.497Y29.486
X14.482Y29.588
X14.477Y29.63
X14.475Y29.661
X14.473Y29.686
X14.469Y29.789
X14.468Y29.825
X14.468Y30.853
X14.469Y30.884
X14.47Y30.909
X14.475Y31.015
X14.479Y31.059
X14.483Y31.091
X14.486Y31.116
X14.503Y31.22
X14.511Y31.264
X14.518Y31.294
X14.524Y31.319
X14.551Y31.421
X14.563Y31.464
X14.573Y31.494
X14.582Y31.517
X14.619Y31.617
X14.635Y31.658
X14.648Y31.686
X14.681Y31.753
X14.639Y31.842
X14.622Y31.882
X14.611Y31.91
X14.602Y31.933
X14.568Y32.03
X14.555Y32.071
X14.546Y32.101
X14.54Y32.124
X14.515Y32.224
X14.506Y32.266
X14.501Y32.297
X14.497Y32.321
X14.482Y32.423
X14.477Y32.466
X14.475Y32.496
X14.473Y32.521
X14.469Y32.624
X14.468Y32.66
X14.468Y33.618
X14.469Y33.649
X14.47Y33.673
X14.475Y33.776
X14.479Y33.819
X14.482Y33.849
X14.485Y33.874
X14.501Y33.975
X14.506Y34.002
X14.501Y34.028
X14.497Y34.052
X14.482Y34.154
X14.477Y34.197
X14.475Y34.227
X14.473Y34.252
X14.469Y34.355
X14.468Y34.392
X14.468Y37.854
X14.469Y37.885
X14.47Y37.909
X14.475Y38.012
X14.479Y38.055
X14.482Y38.085
X14.485Y38.11
X14.501Y38.211
X14.509Y38.254
X14.515Y38.284
X14.521Y38.308
X14.546Y38.407
X14.558Y38.449
X14.568Y38.478
X14.576Y38.501
X14.611Y38.598
X14.627Y38.638
X14.639Y38.666
X14.649Y38.688
X14.693Y38.781
X14.713Y38.819
X14.728Y38.846
X14.769Y38.916
X14.714Y39.012
X14.694Y39.049
X14.681Y39.076
X14.637Y39.172
X14.625Y39.2
X14.613Y39.227
X14.603Y39.255
X14.568Y39.355
X14.558Y39.383
X14.55Y39.412
X14.542Y39.441
X14.517Y39.544
X14.51Y39.573
X14.504Y39.602
X14.499Y39.631
X14.484Y39.736
X14.48Y39.766
X14.477Y39.796
X14.475Y39.825
X14.469Y39.931
X14.468Y39.961
X14.468Y39.985
X14.468Y40.797
X14.469Y40.827
X14.473Y40.933
X14.475Y40.963
X14.478Y40.993
X14.481Y41.023
X14.496Y41.128
X14.501Y41.158
X14.507Y41.187
X14.513Y41.216
X14.538Y41.32
X14.546Y41.349
X14.554Y41.378
X14.563Y41.406
X14.598Y41.507
X14.608Y41.535
X14.619Y41.563
X14.631Y41.59
X14.675Y41.687
X14.688Y41.714
X14.702Y41.741
X14.716Y41.767
X14.769Y41.859
X14.785Y41.885
X14.801Y41.91
X14.817Y41.935
X14.879Y42.022
X14.897Y42.046
X14.916Y42.069
X14.935Y42.093
X15.005Y42.173
X15.025Y42.195
X15.045Y42.217
X15.066Y42.238
X15.144Y42.311
X15.166Y42.331
X15.189Y42.351
X15.212Y42.37
X15.296Y42.436
X15.32Y42.454
X15.344Y42.471
X15.369Y42.488
X15.459Y42.545
X15.484Y42.561
X15.51Y42.576
X15.536Y42.59
X15.631Y42.638
X15.658Y42.652
X15.685Y42.664
X15.713Y42.676
X15.812Y42.715
X15.84Y42.725
X15.863Y42.733
X20.491Y44.295
X20.52Y44.304
X20.544Y44.311
X20.645Y44.339
X20.688Y44.35
X20.718Y44.356
X20.743Y44.361
X20.846Y44.379
X20.889Y44.385
X20.92Y44.388
X20.945Y44.39
X21.049Y44.398
X21.093Y44.4
X21.124Y44.4
X21.149Y44.4
X21.254Y44.397
X21.297Y44.394
X21.329Y44.391
X21.353Y44.389
X21.457Y44.375
X21.5Y44.368
X21.531Y44.363
X21.555Y44.357
X21.657Y44.334
X21.7Y44.323
X21.729Y44.314
X21.753Y44.306
X21.852Y44.272
X21.893Y44.257
X21.922Y44.245
X21.945Y44.235
X22.04Y44.192
X22.08Y44.172
X22.107Y44.158
X22.129Y44.146
X22.219Y44.093
X22.256Y44.07
X22.282Y44.052
X22.303Y44.038
X22.388Y43.977
X22.422Y43.95
X22.446Y43.93
X22.465Y43.914
X22.544Y43.844
X22.575Y43.814
X22.597Y43.792
X22.614Y43.774
X22.685Y43.697
X22.714Y43.664
X22.734Y43.64
X22.749Y43.62
X22.812Y43.536
X22.837Y43.501
X22.854Y43.475
X22.867Y43.453
X22.922Y43.364
X22.943Y43.326
X22.958Y43.298
X22.969Y43.276
X23.014Y43.181
X23.031Y43.141
X23.043Y43.112
X23.052Y43.089
X23.087Y42.991
X23.101Y42.949
X23.109Y42.919
X23.116Y42.895
X23.141Y42.793
X23.151Y42.751
X23.156Y42.724
X26.612Y43.7
X26.641Y43.708
X26.746Y43.733
X26.776Y43.739
X26.806Y43.745
X26.836Y43.75
X26.943Y43.764
X26.973Y43.767
X27.003Y43.77
X27.034Y43.772
X27.142Y43.776
X27.172Y43.776
X27.202Y43.776
X27.233Y43.775
X27.341Y43.768
X27.371Y43.765
X27.401Y43.762
X27.431Y43.758
X27.538Y43.741
X27.568Y43.736
X27.598Y43.73
X27.627Y43.723
X27.732Y43.695
X27.761Y43.687
X27.79Y43.678
X27.819Y43.668
X27.92Y43.631
X27.948Y43.62
X27.976Y43.608
X28.004Y43.596
X28.101Y43.548
X28.128Y43.535
X28.155Y43.52
X28.176Y43.509
X28.178Y43.611
X28.18Y43.641
X28.182Y43.671
X28.185Y43.702
X28.198Y43.809
X28.203Y43.839
X28.208Y43.869
X28.213Y43.899
X28.237Y44.005
X28.244Y44.034
X28.252Y44.064
X28.261Y44.093
X28.295Y44.196
X28.305Y44.224
X28.316Y44.253
X28.327Y44.281
X28.371Y44.38
X28.384Y44.408
X28.398Y44.435
X28.412Y44.462
X28.465Y44.556
X28.48Y44.582
X28.496Y44.608
X28.513Y44.633
X28.575Y44.722
X28.593Y44.747
X28.612Y44.771
X28.631Y44.795
X28.701Y44.877
X28.721Y44.9
X28.742Y44.922
X28.764Y44.943
X28.842Y45.018
X28.864Y45.039
X28.887Y45.059
X28.91Y45.079
X28.995Y45.146
X29.019Y45.164
X29.044Y45.182
X29.069Y45.199
X29.16Y45.258
X29.186Y45.274
X29.213Y45.289
X29.239Y45.303
X29.336Y45.353
X29.363Y45.366
X29.385Y45.376
X29.996Y45.651
X34.843Y47.823
X34.87Y47.92
X34.879Y47.949
X34.888Y47.978
X34.898Y48.007
X34.929Y48.087
X11.811
X11.811Y8.686
X31.353Y8.686
X29.772Y9.21
X29.744Y9.22
X29.643Y9.259
X29.615Y9.27
X29.587Y9.282
X29.559Y9.295
X29.463Y9.343
X29.436Y9.358
X29.409Y9.372
X29.383Y9.388
X29.292Y9.445
X29.266Y9.462
X29.241Y9.479
X29.217Y9.497
X29.131Y9.563
X29.107Y9.582
X29.084Y9.602
X29.062Y9.622
X28.983Y9.696
X28.961Y9.717
X28.94Y9.739
X28.919Y9.761
X28.848Y9.843
X28.829Y9.866
X28.81Y9.89
X28.791Y9.914
X28.729Y10.002
X28.711Y10.027
X28.695Y10.052
X28.679Y10.078
X28.625Y10.172
X28.61Y10.198
X28.596Y10.225
X28.583Y10.252
X28.538Y10.351
X28.526Y10.378
X28.515Y10.407
X28.504Y10.435
X28.469Y10.537
X28.46Y10.566
X28.451Y10.595
X28.443Y10.625
X28.418Y10.73
X28.412Y10.759
X28.406Y10.789
X28.401Y10.819
X28.387Y10.926
X28.383Y10.956
X28.38Y10.987
X28.378Y11.017
X28.374Y11.125
X28.374Y11.155
X28.374Y11.186
X28.375Y11.216
X28.381Y11.324
X28.384Y11.354
X28.387Y11.384
X28.39Y11.415
X28.407Y11.521
X28.413Y11.551
X28.419Y11.581
X28.425Y11.61
X28.452Y11.715
X28.461Y11.744
X28.468Y11.768
X29.219Y14.16
X29.228Y14.189
X29.265Y14.289
X29.276Y14.317
X29.287Y14.345
X29.299Y14.372
X29.345Y14.469
X29.359Y14.495
X29.373Y14.522
X29.388Y14.548
X29.443Y14.64
X29.459Y14.665
X29.475Y14.69
X29.492Y14.715
X29.556Y14.8
X29.574Y14.824
X29.593Y14.847
X29.613Y14.87
X29.684Y14.95
X29.705Y14.972
X29.726Y14.993
X29.747Y15.014
X29.826Y15.086
X29.849Y15.106
X29.872Y15.125
X29.895Y15.144
X29.981Y15.208
X30.005Y15.225
X30.03Y15.242
X30.055Y15.259
X30.146Y15.314
X30.172Y15.33
X30.198Y15.344
X30.225Y15.358
X30.3Y15.395
X30.405Y16.139
X30.41Y16.169
X30.422Y16.235
X30.4Y16.271
X30.378Y16.31
X30.367Y16.332
X30.319Y16.425
X30.3Y16.465
X30.288Y16.494
X30.278Y16.517
X30.24Y16.615
X30.225Y16.656
X30.216Y16.686
X30.209Y16.71
X30.187Y16.787
X30.668Y16.923
X30.663Y16.941
X30.659Y16.959
X30.655Y16.978
X30.637Y17.075
X30.634Y17.093
X30.632Y17.112
X30.63Y17.131
X30.622Y17.229
X30.621Y17.248
X30.62Y17.267
X30.62Y17.285
X30.622Y17.384
X30.623Y17.403
X30.624Y17.422
X30.625Y17.44
X30.637Y17.539
X30.64Y17.557
X30.643Y17.576
X31.25Y21.015
X31.253Y21.033
X31.274Y21.128
X31.279Y21.146
X31.283Y21.164
X31.289Y21.181
X31.319Y21.274
X31.325Y21.291
X31.332Y21.308
X31.339Y21.326
X31.378Y21.414
X31.386Y21.431
X31.394Y21.448
X31.403Y21.464
X31.451Y21.549
X31.46Y21.565
X31.47Y21.58
X31.48Y21.596
X31.536Y21.675
X31.547Y21.69
X31.558Y21.705
X31.57Y21.719
X31.634Y21.793
X31.646Y21.806
X31.659Y21.82
X31.672Y21.833
X31.742Y21.9
X31.756Y21.912
X31.77Y21.925
X31.784Y21.936
X31.861Y21.996
X31.876Y22.007
X31.891Y22.018
X31.906Y22.028
X31.976Y22.072
X31.994Y22.111
X32.003Y22.128
X32.011Y22.144
X32.061Y22.228
X32.07Y22.244
X32.08Y22.259
X32.09Y22.275
X32.148Y22.353
X32.159Y22.368
X32.17Y22.382
X32.182Y22.397
X32.198Y22.415
X32.199Y22.436
X32.199Y22.455
X32.201Y22.473
X32.211Y22.57
X32.213Y22.588
X32.216Y22.606
X32.692Y25.64
X32.696Y25.658
X32.715Y25.753
X32.719Y25.771
X32.724Y25.789
X32.728Y25.807
X32.757Y25.9
X32.765Y25.922
X32.229
X32.211Y25.922
X32.116Y25.927
X32.098Y25.928
X32.08Y25.929
X32.062Y25.931
X31.967Y25.945
X31.949Y25.948
X31.932Y25.951
X31.914Y25.954
X31.821Y25.977
X31.804Y25.982
X31.786Y25.987
X31.769Y25.992
X31.679Y26.023
X31.662Y26.03
X31.645Y26.036
X31.628Y26.043
X31.542Y26.083
X31.525Y26.091
X31.509Y26.099
X31.493Y26.108
X31.411Y26.156
X31.395Y26.166
X31.38Y26.175
X31.365Y26.185
X31.288Y26.241
X31.273Y26.252
X31.259Y26.263
X31.245Y26.275
X31.173Y26.338
X31.16Y26.35
X31.147Y26.363
X31.134Y26.375
X31.069Y26.445
X31.057Y26.459
X31.045Y26.472
X31.033Y26.486
X30.975Y26.562
X30.964Y26.577
X30.954Y26.591
X30.944Y26.606
X30.893Y26.687
X30.884Y26.703
X30.875Y26.719
X30.866Y26.734
X30.824Y26.82
X30.816Y26.836
X30.808Y26.853
X30.801Y26.869
X30.767Y26.959
X30.761Y26.976
X30.755Y26.993
X30.75Y27.01
X30.725Y27.102
X30.72Y27.12
X30.716Y27.137
X30.712Y27.155
X30.696Y27.249
X30.693Y27.267
X30.691Y27.285
X30.689Y27.303
X30.682Y27.398
X30.68Y27.416
X30.68Y27.434
X30.68Y27.452
X30.682Y27.548
X30.682Y27.566
X30.683Y27.584
X30.685Y27.602
X30.696Y27.697
X30.699Y27.715
X30.701Y27.733
X30.705Y27.751
X30.725Y27.844
X30.729Y27.861
X30.734Y27.879
X30.739Y27.896
X30.768Y27.987
X30.774Y28.004
X30.78Y28.021
X30.787Y28.038
X30.825Y28.126
X30.832Y28.142
X30.84Y28.159
X32.514Y31.546
X32.469Y31.549
X32.451Y31.55
X32.433Y31.552
X32.34Y31.565
X32.323Y31.568
X32.305Y31.571
X32.288Y31.574
X32.196Y31.596
X32.179Y31.601
X32.162Y31.605
X32.145Y31.61
X32.056Y31.641
X32.039Y31.647
X32.023Y31.653
X32.006Y31.66
X31.921Y31.699
X31.905Y31.706
X31.889Y31.714
X31.873Y31.722
X31.791Y31.769
X31.776Y31.778
X31.761Y31.787
X31.746Y31.797
X31.669Y31.851
X31.655Y31.862
X31.641Y31.873
X31.627Y31.884
X31.555Y31.945
X31.542Y31.957
X31.529Y31.969
X31.516Y31.981
X31.451Y32.049
X31.439Y32.062
X31.427Y32.075
X31.415Y32.089
X31.357Y32.162
X31.346Y32.176
X31.336Y32.191
X31.325Y32.205
X31.274Y32.284
X31.265Y32.299
X31.256Y32.315
X31.247Y32.33
X31.203Y32.413
X31.195Y32.429
X31.188Y32.445
X31.18Y32.462
X31.145Y32.549
X31.139Y32.565
X31.133Y32.582
X31.127Y32.599
X31.1Y32.689
X31.095Y32.706
X31.091Y32.723
X31.086Y32.74
X31.068Y32.833
X31.065Y32.85
X31.062Y32.868
X30.666Y35.56
X30.664Y35.578
X30.654Y35.672
X30.652Y35.69
X30.651Y35.707
X30.651Y35.725
X30.65Y35.82
X30.65Y35.838
X30.651Y35.855
X30.652Y35.873
X30.66Y35.967
X30.662Y35.985
X30.665Y36.003
X30.667Y36.02
X30.685Y36.113
X30.688Y36.131
X30.692Y36.148
X30.697Y36.166
X30.723Y36.256
X30.728Y36.273
X30.734Y36.29
X30.74Y36.307
X30.775Y36.395
X30.781Y36.411
X30.789Y36.428
X30.796Y36.444
X30.839Y36.528
X30.848Y36.544
X30.856Y36.559
X30.865Y36.575
X30.916Y36.654
X30.926Y36.669
X30.936Y36.684
X30.947Y36.698
X31.005Y36.773
X31.016Y36.787
X31.028Y36.8
X31.039Y36.814
X31.1Y36.878
X31.068Y36.981
X31.061Y37.004
X31.047Y37.055
X31.041Y37.079
X30.989Y37.294
X30.983Y37.319
X30.972Y37.371
X30.968Y37.396
X30.931Y37.611
X30.927Y37.636
X30.919Y37.69
X30.916Y37.715
X30.894Y37.93
X30.892Y37.956
X30.888Y38.011
X30.887Y38.036
X30.88Y38.25
X30.879Y38.277
X30.879Y38.333
X30.88Y38.359
X30.888Y38.571
X30.889Y38.597
X30.893Y38.654
X30.896Y38.681
X30.918Y38.89
X30.922Y38.917
X30.93Y38.975
X30.934Y39.002
X30.956Y39.122
X30.922Y39.126
X30.903Y39.128
X30.884Y39.131
X30.787Y39.151
X30.768Y39.155
X30.75Y39.159
X30.731Y39.164
X30.636Y39.194
X30.618Y39.2
X30.6Y39.206
X30.582Y39.213
X30.49Y39.252
X30.473Y39.26
X30.456Y39.268
X30.439Y39.276
X30.351Y39.324
X30.335Y39.334
X30.319Y39.344
X30.303Y39.354
X30.221Y39.41
X30.205Y39.421
X30.19Y39.433
X30.175Y39.445
X30.099Y39.509
X30.085Y39.522
X30.071Y39.535
X30.057Y39.548
X29.988Y39.62
X29.975Y39.634
X29.963Y39.648
X29.95Y39.662
X29.889Y39.741
X29.877Y39.756
X29.866Y39.772
X29.856Y39.787
X29.802Y39.872
X29.793Y39.888
X29.783Y39.904
X29.774Y39.921
X29.73Y40.01
X29.721Y40.028
X29.714Y40.045
X29.706Y40.062
X29.671Y40.156
X29.665Y40.174
X29.659Y40.192
X29.445Y40.864
X28.954Y42.398
X28.75Y43.031
X28.745Y43.048
X28.719Y43.141
X28.715Y43.159
X28.711Y43.176
X28.707Y43.194
X28.691Y43.289
X28.688Y43.307
X28.686Y43.325
X28.684Y43.343
X28.677Y43.439
X28.676Y43.457
X28.676Y43.476
X28.675Y43.494
X28.678Y43.59
X28.679Y43.608
X28.68Y43.627
X28.682Y43.645
X28.693Y43.74
X28.696Y43.758
X28.699Y43.776
X28.702Y43.794
X28.723Y43.888
X28.728Y43.906
X28.732Y43.923
X28.737Y43.941
X28.768Y44.032
X28.774Y44.049
X28.78Y44.066
X28.787Y44.083
X28.826Y44.171
X28.833Y44.188
X28.841Y44.204
X28.85Y44.22
X28.897Y44.304
X28.906Y44.32
X28.916Y44.335
X28.926Y44.351
X28.981Y44.43
X28.991Y44.444
X29.002Y44.459
X29.014Y44.473
X29.076Y44.546
X29.088Y44.56
X29.101Y44.573
X29.113Y44.586
X29.183Y44.653
X29.196Y44.665
X29.21Y44.677
X29.224Y44.689
X29.299Y44.749
X29.314Y44.76
X29.328Y44.771
X29.343Y44.781
X29.424Y44.833
X29.44Y44.843
X29.456Y44.852
X29.472Y44.861
X29.557Y44.904
X29.573Y44.913
X29.59Y44.92
X30.201Y45.195
X35.29Y47.475
X35.292Y47.503
X35.294Y47.521
X35.297Y47.54
X35.313Y47.634
X35.317Y47.652
X35.32Y47.67
X35.325Y47.687
X35.35Y47.78
X35.355Y47.797
X35.361Y47.815
X35.367Y47.832
X35.401Y47.922
X35.408Y47.938
X35.415Y47.955
X35.423Y47.972
X35.466Y48.058
X35.474Y48.074
X35.483Y48.09
X35.492Y48.105
X35.543Y48.187
X35.553Y48.202
X35.563Y48.217
X35.574Y48.232
X35.633Y48.308
X35.644Y48.322
X35.656Y48.336
X35.668Y48.35
X35.733Y48.419
X35.746Y48.432
X35.759Y48.445
X35.772Y48.458
X35.845Y48.521
X35.859Y48.533
X35.873Y48.544
X35.887Y48.555
X35.931Y48.587
X11.311
X11.311Y8.186
X34.447Y8.186
X29.935Y9.683
X29.918Y9.689
X29.829Y9.723
X29.812Y9.73
X29.795Y9.737
X29.778Y9.744
X29.693Y9.787
X29.677Y9.796
X29.661Y9.805
X29.645Y9.814
X29.564Y9.865
X29.548Y9.875
X29.533Y9.885
X29.519Y9.896
X29.443Y9.954
X29.428Y9.966
X29.414Y9.977
X29.401Y9.989
X29.331Y10.055
X29.318Y10.068
X29.305Y10.081
X29.293Y10.094
X29.229Y10.166
X29.218Y10.18
X29.206Y10.194
X29.195Y10.209
X29.139Y10.287
X29.129Y10.302
X29.119Y10.317
X29.109Y10.332
X29.061Y10.415
X29.052Y10.431
X29.044Y10.447
X29.036Y10.464
X28.996Y10.551
X28.989Y10.568
X28.982Y10.585
X28.975Y10.602
X28.944Y10.692
X28.939Y10.71
X28.933Y10.727
X28.929Y10.745
X28.907Y10.838
X28.903Y10.856
X28.899Y10.874
X28.896Y10.892
X28.883Y10.987
X28.881Y11.005
X28.879Y11.023
X28.878Y11.041
X28.874Y11.137
X28.874Y11.155
X28.874Y11.173
X28.874Y11.192
X28.88Y11.287
X28.881Y11.305
X28.883Y11.324
X28.885Y11.342
X28.9Y11.436
X28.903Y11.454
X28.907Y11.472
X28.911Y11.49
X28.935Y11.583
X28.939Y11.6
X28.945Y11.618
X29.694Y14.005
X29.699Y14.022
X29.732Y14.111
X29.738Y14.128
X29.745Y14.145
X29.752Y14.161
X29.793Y14.247
X29.801Y14.263
X29.81Y14.279
X29.818Y14.294
X29.867Y14.376
X29.877Y14.391
X29.887Y14.406
X29.897Y14.421
X29.953Y14.497
X29.964Y14.511
X29.976Y14.525
X29.987Y14.539
X30.051Y14.609
X30.063Y14.623
X30.076Y14.636
X30.088Y14.648
X30.158Y14.712
X30.172Y14.724
X30.186Y14.736
X30.2Y14.747
X30.275Y14.804
X30.29Y14.815
X30.305Y14.825
X30.32Y14.835
X30.401Y14.884
X30.416Y14.893
X30.432Y14.902
X30.448Y14.911
X30.533Y14.952
X30.549Y14.96
X30.566Y14.967
X30.582Y14.974
X30.671Y15.007
X30.688Y15.013
X30.705Y15.019
X30.723Y15.024
X30.754Y15.032
X30.899Y16.063
X30.902Y16.081
X30.919Y16.174
X30.923Y16.192
X30.927Y16.21
X30.932Y16.227
X30.958Y16.319
X30.963Y16.335
X30.925Y16.383
X30.914Y16.398
X30.903Y16.413
X30.849Y16.496
X30.839Y16.512
X30.829Y16.528
X30.82Y16.544
X30.774Y16.632
X30.766Y16.649
X30.758Y16.666
X30.75Y16.683
X30.714Y16.775
X30.707Y16.792
X30.701Y16.81
X30.695Y16.828
X30.668Y16.923
G0Z2
X28.713Y18.515
G1Z-0.8F75
Y14.811F150
X28.713Y14.793
X28.709Y14.696
X28.708Y14.678
X28.706Y14.66
X28.704Y14.641
X28.69Y14.545
X28.687Y14.527
X28.684Y14.509
X28.68Y14.491
X28.657Y14.397
X28.652Y14.379
X28.647Y14.362
X28.641Y14.344
X28.609Y14.253
X28.602Y14.235
X28.595Y14.218
X28.588Y14.201
X28.547Y14.114
X28.539Y14.097
X28.53Y14.081
X28.522Y14.065
X28.472Y13.981
X28.462Y13.966
X28.452Y13.95
X28.442Y13.935
X28.384Y13.857
X28.373Y13.843
X28.362Y13.828
X28.35Y13.814
X28.285Y13.742
X28.272Y13.729
X28.259Y13.715
X28.246Y13.703
X28.175Y13.637
X28.161Y13.625
X28.147Y13.613
X28.132Y13.602
X28.055Y13.544
X28.04Y13.533
X28.025Y13.523
X28.009Y13.513
X27.926Y13.463
X27.91Y13.453
X27.894Y13.444
X27.878Y13.436
X27.79Y13.394
X27.774Y13.387
X27.757Y13.379
X27.74Y13.373
X27.648Y13.34
X27.631Y13.334
X27.613Y13.328
X27.596Y13.323
X27.502Y13.299
X27.484Y13.295
X27.466Y13.291
X27.448Y13.288
X27.352Y13.273
X27.334Y13.271
X27.315Y13.269
X27.297Y13.267
X27.2Y13.262
X27.182Y13.262
X27.163Y13.261
X26.371
X26.352Y13.262
X26.256Y13.266
X26.237Y13.267
X26.219Y13.269
X26.201Y13.271
X26.105Y13.285
X26.087Y13.288
X26.068Y13.291
X26.05Y13.295
X25.956Y13.318
X25.939Y13.323
X25.921Y13.328
X25.903Y13.334
X25.812Y13.366
X25.795Y13.373
X25.778Y13.379
X25.761Y13.387
X25.673Y13.428
X25.657Y13.436
X25.64Y13.444
X25.624Y13.453
X25.541Y13.503
X25.525Y13.513
X25.51Y13.523
X25.495Y13.533
X25.417Y13.591
X25.402Y13.602
X25.388Y13.613
X25.373Y13.625
X25.302Y13.69
X25.288Y13.703
X25.275Y13.715
X25.262Y13.729
X25.197Y13.8
X25.185Y13.814
X25.173Y13.828
X25.161Y13.843
X25.103Y13.92
X25.093Y13.935
X25.082Y13.95
X25.072Y13.966
X25.022Y14.049
X25.013Y14.065
X25.004Y14.081
X24.995Y14.097
X24.954Y14.185
X24.946Y14.201
X24.939Y14.218
X24.932Y14.235
X24.899Y14.327
X24.893Y14.344
X24.888Y14.362
X24.883Y14.379
X24.859Y14.473
X24.854Y14.491
X24.851Y14.509
X24.847Y14.527
X24.834Y14.612
X22.69
Y14.421
X22.69Y14.403
X22.685Y14.306
X22.684Y14.288
X22.683Y14.269
X22.681Y14.251
X22.667Y14.155
X22.664Y14.137
X22.66Y14.119
X22.657Y14.101
X22.633Y14.007
X22.629Y13.989
X22.623Y13.971
X22.618Y13.954
X22.585Y13.862
X22.579Y13.845
X22.572Y13.828
X22.565Y13.811
X22.524Y13.724
X22.516Y13.707
X22.507Y13.691
X22.498Y13.674
X22.449Y13.591
X22.439Y13.576
X22.429Y13.56
X22.419Y13.545
X22.361Y13.467
X22.35Y13.452
X22.338Y13.438
X22.326Y13.424
X22.262Y13.352
X22.249Y13.338
X22.236Y13.325
X22.223Y13.312
X22.151Y13.247
X22.138Y13.235
X22.123Y13.223
X22.109Y13.212
X22.031Y13.154
X22.016Y13.143
X22.001Y13.133
X21.986Y13.122
X21.903Y13.072
X21.887Y13.063
X21.871Y13.054
X21.854Y13.046
X21.767Y13.004
X21.75Y12.997
X21.733Y12.989
X21.716Y12.982
X21.625Y12.95
X21.608Y12.944
X21.59Y12.938
X21.572Y12.933
X21.478Y12.909
X21.461Y12.905
X21.443Y12.901
X21.424Y12.898
X21.329Y12.883
X21.31Y12.881
X21.292Y12.879
X21.274Y12.877
X21.177Y12.872
X21.159Y12.872
X21.14Y12.871
X16.518
X16.5Y12.872
X16.403Y12.876
X16.384Y12.877
X16.366Y12.879
X16.348Y12.881
X16.252Y12.895
X16.234Y12.898
X16.216Y12.901
X16.198Y12.905
X16.104Y12.928
X16.086Y12.933
X16.068Y12.938
X16.051Y12.944
X15.959Y12.976
X15.942Y12.982
X15.925Y12.989
X15.908Y12.997
X15.82Y13.038
X15.804Y13.046
X15.787Y13.054
X15.771Y13.063
X15.688Y13.113
X15.672Y13.122
X15.657Y13.133
X15.642Y13.143
X15.564Y13.2
X15.549Y13.212
X15.535Y13.223
X15.521Y13.235
X15.449Y13.3
X15.435Y13.312
X15.422Y13.325
X15.409Y13.338
X15.344Y13.41
X15.332Y13.424
X15.32Y13.438
X15.308Y13.452
X15.25Y13.53
X15.24Y13.545
X15.229Y13.56
X15.219Y13.576
X15.169Y13.659
X15.16Y13.674
X15.151Y13.691
X15.143Y13.707
X15.101Y13.794
X15.093Y13.811
X15.086Y13.828
X15.079Y13.845
X15.046Y13.936
X15.04Y13.954
X15.035Y13.971
X15.03Y13.989
X15.006Y14.083
X15.002Y14.101
X14.998Y14.119
X14.994Y14.137
X14.98Y14.233
X14.978Y14.251
X14.976Y14.269
X14.974Y14.288
X14.969Y14.384
X14.968Y14.403
X14.968Y14.421
Y15.373
X14.968Y15.39
X14.973Y15.484
X14.974Y15.502
X14.975Y15.52
X14.977Y15.537
X14.99Y15.63
X14.993Y15.648
X14.996Y15.665
X14.999Y15.683
X15.021Y15.774
X15.026Y15.791
X15.03Y15.808
X15.036Y15.825
X15.066Y15.914
X15.072Y15.931
X15.078Y15.947
X15.085Y15.964
X15.124Y16.049
X15.131Y16.065
X15.139Y16.081
X15.148Y16.097
X15.194Y16.178
X15.203Y16.193
X15.213Y16.208
X15.222Y16.223
X15.278Y16.302
X15.24Y16.355
X15.229Y16.37
X15.219Y16.385
X15.169Y16.468
X15.16Y16.484
X15.151Y16.5
X15.143Y16.517
X15.101Y16.604
X15.093Y16.621
X15.086Y16.638
X15.079Y16.655
X15.046Y16.746
X15.04Y16.764
X15.035Y16.781
X15.03Y16.799
X15.006Y16.893
X15.002Y16.911
X14.998Y16.929
X14.994Y16.947
X14.98Y17.043
X14.978Y17.061
X14.976Y17.079
X14.974Y17.097
X14.969Y17.194
X14.968Y17.213
X14.968Y17.231
Y18.182
X14.968Y18.2
X14.973Y18.297
X14.974Y18.315
X14.976Y18.334
X14.978Y18.352
X14.992Y18.448
X14.994Y18.466
X14.998Y18.484
X15.002Y18.502
X15.025Y18.596
X15.03Y18.614
X15.035Y18.632
X15.04Y18.649
X15.073Y18.741
X15.079Y18.758
X15.086Y18.775
X15.093Y18.792
X15.135Y18.88
X15.143Y18.896
X15.151Y18.913
X15.16Y18.929
X15.21Y19.012
X15.219Y19.028
X15.229Y19.043
X15.24Y19.058
X15.297Y19.136
X15.312Y19.155
X15.298Y19.179
X15.218Y19.327
X15.18Y19.406
X15.116Y19.547
X15.105Y19.572
X15.084Y19.626
X15.074Y19.652
X15.025Y19.786
X15.016Y19.811
X14.999Y19.865
X14.991Y19.89
X14.952Y20.03
X14.945Y20.054
X14.932Y20.107
X14.926Y20.132
X14.896Y20.277
X14.891Y20.301
X14.882Y20.352
X14.878Y20.375
X14.856Y20.526
X14.853Y20.549
X14.848Y20.597
X14.845Y20.62
X14.832Y20.776
X14.831Y20.797
X14.828Y20.843
X14.827Y20.864
X14.823Y21.026
X14.823Y21.089
X14.823Y21.109
X14.827Y21.271
X14.828Y21.293
X14.831Y21.338
X14.832Y21.359
X14.845Y21.515
X14.848Y21.538
X14.853Y21.586
X14.856Y21.609
X14.878Y21.76
X14.882Y21.783
X14.891Y21.834
X14.896Y21.858
X14.926Y22.003
X14.932Y22.028
X14.945Y22.081
X14.952Y22.105
X14.991Y22.245
X14.999Y22.27
X15.016Y22.324
X15.025Y22.349
X15.074Y22.483
X15.084Y22.509
X15.105Y22.563
X15.116Y22.588
X15.18Y22.73
X15.218Y22.808
X15.298Y22.956
X15.314Y22.983
X15.297Y23.005
X15.24Y23.083
X15.229Y23.098
X15.219Y23.114
X15.169Y23.197
X15.16Y23.213
X15.151Y23.229
X15.143Y23.245
X15.101Y23.333
X15.093Y23.349
X15.086Y23.366
X15.079Y23.383
X15.046Y23.475
X15.04Y23.492
X15.035Y23.509
X15.03Y23.527
X15.006Y23.621
X15.002Y23.639
X14.998Y23.657
X14.994Y23.675
X14.98Y23.771
X14.978Y23.789
X14.976Y23.807
X14.974Y23.826
X14.969Y23.923
X14.968Y23.941
X14.968Y23.959
Y24.911
X14.968Y24.929
X14.973Y25.026
X14.974Y25.044
X14.976Y25.063
X14.978Y25.081
X14.992Y25.177
X14.994Y25.195
X14.998Y25.213
X15.002Y25.231
X15.025Y25.325
X15.03Y25.343
X15.035Y25.361
X15.04Y25.378
X15.073Y25.47
X15.079Y25.487
X15.086Y25.504
X15.093Y25.521
X15.135Y25.609
X15.143Y25.625
X15.151Y25.641
X15.16Y25.658
X15.175Y25.684
X15.153Y25.73
X15.14Y25.758
X15.097Y25.864
X15.086Y25.893
X15.009Y26.115
X15.002Y26.134
X14.996Y26.154
X14.972Y26.239
X14.967Y26.259
X14.962Y26.279
X14.906Y26.523
X14.902Y26.541
X14.885Y26.636
X14.882Y26.654
X14.88Y26.672
X14.844Y26.955
X14.836Y27.056
X14.823Y27.375
X14.823Y27.468
X14.836Y27.783
X14.844Y27.885
X14.879Y28.164
X14.882Y28.182
X14.898Y28.278
X14.902Y28.296
X14.906Y28.314
X14.961Y28.556
X14.966Y28.576
X14.971Y28.596
X14.996Y28.682
X15.002Y28.702
X15.009Y28.722
X15.091Y28.956
X15.102Y28.985
X15.15Y29.097
X15.143Y29.111
X15.101Y29.198
X15.093Y29.215
X15.086Y29.232
X15.079Y29.249
X15.046Y29.34
X15.04Y29.358
X15.035Y29.375
X15.03Y29.393
X15.006Y29.487
X15.002Y29.505
X14.998Y29.523
X14.994Y29.541
X14.98Y29.637
X14.978Y29.655
X14.976Y29.673
X14.974Y29.692
X14.969Y29.789
X14.968Y29.807
X14.968Y29.825
Y30.846
X14.968Y30.865
X14.973Y30.965
X14.974Y30.984
X14.976Y31.003
X14.978Y31.021
X14.993Y31.12
X14.996Y31.139
X15Y31.157
X15.004Y31.176
X15.028Y31.272
X15.033Y31.29
X15.039Y31.309
X15.044Y31.327
X15.079Y31.42
X15.085Y31.438
X15.093Y31.455
X15.1Y31.473
X15.144Y31.562
X15.152Y31.579
X15.161Y31.596
X15.171Y31.612
X15.223Y31.697
X15.233Y31.713
X15.244Y31.729
X15.262Y31.754
X15.24Y31.784
X15.229Y31.799
X15.219Y31.815
X15.169Y31.898
X15.16Y31.914
X15.151Y31.93
X15.143Y31.946
X15.101Y32.034
X15.093Y32.05
X15.086Y32.067
X15.079Y32.084
X15.046Y32.175
X15.04Y32.193
X15.035Y32.21
X15.03Y32.228
X15.006Y32.322
X15.002Y32.34
X14.998Y32.358
X14.994Y32.376
X14.98Y32.472
X14.978Y32.49
X14.976Y32.508
X14.974Y32.527
X14.969Y32.624
X14.968Y32.642
X14.968Y32.66
Y33.612
X14.968Y33.63
X14.973Y33.727
X14.974Y33.745
X14.976Y33.764
X14.978Y33.782
X14.992Y33.878
X14.994Y33.896
X14.998Y33.914
X15.002Y33.932
X15.019Y34.002
X15.002Y34.071
X14.998Y34.089
X14.994Y34.107
X14.98Y34.203
X14.978Y34.221
X14.976Y34.24
X14.974Y34.258
X14.969Y34.355
X14.968Y34.373
X14.968Y34.392
Y37.848
X14.968Y37.866
X14.973Y37.963
X14.974Y37.981
X14.976Y38
X14.978Y38.018
X14.992Y38.114
X14.994Y38.132
X14.998Y38.15
X15.002Y38.168
X15.025Y38.262
X15.03Y38.28
X15.035Y38.298
X15.04Y38.315
X15.073Y38.407
X15.079Y38.424
X15.086Y38.441
X15.093Y38.458
X15.135Y38.546
X15.143Y38.562
X15.151Y38.578
X15.16Y38.595
X15.21Y38.678
X15.219Y38.693
X15.229Y38.709
X15.24Y38.724
X15.297Y38.802
X15.308Y38.817
X15.32Y38.831
X15.332Y38.845
X15.396Y38.916
X15.374Y38.94
X15.312Y39.011
X15.301Y39.025
X15.29Y39.039
X15.235Y39.116
X15.225Y39.131
X15.215Y39.145
X15.206Y39.161
X15.158Y39.242
X15.15Y39.258
X15.141Y39.273
X15.133Y39.289
X15.094Y39.375
X15.086Y39.391
X15.08Y39.408
X15.073Y39.424
X15.042Y39.513
X15.036Y39.53
X15.031Y39.547
X15.026Y39.565
X15.004Y39.656
X15Y39.674
X14.996Y39.691
X14.993Y39.709
X14.979Y39.802
X14.977Y39.82
X14.975Y39.837
X14.974Y39.855
X14.969Y39.949
X14.968Y39.967
X14.968Y39.985
Y40.791
X14.968Y40.809
X14.973Y40.903
X14.974Y40.921
X14.975Y40.939
X14.977Y40.957
X14.99Y41.05
X14.993Y41.068
X14.996Y41.086
X15Y41.103
X15.022Y41.195
X15.027Y41.213
X15.032Y41.23
X15.037Y41.247
X15.068Y41.337
X15.074Y41.354
X15.08Y41.37
X15.087Y41.387
X15.127Y41.473
X15.134Y41.489
X15.143Y41.505
X15.151Y41.521
X15.198Y41.603
X15.208Y41.618
X15.217Y41.633
X15.227Y41.648
X15.282Y41.725
X15.293Y41.74
X15.304Y41.754
X15.315Y41.768
X15.377Y41.839
X15.389Y41.853
X15.401Y41.866
X15.414Y41.879
X15.483Y41.944
X15.496Y41.956
X15.509Y41.968
X15.523Y41.979
X15.598Y42.037
X15.612Y42.048
X15.627Y42.059
X15.641Y42.069
X15.721Y42.12
X15.736Y42.129
X15.752Y42.138
X15.768Y42.147
X15.852Y42.19
X15.868Y42.198
X15.884Y42.205
X15.901Y42.212
X15.989Y42.247
X16.006Y42.253
X16.023Y42.259
X20.645Y43.819
X20.662Y43.825
X20.757Y43.852
X20.775Y43.857
X20.793Y43.861
X20.812Y43.865
X20.909Y43.883
X20.927Y43.886
X20.946Y43.888
X20.964Y43.89
X21.062Y43.898
X21.081Y43.899
X21.1Y43.9
X21.119Y43.9
X21.217Y43.898
X21.236Y43.897
X21.254Y43.896
X21.273Y43.895
X21.371Y43.883
X21.389Y43.88
X21.408Y43.877
X21.426Y43.874
X21.522Y43.852
X21.541Y43.848
X21.559Y43.843
X21.577Y43.838
X21.67Y43.806
X21.688Y43.8
X21.705Y43.794
X21.723Y43.787
X21.813Y43.746
X21.829Y43.739
X21.846Y43.73
X21.863Y43.721
X21.948Y43.672
X21.964Y43.663
X21.98Y43.653
X21.996Y43.643
X22.076Y43.585
X22.091Y43.574
X22.106Y43.563
X22.12Y43.551
X22.194Y43.486
X22.208Y43.473
X22.222Y43.461
X22.235Y43.447
X22.302Y43.375
X22.315Y43.361
X22.327Y43.347
X22.339Y43.333
X22.399Y43.254
X22.41Y43.239
X22.42Y43.224
X22.431Y43.208
X22.482Y43.125
X22.492Y43.108
X22.501Y43.092
X22.51Y43.076
X22.553Y42.987
X22.561Y42.97
X22.568Y42.953
X22.575Y42.936
X22.609Y42.843
X22.615Y42.825
X22.621Y42.808
X22.627Y42.79
X22.651Y42.694
X22.655Y42.676
X22.659Y42.658
X22.663Y42.639
X22.678Y42.542
X22.68Y42.523
X22.682Y42.505
X22.684Y42.486
X22.689Y42.388
X22.69Y42.369
X22.69Y42.35
Y42.072
X26.742Y43.218
X26.759Y43.222
X26.853Y43.244
X26.871Y43.248
X26.889Y43.252
X26.907Y43.255
X27.002Y43.267
X27.02Y43.269
X27.038Y43.271
X27.056Y43.272
X27.152Y43.276
X27.17Y43.276
X27.188Y43.276
X27.207Y43.275
X27.302Y43.269
X27.32Y43.268
X27.339Y43.266
X27.357Y43.264
X27.451Y43.249
X27.469Y43.246
X27.487Y43.242
X27.505Y43.238
X27.598Y43.214
X27.615Y43.209
X27.633Y43.203
X27.65Y43.198
X27.74Y43.164
X27.757Y43.158
X27.774Y43.151
X27.79Y43.143
X27.877Y43.102
X27.893Y43.094
X27.909Y43.085
X27.925Y43.076
X28.007Y43.026
X28.022Y43.016
X28.037Y43.006
X28.052Y42.996
X28.129Y42.938
X28.143Y42.927
X28.158Y42.915
X28.171Y42.903
X28.242Y42.839
X28.255Y42.826
X28.268Y42.813
X28.281Y42.8
X28.345Y42.729
X28.357Y42.715
X28.368Y42.701
X28.38Y42.687
X28.437Y42.609
X28.447Y42.595
X28.457Y42.579
X28.467Y42.564
X28.516Y42.482
X28.525Y42.466
X28.534Y42.45
X28.542Y42.434
X28.583Y42.347
X28.591Y42.33
X28.598Y42.314
X28.605Y42.297
X28.637Y42.206
X28.643Y42.189
X28.648Y42.172
X28.653Y42.154
X28.676Y42.061
X28.681Y42.043
X28.684Y42.025
X28.688Y42.008
X28.702Y41.913
X28.704Y41.895
X28.706Y41.876
X28.708Y41.858
X28.713Y41.763
X28.713Y41.744
X28.713Y41.726
Y40.717
X28.713Y40.699
X28.709Y40.603
X28.708Y40.585
X28.706Y40.566
X28.704Y40.548
X28.69Y40.453
X28.687Y40.435
X28.684Y40.417
X28.68Y40.399
X28.657Y40.305
X28.653Y40.287
X28.647Y40.27
X28.642Y40.252
X28.61Y40.162
X28.604Y40.144
X28.597Y40.127
X28.59Y40.111
X28.549Y40.023
X28.538Y40.001
X28.549Y39.978
X28.59Y39.891
X28.597Y39.874
X28.604Y39.857
X28.636Y39.767
X28.642Y39.749
X28.647Y39.732
X28.653Y39.714
X28.676Y39.621
X28.68Y39.603
X28.684Y39.585
X28.687Y39.567
X28.702Y39.472
X28.704Y39.454
X28.706Y39.435
X28.708Y39.417
X28.713Y39.321
X28.713Y39.303
X28.713Y39.284
Y38.346
X28.713Y38.328
X28.709Y38.232
X28.708Y38.214
X28.706Y38.196
X28.704Y38.178
X28.691Y38.083
X28.688Y38.065
X28.684Y38.047
X28.681Y38.029
X28.658Y37.936
X28.653Y37.919
X28.648Y37.901
X28.643Y37.884
X28.611Y37.793
X28.605Y37.776
X28.598Y37.759
X28.591Y37.743
X28.551Y37.656
X28.536Y37.626
X28.547Y37.604
X28.588Y37.516
X28.596Y37.499
X28.602Y37.482
X28.635Y37.391
X28.641Y37.373
X28.647Y37.356
X28.652Y37.338
X28.676Y37.244
X28.68Y37.226
X28.684Y37.208
X28.687Y37.19
X28.701Y37.095
X28.704Y37.076
X28.706Y37.058
X28.708Y37.04
X28.713Y36.943
X28.713Y36.925
X28.713Y36.906
Y35.898
X28.713Y35.88
X28.709Y35.784
X28.708Y35.766
X28.706Y35.748
X28.704Y35.73
X28.691Y35.635
X28.688Y35.617
X28.684Y35.599
X28.681Y35.582
X28.658Y35.489
X28.653Y35.471
X28.648Y35.454
X28.643Y35.436
X28.611Y35.346
X28.605Y35.329
X28.598Y35.312
X28.591Y35.295
X28.551Y35.208
X28.543Y35.192
X28.535Y35.176
X28.526Y35.16
X28.517Y35.143
X28.535Y35.11
X28.543Y35.094
X28.551Y35.078
X28.59Y34.993
X28.597Y34.977
X28.604Y34.961
X28.61Y34.944
X28.641Y34.856
X28.646Y34.839
X28.652Y34.822
X28.656Y34.805
X28.678Y34.714
X28.682Y34.697
X28.686Y34.68
X28.689Y34.662
X28.702Y34.57
X28.705Y34.552
X28.707Y34.535
X28.708Y34.517
X28.713Y34.424
X28.713Y34.406
X28.713Y34.388
Y33.336
X28.713Y33.318
X28.709Y33.224
X28.708Y33.206
X28.706Y33.188
X28.705Y33.171
X28.691Y33.078
X28.689Y33.06
X28.685Y33.042
X28.682Y33.025
X28.66Y32.933
X28.655Y32.916
X28.651Y32.899
X28.645Y32.882
X28.615Y32.793
X28.609Y32.776
X28.602Y32.76
X28.596Y32.743
X28.557Y32.657
X28.549Y32.641
X28.541Y32.625
X28.533Y32.61
X28.486Y32.528
X28.477Y32.513
X28.467Y32.498
X28.457Y32.483
X28.403Y32.406
X28.393Y32.392
X28.382Y32.377
X28.37Y32.364
X28.309Y32.292
X28.297Y32.279
X28.285Y32.266
X28.273Y32.253
X28.242Y32.223
X28.259Y32.206
X28.272Y32.193
X28.338Y32.121
X28.35Y32.107
X28.362Y32.093
X28.373Y32.079
X28.431Y32.001
X28.442Y31.986
X28.452Y31.971
X28.462Y31.956
X28.512Y31.873
X28.522Y31.857
X28.53Y31.841
X28.539Y31.824
X28.581Y31.737
X28.588Y31.72
X28.595Y31.703
X28.602Y31.686
X28.635Y31.595
X28.641Y31.578
X28.647Y31.56
X28.652Y31.542
X28.676Y31.448
X28.68Y31.43
X28.684Y31.412
X28.687Y31.394
X28.701Y31.298
X28.704Y31.28
X28.706Y31.262
X28.708Y31.244
X28.713Y31.147
X28.713Y31.128
X28.713Y31.11
Y30.159
X28.713Y30.14
X28.709Y30.043
X28.708Y30.025
X28.706Y30.007
X28.704Y29.988
X28.69Y29.893
X28.687Y29.874
X28.684Y29.856
X28.68Y29.838
X28.657Y29.744
X28.652Y29.726
X28.647Y29.709
X28.641Y29.691
X28.609Y29.6
X28.602Y29.583
X28.595Y29.565
X28.588Y29.549
X28.547Y29.461
X28.539Y29.444
X28.53Y29.428
X28.522Y29.412
X28.472Y29.329
X28.462Y29.313
X28.452Y29.297
X28.442Y29.282
X28.384Y29.204
X28.373Y29.19
X28.362Y29.175
X28.35Y29.161
X28.285Y29.089
X28.272Y29.076
X28.259Y29.063
X28.246Y29.05
X28.175Y28.985
X28.161Y28.972
X28.147Y28.96
X28.132Y28.949
X28.055Y28.891
X28.04Y28.88
X28.025Y28.87
X28.009Y28.86
X27.926Y28.81
X27.91Y28.801
X27.894Y28.792
X27.878Y28.783
X27.776Y28.735
X27.861Y28.695
X27.878Y28.687
X27.894Y28.678
X27.91Y28.669
X27.993Y28.62
X28.009Y28.61
X28.025Y28.6
X28.04Y28.59
X28.118Y28.532
X28.132Y28.521
X28.147Y28.509
X28.161Y28.498
X28.233Y28.433
X28.246Y28.42
X28.259Y28.407
X28.272Y28.394
X28.338Y28.322
X28.35Y28.309
X28.362Y28.295
X28.373Y28.28
X28.431Y28.202
X28.442Y28.188
X28.452Y28.172
X28.462Y28.157
X28.512Y28.074
X28.522Y28.058
X28.53Y28.042
X28.539Y28.026
X28.581Y27.938
X28.588Y27.921
X28.595Y27.904
X28.602Y27.887
X28.635Y27.796
X28.641Y27.779
X28.647Y27.761
X28.652Y27.743
X28.676Y27.65
X28.68Y27.632
X28.684Y27.614
X28.687Y27.595
X28.701Y27.5
X28.704Y27.481
X28.706Y27.463
X28.708Y27.445
X28.713Y27.348
X28.713Y27.33
X28.713Y27.311
Y26.334
X28.713Y26.317
X28.709Y26.223
X28.708Y26.205
X28.706Y26.188
X28.705Y26.17
X28.692Y26.077
X28.689Y26.06
X28.686Y26.042
X28.682Y26.025
X28.66Y25.934
X28.656Y25.917
X28.651Y25.899
X28.646Y25.882
X28.616Y25.794
X28.61Y25.777
X28.603Y25.761
X28.597Y25.744
X28.558Y25.659
X28.55Y25.643
X28.542Y25.627
X28.534Y25.611
X28.488Y25.53
X28.479Y25.515
X28.469Y25.499
X28.46Y25.485
X28.412Y25.418
X28.442Y25.378
X28.452Y25.363
X28.462Y25.347
X28.512Y25.264
X28.522Y25.248
X28.53Y25.232
X28.539Y25.216
X28.581Y25.128
X28.588Y25.112
X28.595Y25.095
X28.602Y25.078
X28.635Y24.986
X28.641Y24.969
X28.647Y24.951
X28.652Y24.934
X28.676Y24.84
X28.68Y24.822
X28.684Y24.804
X28.687Y24.786
X28.701Y24.69
X28.704Y24.672
X28.706Y24.653
X28.708Y24.635
X28.713Y24.538
X28.713Y24.52
X28.713Y24.501
Y23.55
X28.713Y23.532
X28.709Y23.435
X28.708Y23.417
X28.706Y23.398
X28.704Y23.38
X28.69Y23.284
X28.687Y23.266
X28.684Y23.248
X28.68Y23.23
X28.657Y23.136
X28.651Y23.116
X28.657Y23.096
X28.68Y23.002
X28.684Y22.984
X28.687Y22.966
X28.701Y22.87
X28.704Y22.852
X28.706Y22.833
X28.708Y22.815
X28.713Y22.718
X28.713Y22.7
X28.713Y22.681
Y21.73
X28.713Y21.712
X28.709Y21.615
X28.708Y21.596
X28.706Y21.578
X28.704Y21.56
X28.69Y21.464
X28.687Y21.446
X28.684Y21.428
X28.68Y21.41
X28.657Y21.316
X28.652Y21.298
X28.647Y21.28
X28.641Y21.263
X28.609Y21.171
X28.602Y21.154
X28.595Y21.137
X28.588Y21.12
X28.547Y21.032
X28.539Y21.016
X28.53Y20.999
X28.522Y20.983
X28.472Y20.9
X28.462Y20.884
X28.452Y20.869
X28.438Y20.849
X28.452Y20.828
X28.462Y20.813
X28.512Y20.73
X28.522Y20.714
X28.53Y20.698
X28.539Y20.682
X28.581Y20.594
X28.588Y20.577
X28.595Y20.56
X28.602Y20.543
X28.635Y20.452
X28.641Y20.435
X28.647Y20.417
X28.652Y20.4
X28.676Y20.306
X28.68Y20.288
X28.684Y20.27
X28.687Y20.252
X28.701Y20.156
X28.704Y20.138
X28.706Y20.119
X28.708Y20.101
X28.713Y20.004
X28.713Y19.986
X28.713Y19.967
Y19.016
X28.713Y18.998
X28.709Y18.901
X28.708Y18.882
X28.706Y18.864
X28.704Y18.846
X28.692Y18.766
X28.704Y18.685
X28.706Y18.667
X28.708Y18.649
X28.713Y18.552
X28.713Y18.534
X28.713Y18.515
G0Z2
X44.703Y11.171
G1Z-0.8F75
X44.65Y10.933F150
X44.629Y10.852
X44.589Y10.708
X44.582Y10.686
X44.703
X44.703Y11.171
X44.178Y11.111
X44.157Y11.023
X44.146Y10.982
X44.109Y10.85
X44.09Y10.786
X44.075Y10.695
X44.068Y10.653
X44.041Y10.516
X44.024Y10.444
X43.961Y10.186
X45.203
Y16.945
X45.142Y16.855
X45.102Y16.799
X45.075Y16.764
X44.987Y16.65
X44.967Y16.627
X44.99Y16.536
X45.023Y16.397
X45.042Y16.299
X45.053Y16.231
X45.059Y16.188
X45.077Y16.046
X45.086Y15.947
X45.091Y15.878
X45.093Y15.835
X45.097Y15.692
X45.096Y15.592
X45.093Y15.524
X45.091Y15.48
X45.08Y15.338
X45.07Y15.238
X45.06Y15.17
X45.053Y15.127
X45.029Y14.987
X45.014Y14.913
X44.178Y11.111
X43.689Y11.218
X43.673Y11.148
X43.663Y11.113
X43.63Y10.993
X43.607Y10.918
X43.6Y10.898
X43.592Y10.838
X43.583Y10.784
X43.577Y10.747
X43.552Y10.622
X43.538Y10.562
X43.325Y9.686
X45.703
X45.703Y23.38
X44.93Y22.862
X44.965Y22.793
X45.021Y22.675
X45.054Y22.6
X45.074Y22.548
X45.088Y22.513
X45.132Y22.39
X45.157Y22.312
X45.173Y22.258
X45.182Y22.222
X45.214Y22.095
X45.231Y22.016
X45.241Y21.96
X45.247Y21.923
X45.266Y21.794
X45.275Y21.713
X45.28Y21.657
X45.282Y21.619
X45.288Y21.489
X45.289Y21.426
X45.289Y18.879
X45.287Y18.822
X45.286Y18.784
X45.279Y18.653
X45.271Y18.571
X45.264Y18.515
X45.259Y18.477
X45.238Y18.348
X45.223Y18.267
X45.21Y18.212
X45.201Y18.175
X45.168Y18.048
X45.144Y17.97
X45.126Y17.916
X45.113Y17.88
X45.067Y17.757
X45.036Y17.682
X45.012Y17.63
X44.996Y17.596
X44.938Y17.478
X44.899Y17.406
X44.87Y17.357
X44.851Y17.324
X44.781Y17.213
X44.735Y17.145
X44.702Y17.099
X44.679Y17.069
X44.598Y16.965
X44.546Y16.903
X44.508Y16.86
X44.482Y16.832
X44.402Y16.748
X44.415Y16.712
X44.457Y16.589
X44.48Y16.511
X44.495Y16.456
X44.504Y16.42
X44.533Y16.294
X44.549Y16.214
X44.558Y16.158
X44.563Y16.121
X44.58Y15.992
X44.588Y15.912
X44.591Y15.855
X44.593Y15.818
X44.597Y15.688
X44.596Y15.607
X44.594Y15.551
X44.592Y15.513
X44.583Y15.383
X44.574Y15.303
X44.566Y15.247
X44.56Y15.21
X44.538Y15.082
X44.526Y15.021
X43.689Y11.218
X43.201Y11.326
X43.188Y11.273
X43.181Y11.244
X43.151Y11.135
X43.133Y11.078
X43.119Y11.038
X43.109Y11.011
X43.104Y10.956
X43.098Y10.914
X43.091Y10.872
X43.085Y10.841
X43.063Y10.728
X43.052Y10.68
X42.689Y9.186
X46.203
Y24.317
X44.372Y23.09
Y22.822
X44.388Y22.797
X44.45Y22.696
X44.48Y22.641
X44.501Y22.603
X44.515Y22.574
X44.566Y22.468
X44.591Y22.411
X44.607Y22.37
X44.618Y22.341
X44.658Y22.23
X44.678Y22.17
X44.69Y22.128
X44.698Y22.098
X44.727Y21.983
X44.74Y21.922
X44.748Y21.879
X44.753Y21.848
X44.77Y21.731
X44.777Y21.669
X44.781Y21.625
X44.782Y21.594
X44.788Y21.476
X44.789Y21.426
X44.789Y18.885
X44.788Y18.841
X44.786Y18.809
X44.78Y18.691
X44.774Y18.628
X44.769Y18.584
X44.765Y18.553
X44.746Y18.436
X44.734Y18.374
X44.725Y18.331
X44.717Y18.3
X44.687Y18.185
X44.669Y18.125
X44.655Y18.083
X44.644Y18.053
X44.603Y17.942
X44.578Y17.884
X44.56Y17.844
X44.547Y17.815
X44.494Y17.709
X44.464Y17.653
X44.442Y17.615
X44.426Y17.588
X44.363Y17.487
X44.328Y17.435
X44.302Y17.399
X44.283Y17.374
X44.21Y17.28
X44.17Y17.232
X44.14Y17.199
X44.119Y17.176
X44.037Y17.09
X43.992Y17.046
X43.959Y17.016
X43.936Y16.995
X43.846Y16.918
X43.796Y16.878
X43.822Y16.828
X43.843Y16.783
X43.892Y16.676
X43.916Y16.618
X43.932Y16.577
X43.942Y16.548
X43.98Y16.437
X43.999Y16.377
X44.01Y16.335
X44.018Y16.304
X44.044Y16.19
X44.056Y16.129
X44.063Y16.086
X44.068Y16.055
X44.083Y15.938
X44.089Y15.876
X44.092Y15.832
X44.093Y15.801
X44.097Y15.684
X44.096Y15.621
X44.095Y15.578
X44.093Y15.546
X44.085Y15.429
X44.078Y15.367
X44.072Y15.324
X44.067Y15.293
X44.047Y15.177
X44.037Y15.128
X43.201Y11.326
X42.713Y11.433
X42.704Y11.398
X42.676Y11.295
X42.668Y11.266
X42.659Y11.237
X42.649Y11.209
X42.618Y11.124
X42.609Y11.032
X42.604Y10.99
X42.599Y10.96
X42.594Y10.935
X42.575Y10.834
X42.567Y10.798
X42.053Y8.686
X46.703
Y25.404
X46.653Y25.337
X46.626Y25.304
X46.607Y25.281
X46.535Y25.201
X46.514Y25.179
X46.493Y25.158
X46.471Y25.137
X46.391Y25.065
X46.369Y25.045
X46.345Y25.025
X46.322Y25.007
X46.236Y24.942
X46.211Y24.925
X46.191Y24.911
X43.872Y23.357
Y22.663
X43.906Y22.618
X43.932Y22.582
X43.949Y22.556
X43.962Y22.535
X44.017Y22.445
X44.039Y22.407
X44.054Y22.379
X44.065Y22.356
X44.111Y22.261
X44.128Y22.221
X44.14Y22.192
X44.149Y22.169
X44.185Y22.07
X44.198Y22.028
X44.207Y21.998
X44.214Y21.974
X44.239Y21.872
X44.249Y21.829
X44.254Y21.798
X44.259Y21.773
X44.274Y21.669
X44.279Y21.625
X44.282Y21.594
X44.283Y21.569
X44.288Y21.464
X44.289Y21.426
X44.289Y18.891
X44.288Y18.86
X44.287Y18.835
X44.281Y18.729
X44.278Y18.685
X44.274Y18.653
X44.27Y18.628
X44.254Y18.524
X44.246Y18.48
X44.239Y18.449
X44.233Y18.425
X44.206Y18.322
X44.193Y18.28
X44.184Y18.25
X44.175Y18.226
X44.138Y18.127
X44.121Y18.086
X44.108Y18.057
X44.097Y18.035
X44.051Y17.939
X44.03Y17.9
X44.014Y17.873
X44.001Y17.852
X43.945Y17.762
X43.92Y17.725
X43.902Y17.699
X43.887Y17.679
X43.822Y17.595
X43.793Y17.562
X43.773Y17.538
X43.755Y17.519
X43.682Y17.443
X43.651Y17.412
X43.628Y17.39
X43.609Y17.373
X43.528Y17.304
X43.494Y17.277
X43.469Y17.258
X43.448Y17.243
X43.361Y17.183
X43.324Y17.159
X43.297Y17.142
X43.275Y17.13
X43.183Y17.078
X43.143Y17.058
X43.115Y17.044
X43.084Y17.031
X43.121Y16.99
X43.14Y16.966
X43.16Y16.941
X43.175Y16.921
X43.237Y16.836
X43.261Y16.8
X43.278Y16.774
X43.291Y16.752
X43.344Y16.662
X43.365Y16.623
X43.379Y16.595
X43.39Y16.573
X43.434Y16.477
X43.45Y16.437
X43.462Y16.408
X43.47Y16.384
X43.504Y16.285
X43.517Y16.243
X43.525Y16.213
X43.531Y16.189
X43.555Y16.087
X43.564Y16.044
X43.569Y16.013
X43.572Y15.988
X43.586Y15.884
X43.59Y15.841
X43.592Y15.809
X43.593Y15.785
X43.597Y15.68
X43.596Y15.636
X43.595Y15.605
X43.594Y15.58
X43.587Y15.475
X43.582Y15.431
X43.578Y15.4
X43.574Y15.376
X43.557Y15.272
X43.549Y15.236
X42.713Y11.433
G0Z2
X45.203Y36.707
G1Z-0.8F75
Y41.107F150
X45.176Y41.008
X45.124Y40.83
X45.099Y40.749
X45.039Y40.572
X45.011Y40.492
X44.944Y40.317
X44.912Y40.237
X44.839Y40.065
X44.802Y39.985
X44.722Y39.815
X44.681Y39.735
X44.594Y39.569
X44.549Y39.489
X44.454Y39.325
X44.405Y39.246
X44.364Y39.181
X44.317Y39.102
X44.377Y39.005
X44.427Y38.918
X44.459Y38.857
X44.479Y38.817
X44.542Y38.688
X44.583Y38.596
X44.609Y38.532
X44.625Y38.491
X44.675Y38.357
X44.699Y38.285
X45.203Y36.707
G0Z2
Y46.1
G1Z-0.8F75
Y46.587F150
X45.082
X45.161Y46.284
X45.183Y46.192
X45.203Y46.1
X44.695Y46.085
X44.789Y45.651
X44.805Y45.567
X44.88Y45.135
X44.892Y45.047
X44.942Y44.653
X44.951Y44.56
X44.955Y44.524
X44.984Y44.136
X44.99Y44.039
X44.991Y44.001
X45.001Y43.618
X45.001Y43.578
X45.001Y43.476
X44.991Y43.1
X44.989Y43.058
X44.982Y42.951
X44.951Y42.583
X44.947Y42.539
X44.939Y42.469
X44.933Y42.425
X44.887Y42.106
X44.866Y41.947
X44.855Y41.877
X44.825Y41.703
X44.811Y41.632
X44.775Y41.46
X44.758Y41.389
X44.715Y41.218
X44.696Y41.147
X44.647Y40.978
X44.624Y40.907
X44.568Y40.739
X44.543Y40.668
X44.48Y40.503
X44.451Y40.432
X44.382Y40.269
X44.35Y40.198
X44.274Y40.037
X44.238Y39.967
X44.156Y39.809
X44.116Y39.738
X44.027Y39.584
X43.983Y39.514
X43.938Y39.443
X43.861Y39.313
X43.84Y39.278
X43.783Y39.191
X43.715Y39.089
X43.778Y39.006
X43.826Y38.94
X43.857Y38.893
X43.878Y38.861
X43.947Y38.75
X43.988Y38.679
X44.014Y38.629
X44.031Y38.595
X44.089Y38.478
X44.122Y38.403
X44.144Y38.351
X44.157Y38.315
X44.203Y38.193
X44.223Y38.133
X45.448Y34.298
X45.464Y34.244
X45.474Y34.208
X45.506Y34.082
X45.524Y34.003
X45.535Y33.948
X45.541Y33.911
X45.561Y33.782
X45.571Y33.701
X45.576Y33.645
X45.578Y33.608
X45.585Y33.478
X45.587Y33.397
X45.586Y33.34
X45.585Y33.303
X45.581Y33.211
X45.593Y33.157
X45.603Y33.101
X45.612Y33.045
X45.618Y33.007
X45.634Y32.877
X45.642Y32.796
X45.645Y32.739
X45.647Y32.701
X45.65Y32.57
X45.649Y32.488
X45.647Y32.432
X45.645Y32.394
X45.635Y32.263
X45.626Y32.182
X45.618Y32.126
X45.612Y32.088
X45.589Y31.959
X45.572Y31.879
X45.558Y31.824
X45.548Y31.788
X45.513Y31.662
X45.487Y31.584
X45.468Y31.53
X45.455Y31.495
X45.407Y31.373
X45.374Y31.298
X45.349Y31.247
X45.332Y31.213
X45.272Y31.097
X45.232Y31.025
X45.202Y30.977
X45.182Y30.945
X45.11Y30.835
X45.063Y30.768
X45.029Y30.723
X45.005Y30.692
X45.703Y30.086
Y47.087
X44.412
X44.539Y46.678
X44.561Y46.601
X44.676Y46.166
X44.695Y46.085
X44.206Y45.978
X44.299Y45.555
X44.313Y45.481
X44.385Y45.061
X44.396Y44.984
X44.445Y44.596
X44.453Y44.516
X44.456Y44.486
X44.485Y44.104
X44.49Y44.019
X44.491Y43.987
X44.501Y43.611
X44.501Y43.522
X44.501Y43.489
X44.491Y43.121
X44.489Y43.086
X44.484Y42.992
X44.454Y42.632
X44.45Y42.595
X44.443Y42.533
X44.438Y42.496
X44.392Y42.174
X44.372Y42.022
X44.362Y41.96
X44.334Y41.796
X44.322Y41.734
X44.287Y41.571
X44.273Y41.509
X44.232Y41.347
X44.216Y41.286
X44.169Y41.126
X44.149Y41.064
X44.097Y40.906
X44.074Y40.844
X44.015Y40.688
X43.99Y40.626
X43.925Y40.472
X43.897Y40.411
X43.826Y40.26
X43.795Y40.198
X43.717Y40.05
X43.683Y39.988
X43.599Y39.843
X43.561Y39.782
X43.512Y39.704
X43.435Y39.574
X43.417Y39.545
X43.368Y39.469
X43.262Y39.312
X43.243Y39.284
X43.191Y39.211
X43.073Y39.054
X43.111Y39.017
X43.133Y38.994
X43.214Y38.909
X43.256Y38.861
X43.284Y38.827
X43.304Y38.803
X43.376Y38.709
X43.413Y38.658
X43.437Y38.622
X43.454Y38.595
X43.517Y38.495
X43.548Y38.44
X43.569Y38.401
X43.583Y38.373
X43.635Y38.267
X43.661Y38.21
X43.678Y38.169
X43.689Y38.139
X43.731Y38.029
X43.747Y37.981
X44.97Y34.152
X44.982Y34.11
X44.99Y34.08
X45.02Y33.966
X45.034Y33.905
X45.042Y33.862
X45.047Y33.831
X45.065Y33.715
X45.073Y33.653
X45.077Y33.61
X45.079Y33.578
X45.086Y33.461
X45.087Y33.399
X45.086Y33.355
X45.085Y33.323
X45.08Y33.206
X45.077Y33.169
X45.098Y33.078
X45.11Y33.017
X45.118Y32.973
X45.122Y32.942
X45.137Y32.824
X45.143Y32.762
X45.146Y32.718
X45.147Y32.686
X45.15Y32.568
X45.15Y32.505
X45.148Y32.46
X45.146Y32.429
X45.137Y32.311
X45.13Y32.248
X45.124Y32.205
X45.119Y32.173
X45.098Y32.057
X45.085Y31.995
X45.075Y31.952
X45.067Y31.922
X45.034Y31.808
X45.015Y31.748
X45Y31.706
X44.989Y31.677
X44.946Y31.567
X44.92Y31.509
X44.901Y31.469
X44.887Y31.441
X44.833Y31.336
X44.802Y31.281
X44.779Y31.243
X44.762Y31.216
X44.698Y31.117
X44.661Y31.066
X44.635Y31.03
X44.615Y31.006
X44.541Y30.913
X44.508Y30.875
X44.301Y30.641
X46.203Y28.99
X46.203Y47.587
X43.703Y47.587
X43.731Y47.518
X43.754Y47.455
X43.905Y47.03
X43.927Y46.965
X44.058Y46.54
X44.077Y46.472
X44.19Y46.048
X44.206Y45.978
X43.718Y45.87
X43.808Y45.458
X43.82Y45.396
X43.891Y44.987
X43.9Y44.921
X43.948Y44.54
X43.955Y44.471
X43.957Y44.447
X43.986Y44.071
X43.99Y43.999
X43.991Y43.974
X44.001Y43.605
X44.001Y43.529
X44.001Y43.503
X43.991Y43.141
X43.99Y43.113
X43.985Y43.033
X43.956Y42.68
X43.953Y42.651
X43.947Y42.596
X43.943Y42.567
X43.897Y42.242
X43.877Y42.097
X43.869Y42.044
X43.842Y41.889
X43.832Y41.836
X43.8Y41.682
X43.788Y41.63
X43.75Y41.477
X43.735Y41.425
X43.691Y41.274
X43.675Y41.221
X43.625Y41.072
X43.606Y41.02
X43.551Y40.873
X43.53Y40.82
X43.469Y40.676
X43.445Y40.623
X43.378Y40.482
X43.352Y40.429
X43.279Y40.29
X43.25Y40.238
X43.171Y40.102
X43.139Y40.05
X43.086Y39.966
X43.008Y39.835
X42.967Y39.77
X42.953Y39.747
X42.851Y39.595
X42.807Y39.533
X42.791Y39.511
X42.681Y39.365
X42.634Y39.305
X42.617Y39.284
X42.499Y39.144
X42.449Y39.087
X42.431Y39.067
X42.347Y38.977
X42.379Y38.958
X42.406Y38.942
X42.432Y38.925
X42.453Y38.911
X42.54Y38.85
X42.575Y38.824
X42.6Y38.804
X42.619Y38.788
X42.699Y38.719
X42.731Y38.689
X42.754Y38.667
X42.772Y38.649
X42.844Y38.572
X42.873Y38.539
X42.894Y38.515
X42.909Y38.496
X42.974Y38.412
X43Y38.376
X43.017Y38.35
X43.031Y38.329
X43.087Y38.239
X43.109Y38.201
X43.124Y38.173
X43.135Y38.151
X43.182Y38.056
X43.2Y38.016
X43.212Y37.987
X43.221Y37.964
X43.258Y37.864
X43.27Y37.829
X44.491Y34.006
X44.5Y33.976
X44.507Y33.952
X44.534Y33.85
X44.543Y33.807
X44.549Y33.777
X44.554Y33.752
X44.57Y33.648
X44.575Y33.605
X44.578Y33.574
X44.58Y33.549
X44.586Y33.444
X44.587Y33.4
X44.586Y33.369
X44.586Y33.344
X44.581Y33.239
X44.578Y33.195
X44.574Y33.164
X44.57Y33.134
X44.579Y33.103
X44.585Y33.079
X44.609Y32.976
X44.618Y32.932
X44.623Y32.901
X44.626Y32.876
X44.64Y32.771
X44.644Y32.727
X44.646Y32.696
X44.647Y32.671
X44.65Y32.565
X44.65Y32.521
X44.649Y32.489
X44.647Y32.464
X44.639Y32.358
X44.635Y32.315
X44.63Y32.283
X44.626Y32.259
X44.608Y32.154
X44.599Y32.111
X44.591Y32.08
X44.585Y32.056
X44.556Y31.954
X44.543Y31.912
X44.532Y31.883
X44.523Y31.859
X44.485Y31.76
X44.467Y31.72
X44.454Y31.692
X44.442Y31.669
X44.394Y31.575
X44.372Y31.536
X44.356Y31.509
X44.343Y31.488
X44.285Y31.399
X44.259Y31.363
X44.241Y31.338
X44.225Y31.318
X44.159Y31.236
X44.134Y31.207
X43.591Y30.595
X46.398Y28.158
X46.421Y28.138
X46.499Y28.064
X46.52Y28.043
X46.541Y28.021
X46.561Y27.999
X46.632Y27.917
X46.651Y27.894
X46.67Y27.87
X46.688Y27.846
X46.703Y27.825
X46.703Y48.087
X42.952
X43.014Y47.947
X43.082Y47.79
X43.097Y47.755
X43.263Y47.341
X43.283Y47.287
X43.431Y46.872
X43.449Y46.817
X43.578Y46.402
X43.594Y46.344
X43.704Y45.93
X43.718Y45.87
X43.23Y45.763
X43.318Y45.362
X43.327Y45.311
X43.396Y44.913
X43.404Y44.859
X43.451Y44.483
X43.457Y44.427
X43.459Y44.409
X43.488Y44.039
X43.491Y43.98
X43.492Y43.961
X43.501Y43.598
X43.501Y43.536
X43.501Y43.516
X43.492Y43.161
X43.491Y43.14
X43.488Y43.095
X43.487Y43.074
X43.458Y42.729
X43.456Y42.707
X43.451Y42.66
X43.448Y42.638
X43.401Y42.31
X43.383Y42.171
X43.376Y42.128
X43.351Y41.981
X43.343Y41.938
X43.312Y41.793
X43.302Y41.75
X43.267Y41.607
X43.255Y41.564
X43.214Y41.422
X43.2Y41.379
X43.154Y41.239
X43.138Y41.195
X43.086Y41.058
X43.069Y41.015
X43.012Y40.879
X42.992Y40.836
X42.93Y40.704
X42.908Y40.66
X42.84Y40.531
X42.817Y40.487
X42.743Y40.361
X42.717Y40.318
X42.66Y40.228
X42.582Y40.096
X42.548Y40.042
X42.537Y40.025
X42.439Y39.879
X42.403Y39.827
X42.391Y39.811
X42.285Y39.67
X42.246Y39.621
X42.234Y39.605
X42.12Y39.47
X42.079Y39.423
X42.065Y39.408
X41.945Y39.279
X41.901Y39.234
X41.887Y39.22
X41.76Y39.098
X41.713Y39.055
X41.698Y39.042
X41.564Y38.927
X41.515Y38.886
X41.499Y38.874
X41.359Y38.765
X41.344Y38.754
X41.381Y38.753
X41.4Y38.753
X41.419Y38.751
X41.517Y38.741
X41.536Y38.739
X41.555Y38.737
X41.574Y38.733
X41.671Y38.714
X41.689Y38.709
X41.708Y38.705
X41.726Y38.7
X41.821Y38.67
X41.839Y38.664
X41.857Y38.658
X41.874Y38.651
X41.966Y38.612
X41.983Y38.605
X42Y38.597
X42.017Y38.588
X42.104Y38.54
X42.12Y38.531
X42.136Y38.521
X42.152Y38.511
X42.234Y38.454
X42.249Y38.443
X42.265Y38.432
X42.279Y38.42
X42.355Y38.356
X42.369Y38.343
X42.383Y38.33
X42.397Y38.317
X42.466Y38.246
X42.478Y38.232
X42.491Y38.218
X42.503Y38.203
X42.564Y38.125
X42.576Y38.11
X42.587Y38.094
X42.597Y38.079
X42.65Y37.995
X42.66Y37.979
X42.67Y37.962
X42.679Y37.946
X42.723Y37.857
X42.731Y37.84
X42.739Y37.823
X42.746Y37.805
X42.782Y37.712
X42.788Y37.694
X42.794Y37.677
X44.013Y33.86
X44.019Y33.842
X44.044Y33.746
X44.049Y33.728
X44.053Y33.71
X44.057Y33.691
X44.073Y33.594
X44.075Y33.575
X44.078Y33.557
X44.079Y33.538
X44.085Y33.439
X44.086Y33.421
X44.087Y33.402
X44.087Y33.383
X44.083Y33.285
X44.082Y33.266
X44.08Y33.247
X44.078Y33.228
X44.065Y33.131
X44.062Y33.112
X44.058Y33.091
X44.083Y33.018
X44.089Y33
X44.094Y32.982
X44.117Y32.885
X44.121Y32.866
X44.125Y32.848
X44.128Y32.829
X44.141Y32.731
X44.144Y32.712
X44.145Y32.693
X44.147Y32.674
X44.15Y32.575
X44.15Y32.556
X44.15Y32.537
X44.149Y32.518
X44.143Y32.419
X44.141Y32.4
X44.139Y32.381
X44.137Y32.362
X44.12Y32.264
X44.116Y32.246
X44.113Y32.227
X44.108Y32.209
X44.082Y32.113
X44.076Y32.095
X44.071Y32.077
X44.064Y32.059
X44.028Y31.966
X44.021Y31.948
X44.014Y31.931
X44.006Y31.914
X43.961Y31.825
X43.952Y31.808
X43.943Y31.792
X43.933Y31.776
X43.879Y31.692
X43.868Y31.676
X43.858Y31.661
X43.846Y31.646
X43.784Y31.568
X43.772Y31.553
X43.76Y31.539
X42.882Y30.549
X46.066Y27.785
X46.079Y27.773
X46.149Y27.707
X46.162Y27.694
X46.174Y27.681
X46.186Y27.668
X46.249Y27.596
X46.261Y27.582
X46.272Y27.568
X46.283Y27.553
X46.338Y27.475
X46.348Y27.46
X46.358Y27.445
X46.368Y27.43
X46.415Y27.347
X46.424Y27.331
X46.432Y27.315
X46.44Y27.299
X46.479Y27.212
X46.487Y27.195
X46.493Y27.178
X46.5Y27.161
X46.53Y27.071
X46.536Y27.054
X46.541Y27.037
X46.546Y27.019
X46.568Y26.926
X46.572Y26.908
X46.575Y26.891
X46.578Y26.873
X46.591Y26.778
X46.593Y26.76
X46.595Y26.742
X46.596Y26.724
X46.599Y26.629
X46.6Y26.611
X46.6Y26.592
X46.599Y26.574
X46.594Y26.479
X46.592Y26.461
X46.59Y26.443
X46.588Y26.425
X46.573Y26.331
X46.57Y26.313
X46.567Y26.295
X46.563Y26.277
X46.539Y26.185
X46.534Y26.168
X46.529Y26.15
X46.523Y26.133
X46.491Y26.043
X46.484Y26.027
X46.477Y26.01
X46.47Y25.993
X46.429Y25.907
X46.421Y25.891
X46.412Y25.875
X46.403Y25.859
X46.354Y25.777
X46.344Y25.762
X46.335Y25.747
X46.324Y25.732
X46.267Y25.655
X46.256Y25.641
X46.245Y25.627
X46.233Y25.613
X46.169Y25.542
X46.157Y25.529
X46.144Y25.516
X46.131Y25.504
X46.06Y25.439
X46.047Y25.427
X46.033Y25.416
X46.019Y25.404
X45.942Y25.347
X45.928Y25.337
X45.913Y25.326
X43.561Y23.751
X43.546Y23.741
X43.463Y23.691
X43.447Y23.681
X43.431Y23.672
X43.415Y23.664
X43.372Y23.644
Y22.482
X43.409Y22.442
X43.422Y22.428
X43.434Y22.413
X43.494Y22.334
X43.505Y22.319
X43.516Y22.304
X43.527Y22.288
X43.579Y22.204
X43.588Y22.188
X43.598Y22.172
X43.607Y22.155
X43.65Y22.066
X43.658Y22.049
X43.666Y22.032
X43.673Y22.014
X43.707Y21.921
X43.713Y21.904
X43.719Y21.886
X43.724Y21.868
X43.749Y21.772
X43.754Y21.754
X43.758Y21.735
X43.761Y21.717
X43.776Y21.619
X43.779Y21.6
X43.781Y21.581
X43.783Y21.563
X43.788Y21.464
X43.788Y21.445
X43.789Y21.426
Y18.898
X43.788Y18.879
X43.784Y18.779
X43.782Y18.76
X43.781Y18.741
X43.779Y18.723
X43.764Y18.624
X43.761Y18.605
X43.757Y18.587
X43.753Y18.568
X43.729Y18.472
X43.724Y18.453
X43.718Y18.435
X43.712Y18.417
X43.678Y18.324
X43.671Y18.306
X43.664Y18.288
X43.656Y18.271
X43.613Y18.181
X43.604Y18.165
X43.595Y18.148
X43.586Y18.131
X43.534Y18.047
X43.523Y18.031
X43.513Y18.015
X43.502Y17.999
X43.441Y17.92
X43.429Y17.906
X43.417Y17.891
X43.405Y17.877
X43.337Y17.804
X43.323Y17.791
X43.31Y17.777
X43.296Y17.764
X43.221Y17.699
X43.206Y17.687
X43.192Y17.675
X43.176Y17.664
X43.095Y17.606
X43.079Y17.595
X43.063Y17.585
X43.047Y17.575
X42.96Y17.526
X42.944Y17.517
X42.927Y17.509
X42.91Y17.501
X42.819Y17.461
X42.801Y17.453
X42.783Y17.446
X42.766Y17.44
X42.671Y17.41
X42.653Y17.404
X42.634Y17.399
X42.616Y17.394
X42.519Y17.374
X42.5Y17.37
X42.481Y17.367
X41.585Y17.225
X41.664Y17.221
X41.682Y17.22
X41.701Y17.218
X41.799Y17.205
X41.817Y17.202
X41.836Y17.199
X41.854Y17.195
X41.95Y17.172
X41.968Y17.167
X41.986Y17.162
X42.004Y17.157
X42.098Y17.124
X42.115Y17.118
X42.133Y17.111
X42.15Y17.104
X42.239Y17.062
X42.256Y17.054
X42.273Y17.045
X42.289Y17.036
X42.374Y16.986
X42.39Y16.976
X42.406Y16.966
X42.421Y16.956
X42.501Y16.897
X42.516Y16.886
X42.53Y16.874
X42.545Y16.862
X42.618Y16.796
X42.632Y16.783
X42.645Y16.77
X42.658Y16.756
X42.724Y16.683
X42.737Y16.669
X42.749Y16.655
X42.76Y16.64
X42.819Y16.561
X42.83Y16.545
X42.841Y16.53
X42.851Y16.514
X42.901Y16.429
X42.91Y16.413
X42.919Y16.396
X42.928Y16.38
X42.969Y16.29
X42.977Y16.273
X42.984Y16.256
X42.991Y16.238
X43.024Y16.145
X43.03Y16.127
X43.035Y16.109
X43.04Y16.091
X43.063Y15.995
X43.067Y15.977
X43.071Y15.959
X43.074Y15.94
X43.087Y15.842
X43.09Y15.824
X43.092Y15.805
X43.093Y15.786
X43.096Y15.688
X43.097Y15.669
X43.097Y15.65
X43.096Y15.632
X43.09Y15.533
X43.088Y15.514
X43.086Y15.496
X43.084Y15.477
X43.068Y15.38
X43.065Y15.361
X43.061Y15.343
X42.224Y11.541
X42.22Y11.523
X42.195Y11.431
X42.191Y11.414
X42.185Y11.397
X42.179Y11.38
X42.146Y11.291
X42.14Y11.274
X42.133Y11.257
X42.124Y11.238
X42.123Y11.217
X42.122Y11.199
X42.114Y11.102
X42.112Y11.084
X42.109Y11.066
X42.107Y11.048
X42.089Y10.952
X42.085Y10.934
X42.081Y10.916
X41.417Y8.186
X47.203
X47.203Y48.587
X42.151
X42.183Y48.526
X42.261Y48.374
X42.337Y48.22
X42.411Y48.064
X42.484Y47.907
X42.555Y47.748
X42.621Y47.597
X42.633Y47.568
X42.796Y47.163
X42.812Y47.119
X42.957Y46.714
X42.972Y46.668
X43.097Y46.263
X43.111Y46.216
X43.218Y45.813
X43.23Y45.763
G0Z2
X39.446Y45.032
G1Z-0.8F75
X39.41Y45.167F150
X39.38Y45.264
X39.318Y45.194
X39.306Y45.18
X39.293Y45.168
X39.234Y45.112
X39.264Y45.103
X39.282Y45.097
X39.373Y45.064
X39.39Y45.057
X39.407Y45.05
X39.424Y45.043
X39.446Y45.032
G0Z2
(Tool: D = 1.5 mm  type END flutes 2)
S12000M03
G00 Z2.0

X57.191Y12.012
G1Z-0.464F75
X57.204Y12.005Z-0.464F150
X57.214Y12.001Z-0.464
X57.219Y12.001Z-0.464
X57.235Y11.999Z-0.464
X57.251Y12.001Z-0.464
X57.256Y12.001Z-0.464
X57.266Y12.005Z-0.464
X57.279Y12.012Z-0.464
X57.289Y12.126Z-0.465
X57.332Y13.371Z-0.47
X57.385Y24.012Z-0.478
X57.391Y28.4Z-0.478
X57.365Y40.981Z-0.475
X57.332Y43.405Z-0.47
X57.289Y44.674Z-0.465
X57.279Y44.787Z-0.464
X57.266Y44.794Z-0.464
X57.256Y44.798Z-0.464
X57.251Y44.798Z-0.464
X57.235Y44.8Z-0.464
X57.219Y44.798Z-0.464
X57.214Y44.798Z-0.464
X57.204Y44.794Z-0.464
X57.191Y44.787Z-0.464
X57.181Y44.673Z-0.465
X57.138Y43.404Z-0.47
X57.105Y40.98Z-0.475
X57.079Y28.399Z-0.478
X57.085Y24.011Z-0.478
X57.138Y13.37Z-0.47
X57.181Y12.125Z-0.465
X57.191Y12.012Z-0.464
X56.979Y11.672Z-0.455
X57.036Y11.641Z-0.456
X57.056Y11.633Z-0.456
X57.114Y11.613Z-0.457
X57.163Y11.604Z-0.457
X57.203Y11.6Z-0.457
X57.235Y11.599Z-0.457
X57.267Y11.6Z-0.457
X57.307Y11.604Z-0.457
X57.356Y11.613Z-0.457
X57.415Y11.633Z-0.456
X57.434Y11.641Z-0.456
X57.49Y11.671Z-0.455
X57.527Y11.696Z-0.454
X57.561Y11.725Z-0.454
X57.612Y11.777Z-0.453
X57.616Y11.782Z-0.453
X57.656Y11.839Z-0.452
X57.668Y11.863Z-0.452
X57.689Y12.101Z-0.454
X57.732Y13.363Z-0.459
X57.785Y24.011Z-0.465
X57.791Y28.4Z-0.466
X57.765Y40.984Z-0.463
