(Created with grbl post processor 2023/10/21 15:50)
G21
(G-code generated with BlenderCAM and NC library)
G17G90
(Tool: D = 3.0 mm  type END flutes 2)
S12000M03
G00 Z2.0

G0X0Y0Z2
X38.56Y27.599
G1Z-0.6F200
X39.848Y27.599F400
X39.844Y29.2
X38.56Y29.2
Y27.599
X37.56Y26.599
X40.851Y26.599
X40.841Y30.2
X37.56Y30.2
X37.56Y26.599
X36.56Y25.599
X41.854Y25.599
X41.839Y31.2
X36.56Y31.2
X36.56Y25.599
X35.56Y24.599
X42.856Y24.599
X42.836Y32.2
X35.56Y32.2
X35.56Y24.599
X34.56Y23.599
X43.859Y23.599
X43.833Y33.2
X34.56Y33.2
X34.56Y23.599
X33.56Y22.599
X44.862Y22.599
X44.831Y34.2
X33.56Y34.2
X33.56Y22.599
X32.56Y21.599
X45.865Y21.599
X45.828Y35.2
X32.56Y35.2
X32.56Y21.599
X31.56Y20.599
X46.867Y20.599
X46.825Y36.2
X31.56Y36.2
X31.56Y20.599
X30.56Y19.599
X47.87Y19.599
X47.822Y37.2
X30.56Y37.2
X30.56Y19.599
X29.56Y18.599
X48.873Y18.599
X48.82Y38.2
X29.56Y38.2
X29.56Y18.599
X28.56Y17.599
X49.875Y17.599
X49.817Y39.2
X28.56Y39.2
X28.56Y17.599
X27.56Y16.599
X50.878Y16.599
X50.814Y40.2
X27.56Y40.2
X27.56Y16.599
X26.56Y15.599
X51.881Y15.599
X51.812Y41.2
X26.56Y41.2
X26.56Y15.599
X25.56Y14.599
X52.883Y14.599
X52.809Y42.2
X25.56Y42.2
X25.56Y14.599
X24.56Y13.599
X53.886Y13.599
X53.806Y43.2
X24.56Y43.2
X24.56Y13.599
X23.56Y12.599
X54.889Y12.599
X54.819Y44.045
X54.7Y44.2
X23.56Y44.2
X23.56Y12.599
X22.56Y11.599
X55.891Y11.599
X55.829Y44.382
X55.733Y44.5
X55.559Y44.722
X55.391Y44.949
X55.228Y45.179
X55.213Y45.2
X22.56Y45.2
X22.56Y11.599
X21.56Y10.599
X56.893Y10.599
X56.829Y44.751
X56.677Y44.926
X56.514Y45.125
X56.355Y45.328
X56.201Y45.535
X56.052Y45.745
X55.909Y45.959
X55.771Y46.176
X55.756Y46.2
X21.56Y46.2
X21.56Y10.599
X20.56Y9.599
X57.895Y9.599
X57.839Y45.129
X57.752Y45.221
X57.595Y45.394
X57.443Y45.57
X57.294Y45.75
X57.151Y45.933
X57.012Y46.12
X56.877Y46.311
X56.747Y46.504
X56.622Y46.701
X56.502Y46.9
X56.387Y47.103
X56.333Y47.2
X20.56Y47.2
X20.56Y9.599
X19.56Y8.599
X58.896Y8.599
X58.839Y45.544
X58.698Y45.681
X58.629Y45.751
X58.485Y45.902
X58.344Y46.056
X58.208Y46.214
X58.075Y46.375
X57.947Y46.539
X57.822Y46.706
X57.702Y46.876
X57.585Y47.049
X57.473Y47.225
X57.366Y47.404
X57.263Y47.585
X57.164Y47.769
X57.07Y47.955
X56.98Y48.143
X56.954Y48.2
X19.56Y48.2
X19.56Y8.599
X18.56Y7.599
X59.898Y7.599
X59.862Y45.969
X59.745Y46.07
X59.609Y46.193
X59.475Y46.32
X59.345Y46.449
X59.218Y46.582
X59.094Y46.718
X58.973Y46.858
X58.856Y46.999
X58.742Y47.144
X58.633Y47.292
X58.526Y47.442
X58.424Y47.595
X58.325Y47.75
X58.23Y47.908
X58.139Y48.067
X58.052Y48.229
X57.968Y48.394
X57.889Y48.56
X57.814Y48.728
X57.744Y48.898
X57.677Y49.069
X57.629Y49.2
X18.56Y49.2
X18.56Y7.599
X17.56Y6.599
X60.899Y6.599
X60.883Y46.439
X60.778Y46.516
X60.652Y46.614
X60.529Y46.715
X60.408Y46.819
X60.289Y46.926
X60.174Y47.035
X60.061Y47.148
X59.95Y47.263
X59.843Y47.381
X59.738Y47.501
X59.637Y47.624
X59.538Y47.75
X59.443Y47.878
X59.351Y48.008
X59.262Y48.14
X59.176Y48.275
X59.094Y48.411
X59.015Y48.55
X58.939Y48.69
X58.867Y48.832
X58.798Y48.976
X58.733Y49.122
X58.672Y49.269
X58.614Y49.418
X58.56Y49.568
X58.51Y49.719
X58.463Y49.871
X58.42Y50.025
X58.381Y50.179
X58.376Y50.2
X17.56Y50.2
X17.56Y6.599
X16.56Y5.599
X61.899Y5.599
X61.887Y46.974
X61.83Y47.008
X61.716Y47.08
X61.603Y47.155
X61.493Y47.232
X61.384Y47.312
X61.277Y47.395
X61.173Y47.48
X61.07Y47.568
X60.97Y47.658
X60.872Y47.751
X60.776Y47.846
X60.683Y47.944
X60.592Y48.043
X60.504Y48.145
X60.418Y48.249
X60.334Y48.355
X60.253Y48.463
X60.175Y48.573
X60.1Y48.685
X60.027Y48.799
X59.958Y48.915
X59.891Y49.032
X59.827Y49.151
X59.766Y49.271
X59.708Y49.393
X59.653Y49.516
X59.6Y49.64
X59.551Y49.766
X59.506Y49.893
X59.463Y50.021
X59.423Y50.15
X59.387Y50.28
X59.354Y50.411
X59.324Y50.542
X59.297Y50.674
X59.273Y50.807
X59.253Y50.941
X59.236Y51.075
X59.223Y51.2
X16.56Y51.2
X16.56Y5.599
X15.56Y4.599
X62.9Y4.599
X62.9Y47.576
X62.842Y47.602
X62.742Y47.648
X62.643Y47.698
X62.546Y47.749
X62.45Y47.803
X62.355Y47.86
X62.261Y47.918
X62.169Y47.979
X62.079Y48.043
X61.99Y48.108
X61.902Y48.176
X61.817Y48.245
X61.733Y48.317
X61.651Y48.391
X61.57Y48.467
X61.492Y48.544
X61.416Y48.624
X61.341Y48.706
X61.269Y48.789
X61.198Y48.874
X61.13Y48.961
X61.064Y49.049
X61Y49.139
X60.938Y49.231
X60.879Y49.324
X60.822Y49.418
X60.767Y49.514
X60.714Y49.611
X60.664Y49.71
X60.617Y49.809
X60.572Y49.91
X60.529Y50.012
X60.489Y50.115
X60.451Y50.218
X60.416Y50.323
X60.384Y50.429
X60.354Y50.535
X60.326Y50.642
X60.302Y50.749
X60.28Y50.858
X60.26Y50.966
X60.244Y51.075
X60.23Y51.185
X60.219Y51.295
X60.21Y51.405
X60.204Y51.515
X60.201Y51.625
X60.2Y51.699
X60.2Y52.2
X15.56Y52.2
X15.56Y4.599
X14.56Y3.599
X63.9Y3.599
X63.9Y48.293
X63.825Y48.311
X63.742Y48.334
X63.66Y48.358
X63.578Y48.385
X63.497Y48.413
X63.417Y48.444
X63.337Y48.476
X63.259Y48.511
X63.181Y48.547
X63.104Y48.585
X63.028Y48.625
X62.953Y48.667
X62.879Y48.711
X62.807Y48.757
X62.735Y48.804
X62.664Y48.853
X62.595Y48.904
X62.527Y48.956
X62.461Y49.01
X62.395Y49.066
X62.331Y49.123
X62.269Y49.182
X62.208Y49.243
X62.148Y49.305
X62.09Y49.368
X62.034Y49.433
X61.979Y49.499
X61.926Y49.566
X61.874Y49.635
X61.825Y49.705
X61.777Y49.776
X61.73Y49.848
X61.686Y49.922
X61.643Y49.996
X61.602Y50.072
X61.563Y50.148
X61.526Y50.226
X61.491Y50.304
X61.457Y50.383
X61.426Y50.463
X61.397Y50.544
X61.369Y50.625
X61.344Y50.707
X61.321Y50.79
X61.299Y50.873
X61.28Y50.957
X61.263Y51.041
X61.248Y51.125
X61.235Y51.21
X61.224Y51.295
X61.215Y51.381
X61.208Y51.466
X61.203Y51.552
X61.201Y51.638
X61.2Y51.699
X61.2Y53.2
X14.56Y53.2
X14.56Y3.599
X13.56Y2.599
X64.9Y2.599
X64.9Y49.2
X64.687Y49.2
X64.626Y49.201
X64.564Y49.204
X64.503Y49.208
X64.442Y49.213
X64.381Y49.22
X64.32Y49.229
X64.26Y49.239
X64.2Y49.251
X64.14Y49.264
X64.08Y49.278
X64.021Y49.294
X63.962Y49.311
X63.904Y49.33
X63.846Y49.35
X63.788Y49.372
X63.732Y49.395
X63.675Y49.42
X63.62Y49.446
X63.565Y49.473
X63.51Y49.501
X63.457Y49.531
X63.404Y49.562
X63.352Y49.595
X63.301Y49.628
X63.25Y49.663
X63.201Y49.699
X63.152Y49.737
X63.105Y49.775
X63.058Y49.815
X63.012Y49.856
X62.967Y49.898
X62.924Y49.941
X62.881Y49.985
X62.84Y50.03
X62.799Y50.076
X62.76Y50.124
X62.722Y50.172
X62.685Y50.221
X62.649Y50.271
X62.615Y50.321
X62.582Y50.373
X62.55Y50.425
X62.519Y50.478
X62.49Y50.532
X62.462Y50.587
X62.435Y50.642
X62.41Y50.698
X62.386Y50.754
X62.363Y50.812
X62.342Y50.869
X62.323Y50.927
X62.304Y50.986
X62.288Y51.045
X62.272Y51.104
X62.258Y51.164
X62.246Y51.224
X62.235Y51.284
X62.226Y51.345
X62.218Y51.406
X62.211Y51.467
X62.206Y51.528
X62.203Y51.589
X62.201Y51.65
X62.2Y51.699
X62.2Y54.2
X13.56Y54.2
X13.56Y2.599
X12.56Y1.636
X12.562Y1.601
X12.597Y1.599
X65.863Y1.599
X65.898Y1.6
X65.9Y1.635
X65.9Y50.163
X65.899Y50.198
X65.864Y50.2
X64.7Y50.2
X64.663Y50.2
X64.626Y50.202
X64.589Y50.204
X64.553Y50.207
X64.516Y50.211
X64.48Y50.216
X64.443Y50.222
X64.407Y50.229
X64.371Y50.236
X64.335Y50.245
X64.3Y50.254
X64.264Y50.265
X64.229Y50.276
X64.195Y50.288
X64.16Y50.301
X64.126Y50.314
X64.092Y50.329
X64.059Y50.344
X64.026Y50.36
X63.993Y50.377
X63.961Y50.395
X63.929Y50.413
X63.897Y50.433
X63.867Y50.453
X63.836Y50.474
X63.806Y50.495
X63.777Y50.518
X63.748Y50.541
X63.72Y50.564
X63.693Y50.589
X63.666Y50.614
X63.639Y50.639
X63.614Y50.666
X63.589Y50.693
X63.564Y50.72
X63.541Y50.748
X63.518Y50.777
X63.495Y50.806
X63.474Y50.836
X63.453Y50.867
X63.433Y50.897
X63.414Y50.929
X63.395Y50.961
X63.377Y50.993
X63.36Y51.025
X63.344Y51.059
X63.329Y51.092
X63.314Y51.126
X63.301Y51.16
X63.288Y51.195
X63.276Y51.229
X63.265Y51.264
X63.255Y51.3
X63.245Y51.335
X63.237Y51.371
X63.229Y51.407
X63.222Y51.443
X63.216Y51.48
X63.212Y51.516
X63.207Y51.553
X63.204Y51.589
X63.202Y51.626
X63.201Y51.663
X63.2Y51.7
X63.2Y55.164
X63.198Y55.199
X63.163Y55.2
X12.597Y55.2
X12.561Y55.198
X12.56Y55.163
X12.56Y1.636
G0Z2
(Tool: D = 3.0 mm  type END flutes 2)
S12000M03
G00 Z2.0

X43.12Y24.199
G1Z-3.9F125
X43.26F250
X43.257Y25.062
X43.19Y24.612
X43.145Y24.345
X43.12Y24.199
G0Z2
X43.236Y31.888
G1Z-3.9F125
X43.233Y32.6F250
X43.12Y32.6
X43.184Y32.222
X43.226Y31.955
X43.236Y31.888
X42.246Y31.744
X42.304Y31.31
X42.333Y31.067
X42.361Y30.799
X42.421Y30.176
X42.442Y29.919
X42.459Y29.674
X42.473Y29.417
X42.484Y29.172
X42.492Y28.914
X42.497Y28.669
X42.498Y28.411
X42.497Y28.166
X42.493Y27.908
X42.485Y27.663
X42.474Y27.405
X42.461Y27.16
X42.444Y26.903
X42.424Y26.658
X42.4Y26.39
X42.337Y25.768
X42.307Y25.511
X42.276Y25.268
X42.24Y25.013
X42.202Y24.771
X42.16Y24.516
X42.117Y24.275
X42.068Y24.021
X42.019Y23.781
X41.964Y23.529
X41.909Y23.29
X41.887Y23.199
X44.263
X44.23Y33.6
X41.888Y33.6
X41.959Y33.292
X42.012Y33.053
X42.064Y32.8
X42.11Y32.559
X42.156Y32.305
X42.197Y32.064
X42.236Y31.809
X42.246Y31.744
X41.256Y31.6
X41.312Y31.188
X41.339Y30.957
X41.366Y30.701
X41.425Y30.09
X41.445Y29.846
X41.461Y29.613
X41.474Y29.368
X41.485Y29.135
X41.492Y28.89
X41.497Y28.657
X41.498Y28.411
X41.497Y28.178
X41.493Y27.932
X41.486Y27.7
X41.475Y27.454
X41.463Y27.222
X41.446Y26.976
X41.428Y26.744
X41.405Y26.488
X41.343Y25.878
X41.315Y25.634
X41.285Y25.403
X41.251Y25.16
X41.215Y24.929
X41.175Y24.687
X41.134Y24.458
X41.088Y24.217
X41.041Y23.988
X40.989Y23.748
X40.936Y23.521
X40.878Y23.283
X40.821Y23.057
X40.757Y22.82
X40.693Y22.596
X40.62Y22.349
X40.575Y22.199
X45.266
X45.227Y34.6
X40.575Y34.6
X40.683Y34.238
X40.751Y34.002
X40.811Y33.777
X40.873Y33.539
X40.928Y33.313
X40.984Y33.073
X41.033Y32.846
X41.083Y32.605
X41.127Y32.376
X41.171Y32.135
X41.21Y31.905
X41.247Y31.662
X41.256Y31.6
X40.267Y31.456
X40.319Y31.066
X40.345Y30.846
X40.371Y30.603
X40.429Y30.005
X40.447Y29.772
X40.462Y29.552
X40.476Y29.319
X40.485Y29.098
X40.493Y28.865
X40.497Y28.645
X40.498Y28.411
X40.497Y28.19
X40.493Y27.957
X40.487Y27.737
X40.477Y27.503
X40.465Y27.283
X40.449Y27.05
X40.432Y26.83
X40.409Y26.586
X40.349Y25.988
X40.322Y25.756
X40.294Y25.538
X40.261Y25.307
X40.228Y25.088
X40.19Y24.858
X40.151Y24.641
X40.107Y24.412
X40.063Y24.196
X40.013Y23.968
X39.964Y23.752
X39.908Y23.526
X39.854Y23.312
X39.793Y23.087
X39.733Y22.874
X39.663Y22.639
X39.488Y22.065
X39.416Y21.843
X39.346Y21.633
X39.269Y21.413
X39.191Y21.199
X46.269
X46.224Y35.6
X39.191Y35.6
X39.334Y35.2
X39.409Y34.979
X39.477Y34.769
X39.55Y34.535
X39.723Y33.959
X39.787Y33.735
X39.844Y33.522
X39.903Y33.296
X39.955Y33.082
X40.008Y32.854
X40.055Y32.639
X40.102Y32.41
X40.144Y32.193
X40.186Y31.964
X40.222Y31.746
X40.258Y31.516
X40.267Y31.456
X39.277Y31.312
X39.327Y30.943
X39.351Y30.736
X39.376Y30.505
X39.432Y29.919
X39.45Y29.699
X39.464Y29.491
X39.486Y29.062
X39.493Y28.841
X39.497Y28.632
X39.498Y28.411
X39.497Y28.203
X39.487Y27.773
X39.478Y27.553
X39.467Y27.344
X39.452Y27.124
X39.435Y26.916
X39.414Y26.684
X39.355Y26.099
X39.33Y25.879
X39.303Y25.672
X39.241Y25.247
X39.204Y25.029
X39.168Y24.824
X39.126Y24.607
X39.084Y24.403
X39.037Y24.187
X38.991Y23.984
X38.887Y23.567
X38.773Y23.153
X38.707Y22.93
X38.535Y22.367
X38.467Y22.156
X38.4Y21.959
X38.256Y21.554
X38.178Y21.347
X38.102Y21.153
X37.938Y20.756
X37.85Y20.554
X37.764Y20.363
X37.688Y20.199
X47.272
X47.221Y36.6
X37.688Y36.6
X37.84Y36.267
X37.924Y36.076
X38.01Y35.872
X38.088Y35.679
X38.243Y35.279
X38.319Y35.071
X38.388Y34.874
X38.524Y34.467
X38.593Y34.244
X38.762Y33.681
X38.877Y33.267
X38.933Y33.053
X38.982Y32.851
X39.077Y32.432
X39.121Y32.215
X39.161Y32.01
X39.2Y31.793
X39.235Y31.587
X39.269Y31.369
X39.277Y31.312
X38.288Y31.168
X38.334Y30.821
X38.357Y30.626
X38.381Y30.407
X38.436Y29.833
X38.466Y29.429
X38.487Y29.025
X38.497Y28.62
X38.497Y28.215
X38.488Y27.81
X38.468Y27.406
X38.439Y27.002
X38.419Y26.782
X38.361Y26.209
X38.312Y25.807
X38.253Y25.406
X38.185Y25.007
X38.106Y24.61
X38.018Y24.215
X37.92Y23.822
X37.812Y23.431
X37.75Y23.22
X37.581Y22.669
X37.455Y22.284
X37.319Y21.903
X37.173Y21.525
X37.019Y21.15
X36.855Y20.78
X36.682Y20.414
X36.501Y20.052
X36.398Y19.856
X36.125Y19.349
X36.042Y19.199
X48.276
X48.218Y37.6
X36.042Y37.6
X36.213Y37.288
X36.484Y36.779
X36.666Y36.418
X36.84Y36.052
X37.004Y35.682
X37.16Y35.308
X37.306Y34.93
X37.443Y34.549
X37.57Y34.165
X37.636Y33.954
X37.802Y33.402
X37.91Y33.012
X38.009Y32.62
X38.098Y32.225
X38.178Y31.827
X38.248Y31.429
X38.288Y31.168
X37.298Y31.024
X37.342Y30.699
X37.364Y30.516
X37.385Y30.309
X37.44Y29.747
X37.468Y29.368
X37.487Y28.988
X37.497Y28.608
X37.497Y28.227
X37.489Y27.847
X37.47Y27.467
X37.443Y27.088
X37.424Y26.88
X37.368Y26.319
X37.321Y25.942
X37.266Y25.565
X37.201Y25.19
X37.128Y24.817
X37.045Y24.446
X36.953Y24.077
X36.852Y23.71
X36.793Y23.51
X36.628Y22.971
X36.509Y22.609
X36.381Y22.251
X36.245Y21.896
X36.1Y21.544
X35.946Y21.196
X35.784Y20.852
X35.613Y20.512
X35.516Y20.328
X35.249Y19.831
X35.062Y19.5
X34.867Y19.173
X34.664Y18.852
X34.453Y18.535
X34.234Y18.224
X34.216Y18.199
X49.279Y18.199
X49.214Y38.6
X34.216Y38.6
X34.432Y38.294
X34.644Y37.978
X34.848Y37.657
X35.044Y37.331
X35.232Y37
X35.331Y36.817
X35.596Y36.319
X35.768Y35.979
X35.931Y35.636
X36.085Y35.288
X36.231Y34.937
X36.369Y34.582
X36.497Y34.224
X36.617Y33.863
X36.679Y33.664
X36.842Y33.124
X36.943Y32.757
X37.036Y32.389
X37.12Y32.017
X37.195Y31.644
X37.26Y31.27
X37.298Y31.024
X36.309Y30.88
X36.349Y30.576
X36.37Y30.406
X36.39Y30.211
X36.443Y29.662
X36.47Y29.307
X36.488Y28.951
X36.497Y28.596
X36.498Y28.24
X36.489Y27.884
X36.472Y27.529
X36.446Y27.174
X36.429Y26.978
X36.374Y26.429
X36.331Y26.076
X36.279Y25.724
X36.218Y25.373
X36.149Y25.024
X36.072Y24.677
X35.986Y24.332
X35.891Y23.988
X35.836Y23.8
X35.675Y23.273
X35.563Y22.935
X35.444Y22.6
X35.316Y22.267
X35.181Y21.938
X35.037Y21.613
X34.885Y21.291
X34.725Y20.973
X34.634Y20.799
X34.373Y20.313
X34.198Y20.003
X34.016Y19.698
X33.826Y19.397
X33.628Y19.101
X33.424Y18.81
X33.212Y18.524
X32.994Y18.243
X32.87Y18.09
X32.52Y17.664
X32.287Y17.395
X32.111Y17.199
X50.282Y17.199
X50.211Y39.6
X32.112Y39.6
X32.263Y39.432
X32.496Y39.162
X32.622Y39.012
X32.971Y38.585
X33.19Y38.304
X33.402Y38.019
X33.608Y37.728
X33.806Y37.432
X33.997Y37.132
X34.18Y36.827
X34.356Y36.518
X34.449Y36.345
X34.709Y35.858
X34.869Y35.541
X35.022Y35.219
X35.166Y34.894
X35.303Y34.565
X35.431Y34.234
X35.552Y33.899
X35.664Y33.561
X35.722Y33.374
X35.881Y32.845
X35.976Y32.503
X36.063Y32.158
X36.142Y31.81
X36.212Y31.461
X36.273Y31.111
X36.309Y30.88
X35.319Y30.736
X35.357Y30.454
X35.376Y30.296
X35.395Y30.113
X35.447Y29.576
X35.472Y29.246
X35.489Y28.915
X35.497Y28.583
X35.498Y28.252
X35.49Y27.921
X35.474Y27.59
X35.45Y27.259
X35.433Y27.076
X35.38Y26.54
X35.34Y26.211
X35.291Y25.883
X35.235Y25.556
X35.171Y25.231
X35.099Y24.908
X35.019Y24.587
X34.931Y24.267
X34.879Y24.091
X34.721Y23.575
X34.618Y23.26
X34.507Y22.948
X34.388Y22.639
X34.261Y22.332
X34.128Y22.029
X33.986Y21.73
X33.838Y21.433
X33.752Y21.271
X33.497Y20.796
X33.334Y20.507
X33.164Y20.223
X32.988Y19.942
X32.804Y19.667
X32.613Y19.396
X32.416Y19.129
X32.213Y18.868
X32.097Y18.725
X31.754Y18.308
X31.538Y18.057
X31.316Y17.811
X31.088Y17.571
X30.854Y17.336
X30.614Y17.108
X30.369Y16.885
X30.119Y16.668
X29.977Y16.55
X29.547Y16.199
X51.285Y16.199
X51.208Y40.6
X29.548Y40.6
X29.674Y40.497
X30.091Y40.154
X30.342Y39.938
X30.588Y39.716
X30.828Y39.488
X31.063Y39.254
X31.291Y39.014
X31.514Y38.769
X31.731Y38.519
X31.849Y38.377
X32.19Y37.96
X32.394Y37.699
X32.592Y37.433
X32.783Y37.162
X32.968Y36.887
X33.145Y36.608
X33.316Y36.324
X33.48Y36.035
X33.568Y35.874
X33.821Y35.398
X33.97Y35.102
X34.112Y34.803
X34.247Y34.5
X34.374Y34.194
X34.494Y33.885
X34.606Y33.573
X34.71Y33.259
X34.765Y33.083
X34.921Y32.567
X35.01Y32.248
X35.09Y31.927
X35.163Y31.603
X35.229Y31.278
X35.286Y30.952
X35.319Y30.736
X34.329Y30.592
X34.365Y30.332
X34.382Y30.185
X34.4Y30.015
X34.451Y29.49
X34.474Y29.184
X34.489Y28.878
X34.497Y28.571
X34.498Y28.264
X34.491Y27.958
X34.476Y27.651
X34.454Y27.345
X34.438Y27.174
X34.386Y26.65
X34.349Y26.345
X34.304Y26.042
X34.252Y25.74
X34.193Y25.439
X34.126Y25.139
X34.052Y24.841
X33.97Y24.546
X33.922Y24.381
X33.768Y23.877
X33.672Y23.585
X33.569Y23.296
X33.459Y23.01
X33.342Y22.726
X33.218Y22.446
X33.088Y22.168
X32.95Y21.894
X32.87Y21.742
X32.621Y21.278
X32.47Y21.011
X32.313Y20.747
X32.149Y20.488
X31.979Y20.232
X31.803Y19.981
X31.621Y19.735
X31.432Y19.492
X31.324Y19.359
X30.989Y18.952
X30.789Y18.72
X30.584Y18.492
X30.372Y18.269
X30.156Y18.052
X29.934Y17.84
X29.707Y17.634
X29.475Y17.433
X29.343Y17.323
X28.935Y16.99
X28.693Y16.801
X28.447Y16.617
X28.197Y16.44
X27.942Y16.27
X27.683Y16.105
X27.42Y15.947
X27.153Y15.795
X27.003Y15.713
X26.537Y15.466
X26.264Y15.327
X26.216Y15.304
X26.216Y15.199
X52.288Y15.199
X52.22Y41.443
X52.101Y41.6
X26.216Y41.6
Y41.495
X26.505Y41.35
X26.657Y41.27
X27.121Y41.021
X27.388Y40.87
X27.652Y40.713
X27.911Y40.549
X28.167Y40.379
X28.418Y40.203
X28.664Y40.021
X28.907Y39.832
X29.04Y39.724
X29.447Y39.389
X29.679Y39.189
X29.907Y38.984
X30.13Y38.772
X30.347Y38.556
X30.559Y38.334
X30.765Y38.107
X30.966Y37.875
X31.076Y37.743
X31.409Y37.335
X31.598Y37.093
X31.782Y36.847
X31.959Y36.597
X32.129Y36.342
X32.294Y36.083
X32.452Y35.82
X32.604Y35.553
X32.686Y35.403
X32.933Y34.937
X33.072Y34.664
X33.203Y34.386
X33.328Y34.106
X33.446Y33.823
X33.557Y33.537
X33.66Y33.248
X33.757Y32.957
X33.808Y32.793
X33.96Y32.289
X34.043Y31.993
X34.117Y31.695
X34.185Y31.396
X34.245Y31.095
X34.298Y30.793
X34.329Y30.592
X33.34Y30.448
X33.372Y30.209
X33.388Y30.075
X33.405Y29.917
X33.454Y29.404
X33.476Y29.123
X33.49Y28.841
X33.497Y28.559
X33.498Y28.277
X33.491Y27.995
X33.478Y27.713
X33.458Y27.431
X33.443Y27.272
X33.392Y26.76
X33.358Y26.48
X33.317Y26.201
X33.269Y25.923
X33.214Y25.646
X33.153Y25.37
X33.085Y25.096
X33.01Y24.824
X32.965Y24.671
X32.815Y24.179
X32.727Y23.911
X32.632Y23.645
X32.531Y23.381
X32.423Y23.121
X32.309Y22.862
X32.189Y22.607
X32.063Y22.355
X31.988Y22.213
X31.745Y21.76
X31.606Y21.514
X31.462Y21.272
X31.311Y21.033
X31.155Y20.798
X30.993Y20.567
X30.825Y20.34
X30.651Y20.117
X30.551Y19.993
X30.224Y19.596
X30.04Y19.382
X29.851Y19.173
X29.657Y18.968
X29.457Y18.768
X29.253Y18.573
X29.044Y18.383
X28.831Y18.198
X28.709Y18.096
X28.31Y17.77
X28.088Y17.596
X27.862Y17.428
X27.631Y17.265
X27.397Y17.108
X27.158Y16.957
X26.917Y16.811
X26.671Y16.672
X26.531Y16.595
X26.077Y16.353
X25.825Y16.226
X25.57Y16.105
X25.312Y15.99
X25.216Y15.949
X25.216Y14.199
X53.291Y14.199
X53.231Y41.781
X53.134Y41.899
X52.96Y42.122
X52.792Y42.348
X52.629Y42.578
X52.614Y42.6
X25.216Y42.6
X25.216Y40.85
X25.414Y40.765
X25.537Y40.709
X25.792Y40.589
X26.044Y40.463
X26.186Y40.388
X26.639Y40.145
X26.885Y40.006
X27.127Y39.862
X27.366Y39.711
X27.601Y39.555
X27.832Y39.393
X28.059Y39.225
X28.282Y39.051
X28.406Y38.951
X28.803Y38.624
X29.017Y38.44
X29.226Y38.251
X29.431Y38.057
X29.631Y37.857
X29.826Y37.653
X30.016Y37.444
X30.201Y37.231
X30.303Y37.109
X30.629Y36.71
X30.803Y36.488
X30.971Y36.262
X31.134Y36.031
X31.291Y35.797
X31.442Y35.558
X31.588Y35.317
X31.728Y35.071
X31.804Y34.931
X32.046Y34.477
X32.173Y34.225
X32.294Y33.97
X32.409Y33.712
X32.517Y33.452
X32.619Y33.188
X32.715Y32.923
X32.804Y32.655
X32.851Y32.503
X33Y32.01
X33.076Y31.738
X33.145Y31.464
X33.207Y31.189
X33.262Y30.912
X33.311Y30.634
X33.34Y30.448
X32.35Y30.304
X32.38Y30.087
X32.394Y29.965
X32.41Y29.819
X32.458Y29.319
X32.477Y29.062
X32.491Y28.804
X32.497Y28.547
X32.498Y28.289
X32.492Y28.031
X32.48Y27.774
X32.461Y27.517
X32.448Y27.37
X32.398Y26.87
X32.367Y26.615
X32.33Y26.36
X32.286Y26.106
X32.236Y25.853
X32.18Y25.601
X32.118Y25.351
X32.05Y25.103
X32.008Y24.962
X31.861Y24.481
X31.781Y24.236
X31.695Y23.993
X31.602Y23.753
X31.504Y23.515
X31.4Y23.279
X31.29Y23.046
X31.175Y22.815
X31.107Y22.685
X30.869Y22.242
X30.742Y22.018
X30.61Y21.796
X30.473Y21.578
X30.33Y21.364
X30.182Y21.153
X30.029Y20.946
X29.871Y20.742
X29.778Y20.628
X29.459Y20.24
X29.291Y20.044
X29.118Y19.853
X28.941Y19.666
X28.759Y19.484
X28.573Y19.306
X28.382Y19.132
X28.187Y18.964
X28.074Y18.869
X27.685Y18.551
X27.482Y18.392
X27.276Y18.238
X27.065Y18.09
X26.851Y17.946
X26.634Y17.808
X26.413Y17.675
X26.189Y17.548
X26.06Y17.477
X25.616Y17.241
X25.386Y17.125
X25.154Y17.014
X24.918Y16.909
X24.68Y16.81
X24.44Y16.717
X24.216Y16.636
X24.216Y13.199
X54.293Y13.199
X54.23Y42.15
X54.079Y42.325
X53.915Y42.524
X53.756Y42.727
X53.602Y42.934
X53.454Y43.144
X53.31Y43.358
X53.172Y43.576
X53.156Y43.6
X24.216Y43.6
X24.216Y40.163
X24.406Y40.095
X24.646Y40.002
X24.884Y39.904
X25.12Y39.8
X25.353Y39.69
X25.584Y39.575
X25.714Y39.507
X26.157Y39.269
X26.381Y39.142
X26.603Y39.01
X26.821Y38.873
X27.035Y38.73
X27.246Y38.582
X27.453Y38.429
X27.657Y38.271
X27.771Y38.178
X28.159Y37.859
X28.355Y37.691
X28.546Y37.518
X28.733Y37.341
X28.915Y37.159
X29.093Y36.973
X29.267Y36.782
X29.435Y36.587
X29.53Y36.474
X29.848Y36.085
X30.007Y35.883
X30.161Y35.676
X30.309Y35.465
X30.453Y35.251
X30.591Y35.034
X30.724Y34.813
X30.851Y34.589
X30.922Y34.46
X31.158Y34.016
X31.274Y33.786
X31.385Y33.554
X31.49Y33.318
X31.589Y33.08
X31.682Y32.84
X31.769Y32.598
X31.85Y32.353
X31.894Y32.212
X32.039Y31.732
X32.109Y31.483
X32.172Y31.233
X32.229Y30.982
X32.279Y30.729
X32.324Y30.476
X32.35Y30.304
X31.361Y30.16
X31.387Y29.965
X31.4Y29.855
X31.414Y29.721
X31.462Y29.233
X31.479Y29
X31.491Y28.768
X31.497Y28.534
X31.498Y28.301
X31.493Y28.068
X31.482Y27.835
X31.465Y27.603
X31.453Y27.468
X31.404Y26.981
X31.376Y26.749
X31.342Y26.519
X31.303Y26.289
X31.258Y26.06
X31.207Y25.832
X31.151Y25.606
X31.089Y25.381
X31.051Y25.252
X30.908Y24.783
X30.835Y24.562
X30.757Y24.342
X30.674Y24.124
X30.585Y23.909
X30.491Y23.695
X30.392Y23.484
X30.287Y23.276
X30.225Y23.156
X29.993Y22.724
X29.879Y22.521
X29.759Y22.321
X29.635Y22.124
X29.506Y21.93
X29.372Y21.739
X29.233Y21.551
X29.09Y21.367
X29.005Y21.262
X28.694Y20.884
X28.542Y20.707
X28.386Y20.534
X28.225Y20.365
X28.061Y20.199
X27.892Y20.038
X27.72Y19.881
X27.543Y19.729
X27.44Y19.642
X27.061Y19.332
X26.877Y19.188
X26.69Y19.049
X26.5Y18.914
X26.306Y18.784
X26.109Y18.659
X25.91Y18.539
X25.707Y18.424
X25.588Y18.359
X25.156Y18.129
X24.948Y18.023
X24.737Y17.923
X24.524Y17.828
X24.309Y17.739
X24.092Y17.654
X23.872Y17.575
X23.651Y17.502
X23.522Y17.462
X23.216Y17.369
X23.216Y12.199
X55.295Y12.199
X55.241Y42.528
X55.154Y42.621
X54.997Y42.793
X54.844Y42.969
X54.696Y43.149
X54.552Y43.333
X54.413Y43.52
X54.278Y43.71
X54.148Y43.904
X54.023Y44.1
X53.903Y44.3
X53.787Y44.503
X53.734Y44.6
X23.216Y44.6
X23.216Y39.43
X23.616Y39.308
X23.838Y39.235
X24.057Y39.157
X24.275Y39.074
X24.49Y38.985
X24.704Y38.891
X24.915Y38.792
X25.123Y38.687
X25.243Y38.625
X25.675Y38.393
X25.878Y38.279
X26.078Y38.159
X26.275Y38.035
X26.469Y37.906
X26.66Y37.772
X26.848Y37.633
X27.032Y37.49
X27.137Y37.405
X27.515Y37.094
X27.692Y36.942
X27.865Y36.786
X28.034Y36.625
X28.2Y36.461
X28.361Y36.292
X28.518Y36.12
X28.67Y35.943
X28.757Y35.84
X29.067Y35.461
X29.211Y35.277
X29.35Y35.09
X29.485Y34.9
X29.615Y34.706
X29.74Y34.509
X29.86Y34.31
X29.975Y34.107
X30.04Y33.988
X30.27Y33.556
X30.376Y33.348
X30.476Y33.137
X30.571Y32.924
X30.66Y32.709
X30.745Y32.492
X30.824Y32.272
X30.897Y32.051
X30.937Y31.922
X31.079Y31.453
X31.142Y31.228
X31.199Y31.002
X31.25Y30.775
X31.296Y30.546
X31.336Y30.317
X31.361Y30.16
X30.371Y30.015
X30.395Y29.842
X30.406Y29.745
X30.419Y29.623
X30.465Y29.147
X30.481Y28.939
X30.492Y28.731
X30.498Y28.522
X30.498Y28.314
X30.493Y28.105
X30.484Y27.897
X30.469Y27.689
X30.458Y27.566
X30.41Y27.091
X30.385Y26.884
X30.355Y26.677
X30.32Y26.472
X30.279Y26.267
X30.234Y26.063
X30.184Y25.861
X30.129Y25.66
X30.094Y25.542
X29.955Y25.085
X29.89Y24.887
X29.82Y24.69
X29.745Y24.495
X29.666Y24.303
X29.582Y24.112
X29.493Y23.923
X29.4Y23.736
X29.343Y23.628
X29.117Y23.207
X29.015Y23.025
X28.908Y22.846
X28.796Y22.669
X28.681Y22.495
X28.561Y22.325
X28.437Y22.157
X28.309Y21.992
X28.232Y21.897
X27.929Y21.528
X27.793Y21.369
X27.653Y21.214
X27.509Y21.063
X27.362Y20.915
X27.212Y20.771
X27.057Y20.631
X26.9Y20.494
X26.805Y20.415
X26.436Y20.113
X26.272Y19.984
X26.104Y19.859
X25.934Y19.739
X25.761Y19.623
X25.585Y19.511
X25.406Y19.403
X25.225Y19.3
X25.117Y19.241
X24.695Y19.016
X24.509Y18.922
X24.321Y18.833
X24.13Y18.748
X23.938Y18.667
X23.743Y18.592
X23.547Y18.521
X23.349Y18.455
X23.232Y18.419
X22.775Y18.28
X22.574Y18.224
X22.371Y18.173
X22.216Y18.138
X22.216Y11.199
X56.297Y11.199
X56.24Y42.944
X56.099Y43.081
X56.03Y43.151
X55.886Y43.301
X55.746Y43.456
X55.609Y43.613
X55.476Y43.774
X55.348Y43.938
X55.223Y44.106
X55.103Y44.276
X54.986Y44.449
X54.874Y44.625
X54.767Y44.804
X54.663Y44.985
X54.565Y45.169
X54.47Y45.355
X54.381Y45.543
X54.355Y45.6
X22.216Y45.6
X22.216Y38.662
X22.336Y38.634
X22.538Y38.584
X22.739Y38.529
X22.857Y38.494
X23.314Y38.355
X23.512Y38.29
X23.709Y38.22
X23.904Y38.145
X24.096Y38.066
X24.287Y37.982
X24.476Y37.893
X24.663Y37.8
X24.771Y37.743
X25.192Y37.517
X25.374Y37.415
X25.553Y37.308
X25.73Y37.196
X25.904Y37.081
X26.074Y36.961
X26.242Y36.837
X26.407Y36.709
X26.502Y36.632
X26.871Y36.329
X27.03Y36.193
X27.185Y36.053
X27.336Y35.909
X27.484Y35.762
X27.628Y35.612
X27.768Y35.457
X27.905Y35.3
X27.984Y35.205
X28.286Y34.836
X28.415Y34.672
X28.54Y34.504
X28.66Y34.334
X28.776Y34.161
X28.888Y33.985
X28.996Y33.806
X29.099Y33.625
X29.158Y33.517
X29.383Y33.095
X29.477Y32.909
X29.566Y32.721
X29.651Y32.53
X29.732Y32.338
X29.807Y32.143
X29.878Y31.947
X29.944Y31.749
X29.98Y31.632
X30.119Y31.175
X30.175Y30.974
X30.226Y30.771
X30.272Y30.568
X30.313Y30.363
X30.349Y30.158
X30.371Y30.015
X29.382Y29.871
X29.402Y29.72
X29.412Y29.634
X29.424Y29.525
X29.469Y29.061
X29.483Y28.878
X29.493Y28.694
X29.498Y28.51
X29.498Y28.326
X29.494Y28.142
X29.485Y27.958
X29.472Y27.774
X29.462Y27.664
X29.416Y27.201
X29.394Y27.018
X29.368Y26.836
X29.337Y26.655
X29.301Y26.474
X29.261Y26.295
X29.217Y26.116
X29.168Y25.938
X29.137Y25.832
X29.002Y25.387
X28.944Y25.212
X28.883Y25.039
X28.817Y24.867
X28.747Y24.697
X28.673Y24.528
X28.594Y24.362
X28.512Y24.197
X28.461Y24.099
X28.241Y23.689
X28.151Y23.528
X28.056Y23.37
X27.958Y23.214
X27.856Y23.061
X27.751Y22.91
X27.641Y22.762
X27.529Y22.617
X27.459Y22.531
X27.164Y22.171
X27.044Y22.032
X26.92Y21.895
X26.794Y21.761
X26.664Y21.631
X26.531Y21.504
X26.395Y21.38
X26.256Y21.259
X26.171Y21.188
X25.811Y20.893
X25.666Y20.78
X25.518Y20.67
X25.368Y20.563
X25.215Y20.461
X25.06Y20.362
X24.902Y20.267
X24.743Y20.176
X24.646Y20.123
X24.235Y19.904
X24.071Y19.821
X23.904Y19.742
X23.736Y19.667
X23.566Y19.596
X23.395Y19.529
X23.222Y19.467
X23.047Y19.409
X22.942Y19.376
X22.496Y19.241
X22.319Y19.191
X22.14Y19.146
X21.961Y19.105
X21.78Y19.069
X21.599Y19.037
X21.417Y19.01
X21.234Y18.987
X21.216Y18.985
X21.216Y10.199
X57.299Y10.199
X57.264Y43.368
X57.147Y43.469
X57.01Y43.593
X56.876Y43.719
X56.746Y43.849
X56.619Y43.982
X56.495Y44.118
X56.374Y44.257
X56.257Y44.399
X56.143Y44.544
X56.033Y44.691
X55.927Y44.842
X55.824Y44.994
X55.726Y45.15
X55.631Y45.307
X55.539Y45.467
X55.452Y45.629
X55.369Y45.793
X55.29Y45.96
X55.215Y46.128
X55.144Y46.298
X55.077Y46.469
X55.03Y46.6
X21.216Y46.6
X21.216Y37.814
X21.381Y37.794
X21.563Y37.768
X21.744Y37.737
X21.925Y37.701
X22.104Y37.661
X22.283Y37.617
X22.461Y37.568
X22.567Y37.537
X23.012Y37.402
X23.187Y37.344
X23.36Y37.283
X23.532Y37.217
X23.702Y37.147
X23.871Y37.073
X24.037Y36.994
X24.202Y36.912
X24.3Y36.861
X24.71Y36.641
X24.871Y36.551
X25.029Y36.456
X25.185Y36.358
X25.338Y36.256
X25.489Y36.151
X25.637Y36.041
X25.782Y35.929
X25.868Y35.859
X26.228Y35.564
X26.367Y35.444
X26.504Y35.32
X26.638Y35.194
X26.768Y35.064
X26.895Y34.931
X27.019Y34.795
X27.14Y34.656
X27.211Y34.571
X27.506Y34.211
X27.619Y34.066
X27.729Y33.918
X27.836Y33.768
X27.938Y33.615
X28.037Y33.46
X28.132Y33.302
X28.223Y33.143
X28.276Y33.046
X28.495Y32.635
X28.578Y32.471
X28.657Y32.304
X28.732Y32.136
X28.803Y31.966
X28.87Y31.795
X28.932Y31.622
X28.99Y31.447
X29.023Y31.342
X29.158Y30.896
X29.208Y30.719
X29.253Y30.54
X29.294Y30.361
X29.33Y30.18
X29.362Y29.999
X29.382Y29.871
X28.392Y29.727
X28.41Y29.597
X28.418Y29.524
X28.429Y29.427
X28.473Y28.976
X28.485Y28.816
X28.493Y28.657
X28.498Y28.498
X28.498Y28.338
X28.495Y28.179
X28.487Y28.019
X28.476Y27.86
X28.467Y27.762
X28.422Y27.311
X28.403Y27.153
X28.38Y26.995
X28.354Y26.838
X28.323Y26.681
X28.288Y26.526
X28.25Y26.371
X28.208Y26.217
X28.18Y26.123
X28.048Y25.689
X27.999Y25.537
X27.945Y25.387
X27.888Y25.238
X27.828Y25.091
X27.763Y24.945
X27.696Y24.8
X27.624Y24.657
X27.579Y24.57
X27.365Y24.171
X27.287Y24.032
X27.205Y23.895
X27.12Y23.76
X27.032Y23.627
X26.94Y23.496
X26.846Y23.368
X26.748Y23.242
X26.686Y23.165
X26.398Y22.815
X26.294Y22.694
X26.188Y22.576
X26.078Y22.46
X25.966Y22.347
X25.85Y22.236
X25.732Y22.129
X25.612Y22.024
X25.537Y21.961
X25.186Y21.674
X25.06Y21.576
X24.933Y21.48
X24.802Y21.388
X24.67Y21.299
X24.536Y21.213
X24.399Y21.131
X24.26Y21.052
X24.174Y21.005
X23.774Y20.792
X23.632Y20.719
X23.488Y20.651
X23.342Y20.586
X23.195Y20.524
X23.046Y20.466
X22.896Y20.412
X22.745Y20.362
X22.651Y20.333
X22.218Y20.201
X22.064Y20.158
X21.909Y20.119
X21.754Y20.084
X21.597Y20.052
X21.44Y20.024
X21.282Y20.001
X21.124Y19.981
X21.027Y19.97
X20.576Y19.926
X20.416Y19.914
X20.257Y19.906
X20.216Y19.904
X20.216Y9.199
X58.3Y9.199
X58.284Y43.839
X58.18Y43.916
X58.054Y44.014
X57.93Y44.115
X57.809Y44.219
X57.691Y44.325
X57.575Y44.435
X57.462Y44.547
X57.351Y44.663
X57.244Y44.781
X57.139Y44.901
X57.038Y45.024
X56.939Y45.15
X56.844Y45.277
X56.752Y45.407
X56.663Y45.54
X56.577Y45.674
X56.494Y45.811
X56.415Y45.949
X56.34Y46.09
X56.268Y46.232
X56.199Y46.376
X56.134Y46.522
X56.073Y46.669
X56.015Y46.818
X55.96Y46.968
X55.91Y47.119
X55.863Y47.271
X55.82Y47.425
X55.781Y47.58
X55.776Y47.6
X20.216Y47.6
X20.216Y36.895
X20.38Y36.887
X20.539Y36.876
X20.637Y36.867
X21.088Y36.822
X21.246Y36.803
X21.404Y36.78
X21.561Y36.754
X21.718Y36.723
X21.873Y36.688
X22.028Y36.65
X22.182Y36.608
X22.276Y36.58
X22.71Y36.448
X22.862Y36.399
X23.012Y36.345
X23.161Y36.288
X23.308Y36.228
X23.454Y36.163
X23.599Y36.096
X23.742Y36.024
X23.829Y35.979
X24.228Y35.765
X24.367Y35.687
X24.504Y35.605
X24.639Y35.52
X24.772Y35.432
X24.903Y35.34
X25.031Y35.246
X25.157Y35.148
X25.234Y35.086
X25.584Y34.798
X25.705Y34.694
X25.823Y34.588
X25.939Y34.478
X26.052Y34.366
X26.163Y34.25
X26.27Y34.132
X26.375Y34.012
X26.438Y33.937
X26.725Y33.586
X26.823Y33.46
X26.919Y33.333
X27.011Y33.202
X27.1Y33.07
X27.186Y32.936
X27.268Y32.799
X27.347Y32.66
X27.394Y32.574
X27.607Y32.174
X27.68Y32.032
X27.748Y31.888
X27.813Y31.742
X27.875Y31.595
X27.933Y31.446
X27.987Y31.296
X28.037Y31.145
X28.066Y31.051
X28.198Y30.618
X28.241Y30.464
X28.28Y30.309
X28.315Y30.154
X28.347Y29.997
X28.375Y29.84
X28.392Y29.727
X27.403Y29.581
X27.417Y29.475
X27.434Y29.329
X27.477Y28.89
X27.487Y28.755
X27.494Y28.62
X27.498Y28.485
X27.498Y28.35
X27.495Y28.215
X27.489Y28.081
X27.48Y27.946
X27.472Y27.86
X27.428Y27.422
X27.412Y27.288
X27.393Y27.154
X27.37Y27.021
X27.345Y26.888
X27.315Y26.757
X27.283Y26.626
X27.247Y26.495
X27.223Y26.413
X27.095Y25.991
X27.053Y25.863
X27.008Y25.736
X26.96Y25.609
X26.909Y25.485
X26.854Y25.361
X26.797Y25.239
X26.737Y25.118
X26.697Y25.042
X26.489Y24.653
X26.423Y24.535
X26.354Y24.419
X26.282Y24.305
X26.207Y24.193
X26.13Y24.082
X26.05Y23.973
X25.967Y23.867
X25.913Y23.8
X25.633Y23.459
X25.545Y23.357
X25.455Y23.256
X25.362Y23.158
X25.267Y23.062
X25.17Y22.969
X25.07Y22.878
X24.968Y22.79
X24.902Y22.734
X24.561Y22.455
X24.455Y22.372
X24.347Y22.291
X24.237Y22.213
X24.125Y22.137
X24.011Y22.065
X23.895Y21.995
X23.778Y21.928
X23.703Y21.887
X23.314Y21.679
X23.193Y21.618
X23.072Y21.56
X22.948Y21.505
X22.824Y21.453
X22.698Y21.404
X22.571Y21.358
X22.443Y21.315
X22.361Y21.29
X21.939Y21.162
X21.809Y21.125
X21.678Y21.092
X21.547Y21.062
X21.414Y21.035
X21.281Y21.012
X21.148Y20.992
X21.014Y20.975
X20.929Y20.965
X20.49Y20.922
X20.355Y20.912
X20.22Y20.905
X20.085Y20.901
X19.95Y20.901
X19.815Y20.904
X19.681Y20.91
X19.546Y20.919
X19.46Y20.927
X19.216Y20.951
X19.216Y8.199
X59.3Y8.199
X59.289Y44.374
X59.231Y44.408
X59.117Y44.48
X59.005Y44.555
X58.894Y44.632
X58.785Y44.712
X58.679Y44.795
X58.574Y44.88
X58.471Y44.968
X58.371Y45.058
X58.273Y45.151
X58.177Y45.246
X58.084Y45.343
X57.993Y45.443
X57.904Y45.545
X57.818Y45.649
X57.735Y45.755
X57.654Y45.863
X57.576Y45.973
X57.501Y46.085
X57.428Y46.199
X57.358Y46.315
X57.291Y46.432
X57.227Y46.551
X57.166Y46.671
X57.108Y46.793
X57.053Y46.916
X57.001Y47.04
X56.952Y47.166
X56.906Y47.293
X56.863Y47.421
X56.824Y47.55
X56.787Y47.68
X56.754Y47.811
X56.724Y47.942
X56.697Y48.075
X56.674Y48.208
X56.653Y48.341
X56.636Y48.475
X56.623Y48.6
X19.216Y48.6
X19.216Y35.848
X19.509Y35.877
X19.644Y35.887
X19.779Y35.894
X19.914Y35.898
X20.049Y35.898
X20.184Y35.895
X20.318Y35.889
X20.453Y35.88
X20.539Y35.872
X20.977Y35.828
X21.111Y35.812
X21.245Y35.793
X21.378Y35.77
X21.511Y35.745
X21.642Y35.715
X21.773Y35.683
X21.904Y35.647
X21.986Y35.623
X22.408Y35.495
X22.536Y35.453
X22.663Y35.408
X22.79Y35.36
X22.914Y35.309
X23.038Y35.254
X23.16Y35.197
X23.281Y35.137
X23.357Y35.097
X23.746Y34.889
X23.864Y34.823
X23.98Y34.754
X24.094Y34.682
X24.206Y34.607
X24.317Y34.53
X24.426Y34.45
X24.532Y34.367
X24.599Y34.313
X24.94Y34.033
X25.042Y33.945
X25.143Y33.855
X25.241Y33.762
X25.337Y33.667
X25.43Y33.57
X25.521Y33.47
X25.609Y33.368
X25.665Y33.302
X25.944Y32.961
X26.027Y32.855
X26.108Y32.747
X26.186Y32.637
X26.262Y32.525
X26.334Y32.411
X26.404Y32.295
X26.471Y32.178
X26.512Y32.103
X26.72Y31.714
X26.781Y31.593
X26.839Y31.472
X26.894Y31.348
X26.946Y31.224
X26.995Y31.098
X27.041Y30.971
X27.084Y30.843
X27.11Y30.761
X27.237Y30.339
X27.274Y30.209
X27.307Y30.078
X27.337Y29.947
X27.364Y29.814
X27.387Y29.681
X27.403Y29.581
X26.413Y29.438
X26.425Y29.353
X26.438Y29.231
X26.48Y28.804
X26.489Y28.694
X26.495Y28.584
X26.498Y28.473
X26.498Y28.363
X26.496Y28.252
X26.491Y28.142
X26.483Y28.032
X26.477Y27.958
X26.435Y27.532
X26.422Y27.422
X26.406Y27.313
X26.387Y27.204
X26.366Y27.096
X26.342Y26.988
X26.316Y26.88
X26.287Y26.774
X26.266Y26.703
X26.142Y26.293
X26.107Y26.188
X26.071Y26.084
X26.031Y25.981
X25.989Y25.879
X25.945Y25.777
X25.898Y25.677
X25.849Y25.578
X25.815Y25.513
X25.613Y25.135
X25.559Y25.039
X25.502Y24.944
X25.444Y24.85
X25.383Y24.758
X25.319Y24.668
X25.254Y24.579
X25.186Y24.491
X25.14Y24.434
X24.868Y24.103
X24.796Y24.019
X24.722Y23.937
X24.647Y23.857
X24.569Y23.778
X24.489Y23.702
X24.408Y23.627
X24.324Y23.555
X24.268Y23.507
X23.936Y23.236
X23.849Y23.167
X23.761Y23.101
X23.671Y23.037
X23.579Y22.976
X23.486Y22.916
X23.392Y22.859
X23.296Y22.804
X23.231Y22.769
X22.853Y22.567
X22.755Y22.517
X22.655Y22.469
X22.554Y22.424
X22.452Y22.381
X22.35Y22.341
X22.246Y22.304
X22.141Y22.268
X22.071Y22.246
X21.66Y22.122
X21.554Y22.092
X21.447Y22.065
X21.339Y22.04
X21.231Y22.018
X21.123Y21.999
X21.013Y21.982
X20.904Y21.968
X20.831Y21.961
X20.404Y21.919
X20.294Y21.91
X20.184Y21.904
X20.073Y21.901
X19.963Y21.901
X19.852Y21.903
X19.742Y21.908
X19.632Y21.916
X19.558Y21.922
X19.132Y21.964
X19.022Y21.977
X18.913Y21.993
X18.804Y22.012
X18.696Y22.033
X18.588Y22.057
X18.48Y22.083
X18.374Y22.112
X18.303Y22.133
X18.216Y22.159
X18.216Y7.199
X60.3Y7.199
X60.3Y44.977
X60.244Y45.002
X60.144Y45.048
X60.045Y45.098
X59.947Y45.149
X59.851Y45.203
X59.756Y45.26
X59.662Y45.318
X59.57Y45.379
X59.48Y45.443
X59.391Y45.508
X59.303Y45.576
X59.218Y45.645
X59.134Y45.717
X59.052Y45.791
X58.971Y45.867
X58.893Y45.944
X58.816Y46.024
X58.742Y46.106
X58.67Y46.189
X58.599Y46.274
X58.531Y46.361
X58.465Y46.449
X58.401Y46.539
X58.339Y46.631
X58.279Y46.724
X58.222Y46.818
X58.167Y46.914
X58.115Y47.011
X58.065Y47.11
X58.017Y47.209
X57.972Y47.31
X57.929Y47.412
X57.889Y47.515
X57.852Y47.619
X57.817Y47.723
X57.784Y47.829
X57.754Y47.935
X57.727Y48.042
X57.702Y48.15
X57.68Y48.258
X57.661Y48.367
X57.644Y48.476
X57.63Y48.585
X57.619Y48.695
X57.61Y48.805
X57.604Y48.916
X57.601Y49.026
X57.601Y49.1
X57.6Y49.6
X18.216Y49.6
X18.216Y34.64
X18.339Y34.677
X18.445Y34.707
X18.552Y34.734
X18.66Y34.759
X18.768Y34.781
X18.876Y34.8
X18.986Y34.817
X19.095Y34.831
X19.168Y34.838
X19.595Y34.88
X19.705Y34.889
X19.815Y34.895
X19.926Y34.898
X20.036Y34.898
X20.147Y34.896
X20.257Y34.891
X20.367Y34.883
X20.441Y34.877
X20.867Y34.835
X20.977Y34.822
X21.086Y34.806
X21.195Y34.787
X21.303Y34.766
X21.411Y34.742
X21.519Y34.716
X21.625Y34.687
X21.696Y34.666
X22.106Y34.542
X22.211Y34.507
X22.315Y34.471
X22.418Y34.431
X22.52Y34.389
X22.622Y34.345
X22.722Y34.298
X22.821Y34.249
X22.886Y34.215
X23.264Y34.013
X23.36Y33.959
X23.455Y33.902
X23.549Y33.844
X23.641Y33.783
X23.731Y33.719
X23.82Y33.654
X23.908Y33.586
X23.965Y33.54
X24.296Y33.268
X24.38Y33.196
X24.462Y33.122
X24.542Y33.047
X24.621Y32.969
X24.697Y32.889
X24.772Y32.808
X24.844Y32.724
X24.892Y32.668
X25.163Y32.336
X25.232Y32.249
X25.298Y32.161
X25.362Y32.071
X25.423Y31.979
X25.483Y31.886
X25.54Y31.792
X25.595Y31.696
X25.63Y31.631
X25.832Y31.253
X25.882Y31.155
X25.93Y31.055
X25.975Y30.954
X26.018Y30.852
X26.058Y30.75
X26.095Y30.646
X26.131Y30.541
X26.153Y30.471
X26.277Y30.06
X26.307Y29.954
X26.334Y29.847
X26.359Y29.739
X26.381Y29.631
X26.4Y29.523
X26.413Y29.438
X25.424Y29.291
X25.432Y29.23
X25.443Y29.133
X25.484Y28.718
X25.491Y28.632
X25.495Y28.547
X25.498Y28.461
X25.498Y28.375
X25.497Y28.289
X25.493Y28.203
X25.487Y28.118
X25.482Y28.056
X25.441Y27.642
X25.431Y27.557
X25.418Y27.472
X25.404Y27.387
X25.388Y27.303
X25.37Y27.219
X25.349Y27.135
X25.327Y27.052
X25.309Y26.994
X25.188Y26.595
X25.162Y26.513
X25.133Y26.432
X25.103Y26.352
X25.07Y26.273
X25.036Y26.194
X25Y26.116
X24.961Y26.039
X24.933Y25.985
X24.737Y25.617
X24.695Y25.543
X24.651Y25.469
X24.605Y25.396
X24.558Y25.324
X24.509Y25.254
X24.458Y25.184
X24.406Y25.116
X24.367Y25.069
X24.103Y24.747
X24.047Y24.681
X23.99Y24.617
X23.931Y24.555
X23.87Y24.494
X23.809Y24.434
X23.745Y24.376
X23.68Y24.32
X23.633Y24.28
X23.311Y24.016
X23.244Y23.963
X23.175Y23.912
X23.105Y23.862
X23.034Y23.814
X22.962Y23.767
X22.888Y23.723
X22.814Y23.68
X22.76Y23.651
X22.393Y23.455
X22.316Y23.415
X22.239Y23.378
X22.16Y23.343
X22.081Y23.31
X22.001Y23.279
X21.92Y23.249
X21.839Y23.222
X21.78Y23.203
X21.382Y23.083
X21.299Y23.059
X21.216Y23.038
X21.132Y23.019
X21.048Y23.002
X20.964Y22.986
X20.879Y22.973
X20.794Y22.962
X20.733Y22.956
X20.318Y22.915
X20.232Y22.908
X20.147Y22.904
X20.061Y22.901
X19.975Y22.901
X19.889Y22.902
X19.803Y22.906
X19.718Y22.912
X19.656Y22.917
X19.242Y22.958
X19.157Y22.968
X19.072Y22.981
X18.987Y22.995
X18.903Y23.011
X18.819Y23.029
X18.735Y23.05
X18.652Y23.072
X18.594Y23.09
X18.195Y23.211
X18.113Y23.237
X18.032Y23.266
X17.952Y23.296
X17.873Y23.329
X17.794Y23.363
X17.716Y23.399
X17.639Y23.438
X17.585Y23.466
X17.216Y23.663
X17.216Y6.199
X61.3Y6.199
X61.3Y45.693
X61.226Y45.711
X61.144Y45.734
X61.061Y45.758
X60.979Y45.785
X60.898Y45.813
X60.818Y45.844
X60.739Y45.876
X60.66Y45.911
X60.582Y45.947
X60.505Y45.985
X60.429Y46.025
X60.354Y46.067
X60.28Y46.111
X60.208Y46.157
X60.136Y46.204
X60.065Y46.253
X59.996Y46.304
X59.928Y46.356
X59.861Y46.41
X59.796Y46.466
X59.732Y46.524
X59.67Y46.582
X59.609Y46.643
X59.549Y46.705
X59.491Y46.768
X59.435Y46.833
X59.38Y46.899
X59.327Y46.966
X59.275Y47.035
X59.225Y47.105
X59.177Y47.176
X59.131Y47.248
X59.086Y47.322
X59.043Y47.396
X59.003Y47.472
X58.964Y47.548
X58.926Y47.626
X58.891Y47.704
X58.858Y47.783
X58.827Y47.863
X58.797Y47.944
X58.77Y48.025
X58.744Y48.107
X58.721Y48.19
X58.7Y48.273
X58.68Y48.357
X58.663Y48.441
X58.648Y48.526
X58.635Y48.611
X58.624Y48.696
X58.615Y48.781
X58.608Y48.867
X58.604Y48.953
X58.601Y49.038
X58.6Y49.1
X58.6Y50.6
X17.216Y50.6
X17.216Y33.136
X17.606Y33.345
X17.683Y33.384
X17.76Y33.421
X17.839Y33.456
X17.918Y33.489
X17.998Y33.521
X18.079Y33.55
X18.16Y33.577
X18.219Y33.596
X18.617Y33.716
X18.7Y33.74
X18.783Y33.761
X18.867Y33.78
X18.951Y33.797
X19.035Y33.813
X19.12Y33.826
X19.205Y33.837
X19.266Y33.843
X19.681Y33.884
X19.767Y33.891
X19.852Y33.895
X19.938Y33.898
X20.024Y33.898
X20.11Y33.897
X20.196Y33.893
X20.281Y33.887
X20.343Y33.882
X20.757Y33.841
X20.842Y33.831
X20.927Y33.818
X21.012Y33.804
X21.096Y33.788
X21.18Y33.77
X21.264Y33.749
X21.347Y33.727
X21.405Y33.709
X21.804Y33.588
X21.886Y33.562
X21.967Y33.533
X22.047Y33.503
X22.126Y33.47
X22.205Y33.436
X22.283Y33.4
X22.36Y33.361
X22.414Y33.333
X22.782Y33.137
X22.857Y33.095
X22.93Y33.051
X23.003Y33.005
X23.075Y32.958
X23.145Y32.909
X23.215Y32.858
X23.283Y32.806
X23.33Y32.767
X23.652Y32.503
X23.718Y32.447
X23.782Y32.39
X23.844Y32.331
X23.905Y32.27
X23.965Y32.209
X24.023Y32.145
X24.079Y32.08
X24.119Y32.033
X24.383Y31.711
X24.436Y31.644
X24.487Y31.575
X24.537Y31.505
X24.585Y31.434
X24.632Y31.362
X24.676Y31.288
X24.719Y31.214
X24.748Y31.16
X24.944Y30.793
X24.984Y30.716
X25.021Y30.639
X25.056Y30.56
X25.089Y30.481
X25.12Y30.401
X25.15Y30.32
X25.177Y30.239
X25.196Y30.18
X25.316Y29.782
X25.34Y29.699
X25.361Y29.616
X25.38Y29.532
X25.397Y29.448
X25.413Y29.364
X25.424Y29.291
X24.435Y29.144
X24.443Y29.083
X24.448Y29.035
X24.488Y28.632
X24.493Y28.571
X24.496Y28.51
X24.498Y28.449
X24.498Y28.387
X24.497Y28.326
X24.495Y28.265
X24.491Y28.203
X24.486Y28.154
X24.447Y27.752
X24.44Y27.691
X24.431Y27.631
X24.421Y27.57
X24.41Y27.51
X24.397Y27.45
X24.382Y27.39
X24.366Y27.331
X24.352Y27.284
X24.235Y26.897
X24.216Y26.839
X24.196Y26.781
X24.174Y26.723
X24.151Y26.667
X24.127Y26.61
X24.101Y26.555
X24.074Y26.5
X24.051Y26.456
X23.861Y26.1
X23.831Y26.046
X23.8Y25.993
X23.767Y25.941
X23.733Y25.89
X23.698Y25.839
X23.662Y25.79
X23.625Y25.741
X23.594Y25.703
X23.338Y25.391
X23.298Y25.344
X23.257Y25.298
X23.215Y25.253
X23.172Y25.21
X23.128Y25.167
X23.083Y25.125
X23.037Y25.085
X22.999Y25.053
X22.687Y24.797
X22.638Y24.759
X22.589Y24.722
X22.54Y24.686
X22.489Y24.652
X22.437Y24.619
X22.385Y24.587
X22.332Y24.556
X22.289Y24.533
X21.932Y24.342
X21.878Y24.314
X21.822Y24.288
X21.766Y24.262
X21.71Y24.238
X21.653Y24.216
X21.595Y24.195
X21.537Y24.175
X21.49Y24.16
X21.103Y24.043
X21.044Y24.026
X20.985Y24.011
X20.925Y23.997
X20.865Y23.985
X20.805Y23.974
X20.744Y23.964
X20.683Y23.956
X20.635Y23.951
X20.232Y23.911
X20.171Y23.906
X20.11Y23.903
X20.049Y23.901
X19.987Y23.901
X19.926Y23.902
X19.865Y23.904
X19.803Y23.908
X19.754Y23.913
X19.352Y23.952
X19.291Y23.959
X19.231Y23.968
X19.17Y23.978
X19.11Y23.989
X19.05Y24.002
X18.99Y24.017
X18.931Y24.033
X18.884Y24.047
X18.497Y24.164
X18.439Y24.183
X18.381Y24.203
X18.323Y24.225
X18.267Y24.248
X18.21Y24.272
X18.155Y24.298
X18.1Y24.325
X18.056Y24.348
X17.7Y24.538
X17.646Y24.568
X17.593Y24.599
X17.541Y24.632
X17.49Y24.666
X17.439Y24.701
X17.39Y24.737
X17.341Y24.774
X17.303Y24.805
X16.991Y25.061
X16.944Y25.101
X16.898Y25.142
X16.853Y25.184
X16.81Y25.227
X16.767Y25.271
X16.725Y25.316
X16.685Y25.362
X16.653Y25.4
X16.397Y25.712
X16.359Y25.761
X16.322Y25.81
X16.286Y25.859
X16.252Y25.91
X16.216Y25.966
X16.216Y5.199
X62.3Y5.199
X62.3Y46.601
X62.088Y46.601
X62.027Y46.602
X61.966Y46.604
X61.904Y46.608
X61.843Y46.614
X61.782Y46.621
X61.722Y46.629
X61.661Y46.639
X61.601Y46.651
X61.541Y46.664
X61.481Y46.678
X61.422Y46.694
X61.363Y46.712
X61.305Y46.731
X61.247Y46.751
X61.189Y46.772
X61.133Y46.796
X61.076Y46.82
X61.021Y46.846
X60.966Y46.873
X60.911Y46.901
X60.858Y46.931
X60.805Y46.962
X60.753Y46.995
X60.702Y47.029
X60.651Y47.064
X60.602Y47.1
X60.553Y47.137
X60.505Y47.176
X60.458Y47.215
X60.413Y47.256
X60.368Y47.298
X60.324Y47.341
X60.282Y47.385
X60.24Y47.431
X60.2Y47.477
X60.16Y47.524
X60.122Y47.572
X60.085Y47.621
X60.05Y47.671
X60.015Y47.722
X59.982Y47.773
X59.95Y47.826
X59.919Y47.879
X59.89Y47.933
X59.862Y47.987
X59.836Y48.042
X59.81Y48.098
X59.786Y48.155
X59.764Y48.212
X59.743Y48.269
X59.723Y48.328
X59.705Y48.386
X59.688Y48.445
X59.673Y48.505
X59.659Y48.564
X59.646Y48.624
X59.635Y48.685
X59.626Y48.745
X59.618Y48.806
X59.611Y48.867
X59.606Y48.928
X59.603Y48.99
X59.601Y49.051
X59.601Y49.1
X59.6Y51.6
X16.216Y51.6
X16.216Y30.833
X16.232Y30.858
X16.266Y30.909
X16.301Y30.96
X16.337Y31.009
X16.374Y31.058
X16.405Y31.096
X16.661Y31.408
X16.701Y31.455
X16.742Y31.501
X16.784Y31.546
X16.827Y31.589
X16.871Y31.632
X16.916Y31.674
X16.962Y31.714
X17Y31.746
X17.312Y32.002
X17.361Y32.04
X17.41Y32.077
X17.459Y32.113
X17.51Y32.147
X17.562Y32.18
X17.614Y32.212
X17.667Y32.243
X17.71Y32.266
X18.067Y32.457
X18.121Y32.485
X18.177Y32.511
X18.233Y32.537
X18.289Y32.561
X18.346Y32.583
X18.404Y32.604
X18.462Y32.624
X18.509Y32.639
X18.896Y32.756
X18.955Y32.773
X19.014Y32.788
X19.074Y32.802
X19.134Y32.814
X19.194Y32.825
X19.255Y32.835
X19.316Y32.843
X19.364Y32.848
X19.767Y32.888
X19.828Y32.893
X19.889Y32.896
X19.95Y32.898
X20.012Y32.898
X20.073Y32.897
X20.134Y32.895
X20.196Y32.891
X20.245Y32.886
X20.647Y32.847
X20.708Y32.84
X20.768Y32.831
X20.829Y32.821
X20.889Y32.81
X20.949Y32.797
X21.009Y32.782
X21.068Y32.766
X21.115Y32.752
X21.502Y32.635
X21.56Y32.616
X21.618Y32.596
X21.676Y32.574
X21.732Y32.551
X21.789Y32.527
X21.844Y32.501
X21.899Y32.474
X21.943Y32.451
X22.299Y32.261
X22.353Y32.231
X22.406Y32.2
X22.458Y32.167
X22.509Y32.133
X22.56Y32.098
X22.609Y32.062
X22.658Y32.025
X22.696Y31.994
X23.008Y31.738
X23.055Y31.698
X23.101Y31.657
X23.146Y31.615
X23.189Y31.572
X23.232Y31.528
X23.274Y31.483
X23.314Y31.437
X23.346Y31.399
X23.602Y31.087
X23.64Y31.038
X23.677Y30.989
X23.713Y30.94
X23.747Y30.889
X23.78Y30.837
X23.812Y30.785
X23.843Y30.732
X23.866Y30.689
X24.057Y30.332
X24.085Y30.278
X24.111Y30.222
X24.137Y30.166
X24.161Y30.11
X24.183Y30.053
X24.204Y29.995
X24.224Y29.937
X24.239Y29.89
X24.356Y29.503
X24.373Y29.444
X24.388Y29.385
X24.402Y29.325
X24.414Y29.265
X24.425Y29.205
X24.435Y29.144
X23.444Y29.01
X23.449Y28.973
X23.453Y28.937
X23.491Y28.547
X23.494Y28.51
X23.497Y28.473
X23.498Y28.436
X23.498Y28.4
X23.498Y28.363
X23.497Y28.326
X23.494Y28.289
X23.491Y28.252
X23.453Y27.862
X23.449Y27.826
X23.444Y27.789
X23.438Y27.753
X23.431Y27.717
X23.424Y27.681
X23.415Y27.645
X23.406Y27.609
X23.395Y27.574
X23.282Y27.199
X23.271Y27.164
X23.259Y27.129
X23.246Y27.095
X23.232Y27.061
X23.218Y27.027
X23.202Y26.993
X23.186Y26.96
X23.169Y26.927
X22.984Y26.582
X22.967Y26.55
X22.948Y26.518
X22.929Y26.486
X22.909Y26.456
X22.888Y26.425
X22.866Y26.395
X22.844Y26.366
X22.821Y26.337
X22.573Y26.034
X22.549Y26.006
X22.524Y25.979
X22.499Y25.952
X22.474Y25.925
X22.447Y25.9
X22.42Y25.875
X22.393Y25.85
X22.365Y25.826
X22.062Y25.578
X22.033Y25.555
X22.004Y25.533
X21.974Y25.511
X21.943Y25.49
X21.913Y25.47
X21.881Y25.451
X21.849Y25.432
X21.817Y25.415
X21.472Y25.23
X21.439Y25.213
X21.406Y25.197
X21.372Y25.181
X21.339Y25.167
X21.304Y25.153
X21.27Y25.14
X21.235Y25.128
X21.2Y25.117
X20.825Y25.004
X20.79Y24.993
X20.754Y24.984
X20.718Y24.975
X20.682Y24.968
X20.646Y24.961
X20.61Y24.955
X20.573Y24.95
X20.537Y24.946
X20.147Y24.908
X20.11Y24.905
X20.073Y24.902
X20.036Y24.901
X20Y24.901
X19.963Y24.901
X19.926Y24.902
X19.889Y24.905
X19.852Y24.908
X19.462Y24.946
X19.426Y24.95
X19.389Y24.955
X19.353Y24.961
X19.317Y24.968
X19.281Y24.975
X19.245Y24.984
X19.209Y24.993
X19.174Y25.004
X18.799Y25.117
X18.764Y25.128
X18.729Y25.14
X18.695Y25.153
X18.66Y25.167
X18.627Y25.181
X18.593Y25.197
X18.56Y25.213
X18.527Y25.23
X18.182Y25.415
X18.15Y25.432
X18.118Y25.451
X18.086Y25.47
X18.056Y25.49
X18.025Y25.511
X17.995Y25.533
X17.966Y25.555
X17.937Y25.578
X17.634Y25.826
X17.606Y25.85
X17.579Y25.875
X17.552Y25.9
X17.525Y25.925
X17.5Y25.952
X17.475Y25.979
X17.45Y26.006
X17.426Y26.034
X17.178Y26.337
X17.155Y26.366
X17.133Y26.395
X17.111Y26.425
X17.09Y26.456
X17.07Y26.486
X17.051Y26.518
X17.032Y26.55
X17.015Y26.582
X16.83Y26.927
X16.813Y26.96
X16.797Y26.993
X16.781Y27.027
X16.767Y27.061
X16.753Y27.095
X16.74Y27.129
X16.728Y27.164
X16.717Y27.199
X16.604Y27.574
X16.593Y27.609
X16.584Y27.645
X16.575Y27.681
X16.568Y27.717
X16.561Y27.753
X16.555Y27.789
X16.55Y27.826
X16.546Y27.862
X16.508Y28.252
X16.505Y28.289
X16.502Y28.326
X16.501Y28.363
X16.501Y28.4
X16.501Y28.436
X16.502Y28.473
X16.505Y28.51
X16.508Y28.547
X16.546Y28.937
X16.55Y28.973
X16.555Y29.01
X16.561Y29.046
X16.568Y29.082
X16.575Y29.118
X16.584Y29.154
X16.593Y29.19
X16.604Y29.225
X16.717Y29.6
X16.728Y29.635
X16.74Y29.67
X16.753Y29.704
X16.767Y29.739
X16.781Y29.772
X16.797Y29.806
X16.813Y29.839
X16.83Y29.872
X17.015Y30.217
X17.032Y30.249
X17.051Y30.281
X17.07Y30.313
X17.09Y30.343
X17.111Y30.374
X17.133Y30.404
X17.155Y30.433
X17.178Y30.462
X17.426Y30.765
X17.45Y30.793
X17.475Y30.82
X17.5Y30.847
X17.525Y30.874
X17.552Y30.899
X17.579Y30.924
X17.606Y30.949
X17.634Y30.973
X17.937Y31.221
X17.966Y31.244
X17.995Y31.266
X18.025Y31.288
X18.056Y31.309
X18.086Y31.329
X18.118Y31.348
X18.15Y31.367
X18.182Y31.384
X18.527Y31.569
X18.56Y31.586
X18.593Y31.602
X18.627Y31.618
X18.66Y31.632
X18.695Y31.646
X18.729Y31.659
X18.764Y31.671
X18.799Y31.682
X19.174Y31.796
X19.209Y31.806
X19.245Y31.815
X19.281Y31.824
X19.317Y31.831
X19.353Y31.838
X19.389Y31.844
X19.426Y31.849
X19.462Y31.853
X19.852Y31.891
X19.889Y31.894
X19.926Y31.897
X19.963Y31.898
X20Y31.899
X20.036Y31.898
X20.073Y31.897
X20.11Y31.894
X20.147Y31.891
X20.537Y31.853
X20.573Y31.849
X20.61Y31.844
X20.646Y31.838
X20.682Y31.831
X20.718Y31.824
X20.754Y31.815
X20.79Y31.806
X20.825Y31.796
X21.2Y31.682
X21.235Y31.671
X21.27Y31.659
X21.304Y31.646
X21.339Y31.632
X21.372Y31.618
X21.406Y31.602
X21.439Y31.586
X21.472Y31.569
X21.817Y31.384
X21.849Y31.367
X21.881Y31.348
X21.913Y31.329
X21.943Y31.309
X21.974Y31.288
X22.004Y31.266
X22.033Y31.244
X22.062Y31.221
X22.365Y30.973
X22.393Y30.949
X22.42Y30.924
X22.447Y30.899
X22.474Y30.874
X22.499Y30.847
X22.524Y30.82
X22.549Y30.793
X22.573Y30.765
X22.821Y30.462
X22.844Y30.433
X22.866Y30.404
X22.888Y30.374
X22.909Y30.343
X22.929Y30.313
X22.948Y30.281
X22.967Y30.249
X22.984Y30.217
X23.169Y29.872
X23.186Y29.839
X23.202Y29.806
X23.218Y29.772
X23.232Y29.739
X23.246Y29.704
X23.259Y29.67
X23.271Y29.635
X23.282Y29.6
X23.395Y29.225
X23.406Y29.19
X23.415Y29.154
X23.424Y29.118
X23.431Y29.082
X23.438Y29.046
X23.444Y29.01
G0Z2
X15.216Y52.6
G1Z-3.9F125
X15.216Y4.199F250
X63.3Y4.199
X63.3Y47.601
X62.1
X62.064Y47.601
X62.027Y47.602
X61.99Y47.605
X61.953Y47.608
X61.917Y47.612
X61.88Y47.617
X61.844Y47.623
X61.808Y47.629
X61.772Y47.637
X61.736Y47.645
X61.7Y47.655
X61.665Y47.665
X61.63Y47.676
X61.595Y47.688
X61.561Y47.701
X61.527Y47.715
X61.493Y47.729
X61.459Y47.744
X61.426Y47.761
X61.393Y47.778
X61.361Y47.795
X61.329Y47.814
X61.298Y47.833
X61.267Y47.853
X61.237Y47.874
X61.207Y47.896
X61.178Y47.918
X61.149Y47.941
X61.121Y47.965
X61.093Y47.989
X61.066Y48.014
X61.04Y48.04
X61.014Y48.066
X60.989Y48.093
X60.965Y48.121
X60.941Y48.149
X60.918Y48.178
X60.896Y48.207
X60.874Y48.237
X60.853Y48.267
X60.833Y48.298
X60.814Y48.329
X60.795Y48.361
X60.778Y48.393
X60.761Y48.426
X60.745Y48.459
X60.729Y48.492
X60.715Y48.526
X60.701Y48.56
X60.688Y48.595
X60.676Y48.63
X60.665Y48.665
X60.655Y48.7
X60.646Y48.736
X60.637Y48.772
X60.629Y48.808
X60.623Y48.844
X60.617Y48.88
X60.612Y48.917
X60.608Y48.953
X60.605Y48.99
X60.602Y49.027
X60.601Y49.063
X60.601Y49.1
X60.6Y52.6
X15.216Y52.6
G0Z2
(Tool: D = 3.0 mm  type END flutes 2)
S12000M03
G00 Z2.0

X6.999Y6.099
G1Z-2.25F200
X8.062Y6.099F400
Y50.7
X6.999Y50.7
X6.999Y6.099
X5.999Y5.099
X9.062Y5.099
Y51.7
X5.999Y51.7
X5.999Y5.099
X4.999Y4.099
X10.062Y4.099
Y52.7
X4.999Y52.7
X4.999Y4.099
X3.999Y3.099
X11.062Y3.099
Y53.7
X3.999Y53.7
X3.999Y3.099
G0Z2
X6.999Y6.099
G1Z-3.9F200
X8.062Y6.099F400
Y50.7
X6.999Y50.7
X6.999Y6.099
X5.999Y5.099
X9.062Y5.099
Y51.7
X5.999Y51.7
X5.999Y5.099
X4.999Y4.099
X10.062Y4.099
Y52.7
X4.999Y52.7
X4.999Y4.099
X3.999Y3.099
X11.062Y3.099
Y53.7
X3.999Y53.7
X3.999Y3.099
G0Z2
(Tool: D = 3.0 mm  type END flutes 2)
S12000M03
G00 Z2.0

X3.499Y-0
G1Z-2F200
X67.5Y0F400
X67.5Y51.801
X66.301
X66.264Y51.801
X66.227Y51.802
X66.19Y51.805
X66.153Y51.808
X66.117Y51.812
X66.08Y51.817
X66.044Y51.823
X66.008Y51.829
X65.972Y51.837
X65.936Y51.845
X65.9Y51.855
X65.865Y51.865
X65.83Y51.876
X65.795Y51.888
X65.761Y51.901
X65.727Y51.915
X65.693Y51.929
X65.659Y51.944
X65.626Y51.961
X65.593Y51.978
X65.561Y51.995
X65.529Y52.014
X65.498Y52.033
X65.467Y52.053
X65.437Y52.074
X65.407Y52.096
X65.378Y52.118
X65.349Y52.141
X65.321Y52.165
X65.293Y52.189
X65.266Y52.214
X65.24Y52.24
X65.214Y52.266
X65.189Y52.293
X65.165Y52.321
X65.141Y52.349
X65.118Y52.378
X65.096Y52.407
X65.074Y52.437
X65.053Y52.467
X65.033Y52.498
X65.014Y52.529
X64.995Y52.561
X64.978Y52.593
X64.961Y52.626
X64.945Y52.659
X64.929Y52.692
X64.915Y52.726
X64.901Y52.76
X64.888Y52.795
X64.876Y52.83
X64.865Y52.865
X64.855Y52.9
X64.846Y52.936
X64.837Y52.972
X64.829Y53.008
X64.823Y53.044
X64.817Y53.08
X64.812Y53.117
X64.808Y53.153
X64.805Y53.19
X64.802Y53.227
X64.801Y53.263
X64.801Y53.3
X64.8Y56.8
X3.499Y56.8
X3.499Y56.199
X11.445Y56.199
X11.475Y56.233
X11.501Y56.259
X11.527Y56.285
X11.554Y56.31
X11.582Y56.334
X11.61Y56.358
X11.639Y56.381
X11.668Y56.403
X11.698Y56.425
X11.728Y56.446
X11.759Y56.466
X11.791Y56.485
X11.822Y56.504
X11.855Y56.521
X11.887Y56.538
X11.92Y56.554
X11.954Y56.57
X11.988Y56.584
X12.022Y56.598
X12.056Y56.611
X12.091Y56.623
X12.126Y56.634
X12.162Y56.644
X12.197Y56.654
X12.233Y56.662
X12.269Y56.67
X12.305Y56.676
X12.342Y56.682
X12.378Y56.687
X12.415Y56.691
X12.451Y56.694
X12.488Y56.697
X12.525Y56.698
X12.562Y56.698
X62.449
X62.486Y56.698
X62.523Y56.697
X62.56Y56.694
X62.596Y56.691
X62.743Y56.677
X62.779Y56.673
X62.816Y56.668
X62.852Y56.662
X62.888Y56.655
X62.924Y56.648
X62.96Y56.639
X62.996Y56.63
X63.031Y56.619
X63.172Y56.577
X63.207Y56.566
X63.241Y56.554
X63.276Y56.541
X63.31Y56.527
X63.344Y56.513
X63.377Y56.497
X63.411Y56.481
X63.443Y56.464
X63.573Y56.395
X63.605Y56.377
X63.637Y56.359
X63.668Y56.34
X63.699Y56.319
X63.729Y56.299
X63.759Y56.277
X63.788Y56.255
X63.817Y56.232
X63.931Y56.139
X63.959Y56.115
X63.986Y56.091
X64.013Y56.065
X64.04Y56.04
X64.065Y56.013
X64.091Y55.986
X64.115Y55.959
X64.139Y55.931
X64.232Y55.817
X64.255Y55.788
X64.277Y55.759
X64.299Y55.729
X64.319Y55.699
X64.34Y55.668
X64.359Y55.637
X64.377Y55.605
X64.395Y55.573
X64.464Y55.443
X64.481Y55.411
X64.497Y55.377
X64.513Y55.344
X64.527Y55.31
X64.541Y55.276
X64.554Y55.241
X64.566Y55.207
X64.577Y55.172
X64.62Y55.031
X64.63Y54.996
X64.639Y54.96
X64.648Y54.924
X64.655Y54.888
X64.662Y54.852
X64.668Y54.816
X64.673Y54.779
X64.677Y54.743
X64.691Y54.596
X64.694Y54.56
X64.697Y54.523
X64.698Y54.487
X64.698Y54.45
X64.699Y51.698
X65.149
X65.186Y51.698
X65.223Y51.697
X65.26Y51.694
X65.316Y51.689
X65.443Y51.677
X65.479Y51.673
X65.516Y51.668
X65.552Y51.662
X65.588Y51.655
X65.624Y51.648
X65.66Y51.639
X65.696Y51.63
X65.731Y51.62
X65.872Y51.577
X65.907Y51.566
X65.941Y51.554
X65.976Y51.541
X66.01Y51.527
X66.044Y51.513
X66.077Y51.497
X66.111Y51.481
X66.143Y51.464
X66.273Y51.395
X66.305Y51.377
X66.337Y51.359
X66.368Y51.34
X66.399Y51.319
X66.429Y51.299
X66.459Y51.277
X66.488Y51.255
X66.517Y51.232
X66.631Y51.139
X66.659Y51.115
X66.686Y51.091
X66.713Y51.065
X66.74Y51.04
X66.765Y51.013
X66.791Y50.986
X66.815Y50.959
X66.85Y50.916
X66.932Y50.817
X66.955Y50.788
X66.977Y50.759
X66.999Y50.729
X67.019Y50.699
X67.04Y50.668
X67.059Y50.637
X67.077Y50.605
X67.095Y50.573
X67.164Y50.443
X67.181Y50.411
X67.197Y50.377
X67.213Y50.344
X67.227Y50.31
X67.241Y50.276
X67.254Y50.241
X67.266Y50.207
X67.277Y50.172
X67.32Y50.031
X67.33Y49.996
X67.339Y49.96
X67.348Y49.924
X67.355Y49.888
X67.362Y49.852
X67.368Y49.816
X67.373Y49.779
X67.377Y49.743
X67.391Y49.596
X67.394Y49.56
X67.397Y49.523
X67.398Y49.486
X67.398Y49.449
Y2.35
X67.398Y2.313
X67.397Y2.276
X67.394Y2.239
X67.391Y2.203
X67.377Y2.056
X67.373Y2.02
X67.368Y1.983
X67.362Y1.947
X67.355Y1.911
X67.348Y1.875
X67.339Y1.839
X67.33Y1.803
X67.32Y1.768
X67.277Y1.627
X67.266Y1.592
X67.254Y1.558
X67.241Y1.523
X67.227Y1.489
X67.213Y1.455
X67.197Y1.422
X67.181Y1.388
X67.164Y1.356
X67.095Y1.226
X67.077Y1.194
X67.059Y1.162
X67.04Y1.131
X67.019Y1.1
X66.999Y1.07
X66.977Y1.04
X66.955Y1.011
X66.932Y0.982
X66.839Y0.868
X66.815Y0.84
X66.791Y0.813
X66.765Y0.786
X66.74Y0.759
X66.713Y0.733
X66.686Y0.708
X66.659Y0.684
X66.631Y0.66
X66.517Y0.567
X66.488Y0.544
X66.459Y0.522
X66.429Y0.5
X66.399Y0.48
X66.368Y0.459
X66.337Y0.44
X66.305Y0.422
X66.273Y0.404
X66.143Y0.335
X66.111Y0.318
X66.077Y0.302
X66.044Y0.286
X66.01Y0.272
X65.976Y0.258
X65.941Y0.245
X65.907Y0.233
X65.872Y0.222
X65.731Y0.179
X65.696Y0.169
X65.66Y0.16
X65.624Y0.151
X65.588Y0.144
X65.552Y0.137
X65.516Y0.131
X65.479Y0.126
X65.443Y0.122
X65.296Y0.108
X65.26Y0.105
X65.223Y0.102
X65.186Y0.101
X65.149Y0.101
X12.562
X12.525Y0.101
X12.488Y0.102
X12.452Y0.105
X12.415Y0.108
X12.378Y0.112
X12.342Y0.117
X12.306Y0.123
X12.269Y0.129
X12.234Y0.137
X12.198Y0.145
X12.162Y0.155
X12.127Y0.165
X12.092Y0.176
X12.057Y0.188
X12.023Y0.201
X11.988Y0.214
X11.955Y0.229
X11.921Y0.244
X11.888Y0.26
X11.855Y0.277
X11.823Y0.295
X11.791Y0.313
X11.76Y0.333
X11.729Y0.353
X11.699Y0.373
X11.669Y0.395
X11.64Y0.417
X11.611Y0.44
X11.583Y0.464
X11.555Y0.488
X11.528Y0.513
X11.502Y0.539
X11.476Y0.565
X11.451Y0.592
X11.444Y0.6
X3.499Y0.6
X3.499Y-0
Z-3.7F200
X67.5Y0F400
X67.5Y51.801
X66.301
X66.264Y51.801
X66.227Y51.802
X66.19Y51.805
X66.153Y51.808
X66.117Y51.812
X66.08Y51.817
X66.044Y51.823
X66.008Y51.829
X65.972Y51.837
X65.936Y51.845
X65.9Y51.855
X65.865Y51.865
X65.83Y51.876
X65.795Y51.888
X65.761Y51.901
X65.727Y51.915
X65.693Y51.929
X65.659Y51.944
X65.626Y51.961
X65.593Y51.978
X65.561Y51.995
X65.529Y52.014
X65.498Y52.033
X65.467Y52.053
X65.437Y52.074
X65.407Y52.096
X65.378Y52.118
X65.349Y52.141
X65.321Y52.165
X65.293Y52.189
X65.266Y52.214
X65.24Y52.24
X65.214Y52.266
X65.189Y52.293
X65.165Y52.321
X65.141Y52.349
X65.118Y52.378
X65.096Y52.407
X65.074Y52.437
X65.053Y52.467
X65.033Y52.498
X65.014Y52.529
X64.995Y52.561
X64.978Y52.593
X64.961Y52.626
X64.945Y52.659
X64.929Y52.692
X64.915Y52.726
X64.901Y52.76
X64.888Y52.795
X64.876Y52.83
X64.865Y52.865
X64.855Y52.9
X64.846Y52.936
X64.837Y52.972
X64.829Y53.008
X64.823Y53.044
X64.817Y53.08
X64.812Y53.117
X64.808Y53.153
X64.805Y53.19
X64.802Y53.227
X64.801Y53.263
X64.801Y53.3
X64.8Y56.8
X3.499Y56.8
X3.499Y56.199
X11.445Y56.199
X11.475Y56.233
X11.501Y56.259
X11.527Y56.285
X11.554Y56.31
X11.582Y56.334
X11.61Y56.358
X11.639Y56.381
X11.668Y56.403
X11.698Y56.425
X11.728Y56.446
X11.759Y56.466
X11.791Y56.485
X11.822Y56.504
X11.855Y56.521
X11.887Y56.538
X11.92Y56.554
X11.954Y56.57
X11.988Y56.584
X12.022Y56.598
X12.056Y56.611
X12.091Y56.623
X12.126Y56.634
X12.162Y56.644
X12.197Y56.654
X12.233Y56.662
X12.269Y56.67
X12.305Y56.676
X12.342Y56.682
X12.378Y56.687
X12.415Y56.691
X12.451Y56.694
X12.488Y56.697
X12.525Y56.698
X12.562Y56.698
X62.449
X62.486Y56.698
X62.523Y56.697
X62.56Y56.694
X62.596Y56.691
X62.743Y56.677
X62.779Y56.673
X62.816Y56.668
X62.852Y56.662
X62.888Y56.655
X62.924Y56.648
X62.96Y56.639
X62.996Y56.63
X63.031Y56.619
X63.172Y56.577
X63.207Y56.566
X63.241Y56.554
X63.276Y56.541
X63.31Y56.527
X63.344Y56.513
X63.377Y56.497
X63.411Y56.481
X63.443Y56.464
X63.573Y56.395
X63.605Y56.377
X63.637Y56.359
X63.668Y56.34
X63.699Y56.319
X63.729Y56.299
X63.759Y56.277
X63.788Y56.255
X63.817Y56.232
X63.931Y56.139
X63.959Y56.115
X63.986Y56.091
X64.013Y56.065
X64.04Y56.04
X64.065Y56.013
X64.091Y55.986
X64.115Y55.959
X64.139Y55.931
X64.232Y55.817
X64.255Y55.788
X64.277Y55.759
X64.299Y55.729
X64.319Y55.699
X64.34Y55.668
X64.359Y55.637
X64.377Y55.605
X64.395Y55.573
X64.464Y55.443
X64.481Y55.411
X64.497Y55.377
X64.513Y55.344
X64.527Y55.31
X64.541Y55.276
X64.554Y55.241
X64.566Y55.207
X64.577Y55.172
X64.62Y55.031
X64.63Y54.996
X64.639Y54.96
X64.648Y54.924
X64.655Y54.888
X64.662Y54.852
X64.668Y54.816
X64.673Y54.779
X64.677Y54.743
X64.691Y54.596
X64.694Y54.56
X64.697Y54.523
X64.698Y54.487
X64.698Y54.45
X64.699Y51.698
X65.149
X65.186Y51.698
X65.223Y51.697
X65.26Y51.694
X65.316Y51.689
X65.443Y51.677
X65.479Y51.673
X65.516Y51.668
X65.552Y51.662
X65.588Y51.655
X65.624Y51.648
X65.66Y51.639
X65.696Y51.63
X65.731Y51.62
X65.872Y51.577
X65.907Y51.566
X65.941Y51.554
X65.976Y51.541
X66.01Y51.527
X66.044Y51.513
X66.077Y51.497
X66.111Y51.481
X66.143Y51.464
X66.273Y51.395
X66.305Y51.377
X66.337Y51.359
X66.368Y51.34
X66.399Y51.319
X66.429Y51.299
X66.459Y51.277
X66.488Y51.255
X66.517Y51.232
X66.631Y51.139
X66.659Y51.115
X66.686Y51.091
X66.713Y51.065
X66.74Y51.04
X66.765Y51.013
X66.791Y50.986
X66.815Y50.959
X66.85Y50.916
X66.932Y50.817
X66.955Y50.788
X66.977Y50.759
X66.999Y50.729
X67.019Y50.699
X67.04Y50.668
X67.059Y50.637
X67.077Y50.605
X67.095Y50.573
X67.164Y50.443
X67.181Y50.411
X67.197Y50.377
X67.213Y50.344
X67.227Y50.31
X67.241Y50.276
X67.254Y50.241
X67.266Y50.207
X67.277Y50.172
X67.32Y50.031
X67.33Y49.996
X67.339Y49.96
X67.348Y49.924
X67.355Y49.888
X67.362Y49.852
X67.368Y49.816
X67.373Y49.779
X67.377Y49.743
X67.391Y49.596
X67.394Y49.56
X67.397Y49.523
X67.398Y49.486
X67.398Y49.449
Y2.35
X67.398Y2.313
X67.397Y2.276
X67.394Y2.239
X67.391Y2.203
X67.377Y2.056
X67.373Y2.02
X67.368Y1.983
X67.362Y1.947
X67.355Y1.911
X67.348Y1.875
X67.339Y1.839
X67.33Y1.803
X67.32Y1.768
X67.277Y1.627
X67.266Y1.592
X67.254Y1.558
X67.241Y1.523
X67.227Y1.489
X67.213Y1.455
X67.197Y1.422
X67.181Y1.388
X67.164Y1.356
X67.095Y1.226
X67.077Y1.194
X67.059Y1.162
X67.04Y1.131
X67.019Y1.1
X66.999Y1.07
X66.977Y1.04
X66.955Y1.011
X66.932Y0.982
X66.839Y0.868
X66.815Y0.84
X66.791Y0.813
X66.765Y0.786
X66.74Y0.759
X66.713Y0.733
X66.686Y0.708
X66.659Y0.684
X66.631Y0.66
X66.517Y0.567
X66.488Y0.544
X66.459Y0.522
X66.429Y0.5
X66.399Y0.48
X66.368Y0.459
X66.337Y0.44
X66.305Y0.422
X66.273Y0.404
X66.143Y0.335
X66.111Y0.318
X66.077Y0.302
X66.044Y0.286
X66.01Y0.272
X65.976Y0.258
X65.941Y0.245
X65.907Y0.233
X65.872Y0.222
X65.731Y0.179
X65.696Y0.169
X65.66Y0.16
X65.624Y0.151
X65.588Y0.144
X65.552Y0.137
X65.516Y0.131
X65.479Y0.126
X65.443Y0.122
X65.296Y0.108
X65.26Y0.105
X65.223Y0.102
X65.186Y0.101
X65.149Y0.101
X12.562
X12.525Y0.101
X12.488Y0.102
X12.452Y0.105
X12.415Y0.108
X12.378Y0.112
X12.342Y0.117
X12.306Y0.123
X12.269Y0.129
X12.234Y0.137
X12.198Y0.145
X12.162Y0.155
X12.127Y0.165
X12.092Y0.176
X12.057Y0.188
X12.023Y0.201
X11.988Y0.214
X11.955Y0.229
X11.921Y0.244
X11.888Y0.26
X11.855Y0.277
X11.823Y0.295
X11.791Y0.313
X11.76Y0.333
X11.729Y0.353
X11.699Y0.373
X11.669Y0.395
X11.64Y0.417
X11.611Y0.44
X11.583Y0.464
X11.555Y0.488
X11.528Y0.513
X11.502Y0.539
X11.476Y0.565
X11.451Y0.592
X11.444Y0.6
X3.499Y0.6
X3.499Y-0
G0Z2
(Tool: D = 3.0 mm  type END flutes 2)
S12000M03
G00 Z2.0

X98.749Y27.999
G1Z-2.588F200
X109.5F400
X109.5Y28.8
X98.749Y28.8
Y27.999
X97.749Y26.999
X110.5Y26.999
X110.5Y29.8
X97.749Y29.8
Y26.999
X96.749Y25.999
X111.5Y25.999
X111.5Y30.8
X96.749Y30.8
Y25.999
X95.749Y24.999
X112.5Y24.999
X112.5Y31.8
X95.749Y31.8
Y24.999
X94.749Y23.999
X113.5Y23.999
X113.5Y32.8
X94.749Y32.8
Y23.999
X93.749Y22.999
X114.5Y22.999
X114.5Y33.8
X93.749Y33.8
Y22.999
X92.749Y21.999
X115.5
X115.5Y34.8
X92.749Y34.8
Y21.999
X91.749Y20.999
X116.5
X116.5Y35.8
X91.749Y35.8
Y20.999
X90.749Y19.999
X117.5
X117.5Y36.8
X90.749Y36.8
Y19.999
X89.749Y18.999
X118.5
X118.5Y37.8
X89.749Y37.8
Y18.999
X88.748Y17.999
X119.5
X119.5Y38.8
X88.748Y38.8
Y17.999
X87.749Y16.999
X120.5
X120.5Y39.8
X87.749Y39.8
Y16.999
X86.749Y15.999
X121.5
X121.5Y40.8
X86.749Y40.8
Y15.999
X85.749Y14.999
X122.5Y14.999
X122.5Y41.8
X85.749Y41.8
Y14.999
X84.749Y13.999
X123.301Y13.999
X123.438Y14.178
X123.5Y14.258
X123.5Y42.8
X84.748Y42.8
X84.749Y13.999
X83.749Y12.999
X123.814Y12.999
X123.969Y13.219
X124.136Y13.446
X124.31Y13.669
X124.488Y13.887
X124.5Y13.902
X124.5Y43.8
X83.749Y43.8
Y12.999
X82.749Y11.999
X124.356Y11.999
X124.488Y12.208
X124.631Y12.422
X124.779Y12.633
X124.932Y12.84
X125.09Y13.044
X125.253Y13.243
X125.421Y13.439
X125.5Y13.527
X125.5Y44.8
X82.749Y44.8
Y11.999
X81.749Y10.999
X124.934Y10.999
X125.028Y11.169
X125.083Y11.265
X125.202Y11.465
X125.327Y11.663
X125.456Y11.857
X125.59Y12.047
X125.728Y12.235
X125.871Y12.419
X126.019Y12.6
X126.171Y12.776
X126.327Y12.949
X126.487Y13.119
X126.5Y13.132
X126.5Y45.8
X81.749Y45.8
Y10.999
X80.749Y9.999
X125.555Y9.999
X125.611Y10.121
X125.653Y10.209
X125.747Y10.396
X125.845Y10.58
X125.947Y10.762
X126.054Y10.941
X126.165Y11.117
X126.281Y11.291
X126.4Y11.462
X126.524Y11.63
X126.652Y11.794
X126.784Y11.956
X126.92Y12.114
X127.059Y12.269
X127.203Y12.42
X127.35Y12.568
X127.5Y12.712
X127.5Y46.8
X80.749Y46.8
Y9.999
X79.749Y8.999
X126.23Y8.999
X126.264Y9.094
X126.33Y9.266
X126.4Y9.436
X126.474Y9.604
X126.552Y9.771
X126.634Y9.935
X126.721Y10.098
X126.811Y10.258
X126.905Y10.416
X127.003Y10.572
X127.105Y10.725
X127.211Y10.876
X127.32Y11.024
X127.433Y11.17
X127.549Y11.312
X127.669Y11.452
X127.792Y11.588
X127.919Y11.722
X128.049Y11.853
X128.182Y11.98
X128.318Y12.104
X128.457Y12.224
X128.5Y12.261
X128.5Y47.8
X79.749Y47.8
Y8.999
X78.749Y7.999
X126.976Y7.999
X127.01Y8.137
X127.053Y8.291
X127.098Y8.444
X127.148Y8.595
X127.201Y8.745
X127.258Y8.894
X127.319Y9.042
X127.383Y9.188
X127.451Y9.332
X127.522Y9.475
X127.597Y9.616
X127.675Y9.755
X127.757Y9.892
X127.842Y10.027
X127.93Y10.16
X128.021Y10.29
X128.116Y10.419
X128.214Y10.545
X128.314Y10.668
X128.418Y10.79
X128.525Y10.908
X128.635Y11.024
X128.747Y11.137
X128.862Y11.247
X128.98Y11.355
X129.101Y11.459
X129.224Y11.561
X129.349Y11.659
X129.477Y11.755
X129.5Y11.772
X129.5Y48.8
X78.749Y48.8
Y7.999
X77.748Y6.999
X127.823Y6.999
X127.832Y7.086
X127.848Y7.22
X127.868Y7.354
X127.89Y7.487
X127.916Y7.619
X127.945Y7.751
X127.977Y7.882
X128.013Y8.012
X128.052Y8.142
X128.094Y8.27
X128.139Y8.397
X128.187Y8.523
X128.238Y8.648
X128.292Y8.772
X128.35Y8.894
X128.41Y9.015
X128.473Y9.134
X128.539Y9.251
X128.608Y9.367
X128.68Y9.482
X128.755Y9.594
X128.832Y9.705
X128.912Y9.813
X128.995Y9.92
X129.08Y10.025
X129.168Y10.127
X129.258Y10.228
X129.351Y10.326
X129.446Y10.421
X129.543Y10.515
X129.643Y10.606
X129.745Y10.694
X129.849Y10.78
X129.955Y10.864
X130.063Y10.944
X130.173Y11.023
X130.285Y11.098
X130.399Y11.171
X130.5Y11.232
X130.5Y49.8
X77.748Y49.8
Y6.999
X76.749Y5.999
X128.801Y5.999
X128.801Y6.535
X128.803Y6.646
X128.808Y6.756
X128.816Y6.866
X128.826Y6.976
X128.839Y7.086
X128.855Y7.195
X128.873Y7.304
X128.894Y7.412
X128.918Y7.52
X128.944Y7.627
X128.973Y7.734
X129.005Y7.84
X129.039Y7.945
X129.076Y8.049
X129.115Y8.152
X129.157Y8.254
X129.202Y8.355
X129.248Y8.455
X129.298Y8.554
X129.349Y8.652
X129.403Y8.748
X129.46Y8.843
X129.518Y8.936
X129.579Y9.029
X129.642Y9.119
X129.708Y9.208
X129.775Y9.295
X129.845Y9.381
X129.917Y9.465
X129.991Y9.547
X130.066Y9.627
X130.144Y9.706
X130.224Y9.782
X130.305Y9.857
X130.389Y9.929
X130.474Y10
X130.56Y10.068
X130.649Y10.134
X130.739Y10.198
X130.83Y10.26
X130.923Y10.319
X131.018Y10.376
X131.114Y10.431
X131.211Y10.484
X131.309Y10.534
X131.409Y10.581
X131.5Y10.623
X131.5Y50.8
X76.749Y50.8
Y5.999
X75.749Y5
Y4.999
X129.801Y4.999
X129.801Y6.523
X129.802Y6.609
X129.806Y6.695
X129.812Y6.78
X129.82Y6.866
X129.83Y6.951
X129.842Y7.036
X129.856Y7.121
X129.873Y7.205
X129.891Y7.289
X129.911Y7.373
X129.934Y7.455
X129.958Y7.538
X129.985Y7.619
X130.013Y7.7
X130.044Y7.781
X130.076Y7.86
X130.111Y7.939
X130.147Y8.017
X130.185Y8.094
X130.225Y8.17
X130.267Y8.245
X130.311Y8.318
X130.357Y8.391
X130.404Y8.463
X130.453Y8.533
X130.504Y8.603
X130.556Y8.671
X130.61Y8.737
X130.666Y8.803
X130.723Y8.867
X130.782Y8.929
X130.843Y8.99
X130.905Y9.05
X130.968Y9.108
X131.033Y9.164
X131.099Y9.219
X131.166Y9.272
X131.235Y9.324
X131.305Y9.374
X131.376Y9.422
X131.448Y9.468
X131.522Y9.513
X131.596Y9.555
X131.672Y9.596
X131.748Y9.635
X131.825Y9.672
X131.904Y9.708
X131.983Y9.741
X132.063Y9.772
X132.144Y9.802
X132.225Y9.829
X132.307Y9.854
X132.39Y9.878
X132.473Y9.899
X132.5Y9.906
X132.5Y51.8
X75.749Y51.8
Y5
X74.749Y5
X74.749Y3.999
X130.801Y3.999
X130.801Y6.511
X130.802Y6.572
X130.804Y6.633
X130.808Y6.695
X130.814Y6.756
X130.821Y6.817
X130.829Y6.877
X130.839Y6.938
X130.851Y6.998
X130.864Y7.058
X130.878Y7.118
X130.894Y7.177
X130.912Y7.236
X130.931Y7.294
X130.951Y7.352
X130.972Y7.409
X130.995Y7.466
X131.02Y7.523
X131.046Y7.578
X131.073Y7.633
X131.101Y7.688
X131.131Y7.741
X131.162Y7.794
X131.195Y7.846
X131.229Y7.897
X131.263Y7.948
X131.3Y7.997
X131.337Y8.046
X131.376Y8.094
X131.415Y8.14
X131.456Y8.186
X131.498Y8.231
X131.541Y8.275
X131.585Y8.317
X131.63Y8.359
X131.677Y8.399
X131.724Y8.438
X131.772Y8.477
X131.821Y8.513
X131.871Y8.549
X131.921Y8.584
X131.973Y8.617
X132.025Y8.649
X132.078Y8.679
X132.132Y8.709
X132.187Y8.737
X132.242Y8.763
X132.298Y8.789
X132.355Y8.813
X132.412Y8.835
X132.469Y8.856
X132.527Y8.876
X132.586Y8.894
X132.645Y8.911
X132.704Y8.926
X132.764Y8.94
X132.824Y8.953
X132.884Y8.964
X132.945Y8.973
X133.006Y8.981
X133.067Y8.988
X133.128Y8.992
X133.189Y8.996
X133.251Y8.998
X133.3Y8.999
X133.5Y8.999
X133.5Y52.8
X74.749Y52.8
Y5
X73.748Y5
X73.749Y2.999
X131.801Y2.999
Y6.499
X131.801Y6.535
X131.802Y6.572
X131.805Y6.609
X131.808Y6.645
X131.812Y6.682
X131.817Y6.719
X131.823Y6.755
X131.829Y6.791
X131.837Y6.827
X131.845Y6.863
X131.855Y6.898
X131.865Y6.934
X131.876Y6.969
X131.888Y7.004
X131.901Y7.038
X131.915Y7.072
X131.929Y7.106
X131.944Y7.14
X131.961Y7.173
X131.978Y7.205
X131.995Y7.238
X132.014Y7.269
X132.033Y7.301
X132.053Y7.332
X132.074Y7.362
X132.096Y7.392
X132.118Y7.421
X132.141Y7.45
X132.165Y7.478
X132.189Y7.506
X132.214Y7.533
X132.24Y7.559
X132.266Y7.585
X132.293Y7.61
X132.321Y7.634
X132.349Y7.658
X132.377Y7.681
X132.407Y7.703
X132.437Y7.725
X132.467Y7.746
X132.498Y7.766
X132.529Y7.785
X132.561Y7.803
X132.593Y7.821
X132.626Y7.838
X132.659Y7.854
X132.692Y7.87
X132.726Y7.884
X132.76Y7.898
X132.795Y7.911
X132.83Y7.923
X132.865Y7.934
X132.9Y7.944
X132.936Y7.953
X132.971Y7.962
X133.007Y7.97
X133.044Y7.976
X133.08Y7.982
X133.116Y7.987
X133.153Y7.991
X133.19Y7.994
X133.226Y7.997
X133.263Y7.998
X133.3Y7.999
X134.5Y7.999
X134.5Y53.801
X73.748Y53.8
Y5
G0Z2
(Tool: D = 3.0 mm  type END flutes 2)
S12000M03
G00 Z2.0

X114.008Y23.045
G1Z-4.392F200
X114.5Y23.045F400
X114.5Y26.345
X114.41Y25.443
X114.379Y25.175
X114.346Y24.919
X114.308Y24.652
X114.269Y24.397
X114.224Y24.131
X114.179Y23.877
X114.128Y23.612
X114.076Y23.359
X114.019Y23.095
X114.008Y23.045
G0Z2
X114.5Y30.455
G1Z-4.392F200
X114.5Y33.783F400
X114.002Y33.781
X114.069Y33.474
X114.124Y33.21
X114.172Y32.957
X114.22Y32.691
X114.263Y32.437
X114.305Y32.17
X114.341Y31.915
X114.376Y31.647
X114.406Y31.391
X114.435Y31.111
X114.5Y30.455
X113.504Y30.364
X113.542Y29.919
X113.559Y29.674
X113.573Y29.417
X113.584Y29.172
X113.592Y28.914
X113.597Y28.669
X113.598Y28.411
X113.597Y28.166
X113.593Y27.908
X113.585Y27.663
X113.574Y27.405
X113.561Y27.16
X113.544Y26.903
X113.524Y26.658
X113.5Y26.39
X113.416Y25.553
X113.386Y25.297
X113.355Y25.054
X113.319Y24.798
X113.281Y24.556
X113.239Y24.302
X113.196Y24.06
X113.147Y23.807
X113.098Y23.567
X113.043Y23.315
X112.988Y23.076
X112.927Y22.825
X112.866Y22.587
X112.799Y22.338
X112.733Y22.102
X112.715Y22.043
X115.5Y22.047
X115.5Y34.787
X112.71Y34.776
X112.793Y34.483
X112.857Y34.246
X112.922Y33.996
X112.98Y33.758
X113.038Y33.507
X113.091Y33.267
X113.143Y33.015
X113.189Y32.774
X113.235Y32.52
X113.276Y32.278
X113.315Y32.023
X113.35Y31.78
X113.383Y31.525
X113.412Y31.281
X113.44Y31.013
X113.504Y30.364
X112.509Y30.269
X112.545Y29.845
X112.561Y29.613
X112.574Y29.368
X112.585Y29.135
X112.592Y28.89
X112.597Y28.657
X112.598Y28.411
X112.597Y28.178
X112.593Y27.933
X112.586Y27.7
X112.576Y27.454
X112.563Y27.222
X112.546Y26.977
X112.528Y26.744
X112.505Y26.488
X112.422Y25.664
X112.394Y25.42
X112.364Y25.188
X112.33Y24.945
X112.294Y24.715
X112.254Y24.473
X112.213Y24.243
X112.166Y24.002
X112.12Y23.774
X112.068Y23.534
X112.015Y23.307
X111.957Y23.068
X111.899Y22.842
X111.836Y22.605
X111.772Y22.381
X111.699Y22.134
X111.457Y21.342
X111.382Y21.108
X111.36Y21.041
X116.5Y21.048
X116.5Y35.791
X111.354Y35.776
X111.447Y35.492
X111.523Y35.246
X111.762Y34.452
X111.829Y34.216
X111.89Y33.991
X111.952Y33.753
X112.007Y33.527
X112.063Y33.288
X112.112Y33.06
X112.162Y32.82
X112.206Y32.591
X112.25Y32.349
X112.288Y32.119
X112.326Y31.877
X112.359Y31.646
X112.391Y31.402
X112.418Y31.171
X112.445Y30.915
X112.509Y30.269
X111.513Y30.174
X111.547Y29.772
X111.562Y29.552
X111.576Y29.319
X111.585Y29.098
X111.593Y28.865
X111.597Y28.644
X111.598Y28.411
X111.597Y28.19
X111.593Y27.957
X111.587Y27.737
X111.577Y27.503
X111.565Y27.283
X111.549Y27.05
X111.532Y26.83
X111.509Y26.586
X111.428Y25.774
X111.401Y25.542
X111.373Y25.323
X111.34Y25.092
X111.307Y24.874
X111.269Y24.644
X111.23Y24.426
X111.186Y24.197
X111.141Y23.981
X111.066Y23.639
X110.987Y23.311
X110.932Y23.097
X110.872Y22.872
X110.812Y22.66
X110.742Y22.425
X110.504Y21.644
X110.432Y21.422
X110.362Y21.212
X110.285Y20.992
X110.21Y20.785
X110.127Y20.566
X110.047Y20.361
X109.959Y20.145
X109.915Y20.039
X117.5Y20.05
X117.5Y36.794
X109.908Y36.775
X110.033Y36.472
X110.119Y36.254
X110.197Y36.048
X110.277Y35.829
X110.35Y35.621
X110.425Y35.4
X110.493Y35.19
X110.566Y34.956
X110.802Y34.174
X110.866Y33.949
X110.923Y33.736
X110.982Y33.51
X111.034Y33.296
X111.087Y33.069
X111.134Y32.853
X111.181Y32.625
X111.223Y32.408
X111.265Y32.178
X111.301Y31.961
X111.337Y31.73
X111.368Y31.511
X111.398Y31.28
X111.424Y31.061
X111.45Y30.817
X111.513Y30.174
X110.518Y30.079
X110.55Y29.698
X110.564Y29.491
X110.577Y29.27
X110.586Y29.062
X110.597Y28.632
X110.597Y28.203
X110.593Y27.982
X110.587Y27.773
X110.578Y27.553
X110.567Y27.345
X110.535Y26.916
X110.514Y26.684
X110.434Y25.884
X110.409Y25.665
X110.382Y25.458
X110.351Y25.239
X110.32Y25.033
X110.247Y24.61
X110.163Y24.188
X110.116Y23.972
X110.069Y23.769
X110.017Y23.554
X109.966Y23.352
X109.851Y22.938
X109.785Y22.715
X109.551Y21.946
X109.483Y21.735
X109.416Y21.538
X109.344Y21.329
X109.272Y21.133
X109.194Y20.926
X109.118Y20.732
X108.954Y20.335
X108.866Y20.133
X108.78Y19.942
X108.687Y19.742
X108.597Y19.554
X108.404Y19.17
X108.335Y19.037
X118.5Y19.051
X118.5Y37.797
X108.324Y37.783
X108.489Y37.464
X108.581Y37.277
X108.677Y37.078
X108.765Y36.889
X108.856Y36.688
X108.94Y36.497
X109.026Y36.293
X109.105Y36.1
X109.186Y35.895
X109.26Y35.7
X109.336Y35.492
X109.405Y35.295
X109.476Y35.086
X109.54Y34.888
X109.609Y34.665
X109.841Y33.895
X109.902Y33.683
X109.956Y33.482
X110.012Y33.268
X110.061Y33.065
X110.111Y32.85
X110.156Y32.646
X110.24Y32.225
X110.279Y32.007
X110.314Y31.802
X110.348Y31.583
X110.377Y31.377
X110.406Y31.158
X110.43Y30.951
X110.455Y30.719
X110.518Y30.079
X109.522Y29.983
X109.553Y29.625
X109.566Y29.429
X109.587Y29.025
X109.597Y28.62
X109.598Y28.411
X109.597Y28.215
X109.588Y27.81
X109.568Y27.406
X109.539Y27.002
X109.519Y26.782
X109.44Y25.994
X109.391Y25.592
X109.332Y25.192
X109.263Y24.793
X109.224Y24.588
X109.185Y24.395
X109.141Y24.191
X109.097Y24
X108.999Y23.607
X108.891Y23.217
X108.828Y23.005
X108.598Y22.248
X108.471Y21.863
X108.335Y21.482
X108.19Y21.104
X108.035Y20.729
X107.871Y20.359
X107.699Y19.993
X107.517Y19.631
X107.414Y19.435
X107.04Y18.738
X106.938Y18.555
X106.841Y18.385
X106.631Y18.034
X119.5Y18.053
X119.5Y38.798
X106.621Y38.781
X106.823Y38.445
X106.927Y38.264
X107.023Y38.093
X107.128Y37.899
X107.5Y37.2
X107.683Y36.839
X107.856Y36.473
X108.021Y36.103
X108.176Y35.729
X108.322Y35.351
X108.459Y34.97
X108.587Y34.586
X108.652Y34.375
X108.881Y33.617
X108.989Y33.227
X109.088Y32.834
X109.177Y32.439
X109.257Y32.042
X109.326Y31.643
X109.386Y31.242
X109.436Y30.841
X109.46Y30.621
X109.522Y29.983
X108.527Y29.888
X108.556Y29.552
X108.568Y29.368
X108.587Y28.988
X108.597Y28.608
X108.597Y28.227
X108.589Y27.847
X108.57Y27.467
X108.543Y27.088
X108.524Y26.88
X108.446Y26.105
X108.4Y25.727
X108.345Y25.351
X108.28Y24.976
X108.207Y24.603
X108.124Y24.231
X108.032Y23.862
X107.931Y23.495
X107.872Y23.295
X107.644Y22.55
X107.525Y22.188
X107.398Y21.83
X107.261Y21.475
X107.116Y21.123
X106.962Y20.775
X106.8Y20.431
X106.629Y20.091
X106.532Y19.907
X106.164Y19.22
X105.977Y18.889
X105.782Y18.562
X105.578Y18.241
X105.368Y17.924
X105.149Y17.613
X104.923Y17.307
X104.709Y17.031
X120.5Y17.054
X120.5Y39.799
X104.692Y39.788
X104.901Y39.521
X105.128Y39.216
X105.347Y38.905
X105.559Y38.589
X105.763Y38.268
X105.959Y37.942
X106.146Y37.611
X106.246Y37.428
X106.613Y36.74
X106.784Y36.4
X106.947Y36.057
X107.102Y35.709
X107.248Y35.358
X107.385Y35.003
X107.513Y34.645
X107.633Y34.284
X107.695Y34.085
X107.92Y33.339
X108.022Y32.972
X108.115Y32.603
X108.199Y32.232
X108.274Y31.859
X108.339Y31.484
X108.395Y31.108
X108.442Y30.73
X108.464Y30.523
X108.527Y29.888
X107.531Y29.793
X107.558Y29.478
X107.57Y29.307
X107.588Y28.951
X107.597Y28.596
X107.598Y28.24
X107.589Y27.884
X107.572Y27.529
X107.546Y27.174
X107.529Y26.978
X107.453Y26.215
X107.409Y25.862
X107.358Y25.51
X107.297Y25.159
X107.228Y24.81
X107.151Y24.462
X107.065Y24.117
X106.97Y23.774
X106.915Y23.586
X106.691Y22.852
X106.58Y22.514
X106.46Y22.179
X106.333Y21.846
X106.197Y21.517
X106.053Y21.192
X105.901Y20.87
X105.742Y20.552
X105.65Y20.378
X105.288Y19.702
X105.113Y19.392
X104.93Y19.087
X104.74Y18.786
X104.543Y18.49
X104.338Y18.199
X104.127Y17.912
X103.908Y17.632
X103.785Y17.479
X103.297Y16.887
X103.065Y16.617
X102.827Y16.353
X102.582Y16.095
X102.516Y16.028
X121.5Y16.055
X121.5Y40.8
X102.492Y40.796
X102.684Y40.598
X102.802Y40.473
X103.041Y40.209
X103.274Y39.94
X103.4Y39.789
X103.885Y39.196
X104.105Y38.916
X104.317Y38.63
X104.522Y38.339
X104.72Y38.044
X104.911Y37.743
X105.095Y37.438
X105.27Y37.129
X105.364Y36.957
X105.725Y36.279
X105.885Y35.962
X106.038Y35.64
X106.182Y35.315
X106.319Y34.986
X106.448Y34.655
X106.568Y34.32
X106.68Y33.982
X106.738Y33.795
X106.96Y33.06
X107.055Y32.717
X107.142Y32.372
X107.221Y32.025
X107.291Y31.676
X107.352Y31.325
X107.404Y30.973
X107.449Y30.62
X107.469Y30.425
X107.531Y29.793
X106.536Y29.698
X106.561Y29.405
X106.572Y29.245
X106.589Y28.915
X106.597Y28.583
X106.598Y28.252
X106.59Y27.921
X106.574Y27.59
X106.55Y27.26
X106.533Y27.076
X106.459Y26.325
X106.418Y25.996
X106.37Y25.668
X106.314Y25.342
X106.25Y25.017
X106.178Y24.693
X106.098Y24.372
X106.01Y24.052
X105.958Y23.876
X105.738Y23.154
X105.634Y22.839
X105.523Y22.527
X105.404Y22.218
X105.278Y21.911
X105.144Y21.608
X105.003Y21.309
X104.854Y21.012
X104.768Y20.85
X104.412Y20.184
X104.249Y19.896
X104.079Y19.611
X103.902Y19.331
X103.718Y19.056
X103.528Y18.784
X103.331Y18.518
X103.127Y18.256
X103.012Y18.113
X102.532Y17.531
X102.316Y17.279
X102.094Y17.034
X101.866Y16.793
X101.632Y16.559
X101.392Y16.33
X101.147Y16.107
X100.896Y15.89
X100.755Y15.773
X100.171Y15.294
X99.91Y15.09
X99.823Y15.024
X122.5Y15.057
X122.5Y41.8
X99.793Y41.797
X100.017Y41.626
X100.142Y41.527
X100.285Y41.412
X100.868Y40.932
X101.12Y40.716
X101.365Y40.494
X101.606Y40.266
X101.84Y40.032
X102.069Y39.792
X102.292Y39.547
X102.509Y39.296
X102.627Y39.155
X103.105Y38.571
X103.309Y38.31
X103.507Y38.044
X103.698Y37.774
X103.882Y37.498
X104.06Y37.219
X104.231Y36.935
X104.394Y36.647
X104.482Y36.485
X104.837Y35.819
X104.987Y35.523
X105.129Y35.224
X105.263Y34.921
X105.391Y34.615
X105.51Y34.306
X105.622Y33.994
X105.727Y33.68
X105.781Y33.504
X106Y32.782
X106.088Y32.462
X106.169Y32.141
X106.242Y31.818
X106.307Y31.493
X106.365Y31.167
X106.414Y30.839
X106.455Y30.51
X106.474Y30.327
X106.536Y29.698
X105.54Y29.602
X105.564Y29.331
X105.574Y29.184
X105.589Y28.878
X105.597Y28.571
X105.598Y28.264
X105.591Y27.958
X105.576Y27.651
X105.554Y27.345
X105.538Y27.174
X105.465Y26.435
X105.428Y26.131
X105.383Y25.827
X105.331Y25.525
X105.272Y25.224
X105.205Y24.925
X105.131Y24.627
X105.049Y24.331
X105.001Y24.166
X104.784Y23.456
X104.689Y23.165
X104.586Y22.876
X104.476Y22.589
X104.359Y22.305
X104.235Y22.025
X104.104Y21.747
X103.966Y21.473
X103.887Y21.321
X103.536Y20.667
X103.385Y20.399
X103.228Y20.136
X103.064Y19.877
X102.894Y19.621
X102.718Y19.37
X102.535Y19.124
X102.347Y18.881
X102.239Y18.748
X101.767Y18.174
X101.567Y17.942
X101.361Y17.714
X101.15Y17.492
X100.934Y17.274
X100.712Y17.063
X100.485Y16.856
X100.253Y16.655
X100.121Y16.546
X99.546Y16.075
X99.305Y15.886
X99.058Y15.703
X98.808Y15.526
X98.553Y15.355
X98.294Y15.191
X98.031Y15.032
X97.764Y14.881
X97.614Y14.799
X96.958Y14.449
X96.685Y14.311
X96.407Y14.18
X96.127Y14.055
X96.043Y14.019
X123.346Y14.058
X123.5Y14.258
X123.5Y42.801
X95.994
X96.24Y42.695
X96.374Y42.635
X96.652Y42.504
X96.926Y42.366
X97.078Y42.287
X97.732Y41.936
X98Y41.785
X98.263Y41.628
X98.522Y41.464
X98.778Y41.294
X99.029Y41.118
X99.275Y40.935
X99.518Y40.747
X99.651Y40.639
X100.225Y40.167
X100.457Y39.967
X100.685Y39.761
X100.907Y39.55
X101.125Y39.334
X101.336Y39.112
X101.543Y38.885
X101.744Y38.653
X101.853Y38.521
X102.324Y37.946
X102.513Y37.705
X102.696Y37.458
X102.873Y37.208
X103.044Y36.953
X103.208Y36.694
X103.367Y36.431
X103.518Y36.165
X103.6Y36.014
X103.95Y35.358
X104.088Y35.085
X104.219Y34.807
X104.344Y34.527
X104.462Y34.244
X104.573Y33.958
X104.677Y33.669
X104.773Y33.378
X104.824Y33.214
X105.039Y32.503
X105.121Y32.208
X105.196Y31.91
X105.264Y31.611
X105.324Y31.31
X105.377Y31.008
X105.423Y30.704
X105.461Y30.4
X105.479Y30.229
X105.54Y29.602
X104.545Y29.507
X104.566Y29.258
X104.576Y29.123
X104.59Y28.841
X104.597Y28.559
X104.598Y28.277
X104.591Y27.995
X104.578Y27.713
X104.558Y27.431
X104.543Y27.272
X104.471Y26.546
X104.437Y26.266
X104.396Y25.986
X104.348Y25.708
X104.293Y25.431
X104.232Y25.156
X104.164Y24.882
X104.089Y24.61
X104.044Y24.457
X103.831Y23.758
X103.743Y23.49
X103.648Y23.224
X103.547Y22.96
X103.44Y22.7
X103.326Y22.441
X103.205Y22.186
X103.079Y21.934
X103.005Y21.792
X102.66Y21.149
X102.521Y20.903
X102.376Y20.661
X102.226Y20.422
X102.069Y20.187
X101.907Y19.956
X101.739Y19.729
X101.566Y19.506
X101.466Y19.382
X101.002Y18.818
X100.818Y18.604
X100.629Y18.395
X100.434Y18.19
X100.235Y17.99
X100.031Y17.795
X99.822Y17.605
X99.609Y17.421
X99.486Y17.319
X98.921Y16.856
X98.699Y16.682
X98.473Y16.513
X98.242Y16.35
X98.008Y16.193
X97.77Y16.042
X97.528Y15.896
X97.282Y15.757
X97.142Y15.681
X96.498Y15.337
X96.246Y15.21
X95.991Y15.089
X95.733Y14.974
X95.473Y14.865
X95.209Y14.764
X94.944Y14.668
X94.676Y14.579
X94.524Y14.532
X93.825Y14.32
X93.553Y14.245
X93.279Y14.176
X93.004Y14.113
X92.727Y14.058
X92.449Y14.009
X92.17Y13.967
X91.89Y13.932
X91.731Y13.915
X91.004Y13.845
X90.723Y13.823
X90.441Y13.809
X90.159Y13.802
X89.877Y13.801
X89.595Y13.808
X89.313Y13.821
X89.031Y13.841
X88.872Y13.856
X88.146Y13.928
X87.865Y13.962
X87.586Y14.003
X87.308Y14.051
X87.031Y14.106
X86.756Y14.167
X86.482Y14.235
X86.21Y14.31
X86.057Y14.355
X85.358Y14.568
X85.09Y14.656
X84.824Y14.751
X84.56Y14.852
X84.3Y14.959
X84.041Y15.073
X83.786Y15.194
X83.749Y15.212
Y13.001
X123.854Y13.057
X123.969Y13.219
X124.136Y13.446
X124.31Y13.669
X124.488Y13.887
X124.5Y13.902
X124.5Y43.801
X83.759
X83.767Y41.596
X84.008Y41.71
X84.266Y41.825
X84.526Y41.934
X84.79Y42.036
X85.055Y42.131
X85.323Y42.22
X85.475Y42.267
X86.174Y42.479
X86.446Y42.554
X86.72Y42.623
X86.995Y42.686
X87.272Y42.741
X87.55Y42.79
X87.829Y42.832
X88.109Y42.867
X88.268Y42.884
X88.995Y42.954
X89.276Y42.976
X89.558Y42.99
X89.84Y42.997
X90.122Y42.998
X90.404Y42.991
X90.686Y42.978
X90.968Y42.958
X91.127Y42.943
X91.853Y42.871
X92.134Y42.837
X92.413Y42.796
X92.691Y42.748
X92.968Y42.693
X93.243Y42.632
X93.517Y42.564
X93.789Y42.489
X93.942Y42.444
X94.641Y42.231
X94.909Y42.143
X95.175Y42.048
X95.439Y41.947
X95.699Y41.84
X95.958Y41.726
X96.213Y41.605
X96.465Y41.479
X96.606Y41.405
X97.25Y41.06
X97.496Y40.921
X97.738Y40.776
X97.977Y40.626
X98.212Y40.469
X98.443Y40.307
X98.67Y40.139
X98.893Y39.966
X99.017Y39.866
X99.581Y39.402
X99.795Y39.218
X100.004Y39.029
X100.209Y38.834
X100.409Y38.635
X100.604Y38.431
X100.794Y38.222
X100.978Y38.009
X101.08Y37.886
X101.543Y37.321
X101.717Y37.099
X101.886Y36.873
X102.049Y36.642
X102.206Y36.408
X102.357Y36.17
X102.503Y35.928
X102.642Y35.682
X102.718Y35.542
X103.062Y34.898
X103.189Y34.646
X103.31Y34.391
X103.425Y34.133
X103.533Y33.873
X103.636Y33.609
X103.731Y33.344
X103.82Y33.076
X103.867Y32.924
X104.079Y32.225
X104.154Y31.953
X104.223Y31.679
X104.286Y31.404
X104.341Y31.127
X104.39Y30.849
X104.432Y30.57
X104.467Y30.29
X104.484Y30.131
X104.545Y29.507
X103.55Y29.412
X103.569Y29.184
X103.578Y29.062
X103.591Y28.804
X103.597Y28.547
X103.598Y28.289
X103.592Y28.031
X103.58Y27.774
X103.561Y27.517
X103.548Y27.37
X103.477Y26.656
X103.446Y26.4
X103.408Y26.145
X103.365Y25.891
X103.315Y25.638
X103.259Y25.387
X103.197Y25.137
X103.128Y24.888
X103.087Y24.747
X102.878Y24.06
X102.797Y23.815
X102.711Y23.572
X102.619Y23.332
X102.52Y23.094
X102.416Y22.858
X102.307Y22.625
X102.191Y22.394
X102.123Y22.264
X101.784Y21.631
X101.657Y21.407
X101.525Y21.185
X101.387Y20.967
X101.245Y20.753
X101.097Y20.542
X100.944Y20.335
X100.785Y20.131
X100.693Y20.017
X100.237Y19.462
X100.069Y19.267
X99.896Y19.075
X99.719Y18.888
X99.537Y18.706
X99.35Y18.528
X99.16Y18.354
X98.965Y18.186
X98.852Y18.092
X98.296Y17.637
X98.094Y17.478
X97.887Y17.324
X97.676Y17.175
X97.462Y17.032
X97.245Y16.893
X97.024Y16.76
X96.8Y16.633
X96.671Y16.563
X96.037Y16.225
X95.807Y16.108
X95.575Y15.998
X95.339Y15.893
X95.101Y15.794
X94.861Y15.701
X94.619Y15.614
X94.374Y15.532
X94.233Y15.489
X93.546Y15.281
X93.298Y15.212
X93.048Y15.149
X92.797Y15.092
X92.544Y15.041
X92.29Y14.996
X92.035Y14.958
X91.78Y14.926
X91.633Y14.911
X90.919Y14.841
X90.662Y14.822
X90.404Y14.808
X90.147Y14.802
X89.889Y14.801
X89.631Y14.807
X89.374Y14.819
X89.117Y14.838
X88.97Y14.851
X88.256Y14.922
X88Y14.953
X87.745Y14.991
X87.491Y15.034
X87.238Y15.084
X86.987Y15.14
X86.737Y15.202
X86.488Y15.271
X86.347Y15.312
X85.66Y15.521
X85.415Y15.602
X85.172Y15.688
X84.932Y15.78
X84.694Y15.879
X84.458Y15.983
X84.225Y16.092
X83.994Y16.208
X83.864Y16.276
X83.231Y16.615
X83.007Y16.742
X82.785Y16.874
X82.749Y16.897
Y12
X124.37Y12.02
X124.488Y12.208
X124.631Y12.422
X124.779Y12.633
X124.932Y12.84
X125.09Y13.044
X125.253Y13.243
X125.421Y13.439
X125.5Y13.527
X125.5Y44.801
X82.755
X82.774Y39.918
X82.975Y40.039
X83.199Y40.166
X83.328Y40.236
X83.962Y40.574
X84.192Y40.691
X84.424Y40.801
X84.66Y40.906
X84.898Y41.005
X85.138Y41.098
X85.381Y41.185
X85.625Y41.267
X85.766Y41.31
X86.453Y41.518
X86.701Y41.587
X86.951Y41.65
X87.202Y41.707
X87.455Y41.758
X87.709Y41.803
X87.964Y41.841
X88.219Y41.873
X88.366Y41.888
X89.08Y41.958
X89.337Y41.978
X89.595Y41.991
X89.852Y41.997
X90.11Y41.998
X90.368Y41.992
X90.625Y41.98
X90.882Y41.961
X91.029Y41.948
X91.743Y41.877
X91.999Y41.846
X92.254Y41.808
X92.508Y41.765
X92.761Y41.715
X93.012Y41.659
X93.262Y41.597
X93.511Y41.528
X93.652Y41.487
X94.339Y41.278
X94.584Y41.197
X94.827Y41.111
X95.067Y41.019
X95.305Y40.92
X95.541Y40.816
X95.774Y40.707
X96.005Y40.591
X96.135Y40.523
X96.768Y40.184
X96.992Y40.057
X97.214Y39.925
X97.432Y39.788
X97.646Y39.645
X97.857Y39.497
X98.064Y39.344
X98.268Y39.185
X98.382Y39.093
X98.937Y38.637
X99.132Y38.469
X99.324Y38.296
X99.511Y38.119
X99.693Y37.937
X99.871Y37.75
X100.045Y37.56
X100.213Y37.365
X100.307Y37.252
X100.762Y36.696
X100.921Y36.494
X101.075Y36.287
X101.224Y36.076
X101.367Y35.862
X101.506Y35.645
X101.639Y35.424
X101.766Y35.2
X101.836Y35.071
X102.174Y34.437
X102.291Y34.207
X102.401Y33.975
X102.506Y33.739
X102.605Y33.501
X102.698Y33.261
X102.785Y33.019
X102.867Y32.774
X102.91Y32.633
X103.118Y31.946
X103.187Y31.698
X103.25Y31.448
X103.307Y31.197
X103.358Y30.944
X103.403Y30.69
X103.441Y30.435
X103.473Y30.18
X103.488Y30.033
X103.55Y29.412
X102.554Y29.316
X102.572Y29.11
X102.579Y29
X102.591Y28.768
X102.597Y28.534
X102.598Y28.301
X102.593Y28.068
X102.582Y27.835
X102.565Y27.603
X102.553Y27.468
X102.483Y26.766
X102.455Y26.535
X102.421Y26.304
X102.382Y26.074
X102.337Y25.845
X102.286Y25.618
X102.23Y25.392
X102.168Y25.167
X102.13Y25.037
X101.924Y24.362
X101.852Y24.141
X101.774Y23.921
X101.69Y23.703
X101.601Y23.488
X101.507Y23.274
X101.408Y23.063
X101.304Y22.855
X101.241Y22.735
X100.908Y22.113
X100.793Y21.91
X100.674Y21.71
X100.549Y21.513
X100.42Y21.319
X100.286Y21.128
X100.148Y20.94
X100.005Y20.756
X99.92Y20.651
X99.472Y20.106
X99.32Y19.929
X99.163Y19.756
X99.003Y19.587
X98.838Y19.422
X98.67Y19.261
X98.497Y19.104
X98.321Y18.951
X98.218Y18.865
X97.672Y18.417
X97.488Y18.274
X97.301Y18.134
X97.111Y18
X96.917Y17.87
X96.72Y17.745
X96.521Y17.624
X96.318Y17.509
X96.199Y17.445
X95.577Y17.112
X95.369Y17.007
X95.158Y16.907
X94.945Y16.812
X94.73Y16.723
X94.513Y16.638
X94.293Y16.559
X94.072Y16.486
X93.943Y16.445
X93.268Y16.241
X93.043Y16.179
X92.817Y16.121
X92.59Y16.07
X92.361Y16.024
X92.131Y15.984
X91.901Y15.949
X91.669Y15.92
X91.535Y15.906
X90.833Y15.837
X90.6Y15.82
X90.368Y15.808
X90.134Y15.802
X89.901Y15.801
X89.668Y15.806
X89.435Y15.817
X89.203Y15.834
X89.068Y15.846
X88.366Y15.916
X88.135Y15.944
X87.904Y15.978
X87.674Y16.017
X87.445Y16.062
X87.218Y16.113
X86.992Y16.169
X86.767Y16.231
X86.637Y16.269
X85.962Y16.475
X85.741Y16.547
X85.521Y16.625
X85.303Y16.709
X85.088Y16.798
X84.874Y16.892
X84.663Y16.991
X84.455Y17.095
X84.335Y17.158
X83.713Y17.491
X83.51Y17.606
X83.31Y17.725
X83.113Y17.85
X82.919Y17.979
X82.728Y18.113
X82.54Y18.251
X82.356Y18.394
X82.251Y18.479
X81.749Y18.892
Y10.999
X124.946Y11.02
X125.028Y11.169
X125.083Y11.265
X125.202Y11.465
X125.327Y11.663
X125.456Y11.857
X125.59Y12.047
X125.728Y12.235
X125.871Y12.419
X126.019Y12.6
X126.171Y12.776
X126.327Y12.949
X126.487Y13.119
X126.5Y13.132
X126.5Y45.8
X81.751
X81.769Y37.924
X82.327Y38.382
X82.511Y38.525
X82.698Y38.665
X82.888Y38.799
X83.082Y38.929
X83.279Y39.054
X83.478Y39.175
X83.681Y39.29
X83.8Y39.354
X84.422Y39.687
X84.63Y39.792
X84.841Y39.892
X85.054Y39.987
X85.269Y40.076
X85.486Y40.161
X85.706Y40.24
X85.927Y40.313
X86.056Y40.354
X86.731Y40.558
X86.956Y40.62
X87.182Y40.678
X87.409Y40.729
X87.638Y40.775
X87.868Y40.815
X88.098Y40.85
X88.33Y40.879
X88.464Y40.893
X89.166Y40.962
X89.399Y40.979
X89.631Y40.991
X89.865Y40.997
X90.098Y40.998
X90.331Y40.993
X90.564Y40.982
X90.796Y40.965
X90.931Y40.953
X91.633Y40.883
X91.864Y40.855
X92.095Y40.821
X92.325Y40.782
X92.554Y40.737
X92.781Y40.686
X93.008Y40.63
X93.232Y40.568
X93.362Y40.53
X94.037Y40.324
X94.258Y40.252
X94.478Y40.174
X94.696Y40.09
X94.911Y40.001
X95.125Y39.907
X95.336Y39.808
X95.544Y39.704
X95.664Y39.641
X96.286Y39.308
X96.489Y39.193
X96.689Y39.074
X96.886Y38.949
X97.08Y38.82
X97.271Y38.686
X97.459Y38.548
X97.643Y38.405
X97.748Y38.32
X98.293Y37.872
X98.47Y37.72
X98.643Y37.563
X98.812Y37.403
X98.977Y37.238
X99.138Y37.07
X99.295Y36.897
X99.448Y36.721
X99.534Y36.618
X99.982Y36.072
X100.125Y35.888
X100.265Y35.701
X100.399Y35.511
X100.529Y35.317
X100.654Y35.12
X100.775Y34.921
X100.89Y34.718
X100.954Y34.6
X101.287Y33.977
X101.392Y33.769
X101.492Y33.558
X101.587Y33.345
X101.676Y33.13
X101.761Y32.913
X101.84Y32.693
X101.913Y32.472
X101.954Y32.343
X102.158Y31.668
X102.22Y31.443
X102.278Y31.217
X102.329Y30.99
X102.375Y30.761
X102.415Y30.531
X102.45Y30.301
X102.479Y30.069
X102.493Y29.935
X102.554Y29.316
X101.559Y29.221
X101.574Y29.037
X101.581Y28.939
X101.592Y28.731
X101.598Y28.522
X101.598Y28.314
X101.593Y28.105
X101.584Y27.897
X101.569Y27.689
X101.558Y27.566
X101.489Y26.876
X101.464Y26.669
X101.434Y26.463
X101.399Y26.257
X101.358Y26.053
X101.313Y25.849
X101.263Y25.646
X101.208Y25.445
X101.173Y25.328
X100.971Y24.664
X100.906Y24.466
X100.836Y24.269
X100.762Y24.074
X100.682Y23.882
X100.598Y23.691
X100.509Y23.502
X100.416Y23.315
X100.359Y23.207
X100.032Y22.595
X99.929Y22.414
X99.822Y22.234
X99.711Y22.058
X99.596Y21.884
X99.476Y21.713
X99.352Y21.546
X99.224Y21.381
X99.147Y21.285
X98.707Y20.75
X98.571Y20.592
X98.431Y20.437
X98.287Y20.285
X98.14Y20.137
X97.989Y19.993
X97.835Y19.853
X97.677Y19.716
X97.583Y19.638
X97.047Y19.198
X96.883Y19.069
X96.715Y18.945
X96.545Y18.824
X96.372Y18.708
X96.196Y18.596
X96.017Y18.488
X95.836Y18.385
X95.728Y18.326
X95.116Y18
X94.93Y17.906
X94.742Y17.816
X94.551Y17.731
X94.359Y17.651
X94.164Y17.576
X93.968Y17.505
X93.77Y17.439
X93.653Y17.402
X92.989Y17.202
X92.788Y17.146
X92.586Y17.094
X92.383Y17.048
X92.178Y17.007
X91.973Y16.971
X91.766Y16.94
X91.559Y16.914
X91.437Y16.901
X90.747Y16.834
X90.539Y16.818
X90.331Y16.807
X90.122Y16.801
X89.914Y16.801
X89.705Y16.806
X89.497Y16.815
X89.289Y16.83
X89.166Y16.841
X88.476Y16.91
X88.269Y16.935
X88.063Y16.965
X87.857Y17
X87.653Y17.041
X87.449Y17.086
X87.246Y17.136
X87.045Y17.191
X86.928Y17.226
X86.264Y17.428
X86.066Y17.493
X85.869Y17.563
X85.675Y17.637
X85.482Y17.717
X85.291Y17.801
X85.102Y17.89
X84.915Y17.983
X84.807Y18.04
X84.195Y18.367
X84.014Y18.47
X83.834Y18.577
X83.658Y18.688
X83.484Y18.803
X83.313Y18.923
X83.146Y19.047
X82.981Y19.175
X82.885Y19.252
X82.35Y19.693
X82.191Y19.828
X82.037Y19.968
X81.885Y20.112
X81.737Y20.259
X81.593Y20.41
X81.453Y20.564
X81.316Y20.722
X81.238Y20.816
X80.798Y21.352
X80.749Y21.414
Y9.999
X125.561Y10.013
X125.653Y10.209
X125.747Y10.396
X125.845Y10.58
X125.947Y10.762
X126.054Y10.941
X126.165Y11.117
X126.281Y11.291
X126.4Y11.462
X126.524Y11.63
X126.652Y11.794
X126.784Y11.956
X126.92Y12.114
X127.059Y12.269
X127.203Y12.42
X127.35Y12.568
X127.5Y12.712
X127.5Y46.801
X80.749
X80.751Y35.388
X80.852Y35.514
X81.292Y36.049
X81.428Y36.207
X81.568Y36.362
X81.712Y36.514
X81.859Y36.662
X82.01Y36.806
X82.164Y36.946
X82.322Y37.083
X82.416Y37.161
X82.952Y37.601
X83.116Y37.73
X83.284Y37.854
X83.454Y37.975
X83.627Y38.091
X83.803Y38.203
X83.982Y38.311
X84.163Y38.414
X84.271Y38.473
X84.883Y38.799
X85.069Y38.893
X85.257Y38.983
X85.448Y39.068
X85.64Y39.148
X85.835Y39.223
X86.031Y39.294
X86.229Y39.36
X86.346Y39.397
X87.01Y39.597
X87.211Y39.653
X87.413Y39.705
X87.616Y39.751
X87.821Y39.792
X88.026Y39.828
X88.233Y39.859
X88.44Y39.885
X88.562Y39.898
X89.252Y39.965
X89.46Y39.981
X89.668Y39.992
X89.877Y39.998
X90.085Y39.998
X90.294Y39.993
X90.502Y39.984
X90.71Y39.969
X90.833Y39.958
X91.523Y39.889
X91.73Y39.864
X91.936Y39.834
X92.142Y39.799
X92.347Y39.758
X92.55Y39.713
X92.753Y39.663
X92.954Y39.608
X93.072Y39.573
X93.735Y39.371
X93.933Y39.306
X94.13Y39.236
X94.324Y39.162
X94.517Y39.082
X94.708Y38.998
X94.897Y38.909
X95.084Y38.816
X95.192Y38.759
X95.804Y38.432
X95.985Y38.329
X96.164Y38.222
X96.341Y38.111
X96.515Y37.996
X96.685Y37.876
X96.853Y37.752
X97.018Y37.624
X97.114Y37.547
X97.649Y37.107
X97.807Y36.971
X97.962Y36.831
X98.114Y36.687
X98.262Y36.54
X98.406Y36.389
X98.546Y36.235
X98.683Y36.077
X98.761Y35.983
X99.201Y35.447
X99.33Y35.283
X99.454Y35.115
X99.575Y34.945
X99.691Y34.772
X99.803Y34.596
X99.911Y34.417
X100.014Y34.236
X100.073Y34.128
X100.399Y33.516
X100.493Y33.33
X100.583Y33.142
X100.668Y32.951
X100.748Y32.759
X100.823Y32.564
X100.894Y32.368
X100.96Y32.17
X100.997Y32.053
X101.197Y31.389
X101.253Y31.188
X101.305Y30.986
X101.351Y30.782
X101.392Y30.578
X101.428Y30.372
X101.459Y30.166
X101.485Y29.959
X101.498Y29.837
X101.559Y29.221
X100.563Y29.125
X100.577Y28.963
X100.583Y28.878
X100.593Y28.694
X100.598Y28.51
X100.598Y28.326
X100.594Y28.142
X100.585Y27.958
X100.572Y27.774
X100.562Y27.664
X100.495Y26.987
X100.473Y26.804
X100.447Y26.622
X100.416Y26.44
X100.38Y26.26
X100.34Y26.08
X100.296Y25.901
X100.247Y25.724
X100.216Y25.618
X100.018Y24.966
X99.961Y24.791
X99.899Y24.618
X99.833Y24.446
X99.763Y24.276
X99.689Y24.107
X99.611Y23.941
X99.528Y23.776
X99.477Y23.678
X99.156Y23.078
X99.065Y22.917
X98.971Y22.759
X98.873Y22.603
X98.771Y22.45
X98.665Y22.299
X98.556Y22.151
X98.443Y22.006
X98.374Y21.92
X97.941Y21.394
X97.821Y21.254
X97.698Y21.117
X97.572Y20.984
X97.442Y20.853
X97.309Y20.726
X97.173Y20.602
X97.034Y20.481
X96.949Y20.411
X96.422Y19.979
X96.277Y19.865
X96.13Y19.755
X95.979Y19.649
X95.826Y19.546
X95.671Y19.447
X95.514Y19.352
X95.354Y19.261
X95.257Y19.208
X94.656Y18.888
X94.492Y18.805
X94.325Y18.725
X94.157Y18.65
X93.987Y18.58
X93.816Y18.513
X93.643Y18.45
X93.468Y18.392
X93.363Y18.359
X92.711Y18.162
X92.533Y18.113
X92.355Y18.067
X92.175Y18.027
X91.995Y17.99
X91.814Y17.958
X91.632Y17.931
X91.449Y17.908
X91.339Y17.896
X90.661Y17.83
X90.478Y17.816
X90.294Y17.806
X90.11Y17.801
X89.926Y17.801
X89.742Y17.805
X89.558Y17.814
X89.374Y17.827
X89.264Y17.837
X88.587Y17.904
X88.404Y17.926
X88.222Y17.952
X88.04Y17.984
X87.86Y18.019
X87.68Y18.059
X87.501Y18.103
X87.324Y18.152
X87.218Y18.183
X86.566Y18.381
X86.391Y18.438
X86.218Y18.5
X86.046Y18.566
X85.876Y18.636
X85.707Y18.71
X85.541Y18.788
X85.376Y18.871
X85.278Y18.922
X84.678Y19.243
X84.517Y19.334
X84.359Y19.428
X84.203Y19.526
X84.05Y19.628
X83.899Y19.734
X83.751Y19.843
X83.606Y19.956
X83.52Y20.025
X82.994Y20.458
X82.854Y20.578
X82.717Y20.701
X82.584Y20.827
X82.453Y20.957
X82.326Y21.09
X82.202Y21.226
X82.081Y21.365
X82.011Y21.45
X81.579Y21.977
X81.465Y22.122
X81.355Y22.269
X81.249Y22.42
X81.146Y22.572
X81.047Y22.728
X80.952Y22.885
X80.861Y23.045
X80.808Y23.142
X80.488Y23.743
X80.405Y23.907
X80.325Y24.074
X80.25Y24.242
X80.18Y24.412
X80.113Y24.583
X80.05Y24.756
X79.992Y24.931
X79.959Y25.036
X79.762Y25.688
X79.749Y25.735
Y8.999
X126.23Y9.001
X126.264Y9.094
X126.33Y9.266
X126.4Y9.436
X126.474Y9.604
X126.552Y9.771
X126.634Y9.935
X126.721Y10.098
X126.811Y10.258
X126.905Y10.416
X127.003Y10.572
X127.105Y10.725
X127.211Y10.876
X127.32Y11.024
X127.433Y11.17
X127.549Y11.312
X127.669Y11.452
X127.792Y11.588
X127.919Y11.722
X128.049Y11.853
X128.182Y11.98
X128.318Y12.104
X128.457Y12.224
X128.5Y12.261
X128.5Y47.8
X79.749
Y31.064
X79.783Y31.181
X79.981Y31.833
X80.038Y32.008
X80.1Y32.181
X80.166Y32.353
X80.236Y32.523
X80.31Y32.692
X80.388Y32.859
X80.471Y33.023
X80.522Y33.121
X80.844Y33.721
X80.934Y33.882
X81.028Y34.04
X81.126Y34.196
X81.228Y34.349
X81.334Y34.5
X81.443Y34.648
X81.556Y34.793
X81.625Y34.879
X82.058Y35.405
X82.178Y35.545
X82.301Y35.682
X82.427Y35.815
X82.557Y35.946
X82.69Y36.073
X82.826Y36.197
X82.965Y36.318
X83.05Y36.388
X83.577Y36.82
X83.722Y36.934
X83.869Y37.044
X84.02Y37.15
X84.172Y37.253
X84.328Y37.352
X84.485Y37.447
X84.645Y37.538
X84.742Y37.591
X85.343Y37.911
X85.507Y37.994
X85.674Y38.074
X85.842Y38.149
X86.012Y38.219
X86.183Y38.286
X86.356Y38.349
X86.531Y38.407
X86.636Y38.44
X87.288Y38.637
X87.466Y38.686
X87.644Y38.732
X87.824Y38.772
X88.004Y38.809
X88.185Y38.841
X88.367Y38.868
X88.55Y38.891
X88.66Y38.903
X89.338Y38.969
X89.521Y38.983
X89.705Y38.993
X89.889Y38.998
X90.073Y38.998
X90.257Y38.994
X90.441Y38.985
X90.625Y38.972
X90.735Y38.962
X91.412Y38.895
X91.595Y38.873
X91.777Y38.847
X91.959Y38.815
X92.139Y38.78
X92.319Y38.74
X92.498Y38.696
X92.675Y38.647
X92.781Y38.616
X93.433Y38.418
X93.608Y38.361
X93.781Y38.299
X93.953Y38.233
X94.123Y38.163
X94.292Y38.089
X94.458Y38.011
X94.623Y37.928
X94.721Y37.877
X95.321Y37.556
X95.482Y37.465
X95.64Y37.371
X95.796Y37.273
X95.949Y37.171
X96.1Y37.065
X96.248Y36.956
X96.393Y36.843
X96.479Y36.774
X97.005Y36.341
X97.145Y36.221
X97.282Y36.098
X97.415Y35.972
X97.546Y35.842
X97.673Y35.709
X97.797Y35.573
X97.918Y35.434
X97.988Y35.349
X98.42Y34.822
X98.534Y34.677
X98.644Y34.53
X98.75Y34.379
X98.853Y34.227
X98.952Y34.071
X99.047Y33.914
X99.138Y33.754
X99.191Y33.657
X99.511Y33.056
X99.594Y32.892
X99.674Y32.725
X99.749Y32.557
X99.819Y32.387
X99.886Y32.216
X99.949Y32.043
X100.007Y31.868
X100.04Y31.763
X100.237Y31.111
X100.286Y30.933
X100.332Y30.755
X100.372Y30.575
X100.409Y30.395
X100.441Y30.214
X100.468Y30.032
X100.491Y29.849
X100.503Y29.739
X100.563Y29.125
X99.568Y29.03
X99.58Y28.89
X99.59Y28.731
X99.596Y28.571
X99.598Y28.412
X99.598Y28.338
X99.595Y28.179
X99.587Y28.019
X99.576Y27.86
X99.567Y27.762
X99.501Y27.097
X99.482Y26.938
X99.459Y26.781
X99.432Y26.623
X99.402Y26.467
X99.367Y26.311
X99.329Y26.156
X99.287Y26.002
X99.259Y25.908
X99.065Y25.268
X99.015Y25.116
X98.962Y24.966
X98.905Y24.817
X98.844Y24.67
X98.78Y24.524
X98.712Y24.379
X98.641Y24.236
X98.595Y24.149
X98.279Y23.56
X98.201Y23.421
X98.12Y23.284
X98.035Y23.149
X97.946Y23.016
X97.855Y22.885
X97.76Y22.757
X97.662Y22.631
X97.601Y22.554
X97.176Y22.037
X97.072Y21.916
X96.966Y21.798
X96.856Y21.682
X96.743Y21.569
X96.628Y21.459
X96.51Y21.351
X96.39Y21.247
X96.314Y21.184
X95.797Y20.76
X95.672Y20.661
X95.544Y20.566
X95.414Y20.473
X95.281Y20.384
X95.147Y20.299
X95.01Y20.216
X94.871Y20.137
X94.785Y20.09
X94.195Y19.775
X94.053Y19.703
X93.909Y19.635
X93.763Y19.57
X93.616Y19.508
X93.467Y19.45
X93.317Y19.396
X93.166Y19.346
X93.072Y19.316
X92.432Y19.122
X92.278Y19.08
X92.124Y19.04
X91.968Y19.005
X91.812Y18.973
X91.655Y18.946
X91.497Y18.922
X91.339Y18.902
X91.241Y18.891
X90.576Y18.826
X90.416Y18.814
X90.257Y18.806
X90.098Y18.801
X89.938Y18.801
X89.779Y18.804
X89.619Y18.812
X89.46Y18.823
X89.362Y18.832
X88.697Y18.898
X88.538Y18.917
X88.381Y18.94
X88.223Y18.967
X88.067Y18.997
X87.911Y19.032
X87.756Y19.07
X87.602Y19.112
X87.508Y19.14
X86.868Y19.334
X86.716Y19.384
X86.566Y19.437
X86.417Y19.494
X86.27Y19.555
X86.124Y19.619
X85.979Y19.687
X85.836Y19.758
X85.749Y19.804
X85.16Y20.12
X85.021Y20.198
X84.884Y20.279
X84.749Y20.364
X84.616Y20.453
X84.485Y20.544
X84.357Y20.639
X84.231Y20.737
X84.154Y20.798
X83.637Y21.223
X83.516Y21.327
X83.398Y21.434
X83.282Y21.543
X83.169Y21.656
X83.059Y21.771
X82.951Y21.889
X82.847Y22.009
X82.784Y22.085
X82.36Y22.602
X82.261Y22.727
X82.166Y22.855
X82.073Y22.985
X81.984Y23.118
X81.899Y23.252
X81.816Y23.389
X81.737Y23.528
X81.69Y23.614
X81.375Y24.204
X81.303Y24.346
X81.235Y24.49
X81.17Y24.636
X81.108Y24.783
X81.05Y24.932
X80.996Y25.082
X80.946Y25.233
X80.916Y25.327
X80.722Y25.967
X80.68Y26.121
X80.64Y26.275
X80.605Y26.431
X80.573Y26.587
X80.546Y26.744
X80.522Y26.902
X80.502Y27.06
X80.491Y27.158
X80.426Y27.823
X80.414Y27.983
X80.406Y28.142
X80.401Y28.301
X80.401Y28.461
X80.404Y28.62
X80.412Y28.78
X80.423Y28.939
X80.432Y29.037
X80.498Y29.702
X80.517Y29.861
X80.54Y30.018
X80.567Y30.176
X80.597Y30.332
X80.632Y30.488
X80.67Y30.643
X80.712Y30.797
X80.74Y30.891
X80.934Y31.531
X80.984Y31.683
X81.037Y31.833
X81.094Y31.982
X81.155Y32.129
X81.219Y32.275
X81.287Y32.42
X81.358Y32.563
X81.404Y32.65
X81.72Y33.239
X81.798Y33.378
X81.879Y33.515
X81.964Y33.65
X82.053Y33.783
X82.144Y33.914
X82.239Y34.042
X82.337Y34.168
X82.398Y34.245
X82.823Y34.762
X82.927Y34.883
X83.033Y35.001
X83.143Y35.117
X83.256Y35.23
X83.371Y35.34
X83.489Y35.448
X83.609Y35.552
X83.685Y35.615
X84.202Y36.039
X84.327Y36.138
X84.455Y36.233
X84.585Y36.326
X84.718Y36.415
X84.852Y36.5
X84.989Y36.583
X85.128Y36.662
X85.214Y36.709
X85.804Y37.024
X85.946Y37.096
X86.09Y37.164
X86.236Y37.229
X86.383Y37.291
X86.532Y37.349
X86.682Y37.403
X86.833Y37.453
X86.927Y37.483
X87.567Y37.677
X87.721Y37.719
X87.875Y37.759
X88.031Y37.794
X88.187Y37.826
X88.344Y37.853
X88.502Y37.877
X88.66Y37.897
X88.758Y37.908
X89.423Y37.973
X89.583Y37.985
X89.742Y37.993
X89.901Y37.998
X90.061Y37.998
X90.22Y37.995
X90.38Y37.987
X90.539Y37.976
X90.637Y37.967
X91.302Y37.901
X91.461Y37.882
X91.618Y37.859
X91.776Y37.832
X91.932Y37.802
X92.088Y37.767
X92.243Y37.729
X92.397Y37.687
X92.491Y37.659
X93.131Y37.465
