(Created with grbl post processor 2023/10/21 18:51)
G21
(G-code generated with BlenderCAM and NC library)
G17G90
(Tool: D = 1.5 mm  type END flutes 2)
S12000M03
G00 Z2.0

G0X0Y0Z2
X20Y28.4
G1Z-3.883F50
Z0F100
G0Z2
(Tool: D = 1.5 mm  type END flutes 2)
S12000M03
G00 Z2.0

X2.249Y0
G1Z-2F75
Y56.8F150
X2.249Y56.818
X2.249Y56.837
X2.251Y56.855
X2.252Y56.874
X2.254Y56.892
X2.257Y56.911
X2.26Y56.929
X2.263Y56.947
X2.267Y56.965
X2.271Y56.983
X2.276Y57.001
X2.281Y57.019
X2.287Y57.037
X2.293Y57.055
X2.3Y57.072
X2.307Y57.089
X2.314Y57.106
X2.322Y57.123
X2.33Y57.14
X2.339Y57.156
X2.348Y57.172
X2.357Y57.188
X2.367Y57.204
X2.377Y57.22
X2.388Y57.235
X2.399Y57.25
X2.41Y57.265
X2.422Y57.279
X2.434Y57.293
X2.446Y57.307
X2.459Y57.321
X2.473Y57.335
X2.486Y57.347
X2.5Y57.36
X2.514Y57.372
X2.528Y57.383
X2.542Y57.395
X2.556Y57.406
X2.571Y57.416
X2.586Y57.426
X2.602Y57.436
X2.617Y57.446
X2.633Y57.455
X2.649Y57.464
X2.665Y57.472
X2.682Y57.48
X2.698Y57.487
X2.715Y57.494
X2.732Y57.501
X2.749Y57.507
X2.766Y57.513
X2.784Y57.519
X2.801Y57.524
X2.819Y57.528
X2.837Y57.533
X2.855Y57.536
X2.872Y57.54
X2.891Y57.543
X2.909Y57.545
X2.927Y57.547
X2.945Y57.549
X2.963Y57.55
X2.981Y57.55
X3Y57.551
X64.8
X64.823Y57.55
X64.841Y57.549
X64.859Y57.548
X64.877Y57.547
X64.895Y57.544
X64.912Y57.542
X64.93Y57.539
X64.948Y57.536
X64.965Y57.532
X64.983Y57.528
X65Y57.523
X65.018Y57.518
X65.035Y57.513
X65.053Y57.507
X65.07Y57.5
X65.087Y57.493
X65.104Y57.486
X65.121Y57.478
X65.138Y57.47
X65.154Y57.461
X65.171Y57.452
X65.187Y57.443
X65.203Y57.433
X65.218Y57.423
X65.233Y57.412
X65.248Y57.402
X65.263Y57.39
X65.278Y57.379
X65.292Y57.367
X65.306Y57.354
X65.319Y57.341
X65.333Y57.328
X65.346Y57.315
X65.359Y57.301
X65.371Y57.287
X65.382Y57.273
X65.394Y57.259
X65.405Y57.244
X65.415Y57.229
X65.426Y57.214
X65.435Y57.199
X65.445Y57.183
X65.454Y57.168
X65.463Y57.152
X65.471Y57.135
X65.48Y57.118
X65.488Y57.101
X65.495Y57.083
X65.502Y57.065
X65.509Y57.047
X65.515Y57.029
X65.52Y57.01
X65.525Y56.992
X65.53Y56.973
X65.534Y56.954
X65.538Y56.935
X65.541Y56.916
X65.544Y56.897
X65.546Y56.877
X65.548Y56.858
X65.549Y56.838
X65.55Y56.819
X65.55Y56.8
Y52.551
X67.5
X67.517Y52.55
X67.535Y52.55
X67.553Y52.549
X67.57Y52.547
X67.588Y52.545
X67.605Y52.543
X67.623Y52.54
X67.64Y52.537
X67.658Y52.534
X67.676Y52.529
X67.695Y52.525
X67.713Y52.52
X67.731Y52.514
X67.748Y52.508
X67.766Y52.502
X67.784Y52.495
X67.801Y52.487
X67.818Y52.48
X67.835Y52.471
X67.852Y52.463
X67.868Y52.454
X67.884Y52.444
X67.9Y52.435
X67.916Y52.424
X67.932Y52.414
X67.947Y52.403
X67.962Y52.391
X67.977Y52.379
X67.991Y52.367
X68.005Y52.355
X68.019Y52.342
X68.033Y52.328
X68.045Y52.315
X68.058Y52.302
X68.07Y52.288
X68.082Y52.274
X68.093Y52.259
X68.105Y52.244
X68.115Y52.229
X68.126Y52.214
X68.136Y52.199
X68.145Y52.183
X68.154Y52.167
X68.163Y52.151
X68.172Y52.134
X68.18Y52.118
X68.187Y52.101
X68.195Y52.084
X68.201Y52.067
X68.208Y52.05
X68.214Y52.032
X68.219Y52.014
X68.224Y51.997
X68.229Y51.979
X68.233Y51.961
X68.237Y51.942
X68.24Y51.925
X68.243Y51.907
X68.245Y51.889
X68.247Y51.871
X68.249Y51.853
X68.25Y51.835
X68.25Y51.817
X68.25Y51.8
Y0
X68.25Y-0.034
X68.249Y-0.051
X68.245Y-0.086
X68.243Y-0.104
X68.24Y-0.122
X68.237Y-0.14
X68.234Y-0.158
X68.23Y-0.176
X68.225Y-0.193
X68.22Y-0.211
X68.215Y-0.228
X68.209Y-0.245
X68.203Y-0.263
X68.196Y-0.28
X68.189Y-0.296
X68.182Y-0.313
X68.174Y-0.33
X68.166Y-0.346
X68.157Y-0.362
X68.148Y-0.378
X68.138Y-0.394
X68.129Y-0.41
X68.118Y-0.425
X68.108Y-0.44
X68.097Y-0.455
X68.085Y-0.469
X68.074Y-0.484
X68.062Y-0.498
X68.049Y-0.511
X68.036Y-0.525
X68.023Y-0.538
X68.01Y-0.55
X67.996Y-0.563
X67.982Y-0.575
X67.968Y-0.586
X67.953Y-0.598
X67.938Y-0.609
X67.923Y-0.62
X67.907Y-0.63
X67.891Y-0.64
X67.875Y-0.65
X67.859Y-0.659
X67.842Y-0.668
X67.825Y-0.676
X67.808Y-0.684
X67.791Y-0.692
X67.774Y-0.699
X67.756Y-0.705
X67.738Y-0.711
X67.72Y-0.717
X67.702Y-0.723
X67.684Y-0.727
X67.666Y-0.732
X67.647Y-0.736
X67.629Y-0.739
X67.611Y-0.742
X67.592Y-0.745
X67.574Y-0.747
X67.555Y-0.748
X67.537Y-0.75
X67.518Y-0.75
X67.499Y-0.75
X3
X2.981Y-0.75
X2.963Y-0.75
X2.945Y-0.748
X2.926Y-0.747
X2.908Y-0.745
X2.89Y-0.742
X2.872Y-0.74
X2.854Y-0.736
X2.836Y-0.733
X2.818Y-0.728
X2.801Y-0.724
X2.783Y-0.719
X2.766Y-0.713
X2.748Y-0.707
X2.731Y-0.701
X2.714Y-0.694
X2.697Y-0.687
X2.681Y-0.679
X2.664Y-0.671
X2.648Y-0.663
X2.632Y-0.654
X2.616Y-0.645
X2.601Y-0.636
X2.585Y-0.626
X2.57Y-0.615
X2.555Y-0.605
X2.541Y-0.594
X2.526Y-0.582
X2.511Y-0.57
X2.497Y-0.558
X2.484Y-0.545
X2.471Y-0.533
X2.458Y-0.52
X2.446Y-0.506
X2.433Y-0.493
X2.421Y-0.479
X2.41Y-0.465
X2.399Y-0.45
X2.388Y-0.435
X2.378Y-0.42
X2.367Y-0.405
X2.358Y-0.389
X2.348Y-0.374
X2.34Y-0.358
X2.331Y-0.342
X2.323Y-0.325
X2.315Y-0.309
X2.308Y-0.292
X2.301Y-0.275
X2.294Y-0.258
X2.288Y-0.241
X2.283Y-0.223
X2.277Y-0.206
X2.273Y-0.188
X2.268Y-0.17
X2.264Y-0.152
X2.261Y-0.135
X2.258Y-0.117
X2.255Y-0.098
X2.253Y-0.08
X2.251Y-0.059
X2.249Y-0.037
X2.249Y-0.018
X2.249Y0
G0Z2
X72.249Y0
G1Z-2F75
Y56.8F150
X72.249Y56.818
X72.249Y56.836
X72.251Y56.855
X72.252Y56.873
X72.254Y56.892
X72.257Y56.91
X72.26Y56.928
X72.263Y56.947
X72.267Y56.965
X72.271Y56.983
X72.276Y57.001
X72.281Y57.018
X72.287Y57.036
X72.293Y57.054
X72.299Y57.071
X72.306Y57.088
X72.314Y57.105
X72.321Y57.122
X72.329Y57.139
X72.338Y57.155
X72.347Y57.171
X72.356Y57.187
X72.366Y57.203
X72.377Y57.219
X72.387Y57.234
X72.398Y57.249
X72.409Y57.263
X72.42Y57.277
X72.432Y57.291
X72.444Y57.305
X72.456Y57.318
X72.469Y57.331
X72.482Y57.344
X72.495Y57.356
X72.509Y57.368
X72.523Y57.38
X72.538Y57.392
X72.553Y57.404
X72.569Y57.415
X72.585Y57.426
X72.601Y57.436
X72.617Y57.446
X72.632Y57.455
X72.648Y57.463
X72.664Y57.472
X72.68Y57.479
X72.697Y57.487
X72.714Y57.494
X72.731Y57.501
X72.749Y57.507
X72.766Y57.513
X72.784Y57.519
X72.802Y57.524
X72.82Y57.529
X72.838Y57.533
X72.856Y57.537
X72.875Y57.54
X72.893Y57.543
X72.912Y57.545
X72.929Y57.547
X72.947Y57.549
X72.964Y57.55
X72.982Y57.55
X72.999Y57.551
X137.5
X137.518Y57.55
X137.537Y57.55
X137.556Y57.548
X137.574Y57.547
X137.593Y57.545
X137.612Y57.542
X137.63Y57.539
X137.649Y57.536
X137.667Y57.532
X137.685Y57.527
X137.703Y57.522
X137.721Y57.517
X137.739Y57.511
X137.757Y57.505
X137.774Y57.498
X137.792Y57.491
X137.809Y57.484
X137.826Y57.476
X137.843Y57.467
X137.86Y57.458
X137.876Y57.449
X137.891Y57.44
X137.907Y57.43
X137.922Y57.42
X137.937Y57.41
X137.952Y57.399
X137.967Y57.387
X137.981Y57.376
X137.995Y57.364
X138.009Y57.352
X138.022Y57.339
X138.035Y57.326
X138.048Y57.313
X138.06Y57.299
X138.072Y57.285
X138.084Y57.271
X138.095Y57.257
X138.106Y57.242
X138.117Y57.227
X138.127Y57.212
X138.137Y57.196
X138.147Y57.18
X138.156Y57.164
X138.165Y57.148
X138.173Y57.132
X138.181Y57.115
X138.188Y57.098
X138.195Y57.082
X138.202Y57.065
X138.208Y57.048
X138.214Y57.031
X138.219Y57.014
X138.224Y56.996
X138.229Y56.979
X138.233Y56.961
X138.237Y56.944
X138.24Y56.926
X138.243Y56.908
X138.245Y56.89
X138.247Y56.872
X138.249Y56.854
X138.25Y56.836
X138.25Y56.818
X138.251Y56.8
Y4.999
X138.25Y4.981
X138.25Y4.963
X138.249Y4.945
X138.247Y4.927
X138.245Y4.909
X138.243Y4.891
X138.24Y4.874
X138.237Y4.855
X138.233Y4.838
X138.229Y4.82
X138.224Y4.803
X138.219Y4.785
X138.214Y4.768
X138.208Y4.751
X138.202Y4.734
X138.195Y4.717
X138.188Y4.7
X138.181Y4.683
X138.173Y4.667
X138.165Y4.651
X138.156Y4.635
X138.147Y4.619
X138.138Y4.604
X138.128Y4.588
X138.118Y4.573
X138.107Y4.558
X138.097Y4.544
X138.085Y4.53
X138.074Y4.516
X138.062Y4.502
X138.05Y4.489
X138.037Y4.475
X138.024Y4.462
X138.01Y4.449
X137.997Y4.437
X137.983Y4.425
X137.969Y4.413
X137.954Y4.402
X137.939Y4.391
X137.924Y4.38
X137.909Y4.37
X137.893Y4.36
X137.878Y4.351
X137.862Y4.342
X137.845Y4.333
X137.829Y4.325
X137.812Y4.317
X137.795Y4.309
X137.778Y4.302
X137.761Y4.296
X137.744Y4.289
X137.726Y4.284
X137.709Y4.278
X137.691Y4.273
X137.673Y4.269
X137.655Y4.265
X137.636Y4.261
X137.616Y4.258
X137.597Y4.255
X137.578Y4.253
X137.558Y4.251
X137.539Y4.25
X137.519Y4.249
X137.5Y4.248
X135.551
Y0
X135.55Y-0.018
X135.55Y-0.037
X135.548Y-0.055
X135.547Y-0.073
X135.545Y-0.092
X135.542Y-0.11
X135.539Y-0.128
X135.536Y-0.147
X135.532Y-0.165
X135.528Y-0.183
X135.523Y-0.201
X135.518Y-0.218
X135.512Y-0.236
X135.506Y-0.253
X135.5Y-0.271
X135.493Y-0.288
X135.486Y-0.305
X135.478Y-0.322
X135.47Y-0.338
X135.461Y-0.355
X135.452Y-0.371
X135.442Y-0.388
X135.432Y-0.404
X135.422Y-0.419
X135.412Y-0.434
X135.401Y-0.449
X135.389Y-0.464
X135.378Y-0.479
X135.366Y-0.493
X135.353Y-0.507
X135.341Y-0.52
X135.328Y-0.533
X135.314Y-0.546
X135.301Y-0.559
X135.287Y-0.571
X135.272Y-0.583
X135.258Y-0.594
X135.243Y-0.606
X135.228Y-0.616
X135.212Y-0.627
X135.197Y-0.637
X135.181Y-0.646
X135.165Y-0.656
X135.148Y-0.665
X135.132Y-0.673
X135.115Y-0.681
X135.098Y-0.689
X135.081Y-0.696
X135.064Y-0.702
X135.046Y-0.709
X135.028Y-0.715
X135.011Y-0.72
X134.994Y-0.725
X134.976Y-0.729
X134.959Y-0.733
X134.941Y-0.737
X134.924Y-0.74
X134.906Y-0.743
X134.888Y-0.745
X134.87Y-0.747
X134.853Y-0.749
X134.835Y-0.75
X134.817Y-0.75
X134.8Y-0.751
X72.999
X72.981Y-0.75
X72.963Y-0.75
X72.945Y-0.748
X72.927Y-0.747
X72.908Y-0.745
X72.89Y-0.742
X72.872Y-0.74
X72.854Y-0.736
X72.836Y-0.733
X72.819Y-0.728
X72.801Y-0.724
X72.783Y-0.719
X72.766Y-0.713
X72.749Y-0.707
X72.731Y-0.701
X72.714Y-0.694
X72.698Y-0.687
X72.681Y-0.68
X72.665Y-0.672
X72.648Y-0.663
X72.632Y-0.654
X72.616Y-0.645
X72.601Y-0.636
X72.585Y-0.626
X72.57Y-0.616
X72.555Y-0.605
X72.541Y-0.594
X72.527Y-0.583
X72.513Y-0.571
X72.499Y-0.559
X72.485Y-0.546
X72.471Y-0.533
X72.458Y-0.52
X72.445Y-0.506
X72.433Y-0.492
X72.421Y-0.478
X72.409Y-0.464
X72.398Y-0.449
X72.387Y-0.434
X72.377Y-0.419
X72.366Y-0.403
X72.357Y-0.388
X72.347Y-0.372
X72.338Y-0.355
X72.33Y-0.339
X72.322Y-0.322
X72.314Y-0.305
X72.306Y-0.288
X72.299Y-0.271
X72.293Y-0.254
X72.287Y-0.236
X72.281Y-0.219
X72.276Y-0.201
X72.271Y-0.183
X72.267Y-0.165
X72.263Y-0.147
X72.26Y-0.129
X72.257Y-0.11
X72.254Y-0.092
X72.252Y-0.074
X72.251Y-0.055
X72.249Y-0.037
X72.249Y-0.018
X72.249Y0
G0Z2
X2.249Y0
G1Z-4F75
Y56.8F150
X2.249Y56.818
X2.249Y56.837
X2.251Y56.855
X2.252Y56.874
X2.254Y56.892
X2.257Y56.911
X2.26Y56.929
X2.263Y56.947
X2.267Y56.965
X2.271Y56.983
X2.276Y57.001
X2.281Y57.019
X2.287Y57.037
X2.293Y57.055
X2.3Y57.072
X2.307Y57.089
X2.314Y57.106
X2.322Y57.123
X2.33Y57.14
X2.339Y57.156
X2.348Y57.172
X2.357Y57.188
X2.367Y57.204
X2.377Y57.22
X2.388Y57.235
X2.399Y57.25
X2.41Y57.265
X2.422Y57.279
X2.434Y57.293
X2.446Y57.307
X2.459Y57.321
X2.473Y57.335
X2.486Y57.347
X2.5Y57.36
X2.514Y57.372
X2.528Y57.383
X2.542Y57.395
X2.556Y57.406
X2.571Y57.416
X2.586Y57.426
X2.602Y57.436
X2.617Y57.446
X2.633Y57.455
X2.649Y57.464
X2.665Y57.472
X2.682Y57.48
X2.698Y57.487
X2.715Y57.494
X2.732Y57.501
X2.749Y57.507
X2.766Y57.513
X2.784Y57.519
X2.801Y57.524
X2.819Y57.528
X2.837Y57.533
X2.855Y57.536
X2.872Y57.54
X2.891Y57.543
X2.909Y57.545
X2.927Y57.547
X2.945Y57.549
X2.963Y57.55
X2.981Y57.55
X3Y57.551
X64.8
X64.823Y57.55
X64.841Y57.549
X64.859Y57.548
X64.877Y57.547
X64.895Y57.544
X64.912Y57.542
X64.93Y57.539
X64.948Y57.536
X64.965Y57.532
X64.983Y57.528
X65Y57.523
X65.018Y57.518
X65.035Y57.513
X65.053Y57.507
X65.07Y57.5
X65.087Y57.493
X65.104Y57.486
X65.121Y57.478
X65.138Y57.47
X65.154Y57.461
X65.171Y57.452
X65.187Y57.443
X65.203Y57.433
X65.218Y57.423
X65.233Y57.412
X65.248Y57.402
X65.263Y57.39
X65.278Y57.379
X65.292Y57.367
X65.306Y57.354
X65.319Y57.341
X65.333Y57.328
X65.346Y57.315
X65.359Y57.301
X65.371Y57.287
X65.382Y57.273
X65.394Y57.259
X65.405Y57.244
X65.415Y57.229
X65.426Y57.214
X65.435Y57.199
X65.445Y57.183
X65.454Y57.168
X65.463Y57.152
X65.471Y57.135
X65.48Y57.118
X65.488Y57.101
X65.495Y57.083
X65.502Y57.065
X65.509Y57.047
X65.515Y57.029
X65.52Y57.01
X65.525Y56.992
X65.53Y56.973
X65.534Y56.954
X65.538Y56.935
X65.541Y56.916
X65.544Y56.897
X65.546Y56.877
X65.548Y56.858
X65.549Y56.838
X65.55Y56.819
X65.55Y56.8
Y52.551
X67.5
X67.517Y52.55
X67.535Y52.55
X67.553Y52.549
X67.57Y52.547
X67.588Y52.545
X67.605Y52.543
X67.623Y52.54
X67.64Y52.537
X67.658Y52.534
X67.676Y52.529
X67.695Y52.525
X67.713Y52.52
X67.731Y52.514
X67.748Y52.508
X67.766Y52.502
X67.784Y52.495
X67.801Y52.487
X67.818Y52.48
X67.835Y52.471
X67.852Y52.463
X67.868Y52.454
X67.884Y52.444
X67.9Y52.435
X67.916Y52.424
X67.932Y52.414
X67.947Y52.403
X67.962Y52.391
X67.977Y52.379
X67.991Y52.367
X68.005Y52.355
X68.019Y52.342
X68.033Y52.328
X68.045Y52.315
X68.058Y52.302
X68.07Y52.288
X68.082Y52.274
X68.093Y52.259
X68.105Y52.244
X68.115Y52.229
X68.126Y52.214
X68.136Y52.199
X68.145Y52.183
X68.154Y52.167
X68.163Y52.151
X68.172Y52.134
X68.18Y52.118
X68.187Y52.101
X68.195Y52.084
X68.201Y52.067
X68.208Y52.05
X68.214Y52.032
X68.219Y52.014
X68.224Y51.997
X68.229Y51.979
X68.233Y51.961
X68.237Y51.942
X68.24Y51.925
X68.243Y51.907
X68.245Y51.889
X68.247Y51.871
X68.249Y51.853
X68.25Y51.835
X68.25Y51.817
X68.25Y51.8
Y0
X68.25Y-0.034
X68.249Y-0.051
X68.245Y-0.086
X68.243Y-0.104
X68.24Y-0.122
X68.237Y-0.14
X68.234Y-0.158
X68.23Y-0.176
X68.225Y-0.193
X68.22Y-0.211
X68.215Y-0.228
X68.209Y-0.245
X68.203Y-0.263
X68.196Y-0.28
X68.189Y-0.296
X68.182Y-0.313
X68.174Y-0.33
X68.166Y-0.346
X68.157Y-0.362
X68.148Y-0.378
X68.138Y-0.394
X68.129Y-0.41
X68.118Y-0.425
X68.108Y-0.44
X68.097Y-0.455
X68.085Y-0.469
X68.074Y-0.484
X68.062Y-0.498
X68.049Y-0.511
X68.036Y-0.525
X68.023Y-0.538
X68.01Y-0.55
X67.996Y-0.563
X67.982Y-0.575
X67.968Y-0.586
X67.953Y-0.598
X67.938Y-0.609
X67.923Y-0.62
X67.907Y-0.63
X67.891Y-0.64
X67.875Y-0.65
X67.859Y-0.659
X67.842Y-0.668
X67.825Y-0.676
X67.808Y-0.684
X67.791Y-0.692
X67.774Y-0.699
X67.756Y-0.705
X67.738Y-0.711
X67.72Y-0.717
X67.702Y-0.723
X67.684Y-0.727
X67.666Y-0.732
X67.647Y-0.736
X67.629Y-0.739
X67.611Y-0.742
X67.592Y-0.745
X67.574Y-0.747
X67.555Y-0.748
X67.537Y-0.75
X67.518Y-0.75
X67.499Y-0.75
X3
X2.981Y-0.75
X2.963Y-0.75
X2.945Y-0.748
X2.926Y-0.747
X2.908Y-0.745
X2.89Y-0.742
X2.872Y-0.74
X2.854Y-0.736
X2.836Y-0.733
X2.818Y-0.728
X2.801Y-0.724
X2.783Y-0.719
X2.766Y-0.713
X2.748Y-0.707
X2.731Y-0.701
X2.714Y-0.694
X2.697Y-0.687
X2.681Y-0.679
X2.664Y-0.671
X2.648Y-0.663
X2.632Y-0.654
X2.616Y-0.645
X2.601Y-0.636
X2.585Y-0.626
X2.57Y-0.615
X2.555Y-0.605
X2.541Y-0.594
X2.526Y-0.582
X2.511Y-0.57
X2.497Y-0.558
X2.484Y-0.545
X2.471Y-0.533
X2.458Y-0.52
X2.446Y-0.506
X2.433Y-0.493
X2.421Y-0.479
X2.41Y-0.465
X2.399Y-0.45
X2.388Y-0.435
X2.378Y-0.42
X2.367Y-0.405
X2.358Y-0.389
X2.348Y-0.374
X2.34Y-0.358
X2.331Y-0.342
X2.323Y-0.325
X2.315Y-0.309
X2.308Y-0.292
X2.301Y-0.275
X2.294Y-0.258
X2.288Y-0.241
X2.283Y-0.223
X2.277Y-0.206
X2.273Y-0.188
X2.268Y-0.17
X2.264Y-0.152
X2.261Y-0.135
X2.258Y-0.117
X2.255Y-0.098
X2.253Y-0.08
X2.251Y-0.059
X2.249Y-0.037
X2.249Y-0.018
X2.249Y0
G0Z2
X72.249Y0
G1Z-4F75
Y56.8F150
X72.249Y56.818
X72.249Y56.836
X72.251Y56.855
X72.252Y56.873
X72.254Y56.892
X72.257Y56.91
X72.26Y56.928
X72.263Y56.947
X72.267Y56.965
X72.271Y56.983
X72.276Y57.001
X72.281Y57.018
X72.287Y57.036
X72.293Y57.054
X72.299Y57.071
X72.306Y57.088
X72.314Y57.105
X72.321Y57.122
X72.329Y57.139
X72.338Y57.155
X72.347Y57.171
X72.356Y57.187
X72.366Y57.203
X72.377Y57.219
X72.387Y57.234
X72.398Y57.249
X72.409Y57.263
X72.42Y57.277
X72.432Y57.291
X72.444Y57.305
X72.456Y57.318
X72.469Y57.331
X72.482Y57.344
X72.495Y57.356
X72.509Y57.368
X72.523Y57.38
X72.538Y57.392
X72.553Y57.404
X72.569Y57.415
X72.585Y57.426
X72.601Y57.436
X72.617Y57.446
X72.632Y57.455
X72.648Y57.463
X72.664Y57.472
X72.68Y57.479
X72.697Y57.487
X72.714Y57.494
X72.731Y57.501
X72.749Y57.507
X72.766Y57.513
X72.784Y57.519
X72.802Y57.524
X72.82Y57.529
X72.838Y57.533
X72.856Y57.537
X72.875Y57.54
X72.893Y57.543
X72.912Y57.545
X72.929Y57.547
X72.947Y57.549
X72.964Y57.55
X72.982Y57.55
X72.999Y57.551
X137.5
X137.518Y57.55
X137.537Y57.55
X137.556Y57.548
X137.574Y57.547
X137.593Y57.545
X137.612Y57.542
X137.63Y57.539
X137.649Y57.536
X137.667Y57.532
X137.685Y57.527
X137.703Y57.522
X137.721Y57.517
X137.739Y57.511
X137.757Y57.505
X137.774Y57.498
X137.792Y57.491
X137.809Y57.484
X137.826Y57.476
X137.843Y57.467
X137.86Y57.458
X137.876Y57.449
X137.891Y57.44
X137.907Y57.43
X137.922Y57.42
X137.937Y57.41
X137.952Y57.399
X137.967Y57.387
X137.981Y57.376
X137.995Y57.364
X138.009Y57.352
X138.022Y57.339
X138.035Y57.326
X138.048Y57.313
X138.06Y57.299
X138.072Y57.285
X138.084Y57.271
X138.095Y57.257
X138.106Y57.242
X138.117Y57.227
X138.127Y57.212
X138.137Y57.196
X138.147Y57.18
X138.156Y57.164
X138.165Y57.148
X138.173Y57.132
X138.181Y57.115
X138.188Y57.098
X138.195Y57.082
X138.202Y57.065
X138.208Y57.048
X138.214Y57.031
X138.219Y57.014
X138.224Y56.996
X138.229Y56.979
X138.233Y56.961
X138.237Y56.944
X138.24Y56.926
X138.243Y56.908
X138.245Y56.89
X138.247Y56.872
X138.249Y56.854
X138.25Y56.836
X138.25Y56.818
X138.251Y56.8
Y4.999
X138.25Y4.981
X138.25Y4.963
X138.249Y4.945
X138.247Y4.927
X138.245Y4.909
X138.243Y4.891
X138.24Y4.874
X138.237Y4.855
X138.233Y4.838
X138.229Y4.82
X138.224Y4.803
X138.219Y4.785
X138.214Y4.768
X138.208Y4.751
X138.202Y4.734
X138.195Y4.717
X138.188Y4.7
X138.181Y4.683
X138.173Y4.667
X138.165Y4.651
X138.156Y4.635
X138.147Y4.619
X138.138Y4.604
X138.128Y4.588
X138.118Y4.573
X138.107Y4.558
X138.097Y4.544
X138.085Y4.53
X138.074Y4.516
X138.062Y4.502
X138.05Y4.489
X138.037Y4.475
X138.024Y4.462
X138.01Y4.449
X137.997Y4.437
X137.983Y4.425
X137.969Y4.413
X137.954Y4.402
X137.939Y4.391
X137.924Y4.38
X137.909Y4.37
X137.893Y4.36
X137.878Y4.351
X137.862Y4.342
X137.845Y4.333
X137.829Y4.325
X137.812Y4.317
X137.795Y4.309
X137.778Y4.302
X137.761Y4.296
X137.744Y4.289
X137.726Y4.284
X137.709Y4.278
X137.691Y4.273
X137.673Y4.269
X137.655Y4.265
X137.636Y4.261
X137.616Y4.258
X137.597Y4.255
X137.578Y4.253
X137.558Y4.251
X137.539Y4.25
X137.519Y4.249
X137.5Y4.248
X135.551
Y0
X135.55Y-0.018
X135.55Y-0.037
X135.548Y-0.055
X135.547Y-0.073
X135.545Y-0.092
X135.542Y-0.11
X135.539Y-0.128
X135.536Y-0.147
X135.532Y-0.165
X135.528Y-0.183
X135.523Y-0.201
X135.518Y-0.218
X135.512Y-0.236
X135.506Y-0.253
X135.5Y-0.271
X135.493Y-0.288
X135.486Y-0.305
X135.478Y-0.322
X135.47Y-0.338
X135.461Y-0.355
X135.452Y-0.371
X135.442Y-0.388
X135.432Y-0.404
X135.422Y-0.419
X135.412Y-0.434
X135.401Y-0.449
X135.389Y-0.464
X135.378Y-0.479
X135.366Y-0.493
X135.353Y-0.507
X135.341Y-0.52
X135.328Y-0.533
X135.314Y-0.546
X135.301Y-0.559
X135.287Y-0.571
X135.272Y-0.583
X135.258Y-0.594
X135.243Y-0.606
X135.228Y-0.616
X135.212Y-0.627
X135.197Y-0.637
X135.181Y-0.646
X135.165Y-0.656
X135.148Y-0.665
X135.132Y-0.673
X135.115Y-0.681
X135.098Y-0.689
X135.081Y-0.696
X135.064Y-0.702
X135.046Y-0.709
X135.028Y-0.715
X135.011Y-0.72
X134.994Y-0.725
X134.976Y-0.729
X134.959Y-0.733
X134.941Y-0.737
X134.924Y-0.74
X134.906Y-0.743
X134.888Y-0.745
X134.87Y-0.747
X134.853Y-0.749
X134.835Y-0.75
X134.817Y-0.75
X134.8Y-0.751
X72.999
X72.981Y-0.75
X72.963Y-0.75
X72.945Y-0.748
X72.927Y-0.747
X72.908Y-0.745
X72.89Y-0.742
X72.872Y-0.74
X72.854Y-0.736
X72.836Y-0.733
X72.819Y-0.728
X72.801Y-0.724
X72.783Y-0.719
X72.766Y-0.713
X72.749Y-0.707
X72.731Y-0.701
X72.714Y-0.694
X72.698Y-0.687
X72.681Y-0.68
X72.665Y-0.672
X72.648Y-0.663
X72.632Y-0.654
X72.616Y-0.645
X72.601Y-0.636
X72.585Y-0.626
X72.57Y-0.616
X72.555Y-0.605
X72.541Y-0.594
X72.527Y-0.583
X72.513Y-0.571
X72.499Y-0.559
X72.485Y-0.546
X72.471Y-0.533
X72.458Y-0.52
X72.445Y-0.506
X72.433Y-0.492
X72.421Y-0.478
X72.409Y-0.464
X72.398Y-0.449
X72.387Y-0.434
X72.377Y-0.419
X72.366Y-0.403
X72.357Y-0.388
X72.347Y-0.372
X72.338Y-0.355
X72.33Y-0.339
X72.322Y-0.322
X72.314Y-0.305
X72.306Y-0.288
X72.299Y-0.271
X72.293Y-0.254
X72.287Y-0.236
X72.281Y-0.219
X72.276Y-0.201
X72.271Y-0.183
X72.267Y-0.165
X72.263Y-0.147
X72.26Y-0.129
X72.257Y-0.11
X72.254Y-0.092
X72.252Y-0.074
X72.251Y-0.055
X72.249Y-0.037
X72.249Y-0.018
X72.249Y0
G0Z2
X2.249Y0
G1Z-6F75
Y56.8F150
X2.249Y56.818
X2.249Y56.837
X2.251Y56.855
X2.252Y56.874
X2.254Y56.892
X2.257Y56.911
X2.26Y56.929
X2.263Y56.947
X2.267Y56.965
X2.271Y56.983
X2.276Y57.001
X2.281Y57.019
X2.287Y57.037
X2.293Y57.055
X2.3Y57.072
X2.307Y57.089
X2.314Y57.106
X2.322Y57.123
X2.33Y57.14
X2.339Y57.156
X2.348Y57.172
X2.357Y57.188
X2.367Y57.204
X2.377Y57.22
X2.388Y57.235
X2.399Y57.25
X2.41Y57.265
X2.422Y57.279
X2.434Y57.293
X2.446Y57.307
X2.459Y57.321
X2.473Y57.335
X2.486Y57.347
X2.5Y57.36
X2.514Y57.372
X2.528Y57.383
X2.542Y57.395
X2.556Y57.406
X2.571Y57.416
X2.586Y57.426
X2.602Y57.436
X2.617Y57.446
X2.633Y57.455
X2.649Y57.464
X2.665Y57.472
X2.682Y57.48
X2.698Y57.487
X2.715Y57.494
X2.732Y57.501
X2.749Y57.507
X2.766Y57.513
X2.784Y57.519
X2.801Y57.524
X2.819Y57.528
X2.837Y57.533
X2.855Y57.536
X2.872Y57.54
X2.891Y57.543
X2.909Y57.545
X2.927Y57.547
X2.945Y57.549
X2.963Y57.55
X2.981Y57.55
X3Y57.551
X64.8
X64.823Y57.55
X64.841Y57.549
X64.859Y57.548
X64.877Y57.547
X64.895Y57.544
X64.912Y57.542
X64.93Y57.539
X64.948Y57.536
X64.965Y57.532
X64.983Y57.528
X65Y57.523
X65.018Y57.518
X65.035Y57.513
X65.053Y57.507
X65.07Y57.5
X65.087Y57.493
X65.104Y57.486
X65.121Y57.478
X65.138Y57.47
X65.154Y57.461
X65.171Y57.452
X65.187Y57.443
X65.203Y57.433
X65.218Y57.423
X65.233Y57.412
X65.248Y57.402
X65.263Y57.39
X65.278Y57.379
X65.292Y57.367
X65.306Y57.354
X65.319Y57.341
X65.333Y57.328
X65.346Y57.315
X65.359Y57.301
X65.371Y57.287
X65.382Y57.273
X65.394Y57.259
X65.405Y57.244
X65.415Y57.229
X65.426Y57.214
X65.435Y57.199
X65.445Y57.183
X65.454Y57.168
X65.463Y57.152
X65.471Y57.135
X65.48Y57.118
X65.488Y57.101
X65.495Y57.083
X65.502Y57.065
X65.509Y57.047
X65.515Y57.029
X65.52Y57.01
X65.525Y56.992
X65.53Y56.973
X65.534Y56.954
X65.538Y56.935
X65.541Y56.916
X65.544Y56.897
X65.546Y56.877
X65.548Y56.858
X65.549Y56.838
X65.55Y56.819
X65.55Y56.8
Y52.551
X67.5
X67.517Y52.55
X67.535Y52.55
X67.553Y52.549
X67.57Y52.547
X67.588Y52.545
X67.605Y52.543
X67.623Y52.54
X67.64Y52.537
X67.658Y52.534
X67.676Y52.529
X67.695Y52.525
X67.713Y52.52
X67.731Y52.514
X67.748Y52.508
X67.766Y52.502
X67.784Y52.495
X67.801Y52.487
X67.818Y52.48
X67.835Y52.471
X67.852Y52.463
X67.868Y52.454
X67.884Y52.444
X67.9Y52.435
X67.916Y52.424
X67.932Y52.414
X67.947Y52.403
X67.962Y52.391
X67.977Y52.379
X67.991Y52.367
X68.005Y52.355
X68.019Y52.342
X68.033Y52.328
X68.045Y52.315
X68.058Y52.302
X68.07Y52.288
X68.082Y52.274
X68.093Y52.259
X68.105Y52.244
X68.115Y52.229
X68.126Y52.214
X68.136Y52.199
X68.145Y52.183
X68.154Y52.167
X68.163Y52.151
X68.172Y52.134
X68.18Y52.118
X68.187Y52.101
X68.195Y52.084
X68.201Y52.067
X68.208Y52.05
X68.214Y52.032
X68.219Y52.014
X68.224Y51.997
X68.229Y51.979
X68.233Y51.961
X68.237Y51.942
X68.24Y51.925
X68.243Y51.907
X68.245Y51.889
X68.247Y51.871
X68.249Y51.853
X68.25Y51.835
X68.25Y51.817
X68.25Y51.8
Y0
X68.25Y-0.034
X68.249Y-0.051
X68.245Y-0.086
X68.243Y-0.104
X68.24Y-0.122
X68.237Y-0.14
X68.234Y-0.158
X68.23Y-0.176
X68.225Y-0.193
X68.22Y-0.211
X68.215Y-0.228
X68.209Y-0.245
X68.203Y-0.263
X68.196Y-0.28
X68.189Y-0.296
X68.182Y-0.313
X68.174Y-0.33
X68.166Y-0.346
X68.157Y-0.362
X68.148Y-0.378
X68.138Y-0.394
X68.129Y-0.41
X68.118Y-0.425
X68.108Y-0.44
X68.097Y-0.455
X68.085Y-0.469
X68.074Y-0.484
X68.062Y-0.498
X68.049Y-0.511
X68.036Y-0.525
X68.023Y-0.538
X68.01Y-0.55
X67.996Y-0.563
X67.982Y-0.575
X67.968Y-0.586
X67.953Y-0.598
X67.938Y-0.609
X67.923Y-0.62
X67.907Y-0.63
X67.891Y-0.64
X67.875Y-0.65
X67.859Y-0.659
X67.842Y-0.668
X67.825Y-0.676
X67.808Y-0.684
X67.791Y-0.692
X67.774Y-0.699
X67.756Y-0.705
X67.738Y-0.711
X67.72Y-0.717
X67.702Y-0.723
X67.684Y-0.727
X67.666Y-0.732
X67.647Y-0.736
X67.629Y-0.739
X67.611Y-0.742
X67.592Y-0.745
X67.574Y-0.747
X67.555Y-0.748
X67.537Y-0.75
X67.518Y-0.75
X67.499Y-0.75
X3
X2.981Y-0.75
X2.963Y-0.75
X2.945Y-0.748
X2.926Y-0.747
X2.908Y-0.745
X2.89Y-0.742
X2.872Y-0.74
X2.854Y-0.736
X2.836Y-0.733
X2.818Y-0.728
X2.801Y-0.724
X2.783Y-0.719
X2.766Y-0.713
X2.748Y-0.707
X2.731Y-0.701
X2.714Y-0.694
X2.697Y-0.687
X2.681Y-0.679
X2.664Y-0.671
X2.648Y-0.663
X2.632Y-0.654
X2.616Y-0.645
X2.601Y-0.636
X2.585Y-0.626
X2.57Y-0.615
X2.555Y-0.605
X2.541Y-0.594
X2.526Y-0.582
X2.511Y-0.57
X2.497Y-0.558
X2.484Y-0.545
X2.471Y-0.533
X2.458Y-0.52
X2.446Y-0.506
X2.433Y-0.493
X2.421Y-0.479
X2.41Y-0.465
X2.399Y-0.45
X2.388Y-0.435
X2.378Y-0.42
X2.367Y-0.405
X2.358Y-0.389
X2.348Y-0.374
X2.34Y-0.358
X2.331Y-0.342
X2.323Y-0.325
X2.315Y-0.309
X2.308Y-0.292
X2.301Y-0.275
X2.294Y-0.258
X2.288Y-0.241
X2.283Y-0.223
X2.277Y-0.206
X2.273Y-0.188
X2.268Y-0.17
X2.264Y-0.152
X2.261Y-0.135
X2.258Y-0.117
X2.255Y-0.098
X2.253Y-0.08
X2.251Y-0.059
X2.249Y-0.037
X2.249Y-0.018
X2.249Y0
G0Z2
X72.249Y0
G1Z-6F75
Y56.8F150
X72.249Y56.818
X72.249Y56.836
X72.251Y56.855
X72.252Y56.873
X72.254Y56.892
X72.257Y56.91
X72.26Y56.928
X72.263Y56.947
X72.267Y56.965
X72.271Y56.983
X72.276Y57.001
X72.281Y57.018
X72.287Y57.036
X72.293Y57.054
X72.299Y57.071
X72.306Y57.088
X72.314Y57.105
X72.321Y57.122
X72.329Y57.139
X72.338Y57.155
X72.347Y57.171
X72.356Y57.187
X72.366Y57.203
X72.377Y57.219
X72.387Y57.234
X72.398Y57.249
X72.409Y57.263
X72.42Y57.277
X72.432Y57.291
X72.444Y57.305
X72.456Y57.318
X72.469Y57.331
X72.482Y57.344
X72.495Y57.356
X72.509Y57.368
X72.523Y57.38
X72.538Y57.392
X72.553Y57.404
X72.569Y57.415
X72.585Y57.426
X72.601Y57.436
X72.617Y57.446
X72.632Y57.455
X72.648Y57.463
X72.664Y57.472
X72.68Y57.479
X72.697Y57.487
X72.714Y57.494
X72.731Y57.501
X72.749Y57.507
X72.766Y57.513
X72.784Y57.519
X72.802Y57.524
X72.82Y57.529
X72.838Y57.533
X72.856Y57.537
X72.875Y57.54
X72.893Y57.543
X72.912Y57.545
X72.929Y57.547
X72.947Y57.549
X72.964Y57.55
X72.982Y57.55
X72.999Y57.551
X137.5
X137.518Y57.55
X137.537Y57.55
X137.556Y57.548
X137.574Y57.547
X137.593Y57.545
X137.612Y57.542
X137.63Y57.539
X137.649Y57.536
X137.667Y57.532
X137.685Y57.527
X137.703Y57.522
X137.721Y57.517
X137.739Y57.511
X137.757Y57.505
X137.774Y57.498
X137.792Y57.491
X137.809Y57.484
X137.826Y57.476
X137.843Y57.467
X137.86Y57.458
X137.876Y57.449
X137.891Y57.44
X137.907Y57.43
X137.922Y57.42
X137.937Y57.41
X137.952Y57.399
X137.967Y57.387
X137.981Y57.376
X137.995Y57.364
X138.009Y57.352
X138.022Y57.339
X138.035Y57.326
X138.048Y57.313
X138.06Y57.299
X138.072Y57.285
X138.084Y57.271
X138.095Y57.257
X138.106Y57.242
X138.117Y57.227
X138.127Y57.212
X138.137Y57.196
X138.147Y57.18
X138.156Y57.164
X138.165Y57.148
X138.173Y57.132
X138.181Y57.115
X138.188Y57.098
X138.195Y57.082
X138.202Y57.065
X138.208Y57.048
X138.214Y57.031
X138.219Y57.014
X138.224Y56.996
X138.229Y56.979
X138.233Y56.961
X138.237Y56.944
X138.24Y56.926
X138.243Y56.908
X138.245Y56.89
X138.247Y56.872
X138.249Y56.854
X138.25Y56.836
X138.25Y56.818
X138.251Y56.8
Y4.999
X138.25Y4.981
X138.25Y4.963
X138.249Y4.945
X138.247Y4.927
X138.245Y4.909
X138.243Y4.891
X138.24Y4.874
X138.237Y4.855
X138.233Y4.838
X138.229Y4.82
X138.224Y4.803
X138.219Y4.785
X138.214Y4.768
X138.208Y4.751
X138.202Y4.734
X138.195Y4.717
X138.188Y4.7
X138.181Y4.683
X138.173Y4.667
X138.165Y4.651
X138.156Y4.635
X138.147Y4.619
X138.138Y4.604
X138.128Y4.588
X138.118Y4.573
X138.107Y4.558
X138.097Y4.544
X138.085Y4.53
X138.074Y4.516
X138.062Y4.502
X138.05Y4.489
X138.037Y4.475
X138.024Y4.462
X138.01Y4.449
X137.997Y4.437
X137.983Y4.425
X137.969Y4.413
X137.954Y4.402
X137.939Y4.391
X137.924Y4.38
X137.909Y4.37
X137.893Y4.36
X137.878Y4.351
X137.862Y4.342
X137.845Y4.333
X137.829Y4.325
X137.812Y4.317
X137.795Y4.309
X137.778Y4.302
X137.761Y4.296
X137.744Y4.289
X137.726Y4.284
X137.709Y4.278
X137.691Y4.273
X137.673Y4.269
X137.655Y4.265
X137.636Y4.261
X137.616Y4.258
X137.597Y4.255
X137.578Y4.253
X137.558Y4.251
X137.539Y4.25
X137.519Y4.249
X137.5Y4.248
X135.551
Y0
X135.55Y-0.018
X135.55Y-0.037
X135.548Y-0.055
X135.547Y-0.073
X135.545Y-0.092
X135.542Y-0.11
X135.539Y-0.128
X135.536Y-0.147
X135.532Y-0.165
X135.528Y-0.183
X135.523Y-0.201
X135.518Y-0.218
X135.512Y-0.236
X135.506Y-0.253
X135.5Y-0.271
X135.493Y-0.288
X135.486Y-0.305
X135.478Y-0.322
X135.47Y-0.338
X135.461Y-0.355
X135.452Y-0.371
X135.442Y-0.388
X135.432Y-0.404
X135.422Y-0.419
X135.412Y-0.434
X135.401Y-0.449
X135.389Y-0.464
X135.378Y-0.479
X135.366Y-0.493
X135.353Y-0.507
X135.341Y-0.52
X135.328Y-0.533
X135.314Y-0.546
X135.301Y-0.559
X135.287Y-0.571
X135.272Y-0.583
X135.258Y-0.594
X135.243Y-0.606
X135.228Y-0.616
X135.212Y-0.627
X135.197Y-0.637
X135.181Y-0.646
X135.165Y-0.656
X135.148Y-0.665
X135.132Y-0.673
X135.115Y-0.681
X135.098Y-0.689
X135.081Y-0.696
X135.064Y-0.702
X135.046Y-0.709
X135.028Y-0.715
X135.011Y-0.72
X134.994Y-0.725
X134.976Y-0.729
X134.959Y-0.733
X134.941Y-0.737
X134.924Y-0.74
X134.906Y-0.743
X134.888Y-0.745
X134.87Y-0.747
X134.853Y-0.749
X134.835Y-0.75
X134.817Y-0.75
X134.8Y-0.751
X72.999
X72.981Y-0.75
X72.963Y-0.75
X72.945Y-0.748
X72.927Y-0.747
X72.908Y-0.745
X72.89Y-0.742
X72.872Y-0.74
X72.854Y-0.736
X72.836Y-0.733
X72.819Y-0.728
X72.801Y-0.724
X72.783Y-0.719
X72.766Y-0.713
X72.749Y-0.707
X72.731Y-0.701
X72.714Y-0.694
X72.698Y-0.687
X72.681Y-0.68
X72.665Y-0.672
X72.648Y-0.663
X72.632Y-0.654
X72.616Y-0.645
X72.601Y-0.636
X72.585Y-0.626
X72.57Y-0.616
X72.555Y-0.605
X72.541Y-0.594
X72.527Y-0.583
X72.513Y-0.571
X72.499Y-0.559
X72.485Y-0.546
X72.471Y-0.533
X72.458Y-0.52
X72.445Y-0.506
X72.433Y-0.492
X72.421Y-0.478
X72.409Y-0.464
X72.398Y-0.449
X72.387Y-0.434
X72.377Y-0.419
X72.366Y-0.403
X72.357Y-0.388
X72.347Y-0.372
X72.338Y-0.355
X72.33Y-0.339
X72.322Y-0.322
X72.314Y-0.305
X72.306Y-0.288
X72.299Y-0.271
X72.293Y-0.254
X72.287Y-0.236
X72.281Y-0.219
X72.276Y-0.201
X72.271Y-0.183
X72.267Y-0.165
X72.263Y-0.147
X72.26Y-0.129
X72.257Y-0.11
X72.254Y-0.092
X72.252Y-0.074
X72.251Y-0.055
X72.249Y-0.037
X72.249Y-0.018
X72.249Y0
G0Z2
 
