(Created with grbl post processor 2023/10/21 15:50)
G21
(G-code generated with BlenderCAM and NC library)
G17G90
(Tool: D = 1.5 mm  type END flutes 2)
S12000M03
G00 Z2.0

G0X0Y0Z2
G1Z-6F75
Z0F150
G0Z2
Y56.8
G1Z-6F75
Z0F150
G0Z2
X140
G1Z-6F75
Z0F150
G0Z2
Y0
G1Z-6F75
Z0F150
G0Z2
(Tool: D = 1.5 mm  type END flutes 2)
S12000M03
G00 Z2.0

X13.811Y10.686
G1Z-0.8F75
X14.953Y10.686F150
X14.867Y10.724
X14.822Y10.744
X14.685Y10.81
X14.582Y10.864
X14.512Y10.903
X14.47Y10.928
X14.34Y11.007
X14.243Y11.071
X14.177Y11.117
X14.138Y11.146
X14.016Y11.237
X13.925Y11.31
X13.865Y11.362
X13.811Y11.411
Y10.686
G0Z2
X25.386Y11.688
G1Z-0.8F75
X25.402Y11.688F150
X25.405Y11.718
X25.386Y11.688
G0Z2
X26.19Y14.529
G1Z-0.8F75
X26.367Y15.093F150
X26.4Y15.19
X26.42Y15.246
X26.481Y15.408
X26.538Y15.547
X26.58Y15.64
X26.606Y15.694
X26.682Y15.849
X26.752Y15.982
X26.803Y16.071
X26.833Y16.122
X26.924Y16.269
X27.007Y16.394
X27.065Y16.478
X27.103Y16.529
X26.912Y16.535
X26.761Y16.544
X26.659Y16.554
X26.599Y16.561
X26.427Y16.582
X26.278Y16.606
X26.177Y16.626
X26.157Y16.63
X26.144Y16.527
X26.118Y16.358
X26.106Y16.289
X26.129Y16.152
X26.154Y15.977
X26.17Y15.825
X26.178Y15.721
X26.181Y15.66
X26.189Y15.483
X26.19Y15.373
Y14.529
X25.69Y14.42
X25.688Y14.292
X25.686Y14.237
X25.677Y14.073
X25.664Y13.939
X25.653Y13.847
X25.646Y13.793
X25.621Y13.63
X25.595Y13.498
X25.575Y13.408
X25.562Y13.354
X25.521Y13.195
X25.483Y13.065
X25.455Y12.978
X25.437Y12.926
X25.38Y12.771
X25.33Y12.646
X25.292Y12.562
X25.269Y12.512
X25.198Y12.364
X25.135Y12.244
X25.09Y12.164
X25.062Y12.116
X24.977Y11.976
X24.903Y11.863
X24.85Y11.788
X24.817Y11.743
X24.719Y11.612
X24.634Y11.506
X24.574Y11.437
X24.537Y11.395
X24.426Y11.274
X24.341Y11.188
X25.874Y11.188
X25.878Y11.339
X25.881Y11.393
X25.892Y11.556
X25.905Y11.689
X25.917Y11.779
X25.925Y11.833
X25.952Y11.993
X25.978Y12.124
X25.999Y12.213
X26.012Y12.266
X26.055Y12.423
X26.082Y12.516
X26.843Y14.938
X26.871Y15.023
X26.89Y15.074
X26.946Y15.224
X26.996Y15.346
X27.033Y15.428
X27.056Y15.477
X27.127Y15.622
X27.189Y15.738
X27.233Y15.817
X27.261Y15.863
X27.345Y16
X27.418Y16.11
X27.47Y16.184
X27.502Y16.228
X27.599Y16.356
X27.682Y16.459
X27.697Y16.476
X27.669Y16.637
X27.651Y16.773
X27.641Y16.866
X27.636Y16.923
X27.627Y17.052
X27.536Y17.044
X27.375Y17.033
X27.242Y17.029
X27.152Y17.029
X27.097Y17.029
X26.935Y17.034
X26.803Y17.042
X26.713Y17.051
X26.659Y17.057
X26.498Y17.077
X26.367Y17.098
X26.278Y17.115
X26.225Y17.127
X26.067Y17.162
X25.939Y17.196
X25.852Y17.222
X25.8Y17.238
X25.69Y17.274
X25.688Y17.081
X25.686Y17.027
X25.677Y16.869
X25.666Y16.739
X25.656Y16.651
X25.649Y16.598
X25.625Y16.441
X25.602Y16.312
X25.597Y16.289
X25.626Y16.134
X25.634Y16.079
X25.657Y15.916
X25.672Y15.782
X25.679Y15.69
X25.682Y15.635
X25.689Y15.471
X25.69Y15.373
Y14.42
X25.19Y14.421
X25.188Y14.311
X25.186Y14.262
X25.178Y14.11
X25.167Y13.994
X25.158Y13.915
X25.151Y13.866
X25.128Y13.716
X25.106Y13.601
X25.089Y13.523
X25.077Y13.475
X25.04Y13.328
X25.007Y13.216
X24.982Y13.141
X24.966Y13.094
X24.914Y12.951
X24.87Y12.843
X24.838Y12.77
X24.817Y12.726
X24.751Y12.588
X24.697Y12.485
X24.658Y12.416
X24.633Y12.373
X24.554Y12.243
X24.49Y12.146
X24.445Y12.08
X24.416Y12.041
X24.324Y11.919
X24.251Y11.828
X24.199Y11.768
X24.167Y11.731
X24.064Y11.619
X23.982Y11.536
X23.925Y11.481
X23.888Y11.448
X23.775Y11.346
X23.686Y11.271
X23.623Y11.222
X23.584Y11.192
X23.461Y11.103
X23.365Y11.037
X23.297Y10.994
X23.255Y10.968
X23.125Y10.891
X23.022Y10.835
X22.951Y10.799
X22.907Y10.778
X22.769Y10.714
X22.709Y10.688
X26.401Y10.688
X26.393Y10.763
X26.386Y10.842
X26.381Y10.921
X26.379Y10.969
X26.374Y11.12
X26.374Y11.235
X26.377Y11.314
X26.38Y11.363
X26.39Y11.513
X26.402Y11.628
X26.412Y11.706
X26.419Y11.754
X26.444Y11.903
X26.466Y12.016
X26.484Y12.092
X26.496Y12.14
X26.535Y12.285
X26.559Y12.367
X27.318Y14.782
X27.343Y14.856
X27.359Y14.901
X27.411Y15.041
X27.455Y15.146
X27.486Y15.217
X27.507Y15.261
X27.572Y15.394
X27.626Y15.495
X27.664Y15.563
X27.689Y15.604
X27.767Y15.731
X27.829Y15.826
X27.874Y15.89
X27.903Y15.929
X27.992Y16.048
X28.064Y16.136
X28.115Y16.196
X28.147Y16.231
X28.239Y16.332
X28.215Y16.43
X28.199Y16.51
X28.19Y16.559
X28.164Y16.712
X28.148Y16.83
X28.139Y16.91
X28.135Y16.96
X28.124Y17.115
X28.12Y17.234
X28.12Y17.315
X28.121Y17.365
X28.125Y17.52
X28.134Y17.646
X28.012Y17.618
X27.935Y17.603
X27.887Y17.594
X27.739Y17.57
X27.626Y17.555
X27.548Y17.547
X27.499Y17.543
X27.35Y17.533
X27.235Y17.529
X27.157Y17.529
X27.109Y17.529
X26.959Y17.534
X26.845Y17.541
X26.766Y17.548
X26.718Y17.553
X26.57Y17.572
X26.457Y17.59
X26.38Y17.605
X26.332Y17.615
X26.186Y17.648
X26.075Y17.677
X26Y17.699
X25.954Y17.714
X25.812Y17.761
X25.704Y17.8
X25.631Y17.829
X25.587Y17.848
X25.45Y17.909
X25.347Y17.959
X25.277Y17.995
X25.235Y18.018
X25.19Y18.042
X25.19Y17.176
X25.188Y17.098
X25.187Y17.051
X25.179Y16.904
X25.169Y16.792
X25.16Y16.716
X25.154Y16.669
X25.132Y16.523
X25.112Y16.413
X25.096Y16.337
X25.084Y16.289
X25.102Y16.211
X25.118Y16.133
X25.132Y16.054
X25.14Y16.006
X25.161Y15.855
X25.173Y15.739
X25.18Y15.66
X25.182Y15.611
X25.189Y15.459
X25.19Y15.373
X25.19Y14.421
X24.69Y14.421
X24.689Y14.329
X24.687Y14.286
X24.679Y14.147
X24.671Y14.049
X24.662Y13.982
X24.657Y13.939
X24.635Y13.801
X24.617Y13.705
X24.602Y13.639
X24.592Y13.597
X24.558Y13.462
X24.53Y13.367
X24.509Y13.303
X24.495Y13.263
X24.447Y13.131
X24.41Y13.04
X24.383Y12.978
X24.365Y12.939
X24.305Y12.813
X24.259Y12.726
X24.226Y12.667
X24.204Y12.63
X24.132Y12.511
X24.078Y12.429
X24.039Y12.373
X24.014Y12.339
X23.93Y12.227
X23.869Y12.15
X23.825Y12.099
X23.796Y12.067
X23.702Y11.964
X23.633Y11.894
X23.584Y11.847
X23.553Y11.818
X23.449Y11.725
X23.373Y11.662
X23.32Y11.62
X23.286Y11.594
X23.173Y11.511
X23.092Y11.456
X23.035Y11.42
X22.998Y11.397
X22.878Y11.326
X22.792Y11.279
X22.732Y11.249
X22.693Y11.23
X22.566Y11.171
X22.476Y11.132
X22.413Y11.108
X22.373Y11.093
X22.241Y11.046
X22.147Y11.017
X22.082Y10.999
X22.041Y10.988
X21.905Y10.955
X21.809Y10.935
X21.742Y10.923
X21.7Y10.916
X21.561Y10.897
X21.464Y10.886
X21.396Y10.881
X21.354Y10.878
X21.214Y10.872
X21.14Y10.871
X16.494Y10.871
X16.426Y10.873
X16.383Y10.875
X16.243Y10.882
X16.146Y10.891
X16.079Y10.899
X16.036Y10.905
X15.898Y10.926
X15.801Y10.944
X15.736Y10.959
X15.694Y10.969
X15.558Y11.004
X15.464Y11.031
X15.4Y11.052
X15.359Y11.066
X15.228Y11.114
X15.137Y11.151
X15.075Y11.178
X15.036Y11.196
X14.91Y11.257
X14.823Y11.302
X14.764Y11.335
X14.727Y11.357
X14.608Y11.43
X14.525Y11.483
X14.47Y11.522
X14.435Y11.547
X14.324Y11.631
X14.247Y11.693
X14.196Y11.737
X14.164Y11.765
X14.061Y11.86
X13.991Y11.929
X13.944Y11.977
X13.915Y12.009
X13.821Y12.113
X13.758Y12.188
X13.717Y12.241
X13.691Y12.276
X13.608Y12.388
X13.553Y12.469
X13.517Y12.526
X13.494Y12.563
X13.423Y12.683
X13.376Y12.77
X13.345Y12.83
X13.311Y12.902
Y10.186
X27.008Y10.187
X26.987Y10.265
X26.977Y10.306
X26.946Y10.441
X26.928Y10.536
X26.917Y10.602
X26.911Y10.644
X26.893Y10.782
X26.884Y10.878
X26.88Y10.945
X26.878Y10.987
X26.874Y11.126
X26.874Y11.223
X26.877Y11.29
X26.879Y11.332
X26.888Y11.47
X26.898Y11.567
X26.907Y11.633
X26.913Y11.675
X26.935Y11.812
X26.954Y11.907
X26.97Y11.972
X26.98Y12.013
X27.016Y12.147
X27.037Y12.217
X27.793Y14.627
X27.814Y14.689
X27.828Y14.729
X27.876Y14.857
X27.913Y14.946
X27.94Y15.006
X27.958Y15.044
X28.017Y15.167
X28.062Y15.252
X28.095Y15.309
X28.117Y15.345
X28.188Y15.462
X28.241Y15.542
X28.279Y15.596
X28.304Y15.63
X28.386Y15.739
X28.446Y15.814
X28.489Y15.864
X28.517Y15.896
X28.61Y15.997
X28.677Y16.065
X28.724Y16.111
X28.755Y16.139
X28.802Y16.182
X28.778Y16.259
X28.766Y16.301
X28.727Y16.439
X28.704Y16.536
X28.69Y16.603
X28.682Y16.646
X28.658Y16.787
X28.644Y16.886
X28.637Y16.955
X28.634Y16.998
X28.624Y17.14
X28.62Y17.24
X28.62Y17.309
X28.621Y17.353
X28.625Y17.496
X28.631Y17.595
X28.638Y17.664
X28.643Y17.707
X28.661Y17.849
X28.673Y17.922
X28.758Y18.407
X28.65Y18.355
X28.562Y18.315
X28.5Y18.29
X28.461Y18.274
X28.332Y18.226
X28.24Y18.195
X28.177Y18.176
X28.136Y18.165
X28.003Y18.129
X27.909Y18.107
X27.844Y18.094
X27.802Y18.087
X27.667Y18.064
X27.571Y18.052
X27.505Y18.045
X27.463Y18.041
X27.325Y18.032
X27.229Y18.029
X27.163Y18.028
X27.12Y18.029
X26.983Y18.033
X26.886Y18.039
X26.82Y18.045
X26.778Y18.05
X26.642Y18.067
X26.546Y18.082
X26.481Y18.095
X26.44Y18.103
X26.305Y18.134
X26.212Y18.158
X26.148Y18.177
X26.108Y18.189
X25.977Y18.232
X25.887Y18.266
X25.825Y18.291
X25.786Y18.307
X25.66Y18.362
X25.573Y18.404
X25.514Y18.435
X25.477Y18.455
X25.357Y18.522
X25.274Y18.573
X25.219Y18.609
X25.184Y18.632
X25.071Y18.711
X24.993Y18.769
X24.979Y18.78
X24.699Y18.562
X24.672Y18.542
X24.681Y18.438
X24.683Y18.395
X24.689Y18.255
X24.69Y18.182
X24.69Y17.181
X24.689Y17.116
X24.687Y17.075
X24.68Y16.94
X24.672Y16.845
X24.664Y16.781
X24.659Y16.74
X24.639Y16.606
X24.622Y16.513
X24.608Y16.449
X24.599Y16.408
X24.569Y16.288
X24.607Y16.137
X24.627Y16.041
X24.638Y15.975
X24.645Y15.932
X24.665Y15.794
X24.675Y15.696
X24.681Y15.629
X24.683Y15.586
X24.689Y15.446
X24.69Y15.373
Y14.421
G0Z2
X25.414Y45.039
G1Z-0.8F75
X25.43Y45.087F150
X25.384
X25.414Y45.039
X25.89Y44.884
X25.949Y45.059
X25.996Y45.184
X26.031Y45.269
X26.053Y45.319
X26.12Y45.467
X26.179Y45.587
X24.338
X24.408Y45.516
X24.446Y45.475
X24.559Y45.352
X24.648Y45.248
X24.707Y45.175
X24.741Y45.131
X24.841Y44.997
X24.919Y44.884
X24.97Y44.806
X25Y44.758
X25.086Y44.615
X25.153Y44.495
X25.196Y44.412
X25.221Y44.361
X25.292Y44.21
X25.347Y44.084
X25.381Y43.997
X25.401Y43.945
X25.457Y43.787
X25.499Y43.657
X25.524Y43.567
X25.538Y43.512
X25.579Y43.35
X25.607Y43.216
X25.624Y43.124
X25.632Y43.068
X25.656Y42.903
X25.671Y42.766
X25.678Y42.673
X25.682Y42.617
X25.689Y42.45
X25.69Y42.35
X25.69Y41.356
X25.688Y41.263
X25.686Y41.208
X25.676Y41.043
X25.664Y40.907
X25.653Y40.815
X25.645Y40.76
X25.62Y40.597
X25.594Y40.464
X25.574Y40.375
X25.6Y40.26
X25.624Y40.126
X25.633Y40.07
X25.657Y39.906
X25.671Y39.771
X25.678Y39.678
X25.682Y39.622
X25.689Y39.456
X25.689Y39.433
X25.803Y39.419
X26.012Y39.388
X26.076Y39.378
X26.228Y39.35
X26.433Y39.308
X26.498Y39.294
X26.65Y39.257
X26.823Y39.211
X26.799Y39.284
X26.587Y39.952
X26.098Y41.48
X25.884Y42.145
X25.858Y42.233
X25.843Y42.285
X25.801Y42.443
X25.772Y42.573
X25.754Y42.663
X25.745Y42.717
X25.719Y42.878
X25.702Y43.011
X25.694Y43.102
X25.689Y43.156
X25.679Y43.319
X25.676Y43.453
X25.676Y43.544
X25.677Y43.599
X25.683Y43.762
X25.692Y43.895
X25.701Y43.986
X25.707Y44.041
X25.729Y44.202
X25.751Y44.334
X25.769Y44.424
X25.781Y44.477
X25.818Y44.636
X25.853Y44.765
X25.879Y44.853
X25.89Y44.884
X26.365Y44.73
X26.419Y44.89
X26.46Y44.998
X26.49Y45.071
X26.509Y45.116
X26.572Y45.253
X26.623Y45.357
X26.66Y45.427
X26.684Y45.469
X26.759Y45.6
X26.82Y45.698
X26.864Y45.764
X26.891Y45.804
X26.979Y45.927
X27.049Y46.019
X27.104Y46.087
X22.702
X22.766Y46.059
X22.907Y45.994
X23.013Y45.941
X23.084Y45.903
X23.128Y45.878
X23.261Y45.8
X23.361Y45.737
X23.428Y45.691
X23.469Y45.663
X23.594Y45.572
X23.688Y45.499
X23.75Y45.447
X23.788Y45.414
X23.903Y45.311
X23.989Y45.229
X24.045Y45.171
X24.08Y45.135
X24.184Y45.021
X24.261Y44.931
X24.312Y44.868
X24.343Y44.828
X24.435Y44.705
X24.503Y44.607
X24.547Y44.539
X24.574Y44.497
X24.653Y44.365
X24.711Y44.261
X24.748Y44.189
X24.77Y44.144
X24.837Y44.005
X24.884Y43.896
X24.914Y43.82
X24.931Y43.774
X24.983Y43.628
X25.019Y43.515
X25.041Y43.437
X25.054Y43.389
X25.091Y43.239
X25.116Y43.123
X25.13Y43.043
X25.138Y42.994
X25.16Y42.841
X25.173Y42.723
X25.179Y42.642
X25.182Y42.592
X25.189Y42.438
X25.19Y42.35
X25.19Y41.362
X25.188Y41.282
X25.186Y41.232
X25.178Y41.08
X25.167Y40.963
X25.158Y40.883
X25.151Y40.834
X25.127Y40.683
X25.105Y40.568
X25.088Y40.49
X25.076Y40.442
X25.059Y40.375
X25.093Y40.24
X25.117Y40.125
X25.131Y40.045
X25.139Y39.996
X25.161Y39.844
X25.173Y39.727
X25.179Y39.647
X25.182Y39.597
X25.189Y39.444
X25.19Y39.357
Y38.974
X25.333Y38.964
X25.538Y38.947
X25.595Y38.941
X25.732Y38.924
X25.934Y38.894
X25.991Y38.885
X26.128Y38.86
X26.327Y38.82
X26.384Y38.807
X26.465Y38.788
X26.522Y38.773
X26.717Y38.722
X26.774Y38.705
X26.855Y38.681
X26.912Y38.663
X27.103Y38.6
X27.16Y38.58
X27.241Y38.55
X27.298Y38.528
X27.484Y38.454
X27.541Y38.43
X27.623Y38.394
X27.68Y38.368
X27.857Y38.284
X27.8Y38.364
X27.755Y38.432
X27.728Y38.475
X27.645Y38.608
X27.586Y38.712
X27.547Y38.785
X27.524Y38.83
X27.456Y38.971
X27.407Y39.081
X27.376Y39.157
X27.358Y39.204
X27.304Y39.351
X27.276Y39.435
X27.064Y40.104
X26.574Y41.633
X26.361Y42.293
X26.339Y42.369
X26.326Y42.415
X26.287Y42.561
X26.262Y42.674
X26.247Y42.752
X26.238Y42.799
X26.214Y42.948
X26.2Y43.063
X26.192Y43.142
X26.188Y43.191
X26.179Y43.341
X26.176Y43.457
X26.176Y43.536
X26.177Y43.584
X26.182Y43.735
X26.19Y43.851
X26.198Y43.929
X26.203Y43.978
X26.223Y44.127
X26.243Y44.241
X26.258Y44.319
X26.268Y44.366
X26.303Y44.513
X26.333Y44.625
X26.356Y44.701
X26.365Y44.73
G0Z2
X16.5Y45.587
G1Z-0.8F75
X14.311F150
Y44.769
X14.427Y44.831
X14.571Y44.903
X14.69Y44.957
X14.773Y44.992
X14.823Y45.012
X14.973Y45.07
X15.063Y45.102
X16.5Y45.587
G0Z2
X15.223Y44.628
G1Z-0.8F75
X19.545Y46.087F150
X13.811
Y43.802
X13.905Y43.885
X13.965Y43.935
X14.003Y43.964
X14.121Y44.055
X14.213Y44.121
X14.278Y44.164
X14.318Y44.19
X14.444Y44.269
X14.542Y44.326
X14.611Y44.363
X14.653Y44.385
X14.786Y44.451
X14.889Y44.499
X14.961Y44.529
X15.006Y44.547
X15.144Y44.6
X15.223Y44.628
X15.383Y44.154
X20.029Y45.722
X20.094Y45.742
X20.136Y45.755
X20.273Y45.793
X20.37Y45.816
X20.438Y45.83
X20.48Y45.838
X20.621Y45.862
X20.719Y45.875
X20.788Y45.882
X20.831Y45.886
X20.973Y45.896
X21.073Y45.9
X21.141Y45.9
X21.185Y45.899
X21.327Y45.895
X21.427Y45.889
X21.495Y45.882
X21.538Y45.877
X21.679Y45.859
X21.778Y45.843
X21.845Y45.829
X21.888Y45.82
X22.026Y45.788
X22.123Y45.762
X22.188Y45.742
X22.23Y45.728
X22.364Y45.682
X22.458Y45.647
X22.521Y45.62
X22.561Y45.603
X22.69Y45.544
X22.779Y45.499
X22.84Y45.467
X22.878Y45.445
X23.001Y45.373
X23.085Y45.32
X23.142Y45.282
X23.178Y45.257
X23.293Y45.173
X23.371Y45.112
X23.424Y45.068
X23.457Y45.039
X23.563Y44.945
X23.635Y44.876
X23.683Y44.827
X23.713Y44.795
X23.81Y44.69
X23.874Y44.614
X23.917Y44.561
X23.944Y44.526
X24.029Y44.413
X24.086Y44.331
X24.124Y44.273
X24.147Y44.236
X24.221Y44.114
X24.269Y44.027
X24.301Y43.966
X24.32Y43.927
X24.381Y43.799
X24.421Y43.707
X24.446Y43.643
X24.461Y43.602
X24.509Y43.469
X24.539Y43.374
X24.558Y43.308
X24.569Y43.265
X24.604Y43.127
X24.624Y43.03
X24.637Y42.962
X24.644Y42.919
X24.664Y42.778
X24.675Y42.679
X24.68Y42.611
X24.683Y42.567
X24.689Y42.425
X24.69Y42.35
X24.69Y41.368
X24.689Y41.3
X24.687Y41.257
X24.679Y41.117
X24.67Y41.018
X24.662Y40.951
X24.656Y40.908
X24.635Y40.769
X24.616Y40.672
X24.601Y40.606
X24.591Y40.564
X24.556Y40.428
X24.541Y40.375
X24.56Y40.308
X24.571Y40.266
X24.605Y40.129
X24.625Y40.032
X24.637Y39.965
X24.644Y39.922
X24.664Y39.783
X24.675Y39.684
X24.68Y39.616
X24.683Y39.573
X24.689Y39.432
X24.69Y39.357
Y38.481
X24.795Y38.483
X24.918Y38.482
X25.118Y38.476
X25.168Y38.474
X25.291Y38.466
X25.488Y38.449
X25.538Y38.444
X25.661Y38.429
X25.856Y38.401
X25.906Y38.393
X26.029Y38.37
X26.221Y38.331
X26.271Y38.32
X26.345Y38.303
X26.394Y38.29
X26.582Y38.24
X26.632Y38.226
X26.706Y38.204
X26.756Y38.188
X26.939Y38.128
X26.989Y38.11
X27.064Y38.083
X27.113Y38.064
X27.292Y37.992
X27.342Y37.971
X27.416Y37.939
X27.466Y37.916
X27.638Y37.834
X27.689Y37.809
X27.763Y37.771
X27.813Y37.744
X27.979Y37.652
X28.029Y37.622
X28.103Y37.578
X28.152Y37.547
X28.311Y37.444
X28.361Y37.411
X28.435Y37.359
X28.483Y37.324
X28.635Y37.211
X28.684Y37.172
X28.756Y37.114
X28.803Y37.074
X28.87Y37.017
X28.888Y37.064
X28.939Y37.191
X28.964Y37.247
X28.954Y37.306
X28.945Y37.364
X28.934Y37.452
X28.927Y37.51
X28.902Y37.76
X28.897Y37.82
X28.891Y37.911
X28.861Y37.936
X28.752Y38.03
X28.678Y38.099
X28.629Y38.148
X28.598Y38.18
X28.499Y38.285
X28.432Y38.361
X28.388Y38.414
X28.36Y38.449
X28.272Y38.563
X28.214Y38.645
X28.175Y38.703
X28.151Y38.74
X28.075Y38.863
X28.025Y38.951
X27.992Y39.012
X27.972Y39.052
X27.909Y39.181
X27.868Y39.274
X27.842Y39.338
X27.826Y39.379
X27.776Y39.515
X27.752Y39.586
X27.54Y40.256
X27.05Y41.786
X26.839Y42.44
X26.82Y42.504
X26.808Y42.546
X26.773Y42.68
X26.752Y42.774
X26.739Y42.84
X26.731Y42.882
X26.709Y43.019
X26.697Y43.116
X26.69Y43.182
X26.687Y43.225
X26.678Y43.363
X26.676Y43.46
X26.676Y43.527
X26.677Y43.57
X26.681Y43.709
X26.688Y43.806
X26.695Y43.872
X26.7Y43.915
X26.718Y44.052
X26.734Y44.148
X26.747Y44.214
X26.756Y44.255
X26.787Y44.391
X26.813Y44.485
X26.832Y44.549
X26.845Y44.589
X26.89Y44.721
X26.924Y44.812
X26.949Y44.873
X26.966Y44.913
X27.023Y45.039
X27.066Y45.126
X27.098Y45.186
X27.119Y45.223
X27.188Y45.343
X27.239Y45.426
X27.276Y45.482
X27.3Y45.517
X27.38Y45.63
X27.44Y45.707
X27.482Y45.759
X27.509Y45.791
X27.6Y45.896
X27.667Y45.967
X27.714Y46.015
X27.744Y46.045
X27.845Y46.14
X27.918Y46.204
X27.97Y46.247
X28.003Y46.274
X28.112Y46.359
X28.191Y46.416
X28.247Y46.453
X28.282Y46.477
X28.4Y46.551
X28.46Y46.587
X13.311
X13.311Y42.311
X13.349Y42.389
X13.379Y42.448
X13.41Y42.506
X13.431Y42.542
X13.5Y42.66
X13.552Y42.741
X13.589Y42.795
X13.613Y42.83
X13.693Y42.94
X13.752Y43.016
X13.794Y43.066
X13.821Y43.098
X13.911Y43.2
X13.977Y43.27
X14.024Y43.316
X14.054Y43.345
X14.154Y43.439
X14.226Y43.502
X14.277Y43.543
X14.31Y43.569
X14.418Y43.653
X14.496Y43.708
X14.551Y43.745
X14.586Y43.768
X14.701Y43.84
X14.784Y43.888
X14.842Y43.92
X14.879Y43.939
X15.001Y44
X15.088Y44.04
X15.149Y44.066
X15.188Y44.081
X15.315Y44.131
X15.383Y44.154
X15.543Y43.681
X20.183Y45.246
X20.236Y45.263
X20.272Y45.274
X20.397Y45.308
X20.476Y45.327
X20.531Y45.339
X20.568Y45.345
X20.696Y45.368
X20.776Y45.378
X20.832Y45.384
X20.869Y45.388
X20.998Y45.397
X21.079Y45.4
X21.136Y45.4
X21.173Y45.399
X21.303Y45.396
X21.384Y45.391
X21.44Y45.385
X21.477Y45.381
X21.605Y45.364
X21.685Y45.351
X21.74Y45.34
X21.777Y45.332
X21.903Y45.303
X21.982Y45.282
X22.035Y45.266
X22.071Y45.254
X22.194Y45.212
X22.269Y45.184
X22.321Y45.162
X22.356Y45.147
X22.474Y45.093
X22.546Y45.057
X22.596Y45.03
X22.628Y45.012
X22.74Y44.947
X22.809Y44.903
X22.855Y44.872
X22.886Y44.85
X22.991Y44.774
X23.055Y44.724
X23.098Y44.689
X23.126Y44.664
X23.223Y44.578
X23.282Y44.522
X23.321Y44.482
X23.347Y44.455
X23.435Y44.359
X23.488Y44.298
X23.523Y44.254
X23.546Y44.224
X23.624Y44.121
X23.67Y44.054
X23.701Y44.007
X23.72Y43.975
X23.788Y43.864
X23.827Y43.793
X23.853Y43.744
X23.869Y43.71
X23.925Y43.593
X23.958Y43.519
X23.978Y43.466
X23.991Y43.431
X24.035Y43.309
X24.06Y43.232
X24.075Y43.178
X24.085Y43.142
X24.116Y43.016
X24.133Y42.937
X24.143Y42.882
X24.149Y42.845
X24.168Y42.716
X24.177Y42.636
X24.181Y42.58
X24.183Y42.542
X24.189Y42.413
X24.19Y42.35
X24.19Y41.374
X24.189Y41.319
X24.187Y41.282
X24.181Y41.154
X24.173Y41.074
X24.167Y41.019
X24.162Y40.982
X24.142Y40.855
X24.127Y40.776
X24.115Y40.722
X24.106Y40.686
X24.074Y40.562
X24.052Y40.485
X24.034Y40.432
X24.014Y40.375
X24.045Y40.286
X24.062Y40.233
X24.077Y40.18
X24.086Y40.144
X24.117Y40.019
X24.134Y39.94
X24.144Y39.885
X24.15Y39.848
X24.168Y39.721
X24.177Y39.641
X24.181Y39.585
X24.183Y39.548
X24.189Y39.419
X24.19Y39.357
X24.19Y38.381
X24.189Y38.325
X24.187Y38.287
X24.18Y38.157
X24.178Y38.124
X24.181Y38.073
X24.184Y38.037
X24.188Y37.951
X24.218Y37.953
X24.409Y37.969
X24.451Y37.972
X24.56Y37.978
X24.753Y37.983
X24.795Y37.983
X24.904Y37.982
X25.097Y37.977
X25.139Y37.975
X25.248Y37.968
X25.439Y37.951
X25.481Y37.947
X25.59Y37.934
X25.778Y37.907
X25.821Y37.9
X25.93Y37.88
X26.115Y37.843
X26.157Y37.833
X26.224Y37.817
X26.267Y37.807
X26.447Y37.759
X26.49Y37.747
X26.557Y37.727
X26.6Y37.713
X26.776Y37.655
X26.819Y37.64
X26.886Y37.615
X26.929Y37.599
X27.099Y37.531
X27.143Y37.513
X27.21Y37.483
X27.253Y37.464
X27.418Y37.385
X27.461Y37.364
X27.528Y37.329
X27.571Y37.307
X27.73Y37.218
X27.773Y37.193
X27.84Y37.153
X27.882Y37.127
X28.034Y37.029
X28.076Y37
X28.143Y36.954
X28.184Y36.923
X28.329Y36.815
X28.371Y36.783
X28.436Y36.73
X28.477Y36.696
X28.612Y36.579
X28.651Y36.544
X28.711Y36.487
X28.749Y36.451
X28.87Y36.33
X28.907Y36.291
X28.965Y36.229
X29.001Y36.189
X29.112Y36.061
X29.158Y36.006
X29.172Y36.154
X29.182Y36.23
X29.191Y36.284
X29.197Y36.319
X29.221Y36.441
X29.238Y36.516
X29.252Y36.568
X29.262Y36.603
X29.297Y36.722
X29.321Y36.795
X29.34Y36.846
X29.353Y36.879
X29.399Y36.994
X29.431Y37.065
X29.454Y37.114
X29.484Y37.173
X29.448Y37.382
X29.441Y37.432
X29.43Y37.511
X29.424Y37.562
X29.4Y37.802
X29.396Y37.854
X29.39Y37.934
X29.388Y37.986
X29.382Y38.167
X29.305Y38.222
X29.259Y38.256
X29.215Y38.292
X29.186Y38.316
X29.086Y38.402
X29.026Y38.458
X28.986Y38.498
X28.959Y38.525
X28.869Y38.621
X28.815Y38.682
X28.778Y38.726
X28.755Y38.756
X28.675Y38.86
X28.627Y38.927
X28.595Y38.974
X28.575Y39.006
X28.505Y39.118
X28.465Y39.189
X28.438Y39.239
X28.421Y39.273
X28.363Y39.391
X28.33Y39.466
X28.308Y39.519
X28.295Y39.554
X28.249Y39.678
X28.229Y39.738
X28.016Y40.408
X27.526Y41.939
X27.317Y42.588
X27.301Y42.64
X27.291Y42.676
X27.259Y42.798
X27.241Y42.875
X27.231Y42.929
X27.224Y42.965
X27.204Y43.09
X27.194Y43.168
X27.189Y43.223
X27.186Y43.259
X27.178Y43.385
X27.176Y43.464
X27.176Y43.519
X27.176Y43.556
X27.181Y43.682
X27.186Y43.761
X27.191Y43.815
X27.196Y43.852
X27.212Y43.977
X27.225Y44.055
X27.236Y44.109
X27.243Y44.145
X27.272Y44.268
X27.293Y44.344
X27.308Y44.397
X27.32Y44.431
X27.36Y44.551
X27.388Y44.625
X27.409Y44.676
X27.423Y44.709
X27.475Y44.825
X27.51Y44.896
X27.536Y44.944
X27.554Y44.976
X27.616Y45.086
X27.658Y45.153
X27.688Y45.199
X27.709Y45.229
X27.782Y45.332
X27.83Y45.395
X27.865Y45.437
X27.888Y45.465
X27.971Y45.561
X28.025Y45.619
X28.064Y45.658
X28.09Y45.683
X28.182Y45.77
X28.241Y45.823
X28.283Y45.858
X28.312Y45.88
X28.411Y45.958
X28.476Y46.005
X28.521Y46.035
X28.552Y46.055
X28.658Y46.123
X28.727Y46.163
X28.775Y46.189
X28.807Y46.206
X28.92Y46.263
X28.975Y46.289
X29.587Y46.564
X30.755Y47.087
X12.811
X12.811Y9.686
X27.75Y9.687
X27.726Y9.732
X27.7Y9.78
X27.677Y9.829
X27.661Y9.862
X27.61Y9.978
X27.58Y10.051
X27.561Y10.102
X27.549Y10.136
X27.509Y10.256
X27.486Y10.332
X27.473Y10.385
X27.464Y10.42
X27.436Y10.543
X27.421Y10.621
X27.412Y10.675
X27.407Y10.711
X27.39Y10.836
X27.383Y10.914
X27.38Y10.969
X27.378Y11.005
X27.374Y11.132
X27.374Y11.211
X27.376Y11.265
X27.378Y11.301
X27.386Y11.428
X27.394Y11.506
X27.401Y11.56
X27.407Y11.596
X27.427Y11.721
X27.443Y11.798
X27.455Y11.851
X27.464Y11.887
X27.496Y12.009
X27.514Y12.067
X28.268Y14.471
X28.285Y14.522
X28.298Y14.556
X28.341Y14.673
X28.371Y14.745
X28.393Y14.795
X28.408Y14.827
X28.463Y14.94
X28.499Y15.009
X28.526Y15.056
X28.544Y15.087
X28.609Y15.193
X28.652Y15.258
X28.683Y15.302
X28.705Y15.331
X28.78Y15.431
X28.829Y15.492
X28.864Y15.533
X28.888Y15.56
X28.972Y15.652
X29.027Y15.708
X29.065Y15.745
X29.092Y15.77
X29.185Y15.853
X29.244Y15.904
X29.287Y15.937
X29.315Y15.959
X29.376Y16.004
X29.384Y16.063
X29.362Y16.115
X29.348Y16.15
X29.301Y16.271
X29.274Y16.348
X29.257Y16.401
X29.247Y16.437
X29.212Y16.563
X29.193Y16.642
X29.181Y16.697
X29.174Y16.734
X29.152Y16.862
X29.141Y16.943
X29.135Y16.999
X29.132Y17.036
X29.123Y17.166
X29.12Y17.247
X29.12Y17.303
X29.12Y17.341
X29.124Y17.471
X29.129Y17.552
X29.135Y17.608
X29.139Y17.645
X29.156Y17.774
X29.166Y17.836
X29.475Y19.589
X29.389Y19.493
X29.334Y19.436
X29.296Y19.398
X29.269Y19.373
X29.177Y19.288
X29.118Y19.237
X29.075Y19.202
X29.047Y19.18
X28.947Y19.104
X28.883Y19.059
X28.837Y19.029
X28.807Y19.01
X28.7Y18.944
X28.632Y18.905
X28.584Y18.879
X28.551Y18.863
X28.439Y18.808
X28.367Y18.776
X28.317Y18.755
X28.283Y18.742
X28.166Y18.698
X28.091Y18.673
X28.039Y18.657
X28.004Y18.647
X27.883Y18.614
X27.807Y18.597
X27.753Y18.586
X27.718Y18.58
X27.594Y18.559
X27.516Y18.549
X27.462Y18.543
X27.426Y18.54
X27.301Y18.531
X27.222Y18.529
X27.168Y18.528
X27.132Y18.529
X27.006Y18.532
X26.928Y18.537
X26.874Y18.542
X26.838Y18.546
X26.713Y18.562
X26.636Y18.574
X26.582Y18.584
X26.547Y18.592
X26.424Y18.619
X26.348Y18.639
X26.296Y18.654
X26.262Y18.665
X26.142Y18.704
X26.069Y18.731
X26.018Y18.752
X25.985Y18.766
X25.87Y18.816
X25.799Y18.85
X25.751Y18.875
X25.719Y18.892
X25.61Y18.954
X25.543Y18.994
X25.497Y19.024
X25.467Y19.044
X25.364Y19.116
X25.301Y19.163
X25.258Y19.197
X25.231Y19.22
X25.135Y19.301
X25.09Y19.341
X24.998Y19.427
X24.397Y18.961
X24.353Y18.928
X24.324Y18.907
X24.22Y18.835
X24.154Y18.792
X24.131Y18.779
X24.145Y18.704
X24.15Y18.668
X24.169Y18.542
X24.177Y18.462
X24.181Y18.407
X24.184Y18.371
X24.189Y18.243
X24.19Y18.182
X24.19Y17.187
X24.189Y17.134
X24.188Y17.099
X24.181Y16.975
X24.175Y16.899
X24.169Y16.846
X24.164Y16.81
X24.146Y16.688
X24.132Y16.613
X24.121Y16.56
X24.113Y16.526
X24.083Y16.406
X24.062Y16.332
X24.049Y16.289
X24.064Y16.24
X24.079Y16.187
X24.088Y16.152
X24.119Y16.028
X24.135Y15.95
X24.145Y15.895
X24.15Y15.859
X24.169Y15.733
X24.177Y15.653
X24.181Y15.598
X24.184Y15.561
X24.189Y15.434
X24.19Y15.373
X24.19Y14.403
X24.189Y14.348
X24.187Y14.311
X24.181Y14.183
X24.174Y14.104
X24.167Y14.049
X24.162Y14.013
X24.143Y13.887
X24.128Y13.808
X24.116Y13.754
X24.107Y13.718
X24.076Y13.595
X24.053Y13.518
X24.036Y13.466
X24.024Y13.431
X23.981Y13.311
X23.951Y13.237
X23.929Y13.187
X23.913Y13.153
X23.858Y13.038
X23.821Y12.967
X23.794Y12.919
X23.776Y12.887
X23.709Y12.778
X23.666Y12.712
X23.634Y12.666
X23.613Y12.637
X23.536Y12.534
X23.486Y12.472
X23.45Y12.43
X23.426Y12.403
X23.34Y12.309
X23.284Y12.252
X23.244Y12.213
X23.217Y12.188
X23.122Y12.103
X23.061Y12.052
X23.017Y12.018
X22.988Y11.996
X22.885Y11.92
X22.819Y11.875
X22.773Y11.845
X22.741Y11.826
X22.632Y11.761
X22.562Y11.723
X22.512Y11.698
X22.479Y11.682
X22.364Y11.628
X22.29Y11.597
X22.239Y11.576
X22.204Y11.564
X22.084Y11.521
X22.008Y11.497
X21.955Y11.482
X21.919Y11.473
X21.795Y11.443
X21.717Y11.426
X21.663Y11.417
X21.626Y11.411
X21.5Y11.393
X21.421Y11.384
X21.366Y11.38
X21.329Y11.378
X21.202Y11.372
X21.14Y11.371
X16.5Y11.371
X16.444Y11.373
X16.408Y11.374
X16.28Y11.381
X16.201Y11.388
X16.146Y11.394
X16.11Y11.399
X15.983Y11.419
X15.905Y11.434
X15.851Y11.445
X15.815Y11.454
X15.692Y11.486
X15.615Y11.508
X15.563Y11.525
X15.528Y11.537
X15.408Y11.581
X15.334Y11.611
X15.283Y11.633
X15.25Y11.648
X15.135Y11.703
X15.064Y11.74
X15.016Y11.767
X14.984Y11.786
X14.875Y11.852
X14.808Y11.896
X14.763Y11.927
X14.733Y11.949
X14.631Y12.025
X14.569Y12.075
X14.527Y12.111
X14.5Y12.136
X14.405Y12.222
X14.348Y12.278
X14.31Y12.318
X14.285Y12.345
X14.2Y12.439
X14.149Y12.501
X14.115Y12.544
X14.092Y12.573
X14.017Y12.676
X13.972Y12.742
X13.942Y12.789
X13.923Y12.82
X13.858Y12.93
X13.82Y13
X13.795Y13.049
X13.779Y13.082
X13.725Y13.198
X13.693Y13.271
X13.673Y13.323
X13.66Y13.357
X13.618Y13.478
X13.594Y13.554
X13.579Y13.607
X13.57Y13.642
X13.539Y13.766
X13.523Y13.844
X13.514Y13.899
X13.508Y13.935
X13.49Y14.061
X13.481Y14.141
X13.477Y14.196
X13.475Y14.232
X13.469Y14.36
X13.468Y14.421
X13.468Y15.39
X13.469Y15.444
X13.471Y15.479
X13.477Y15.603
X13.484Y15.679
X13.49Y15.732
X13.494Y15.768
X13.512Y15.89
X13.526Y15.966
X13.537Y16.018
X13.545Y16.053
X13.575Y16.172
X13.596Y16.247
X13.613Y16.302
X13.594Y16.363
X13.579Y16.416
X13.57Y16.452
X13.539Y16.576
X13.523Y16.654
X13.514Y16.708
X13.508Y16.745
X13.49Y16.871
X13.481Y16.95
X13.477Y17.005
X13.475Y17.042
X13.469Y17.17
X13.468Y17.231
X13.468Y18.2
X13.469Y18.255
X13.471Y18.292
X13.478Y18.42
X13.485Y18.499
X13.491Y18.554
X13.496Y18.59
X13.516Y18.717
X13.53Y18.795
X13.542Y18.849
X13.551Y18.885
X13.582Y19.008
X13.605Y19.085
X13.622Y19.137
X13.643Y19.197
X13.606Y19.299
X13.589Y19.35
X13.564Y19.429
X13.549Y19.48
X13.502Y19.644
X13.489Y19.693
X13.47Y19.771
X13.459Y19.821
X13.423Y19.989
X13.414Y20.037
X13.401Y20.112
X13.394Y20.159
X13.369Y20.333
X13.363Y20.378
X13.355Y20.449
X13.351Y20.494
X13.336Y20.672
X13.333Y20.714
X13.328Y20.823
X13.323Y21.006
X13.323Y21.046
X13.323Y21.15
X13.329Y21.333
X13.33Y21.376
X13.337Y21.485
X13.353Y21.664
X13.357Y21.709
X13.366Y21.78
X13.372Y21.825
X13.397Y22
X13.405Y22.047
X13.419Y22.122
X13.428Y22.169
X13.464Y22.339
X13.476Y22.389
X13.496Y22.466
X13.509Y22.516
X13.556Y22.681
X13.572Y22.731
X13.598Y22.811
X13.615Y22.861
X13.644Y22.941
X13.61Y23.039
X13.594Y23.092
X13.579Y23.145
X13.57Y23.18
X13.539Y23.304
X13.523Y23.382
X13.514Y23.437
X13.508Y23.473
X13.49Y23.599
X13.481Y23.679
X13.477Y23.734
X13.475Y23.771
X13.469Y23.898
X13.468Y23.959
X13.468Y24.929
X13.469Y24.984
X13.471Y25.021
X13.478Y25.149
X13.485Y25.228
X13.491Y25.283
X13.496Y25.319
X13.516Y25.445
X13.53Y25.524
X13.542Y25.578
X13.551Y25.614
X13.57Y25.689
X13.554Y25.741
X13.525Y25.846
X13.509Y25.906
X13.499Y25.946
X13.44Y26.208
X13.429Y26.262
X13.422Y26.298
X13.4Y26.423
X13.392Y26.484
X13.353Y26.793
X13.348Y26.847
X13.338Y26.981
X13.336Y27.013
X13.323Y27.36
X13.324Y27.512
X13.338Y27.869
X13.342Y27.923
X13.354Y28.057
X13.358Y28.089
X13.393Y28.371
X13.402Y28.426
X13.408Y28.462
X13.431Y28.588
X13.443Y28.648
X13.503Y28.91
X13.519Y28.971
X13.53Y29.012
X13.556Y29.102
X13.534Y29.194
X13.523Y29.248
X13.514Y29.303
X13.508Y29.339
X13.49Y29.465
X13.481Y29.545
X13.477Y29.6
X13.475Y29.637
X13.469Y29.764
X13.468Y29.825
X13.468Y30.865
X13.469Y30.922
X13.471Y30.96
X13.478Y31.091
X13.486Y31.173
X13.493Y31.229
X13.498Y31.266
X13.518Y31.396
X13.534Y31.476
X13.546Y31.532
X13.556Y31.569
X13.589Y31.695
X13.606Y31.753
X13.579Y31.846
X13.57Y31.881
X13.539Y32.005
X13.523Y32.083
X13.514Y32.138
X13.508Y32.174
X13.49Y32.3
X13.481Y32.38
X13.477Y32.435
X13.475Y32.472
X13.469Y32.599
X13.468Y32.66
X13.468Y33.63
X13.469Y33.685
X13.471Y33.722
X13.478Y33.85
X13.485Y33.929
X13.491Y33.984
X13.494Y34.002
X13.487Y34.056
X13.481Y34.111
X13.477Y34.166
X13.475Y34.203
X13.469Y34.33
X13.468Y34.392
X13.468Y37.866
X13.469Y37.921
X13.471Y37.958
X13.478Y38.086
X13.485Y38.165
X13.491Y38.22
X13.496Y38.256
X13.516Y38.382
X13.53Y38.461
X13.542Y38.515
X13.551Y38.55
X13.582Y38.674
X13.605Y38.751
X13.622Y38.803
X13.634Y38.838
X13.662Y38.916
X13.65Y38.95
X13.61Y39.067
X13.587Y39.141
X13.573Y39.193
X13.564Y39.228
X13.536Y39.348
X13.52Y39.424
X13.511Y39.477
X13.506Y39.512
X13.488Y39.635
X13.48Y39.712
X13.476Y39.766
X13.474Y39.802
X13.469Y39.925
X13.468Y39.985
X13.468Y40.809
X13.469Y40.863
X13.471Y40.898
X13.477Y41.023
X13.484Y41.1
X13.49Y41.154
X13.495Y41.189
X13.513Y41.313
X13.527Y41.389
X13.539Y41.442
X13.547Y41.477
X13.577Y41.598
X13.598Y41.672
X13.615Y41.724
X13.626Y41.758
X13.668Y41.875
X13.696Y41.948
X13.717Y41.997
X13.732Y42.03
X13.784Y42.143
X13.82Y42.212
X13.845Y42.26
X13.863Y42.291
X13.926Y42.398
X13.968Y42.464
X13.998Y42.509
X14.019Y42.538
X14.092Y42.639
X14.14Y42.7
X14.174Y42.742
X14.198Y42.769
X14.28Y42.862
X14.333Y42.919
X14.371Y42.957
X14.397Y42.982
X14.488Y43.067
X14.547Y43.118
X14.589Y43.152
X14.617Y43.175
X14.715Y43.251
X14.779Y43.296
X14.823Y43.326
X14.853Y43.346
X14.959Y43.412
X15.026Y43.451
X15.074Y43.477
X15.105Y43.493
X15.217Y43.549
X15.287Y43.581
X15.337Y43.602
X15.37Y43.616
X15.486Y43.661
X15.543Y43.681
G0Z2
X30.119Y31.313
G1Z-0.8F75
X30.107Y31.269F150
X30.06Y31.103
X30.045Y31.052
X30.019Y30.971
X30.001Y30.92
X29.933Y30.734
X29.879Y30.601
X29.786Y30.396
X29.748Y30.319
X29.791Y30.248
X29.851Y30.141
X29.887Y30.073
X29.91Y30.025
X29.925Y29.993
X29.975Y29.881
X29.994Y29.835
X30.506Y30.871
X30.446Y30.931
X30.421Y30.956
X30.336Y31.046
X30.284Y31.103
X30.25Y31.144
X30.228Y31.172
X30.151Y31.269
X30.119Y31.313
G0Z2
X30.213Y25.184
G1Z-0.8F75
X30.213Y24.49F150
X30.212Y24.435
X30.211Y24.398
X30.204Y24.27
X30.197Y24.191
X30.19Y24.136
X30.185Y24.1
X30.166Y23.974
X30.151Y23.895
X30.139Y23.841
X30.131Y23.805
X30.099Y23.682
X30.076Y23.604
X30.099Y23.529
X30.112Y23.479
X30.121Y23.445
X30.148Y23.326
X30.163Y23.251
X30.172Y23.199
X30.177Y23.165
X30.194Y23.044
X30.202Y22.968
X30.206Y22.916
X30.207Y22.881
X30.213Y22.759
X30.213Y22.701
Y22.4
X30.247Y22.45
X30.268Y22.48
X30.343Y22.584
X30.392Y22.648
X30.427Y22.69
X30.451Y22.718
X30.535Y22.815
X30.59Y22.873
X30.63Y22.912
X30.656Y22.938
X30.75Y23.025
X30.765Y23.039
X31.02Y24.672
X30.98Y24.69
X30.866Y24.744
X30.796Y24.78
X30.748Y24.806
X30.717Y24.824
X30.609Y24.888
X30.543Y24.931
X30.498Y24.961
X30.469Y24.982
X30.367Y25.057
X30.306Y25.105
X30.264Y25.14
X30.213Y25.184
X30.568Y25.538
X30.483Y25.614
X30.44Y25.656
X30.41Y25.686
X30.389Y25.708
X30.312Y25.791
X30.273Y25.837
X30.246Y25.87
X30.228Y25.893
X30.159Y25.984
X30.124Y26.033
X30.101Y26.068
X30.085Y26.094
X30.025Y26.191
X29.995Y26.243
X29.975Y26.28
X29.962Y26.307
X29.912Y26.409
X29.887Y26.464
X29.871Y26.503
X29.86Y26.532
X29.82Y26.638
X29.801Y26.695
X29.788Y26.736
X29.78Y26.765
X29.751Y26.874
X29.737Y26.933
X29.729Y26.975
X29.723Y27.004
X29.705Y27.116
X29.697Y27.176
X29.692Y27.218
X29.687Y27.287
X29.673Y27.194
X29.665Y27.153
X29.656Y27.112
X29.65Y27.083
X29.623Y26.974
X29.607Y26.917
X29.594Y26.877
X29.585Y26.849
X29.548Y26.744
X29.526Y26.688
X29.51Y26.65
X29.498Y26.623
X29.466Y26.553
X29.5Y26.48
X29.524Y26.424
X29.54Y26.384
X29.55Y26.355
X29.589Y26.246
X29.607Y26.188
X29.619Y26.146
X29.627Y26.117
X29.654Y26.005
X29.667Y25.945
X29.674Y25.902
X29.679Y25.872
X29.696Y25.758
X29.702Y25.697
X29.706Y25.654
X29.707Y25.623
X29.713Y25.508
X29.713Y25.459
X29.713Y24.496
X29.713Y24.453
X29.711Y24.422
X29.705Y24.307
X29.7Y24.246
X29.695Y24.203
X29.691Y24.173
X29.673Y24.059
X29.662Y23.999
X29.653Y23.957
X29.646Y23.927
X29.617Y23.815
X29.6Y23.756
X29.587Y23.715
X29.577Y23.686
X29.548Y23.605
X29.565Y23.557
X29.6Y23.452
X29.617Y23.396
X29.627Y23.357
X29.654Y23.244
X29.663Y23.204
X29.671Y23.164
X29.678Y23.124
X29.694Y23.009
X29.699Y22.968
X29.703Y22.927
X29.706Y22.886
X29.712Y22.771
X29.713Y22.73
X29.713Y22.701
X29.713Y21.566
X29.713Y21.524
X29.711Y21.494
X29.706Y21.38
X29.7Y21.32
X29.695Y21.278
X29.691Y21.248
X29.675Y21.136
X29.664Y21.077
X29.655Y21.035
X29.648Y21.006
X29.62Y20.896
X29.604Y20.838
X29.591Y20.798
X29.581Y20.769
X29.543Y20.662
X29.521Y20.606
X29.504Y20.567
X29.492Y20.54
X29.444Y20.437
X29.416Y20.383
X29.396Y20.346
X29.381Y20.32
X29.323Y20.222
X29.29Y20.171
X29.267Y20.137
X29.249Y20.112
X29.182Y20.02
X29.145Y19.973
X29.118Y19.94
X29.098Y19.918
X29.022Y19.833
X28.981Y19.789
X28.951Y19.76
X28.929Y19.739
X28.845Y19.662
X28.8Y19.622
X28.767Y19.596
X28.743Y19.577
X28.653Y19.508
X28.603Y19.474
X28.568Y19.45
X28.543Y19.434
X28.446Y19.375
X28.394Y19.345
X28.356Y19.325
X28.33Y19.311
X28.228Y19.261
X28.173Y19.236
X28.134Y19.22
X28.105Y19.209
X27.999Y19.169
X27.942Y19.15
X27.902Y19.138
X27.873Y19.129
X27.763Y19.1
X27.704Y19.086
X27.663Y19.078
X27.633Y19.072
X27.521Y19.054
X27.461Y19.046
X27.419Y19.041
X27.389Y19.039
X27.276Y19.031
X27.216Y19.029
X27.173Y19.028
X27.143Y19.029
X27.03Y19.032
X26.97Y19.036
X26.928Y19.039
X26.897Y19.043
X26.785Y19.057
X26.725Y19.066
X26.684Y19.074
X26.654Y19.08
X26.543Y19.105
X26.485Y19.12
X26.444Y19.132
X26.416Y19.141
X26.308Y19.176
X26.251Y19.197
X26.212Y19.213
X26.184Y19.224
X26.08Y19.27
X26.026Y19.296
X25.988Y19.315
X25.962Y19.33
X25.863Y19.385
X25.811Y19.416
X25.775Y19.439
X25.75Y19.456
X25.657Y19.521
X25.609Y19.557
X25.576Y19.583
X25.552Y19.602
X25.466Y19.676
X25.43Y19.708
X25.026Y20.082
X24.095Y19.359
X24.061Y19.334
X24.037Y19.316
X23.943Y19.251
X23.892Y19.218
X23.856Y19.196
X23.83Y19.181
X23.73Y19.126
X23.676Y19.098
X23.638Y19.079
X23.61Y19.067
X23.542Y19.036
X23.571Y18.951
X23.584Y18.91
X23.596Y18.869
X23.603Y18.839
X23.631Y18.727
X23.643Y18.667
X23.651Y18.625
X23.656Y18.595
X23.672Y18.481
X23.679Y18.42
X23.682Y18.377
X23.684Y18.346
X23.689Y18.231
X23.69Y18.182
X23.69Y17.193
X23.689Y17.152
X23.688Y17.122
X23.683Y17.011
X23.678Y16.952
X23.673Y16.911
X23.669Y16.881
X23.653Y16.771
X23.642Y16.713
X23.634Y16.672
X23.627Y16.643
X23.6Y16.535
X23.584Y16.478
X23.572Y16.438
X23.562Y16.41
X23.526Y16.305
X23.52Y16.288
X23.557Y16.183
X23.571Y16.142
X23.584Y16.101
X23.596Y16.06
X23.603Y16.03
X23.631Y15.918
X23.643Y15.858
X23.651Y15.816
X23.656Y15.786
X23.672Y15.671
X23.679Y15.61
X23.682Y15.568
X23.684Y15.537
X23.689Y15.422
X23.69Y15.373
X23.69Y14.409
X23.689Y14.366
X23.688Y14.335
X23.682Y14.22
X23.677Y14.159
X23.672Y14.117
X23.667Y14.086
X23.65Y13.972
X23.639Y13.912
X23.63Y13.87
X23.622Y13.84
X23.594Y13.728
X23.577Y13.669
X23.563Y13.629
X23.553Y13.6
X23.514Y13.491
X23.491Y13.434
X23.474Y13.395
X23.461Y13.367
X23.412Y13.263
X23.383Y13.208
X23.362Y13.171
X23.347Y13.144
X23.287Y13.046
X23.254Y12.994
X23.229Y12.959
X23.211Y12.934
X23.142Y12.842
X23.103Y12.794
X23.076Y12.761
X23.055Y12.739
X22.977Y12.653
X22.935Y12.61
X22.904Y12.58
X22.881Y12.559
X22.795Y12.482
X22.748Y12.442
X22.715Y12.416
X22.69Y12.397
X22.597Y12.329
X22.547Y12.294
X22.51Y12.271
X22.484Y12.255
X22.385Y12.196
X22.331Y12.167
X22.293Y12.147
X22.266Y12.134
X22.161Y12.085
X22.105Y12.061
X22.065Y12.045
X22.036Y12.034
X21.927Y11.996
X21.869Y11.978
X21.827Y11.966
X21.798Y11.958
X21.686Y11.931
X21.626Y11.918
X21.583Y11.91
X21.553Y11.906
X21.439Y11.889
X21.378Y11.882
X21.335Y11.879
X21.304Y11.877
X21.189Y11.872
X21.14Y11.871
X16.506Y11.871
X16.463Y11.872
X16.432Y11.873
X16.317Y11.879
X16.256Y11.885
X16.213Y11.89
X16.183Y11.894
X16.069Y11.911
X16.009Y11.923
X15.967Y11.932
X15.937Y11.939
X15.825Y11.968
X15.766Y11.985
X15.725Y11.998
X15.696Y12.008
X15.588Y12.047
X15.531Y12.07
X15.492Y12.087
X15.464Y12.1
X15.36Y12.15
X15.305Y12.178
X15.268Y12.199
X15.241Y12.215
X15.143Y12.274
X15.091Y12.308
X15.056Y12.332
X15.031Y12.351
X14.939Y12.42
X14.891Y12.458
X14.858Y12.486
X14.835Y12.506
X14.75Y12.584
X14.706Y12.627
X14.677Y12.658
X14.656Y12.68
X14.579Y12.766
X14.539Y12.813
X14.513Y12.847
X14.494Y12.871
X14.426Y12.964
X14.391Y13.015
X14.368Y13.051
X14.352Y13.077
X14.293Y13.176
X14.263Y13.23
X14.244Y13.268
X14.231Y13.296
X14.182Y13.4
X14.158Y13.457
X14.142Y13.497
X14.131Y13.526
X14.093Y13.634
X14.074Y13.693
X14.063Y13.734
X14.055Y13.764
X14.027Y13.876
X14.015Y13.936
X14.007Y13.978
X14.002Y14.008
X13.986Y14.123
X13.979Y14.184
X13.976Y14.226
X13.974Y14.257
X13.969Y14.372
X13.968Y14.421
X13.968Y15.385
X13.969Y15.426
X13.97Y15.456
X13.976Y15.567
X13.981Y15.626
X13.985Y15.667
X13.989Y15.697
X14.006Y15.807
X14.016Y15.865
X14.025Y15.906
X14.031Y15.935
X14.058Y16.043
X14.074Y16.1
X14.087Y16.14
X14.096Y16.168
X14.133Y16.273
X14.144Y16.302
X14.131Y16.335
X14.093Y16.444
X14.074Y16.503
X14.063Y16.544
X14.055Y16.574
X14.027Y16.686
X14.015Y16.746
X14.007Y16.788
X14.002Y16.818
X13.986Y16.932
X13.979Y16.993
X13.976Y17.036
X13.974Y17.067
X13.969Y17.182
X13.968Y17.231
X13.968Y18.194
X13.969Y18.237
X13.97Y18.268
X13.976Y18.383
X13.982Y18.444
X13.987Y18.487
X13.991Y18.517
X14.008Y18.631
X14.02Y18.691
X14.029Y18.733
X14.036Y18.763
X14.064Y18.875
X14.082Y18.934
X14.095Y18.975
X14.105Y19.004
X14.144Y19.112
X14.167Y19.169
X14.179Y19.196
X14.15Y19.268
X14.134Y19.311
X14.079Y19.461
X14.065Y19.503
X14.042Y19.574
X14.029Y19.617
X13.985Y19.773
X13.975Y19.814
X13.957Y19.883
X13.948Y19.924
X13.914Y20.085
X13.906Y20.125
X13.895Y20.192
X13.888Y20.231
X13.864Y20.397
X13.86Y20.435
X13.852Y20.498
X13.849Y20.536
X13.835Y20.706
X13.832Y20.742
X13.828Y20.837
X13.823Y21.012
X13.823Y21.046
X13.823Y21.136
X13.828Y21.312
X13.83Y21.348
X13.836Y21.443
X13.85Y21.614
X13.854Y21.652
X13.861Y21.715
X13.866Y21.753
X13.891Y21.92
X13.897Y21.959
X13.909Y22.026
X13.917Y22.066
X13.952Y22.227
X13.961Y22.269
X13.979Y22.338
X13.99Y22.379
X14.034Y22.535
X14.047Y22.578
X14.071Y22.648
X14.085Y22.69
X14.14Y22.841
X14.157Y22.884
X14.18Y22.942
X14.158Y22.995
X14.142Y23.035
X14.131Y23.064
X14.093Y23.172
X14.074Y23.231
X14.063Y23.272
X14.055Y23.302
X14.027Y23.414
X14.015Y23.474
X14.007Y23.516
X14.002Y23.547
X13.986Y23.661
X13.979Y23.722
X13.976Y23.764
X13.974Y23.795
X13.969Y23.91
X13.968Y23.959
X13.968Y24.923
X13.969Y24.966
X13.97Y24.997
X13.976Y25.112
X13.982Y25.173
X13.987Y25.216
X13.991Y25.246
X14.008Y25.36
X14.02Y25.42
X14.029Y25.462
X14.036Y25.492
X14.064Y25.604
X14.082Y25.663
X14.094Y25.701
X14.06Y25.8
X14.045Y25.846
X14.035Y25.879
X14.007Y25.977
X13.995Y26.023
X13.987Y26.057
X13.929Y26.313
X13.92Y26.355
X13.914Y26.385
X13.895Y26.498
X13.888Y26.546
X13.85Y26.845
X13.846Y26.888
X13.837Y27.006
X13.836Y27.033
X13.823Y27.365
X13.824Y27.497
X13.837Y27.839
X13.84Y27.882
X13.851Y28
X13.854Y28.026
X13.889Y28.302
X13.895Y28.344
X13.9Y28.375
X13.921Y28.489
X13.931Y28.537
X13.989Y28.792
X14.001Y28.84
X14.01Y28.873
X14.039Y28.972
X14.054Y29.019
X14.065Y29.052
X14.077Y29.088
X14.063Y29.138
X14.055Y29.168
X14.027Y29.28
X14.015Y29.34
X14.007Y29.382
X14.002Y29.412
X13.986Y29.527
X13.979Y29.588
X13.976Y29.63
X13.974Y29.661
X13.969Y29.776
X13.968Y29.825
X13.968Y30.859
X13.969Y30.903
X13.97Y30.935
X13.977Y31.053
X13.982Y31.116
X13.988Y31.16
X13.992Y31.191
X14.01Y31.308
X14.022Y31.37
X14.032Y31.413
X14.04Y31.444
X14.07Y31.558
X14.088Y31.619
X14.102Y31.661
X14.113Y31.69
X14.135Y31.753
X14.093Y31.873
X14.074Y31.932
X14.063Y31.973
X14.055Y32.003
X14.027Y32.115
X14.015Y32.175
X14.007Y32.217
X14.002Y32.247
X13.986Y32.362
X13.979Y32.423
X13.976Y32.465
X13.974Y32.496
X13.969Y32.611
X13.968Y32.66
X13.968Y33.624
X13.969Y33.667
X13.97Y33.698
X13.976Y33.813
X13.982Y33.874
X13.987Y33.917
X13.999Y34.002
X13.986Y34.093
X13.979Y34.154
X13.976Y34.197
X13.974Y34.227
X13.969Y34.342
X13.968Y34.392
X13.968Y37.86
X13.969Y37.903
X13.97Y37.934
X13.976Y38.049
X13.982Y38.11
X13.987Y38.153
X13.991Y38.183
X14.008Y38.297
X14.02Y38.357
X14.029Y38.399
X14.036Y38.429
X14.064Y38.541
X14.082Y38.6
X14.095Y38.64
X14.105Y38.669
X14.144Y38.778
X14.167Y38.835
X14.184Y38.874
X14.204Y38.916
X14.163Y39.008
X14.147Y39.046
X14.132Y39.085
X14.122Y39.114
X14.086Y39.22
X14.069Y39.277
X14.057Y39.317
X14.05Y39.346
X14.024Y39.455
X14.012Y39.513
X14.005Y39.554
X14Y39.584
X13.985Y39.695
X13.979Y39.754
X13.975Y39.796
X13.974Y39.825
X13.969Y39.937
X13.968Y39.985
X13.968Y40.803
X13.969Y40.845
X13.97Y40.875
X13.976Y40.987
X13.981Y41.047
X13.986Y41.088
X13.99Y41.118
X14.006Y41.229
X14.017Y41.288
X14.026Y41.329
X14.033Y41.358
X14.06Y41.467
X14.076Y41.525
X14.089Y41.565
X14.098Y41.593
X14.136Y41.699
X14.158Y41.755
X14.174Y41.794
X14.186Y41.821
X14.234Y41.923
X14.261Y41.977
X14.281Y42.013
X14.295Y42.039
X14.352Y42.136
X14.384Y42.187
X14.408Y42.222
X14.425Y42.246
X14.491Y42.338
X14.528Y42.385
X14.554Y42.417
X14.574Y42.44
X14.648Y42.524
X14.689Y42.568
X14.719Y42.597
X14.741Y42.618
X14.823Y42.695
X14.868Y42.735
X14.9Y42.761
X14.924Y42.78
X15.013Y42.849
X15.061Y42.884
X15.096Y42.907
X15.121Y42.923
X15.216Y42.983
X15.268Y43.013
X15.305Y43.033
X15.331Y43.047
X15.432Y43.098
X15.486Y43.123
X15.525Y43.139
X15.553Y43.15
X15.658Y43.191
X15.703Y43.207
X20.337Y44.77
X20.378Y44.784
X20.408Y44.792
X20.521Y44.824
X20.582Y44.838
X20.625Y44.847
X20.655Y44.853
X20.771Y44.873
X20.833Y44.882
X20.876Y44.886
X20.907Y44.889
X21.024Y44.897
X21.086Y44.9
X21.13Y44.9
X21.161Y44.9
X21.278Y44.896
X21.341Y44.892
X21.384Y44.888
X21.415Y44.885
X21.531Y44.87
X21.593Y44.86
X21.636Y44.851
X21.666Y44.845
X21.78Y44.818
X21.841Y44.802
X21.882Y44.79
X21.912Y44.78
X22.023Y44.742
X22.081Y44.72
X22.122Y44.704
X22.15Y44.691
X22.257Y44.642
X22.313Y44.615
X22.351Y44.594
X22.378Y44.579
X22.48Y44.52
X22.533Y44.487
X22.569Y44.462
X22.594Y44.444
X22.689Y44.376
X22.739Y44.337
X22.772Y44.309
X22.796Y44.289
X22.883Y44.211
X22.929Y44.168
X22.959Y44.137
X22.981Y44.114
X23.06Y44.028
X23.101Y43.981
X23.128Y43.947
X23.147Y43.922
X23.218Y43.829
X23.253Y43.777
X23.277Y43.741
X23.294Y43.714
X23.355Y43.614
X23.385Y43.56
X23.405Y43.521
X23.419Y43.493
X23.47Y43.387
X23.494Y43.33
X23.511Y43.289
X23.522Y43.26
X23.561Y43.15
X23.58Y43.091
X23.592Y43.049
X23.6Y43.018
X23.629Y42.905
X23.642Y42.844
X23.65Y42.801
X23.655Y42.77
X23.672Y42.654
X23.679Y42.592
X23.682Y42.548
X23.684Y42.517
X23.689Y42.4
X23.69Y42.35
X23.69Y41.38
X23.689Y41.337
X23.688Y41.306
X23.682Y41.191
X23.676Y41.129
X23.671Y41.086
X23.667Y41.056
X23.65Y40.941
X23.638Y40.88
X23.629Y40.838
X23.622Y40.808
X23.593Y40.696
X23.575Y40.637
X23.562Y40.595
X23.552Y40.566
X23.512Y40.457
X23.489Y40.4
X23.478Y40.375
X23.497Y40.331
X23.513Y40.29
X23.524Y40.261
X23.563Y40.152
X23.582Y40.093
X23.594Y40.051
X23.602Y40.021
X23.63Y39.908
X23.643Y39.847
X23.65Y39.805
X23.655Y39.774
X23.672Y39.659
X23.679Y39.597
X23.682Y39.554
X23.684Y39.523
X23.689Y39.407
X23.69Y39.357
X23.69Y38.387
X23.689Y38.343
X23.688Y38.312
X23.682Y38.195
X23.675Y38.124
X23.679Y38.085
X23.682Y38.043
X23.684Y38.012
X23.689Y37.897
X23.69Y37.849
X23.691Y37.367
X23.819Y37.393
X23.855Y37.4
X23.914Y37.41
X23.95Y37.415
X24.131Y37.441
X24.166Y37.445
X24.26Y37.455
X24.444Y37.471
X24.479Y37.473
X24.574Y37.478
X24.76Y37.483
X24.795Y37.483
X24.89Y37.483
X25.076Y37.477
X25.111Y37.476
X25.206Y37.47
X25.389Y37.454
X25.425Y37.45
X25.52Y37.439
X25.7Y37.413
X25.736Y37.407
X25.796Y37.397
X25.831Y37.39
X26.008Y37.354
X26.044Y37.346
X26.104Y37.332
X26.139Y37.323
X26.312Y37.277
X26.348Y37.267
X26.408Y37.249
X26.444Y37.238
X26.612Y37.182
X26.648Y37.17
X26.708Y37.148
X26.744Y37.134
X26.907Y37.069
X26.944Y37.054
X27.004Y37.028
X27.039Y37.012
X27.197Y36.937
X27.233Y36.919
X27.293Y36.888
X27.329Y36.869
X27.48Y36.785
X27.516Y36.764
X27.576Y36.728
X27.611Y36.706
X27.756Y36.613
X27.791Y36.589
X27.851Y36.548
X27.885Y36.522
X28.023Y36.42
X28.058Y36.393
X28.116Y36.346
X28.15Y36.317
X28.278Y36.206
X28.311Y36.177
X28.365Y36.127
X28.397Y36.096
X28.511Y35.982
X28.542Y35.95
X28.594Y35.894
X28.624Y35.861
X28.729Y35.74
X28.759Y35.704
X28.807Y35.644
X28.835Y35.608
X28.944Y35.462
X29.014Y35.36
X29.124Y35.187
X29.187Y35.081
X29.273Y34.921
X29.294Y34.88
X29.328Y34.811
X29.347Y34.77
X29.412Y34.625
X29.43Y34.583
X29.458Y34.513
X29.474Y34.472
X29.529Y34.321
X29.543Y34.28
X29.565Y34.21
X29.578Y34.168
X29.623Y34.013
X29.634Y33.972
X29.651Y33.903
X29.66Y33.862
X29.695Y33.702
X29.703Y33.662
X29.715Y33.595
X29.721Y33.555
X29.746Y33.39
X29.751Y33.352
X29.759Y33.288
X29.762Y33.249
X29.777Y33.08
X29.78Y33.044
X29.783Y32.982
X29.784Y32.945
X29.789Y32.772
X29.79Y32.739
X29.789Y32.648
X29.784Y32.47
X29.783Y32.435
X29.777Y32.343
X29.763Y32.17
X29.759Y32.133
X29.752Y32.07
X29.748Y32.033
X29.724Y31.866
X29.717Y31.826
X29.705Y31.759
X29.698Y31.72
X29.664Y31.557
X29.654Y31.516
X29.637Y31.446
X29.626Y31.404
X29.582Y31.247
X29.568Y31.204
X29.545Y31.132
X29.531Y31.09
X29.468Y30.917
X29.421Y30.801
X29.336Y30.613
X29.279Y30.499
X29.181Y30.318
X29.161Y30.285
X29.207Y30.225
X29.224Y30.201
X29.288Y30.11
X29.32Y30.06
X29.342Y30.025
X29.4Y29.923
X29.42Y29.887
X29.439Y29.85
X29.457Y29.813
X29.47Y29.787
X29.515Y29.685
X29.538Y29.63
X29.552Y29.592
X29.562Y29.564
X29.598Y29.459
X29.615Y29.402
X29.626Y29.362
X29.633Y29.334
X29.658Y29.225
X29.67Y29.168
X29.677Y29.127
X29.682Y29.098
X29.697Y28.988
X29.703Y28.929
X29.706Y28.887
X29.708Y28.858
X29.713Y28.747
X29.713Y28.7
Y27.887
X29.726Y27.954
X29.732Y27.984
X29.757Y28.095
X29.772Y28.153
X29.784Y28.194
X29.793Y28.223
X29.828Y28.33
X29.849Y28.387
X29.865Y28.426
X29.877Y28.454
X29.922Y28.558
X29.943Y28.602
X31.131Y31.007
X31.048Y31.067
X31.015Y31.092
X30.983Y31.119
X30.96Y31.138
X30.876Y31.211
X30.832Y31.252
X30.802Y31.281
X30.782Y31.302
X30.705Y31.383
X30.665Y31.427
X30.639Y31.459
X30.62Y31.482
X30.551Y31.57
X30.516Y31.618
X30.492Y31.652
X30.476Y31.677
X30.415Y31.771
X30.385Y31.822
X30.365Y31.859
X30.351Y31.885
X30.3Y31.984
X30.274Y32.038
X30.258Y32.076
X30.246Y32.103
X30.205Y32.207
X30.185Y32.263
X30.172Y32.303
X30.163Y32.331
X30.132Y32.438
X30.117Y32.496
X30.108Y32.536
X30.102Y32.565
X30.08Y32.675
X30.073Y32.722
X29.675Y35.426
X29.67Y35.468
X29.666Y35.497
X29.656Y35.609
X29.652Y35.669
X29.651Y35.711
X29.65Y35.74
X29.65Y35.853
X29.653Y35.912
X29.655Y35.954
X29.658Y35.984
X29.668Y36.095
X29.676Y36.155
X29.683Y36.196
X29.688Y36.225
X29.71Y36.335
X29.723Y36.394
X29.733Y36.434
X29.742Y36.463
X29.773Y36.57
X29.792Y36.627
X29.807Y36.666
X29.817Y36.694
X29.859Y36.798
X29.883Y36.853
X29.901Y36.89
X29.915Y36.917
X29.966Y37.017
X29.996Y37.069
X30.009Y37.092
X29.99Y37.185
X29.982Y37.226
X29.942Y37.458
X29.936Y37.5
X29.927Y37.571
X29.922Y37.613
X29.898Y37.845
X29.894Y37.888
X29.89Y37.96
X29.888Y38.003
X29.88Y38.234
X29.879Y38.278
X29.88Y38.351
X29.881Y38.395
X29.882Y38.441
X29.818Y38.477
X29.781Y38.501
X29.744Y38.525
X29.717Y38.542
X29.62Y38.61
X29.57Y38.648
X29.535Y38.676
X29.511Y38.696
X29.421Y38.774
X29.374Y38.817
X29.343Y38.848
X29.321Y38.871
X29.239Y38.957
X29.197Y39.004
X29.169Y39.038
X29.149Y39.063
X29.077Y39.157
X29.04Y39.208
X29.015Y39.245
X28.998Y39.272
X28.935Y39.373
X28.904Y39.428
X28.883Y39.467
X28.869Y39.495
X28.817Y39.601
X28.791Y39.659
X28.774Y39.7
X28.763Y39.73
X28.722Y39.841
X28.706Y39.889
X28.493Y40.56
X28.002Y42.092
X27.795Y42.736
X27.782Y42.776
X27.774Y42.806
X27.745Y42.916
X27.731Y42.975
X27.723Y43.017
X27.718Y43.047
X27.699Y43.16
X27.691Y43.22
X27.687Y43.263
X27.685Y43.293
X27.677Y43.407
X27.676Y43.468
X27.676Y43.511
X27.676Y43.541
X27.68Y43.655
X27.684Y43.716
X27.688Y43.759
X27.692Y43.789
X27.706Y43.902
X27.716Y43.962
X27.725Y44.004
X27.731Y44.034
X27.757Y44.145
X27.773Y44.204
X27.785Y44.245
X27.794Y44.274
X27.831Y44.382
X27.852Y44.439
X27.868Y44.478
X27.88Y44.506
X27.927Y44.611
X27.954Y44.665
X27.974Y44.703
X27.988Y44.73
X28.045Y44.829
X28.077Y44.881
X28.101Y44.916
X28.118Y44.941
X28.184Y45.035
X28.221Y45.083
X28.248Y45.116
X28.267Y45.139
X28.342Y45.226
X28.384Y45.27
X28.414Y45.301
X28.435Y45.322
X28.518Y45.401
X28.564Y45.441
X28.597Y45.468
X28.62Y45.487
X28.711Y45.558
X28.76Y45.593
X28.795Y45.617
X28.821Y45.634
X28.917Y45.695
X28.97Y45.726
X29.007Y45.746
X29.034Y45.76
X29.136Y45.812
X29.18Y45.832
X29.792Y46.107
X33.093Y47.587
X12.311
X12.311Y9.186
X28.803Y9.186
X28.754Y9.226
X28.722Y9.255
X28.7Y9.275
X28.618Y9.354
X28.575Y9.397
X28.546Y9.429
X28.526Y9.451
X28.451Y9.538
X28.413Y9.585
X28.388Y9.619
X28.37Y9.643
X28.304Y9.736
X28.271Y9.787
X28.248Y9.824
X28.233Y9.85
X28.176Y9.949
X28.148Y10.003
X28.13Y10.041
X28.117Y10.068
X28.07Y10.172
X28.047Y10.229
X28.032Y10.269
X28.022Y10.297
X27.986Y10.405
X27.969Y10.464
X27.958Y10.505
X27.951Y10.534
X27.925Y10.645
X27.913Y10.705
X27.907Y10.747
X27.902Y10.777
X27.888Y10.89
X27.882Y10.951
X27.879Y10.993
X27.878Y11.023
X27.874Y11.137
X27.874Y11.198
X27.875Y11.241
X27.877Y11.271
X27.884Y11.385
X27.89Y11.445
X27.896Y11.487
X27.9Y11.517
X27.919Y11.63
X27.931Y11.69
X27.94Y11.731
X27.947Y11.76
X27.977Y11.871
X27.991Y11.917
X28.743Y14.316
X28.757Y14.356
X28.767Y14.384
X28.806Y14.49
X28.829Y14.545
X28.846Y14.583
X28.859Y14.611
X28.908Y14.712
X28.936Y14.765
X28.957Y14.802
X28.972Y14.828
X29.031Y14.924
X29.064Y14.974
X29.088Y15.009
X29.106Y15.033
X29.173Y15.123
X29.211Y15.17
X29.238Y15.202
X29.258Y15.224
X29.334Y15.307
X29.376Y15.35
X29.406Y15.38
X29.428Y15.4
X29.512Y15.476
X29.558Y15.514
X29.591Y15.54
X29.615Y15.559
X29.705Y15.626
X29.755Y15.66
X29.79Y15.683
X29.84Y15.714
X29.901Y16.144
X29.869Y16.207
X29.842Y16.264
X29.825Y16.304
X29.813Y16.333
X29.77Y16.443
X29.75Y16.502
X29.737Y16.544
X29.728Y16.574
X29.696Y16.687
X29.681Y16.748
X29.672Y16.79
X29.667Y16.821
X29.647Y16.937
X29.638Y16.999
X29.633Y17.043
X29.631Y17.074
X29.622Y17.191
X29.62Y17.254
X29.62Y17.297
X29.62Y17.329
X29.624Y17.446
X29.627Y17.509
X29.632Y17.552
X29.635Y17.583
X29.65Y17.7
X29.658Y17.749
X30.267Y21.201
X30.275Y21.243
X30.282Y21.273
X30.308Y21.386
X30.324Y21.445
X30.336Y21.486
X30.346Y21.516
X30.383Y21.625
X30.405Y21.683
X30.421Y21.723
X30.433Y21.751
X30.481Y21.857
X30.508Y21.912
X30.529Y21.95
X30.544Y21.977
X30.601Y22.077
X30.634Y22.129
X30.658Y22.165
X30.676Y22.19
X30.743Y22.285
X30.781Y22.333
X30.808Y22.367
X30.828Y22.39
X30.904Y22.477
X30.946Y22.522
X30.977Y22.552
X30.999Y22.574
X31.084Y22.653
X31.13Y22.693
X31.163Y22.721
X31.213Y22.76
X31.232Y22.789
X31.581Y25.006
X31.529Y25.02
X31.489Y25.032
X31.448Y25.045
X31.42Y25.054
X31.313Y25.093
X31.257Y25.115
X31.218Y25.131
X31.19Y25.144
X31.087Y25.192
X31.034Y25.22
X30.997Y25.24
X30.97Y25.255
X30.873Y25.313
X30.822Y25.346
X30.787Y25.369
X30.762Y25.387
X30.671Y25.454
X30.623Y25.491
X30.591Y25.518
X30.568Y25.538
X30.9Y25.912
X30.824Y25.98
X30.793Y26.009
X30.772Y26.031
X30.699Y26.109
X30.678Y26.132
X30.659Y26.155
X30.64Y26.178
X30.574Y26.263
X30.556Y26.288
X30.539Y26.312
X30.522Y26.337
X30.465Y26.429
X30.45Y26.454
X30.435Y26.481
X30.421Y26.507
X30.373Y26.604
X30.36Y26.631
X30.348Y26.659
X30.336Y26.686
X30.298Y26.787
X30.287Y26.815
X30.278Y26.844
X30.269Y26.873
X30.241Y26.977
X30.233Y27.006
X30.226Y27.035
X30.22Y27.065
X30.202Y27.171
X30.197Y27.201
X30.194Y27.231
X30.19Y27.261
X30.182Y27.368
X30.181Y27.398
X30.18Y27.428
X30.18Y27.458
X30.182Y27.566
X30.183Y27.596
X30.185Y27.626
X30.188Y27.656
X30.201Y27.763
X30.205Y27.793
X30.21Y27.823
X30.215Y27.852
X30.238Y27.957
X30.245Y27.987
X30.253Y28.016
X30.261Y28.045
X30.294Y28.147
X30.304Y28.176
X30.315Y28.204
X30.326Y28.232
X30.369Y28.331
X30.381Y28.358
X30.392Y28.38
X31.79Y31.209
X31.692Y31.253
X31.655Y31.272
X31.629Y31.286
X31.537Y31.338
X31.512Y31.354
X31.486Y31.369
X31.462Y31.386
X31.375Y31.447
X31.351Y31.464
X31.328Y31.483
X31.305Y31.501
X31.224Y31.57
X31.202Y31.59
X31.181Y31.61
X31.159Y31.631
X31.086Y31.707
X31.066Y31.729
X31.046Y31.751
X31.027Y31.774
X30.961Y31.857
X30.943Y31.88
X30.926Y31.904
X30.909Y31.929
X30.851Y32.018
X30.835Y32.043
X30.82Y32.068
X30.806Y32.094
X30.757Y32.188
X30.744Y32.215
X30.731Y32.242
X30.719Y32.269
X30.679Y32.367
X30.669Y32.394
X30.659Y32.422
X30.649Y32.451
X30.619Y32.552
X30.611Y32.581
X30.604Y32.609
X30.597Y32.638
X30.576Y32.742
X30.571Y32.771
X30.568Y32.795
X30.17Y35.493
X30.167Y35.523
X30.156Y35.629
X30.153Y35.658
X30.152Y35.688
X30.151Y35.718
X30.15Y35.824
X30.151Y35.854
X30.152Y35.884
X30.154Y35.914
X30.163Y36.019
X30.166Y36.049
X30.17Y36.079
X30.175Y36.108
X30.195Y36.213
X30.201Y36.242
X30.208Y36.271
X30.215Y36.3
X30.245Y36.402
X30.253Y36.43
X30.263Y36.459
X30.273Y36.487
X30.312Y36.585
X30.324Y36.613
X30.336Y36.64
X30.349Y36.667
X30.397Y36.762
X30.411Y36.788
X30.426Y36.814
X30.441Y36.84
X30.499Y36.929
X30.515Y36.954
X30.532Y36.979
X30.546Y36.997
X30.501Y37.185
X30.494Y37.218
X30.481Y37.278
X30.475Y37.311
X30.437Y37.535
X30.431Y37.568
X30.423Y37.63
X30.419Y37.664
X30.396Y37.887
X30.393Y37.922
X30.389Y37.985
X30.387Y38.02
X30.38Y38.242
X30.379Y38.277
X30.38Y38.342
X30.38Y38.377
X30.388Y38.598
X30.39Y38.633
X30.395Y38.699
X30.4Y38.747
X30.368Y38.76
X30.271Y38.802
X30.231Y38.821
X30.203Y38.836
X30.18Y38.848
X30.088Y38.899
X30.05Y38.922
X30.023Y38.939
X30.002Y38.953
X29.915Y39.014
X29.88Y39.041
X29.855Y39.06
X29.836Y39.077
X29.755Y39.146
X29.723Y39.176
X29.7Y39.198
X29.682Y39.216
X29.609Y39.293
X29.58Y39.326
X29.56Y39.35
X29.544Y39.37
X29.479Y39.454
X29.453Y39.49
X29.435Y39.516
X29.422Y39.537
X29.366Y39.628
X29.344Y39.666
X29.329Y39.694
X29.317Y39.716
X29.27Y39.812
X29.252Y39.852
X29.24Y39.881
X29.231Y39.905
X29.194Y40.004
X29.182Y40.04
X28.969Y40.712
X28.478Y42.245
X28.272Y42.883
X28.263Y42.912
X28.235Y43.017
X28.228Y43.046
X28.221Y43.076
X28.215Y43.106
X28.197Y43.213
X28.192Y43.243
X28.189Y43.273
X28.186Y43.303
X28.178Y43.411
X28.176Y43.442
X28.176Y43.472
X28.175Y43.502
X28.178Y43.611
X28.18Y43.641
X28.182Y43.671
X28.185Y43.702
X28.198Y43.809
X28.203Y43.839
X28.208Y43.869
X28.213Y43.899
X28.237Y44.005
X28.244Y44.034
X28.252Y44.064
X28.261Y44.093
X28.295Y44.196
X28.305Y44.224
X28.316Y44.253
X28.327Y44.281
X28.371Y44.38
X28.384Y44.407
X28.398Y44.435
X28.412Y44.462
X28.465Y44.556
X28.48Y44.582
X28.496Y44.608
X28.513Y44.633
X28.575Y44.722
X28.593Y44.747
X28.612Y44.771
X28.631Y44.795
X28.701Y44.877
X28.721Y44.9
X28.742Y44.922
X28.764Y44.943
X28.842Y45.018
X28.864Y45.039
X28.887Y45.059
X28.91Y45.079
X28.995Y45.146
X29.019Y45.164
X29.044Y45.182
X29.069Y45.199
X29.16Y45.258
X29.186Y45.274
X29.213Y45.289
X29.239Y45.303
X29.336Y45.353
X29.363Y45.366
X29.385Y45.376
X29.996Y45.651
X34.843Y47.823
X34.87Y47.92
X34.879Y47.949
X34.888Y47.978
X34.898Y48.007
X34.929Y48.087
X11.811
X11.811Y8.686
X31.353Y8.686
X29.772Y9.21
X29.744Y9.22
X29.643Y9.259
X29.615Y9.27
X29.587Y9.282
X29.559Y9.295
X29.463Y9.344
X29.436Y9.358
X29.409Y9.372
X29.383Y9.388
X29.292Y9.445
X29.266Y9.462
X29.241Y9.479
X29.217Y9.497
X29.131Y9.563
X29.107Y9.582
X29.084Y9.602
X29.062Y9.622
X28.983Y9.696
X28.961Y9.717
X28.94Y9.739
X28.919Y9.761
X28.848Y9.843
X28.829Y9.866
X28.81Y9.89
X28.791Y9.914
X28.729Y10.002
X28.711Y10.027
X28.695Y10.052
X28.679Y10.078
X28.625Y10.172
X28.61Y10.198
X28.596Y10.225
X28.583Y10.252
X28.538Y10.351
X28.526Y10.378
X28.515Y10.407
X28.504Y10.435
X28.469Y10.537
X28.46Y10.566
X28.451Y10.595
X28.443Y10.625
X28.418Y10.73
X28.412Y10.76
X28.406Y10.789
X28.401Y10.819
X28.387Y10.926
X28.383Y10.957
X28.38Y10.987
X28.378Y11.017
X28.374Y11.125
X28.374Y11.155
X28.374Y11.186
X28.375Y11.216
X28.381Y11.324
X28.384Y11.354
X28.387Y11.384
X28.39Y11.415
X28.407Y11.521
X28.413Y11.551
X28.419Y11.581
X28.425Y11.61
X28.452Y11.715
X28.461Y11.744
X28.468Y11.768
X29.219Y14.16
X29.228Y14.189
X29.265Y14.289
X29.276Y14.317
X29.287Y14.345
X29.299Y14.372
X29.345Y14.469
X29.359Y14.495
X29.373Y14.522
X29.388Y14.548
X29.443Y14.64
X29.459Y14.665
X29.475Y14.69
X29.492Y14.715
X29.556Y14.8
X29.574Y14.824
X29.593Y14.848
X29.613Y14.87
X29.684Y14.95
X29.705Y14.972
X29.726Y14.993
X29.747Y15.014
X29.826Y15.086
X29.849Y15.106
X29.872Y15.125
X29.895Y15.144
X29.981Y15.208
X30.005Y15.225
X30.03Y15.242
X30.055Y15.259
X30.146Y15.315
X30.172Y15.33
X30.198Y15.344
X30.225Y15.358
X30.3Y15.395
X30.405Y16.139
X30.41Y16.169
X30.422Y16.235
X30.4Y16.271
X30.378Y16.31
X30.367Y16.332
X30.319Y16.425
X30.3Y16.465
X30.288Y16.494
X30.278Y16.517
X30.24Y16.615
X30.225Y16.656
X30.216Y16.686
X30.209Y16.71
X30.18Y16.811
X30.17Y16.853
X30.164Y16.884
X30.159Y16.909
X30.141Y17.012
X30.135Y17.056
X30.131Y17.087
X30.129Y17.112
X30.122Y17.216
X30.12Y17.26
X30.12Y17.291
X30.12Y17.316
X30.123Y17.421
X30.126Y17.465
X30.128Y17.496
X30.131Y17.521
X30.145Y17.625
X30.151Y17.663
X30.758Y21.108
X30.764Y21.138
X30.769Y21.162
X30.793Y21.263
X30.804Y21.304
X30.812Y21.334
X30.82Y21.357
X30.853Y21.455
X30.868Y21.496
X30.88Y21.524
X30.89Y21.547
X30.932Y21.641
X30.951Y21.68
X30.966Y21.707
X30.978Y21.729
X31.029Y21.818
X31.052Y21.855
X31.069Y21.88
X31.083Y21.901
X31.143Y21.985
X31.17Y22.019
X31.189Y22.043
X31.205Y22.062
X31.273Y22.139
X31.303Y22.171
X31.324Y22.193
X31.342Y22.21
X31.418Y22.281
X31.45Y22.309
X31.474Y22.329
X31.493Y22.344
X31.575Y22.407
X31.593Y22.42
X31.643Y22.503
X31.666Y22.539
X31.683Y22.565
X31.712Y22.604
X31.718Y22.66
X31.722Y22.684
X32.152Y25.424
X32.068Y25.429
X32.026Y25.432
X31.996Y25.436
X31.889Y25.451
X31.859Y25.456
X31.83Y25.461
X31.8Y25.468
X31.696Y25.493
X31.666Y25.501
X31.637Y25.509
X31.609Y25.518
X31.507Y25.554
X31.479Y25.564
X31.451Y25.576
X31.423Y25.587
X31.325Y25.633
X31.298Y25.646
X31.271Y25.66
X31.245Y25.674
X31.152Y25.728
X31.126Y25.744
X31.101Y25.76
X31.076Y25.777
X30.989Y25.84
X30.965Y25.859
X30.941Y25.877
X30.918Y25.897
X30.9Y25.912
X31.231Y26.287
X31.16Y26.35
X31.147Y26.363
X31.134Y26.375
X31.069Y26.445
X31.057Y26.459
X31.045Y26.472
X31.033Y26.486
X30.975Y26.562
X30.964Y26.577
X30.954Y26.591
X30.944Y26.606
X30.893Y26.687
X30.884Y26.703
X30.875Y26.719
X30.866Y26.734
X30.824Y26.82
X30.816Y26.836
X30.808Y26.853
X30.801Y26.869
X30.767Y26.959
X30.761Y26.976
X30.755Y26.993
X30.75Y27.01
X30.725Y27.102
X30.72Y27.12
X30.716Y27.137
X30.712Y27.155
X30.696Y27.249
X30.693Y27.267
X30.691Y27.285
X30.689Y27.303
X30.682Y27.398
X30.68Y27.416
X30.68Y27.434
X30.68Y27.452
X30.682Y27.548
X30.682Y27.566
X30.683Y27.584
X30.685Y27.602
X30.696Y27.697
X30.699Y27.715
X30.701Y27.733
X30.705Y27.75
X30.725Y27.844
X30.729Y27.861
X30.734Y27.879
X30.739Y27.896
X30.768Y27.987
X30.774Y28.004
X30.78Y28.021
X30.787Y28.038
X30.825Y28.126
X30.832Y28.142
X30.84Y28.159
X32.514Y31.546
X32.469Y31.549
X32.451Y31.55
X32.433Y31.552
X32.34Y31.565
X32.323Y31.568
X32.305Y31.571
X32.288Y31.574
X32.197Y31.596
X32.179Y31.6
X32.162Y31.605
X32.145Y31.61
X32.056Y31.641
X32.039Y31.647
X32.023Y31.653
X32.006Y31.66
X31.921Y31.699
X31.904Y31.706
X31.888Y31.714
X31.873Y31.722
X31.791Y31.769
X31.776Y31.778
X31.761Y31.787
X31.746Y31.797
X31.669Y31.851
X31.655Y31.862
X31.641Y31.873
X31.627Y31.884
X31.555Y31.945
X31.542Y31.957
X31.529Y31.969
X31.516Y31.981
X31.451Y32.049
X31.439Y32.062
X31.427Y32.075
X31.415Y32.089
X31.357Y32.162
X31.346Y32.176
X31.336Y32.191
X31.325Y32.205
X31.274Y32.284
X31.265Y32.299
X31.256Y32.315
X31.247Y32.33
X31.203Y32.413
X31.195Y32.429
X31.188Y32.445
X31.18Y32.462
X31.145Y32.548
X31.139Y32.565
X31.133Y32.582
X31.127Y32.599
X31.1Y32.689
X31.095Y32.706
X31.091Y32.723
X31.086Y32.74
X31.068Y32.833
X31.065Y32.85
X31.062Y32.868
X30.666Y35.56
X30.664Y35.578
X30.654Y35.672
X30.652Y35.69
X30.651Y35.707
X30.651Y35.725
X30.65Y35.82
X30.65Y35.838
X30.651Y35.855
X30.652Y35.873
X30.66Y35.967
X30.662Y35.985
X30.665Y36.003
X30.667Y36.02
X30.685Y36.113
X30.688Y36.131
X30.692Y36.148
X30.697Y36.166
X30.723Y36.256
X30.728Y36.273
X30.734Y36.29
X30.74Y36.307
X30.775Y36.395
X30.781Y36.411
X30.789Y36.428
X30.796Y36.444
X30.839Y36.528
X30.847Y36.544
X30.856Y36.559
X30.865Y36.575
X30.916Y36.654
X30.926Y36.669
X30.936Y36.684
X30.947Y36.698
X31.005Y36.773
X31.016Y36.787
X31.028Y36.8
X31.039Y36.814
X31.1Y36.878
X31.068Y36.981
X31.061Y37.004
X31.047Y37.055
X31.041Y37.079
X30.989Y37.294
X30.983Y37.319
X30.972Y37.371
X30.968Y37.396
X30.931Y37.611
X30.927Y37.636
X30.919Y37.69
X30.916Y37.715
X30.894Y37.93
X30.892Y37.956
X30.888Y38.011
X30.887Y38.036
X30.88Y38.25
X30.879Y38.277
X30.879Y38.333
X30.88Y38.359
X30.888Y38.571
X30.889Y38.597
X30.893Y38.654
X30.896Y38.681
X30.918Y38.89
X30.922Y38.917
X30.93Y38.975
X30.934Y39.002
X30.956Y39.122
X30.922Y39.126
X30.903Y39.128
X30.884Y39.131
X30.787Y39.151
X30.768Y39.155
X30.75Y39.159
X30.731Y39.164
X30.636Y39.194
X30.618Y39.2
X30.6Y39.206
X30.582Y39.213
X30.49Y39.252
X30.473Y39.26
X30.456Y39.268
X30.439Y39.276
X30.351Y39.324
X30.335Y39.334
X30.319Y39.344
X30.303Y39.354
X30.221Y39.41
X30.205Y39.421
X30.19Y39.433
X30.175Y39.445
X30.099Y39.509
X30.085Y39.522
X30.071Y39.535
X30.057Y39.548
X29.988Y39.62
X29.975Y39.634
X29.963Y39.648
X29.95Y39.662
X29.889Y39.741
X29.877Y39.756
X29.866Y39.772
X29.856Y39.787
X29.802Y39.872
X29.793Y39.888
X29.783Y39.904
X29.774Y39.921
X29.73Y40.01
X29.721Y40.028
X29.714Y40.045
X29.706Y40.062
X29.671Y40.156
X29.665Y40.174
X29.659Y40.192
X29.445Y40.864
X28.954Y42.398
X28.75Y43.031
X28.745Y43.048
X28.719Y43.141
X28.715Y43.159
X28.711Y43.176
X28.707Y43.194
X28.691Y43.289
X28.688Y43.307
X28.686Y43.325
X28.684Y43.343
X28.677Y43.439
X28.676Y43.457
X28.676Y43.476
X28.675Y43.494
X28.678Y43.59
X28.679Y43.608
X28.68Y43.627
X28.682Y43.645
X28.693Y43.74
X28.696Y43.758
X28.699Y43.776
X28.702Y43.794
X28.723Y43.888
X28.728Y43.906
X28.732Y43.923
X28.737Y43.941
X28.768Y44.032
X28.774Y44.049
X28.78Y44.066
X28.787Y44.083
X28.826Y44.171
X28.833Y44.188
X28.841Y44.204
X28.85Y44.22
X28.897Y44.304
X28.906Y44.32
X28.916Y44.335
X28.926Y44.351
X28.981Y44.43
X28.991Y44.444
X29.002Y44.459
X29.014Y44.473
X29.076Y44.546
X29.088Y44.56
X29.101Y44.573
X29.113Y44.586
X29.183Y44.653
X29.196Y44.665
X29.21Y44.677
X29.224Y44.689
X29.299Y44.749
X29.314Y44.76
X29.328Y44.771
X29.343Y44.781
X29.424Y44.833
X29.44Y44.843
X29.456Y44.852
X29.472Y44.861
X29.557Y44.905
X29.573Y44.913
X29.59Y44.92
X30.201Y45.195
X35.29Y47.475
X35.292Y47.503
X35.294Y47.522
X35.297Y47.54
X35.313Y47.634
X35.317Y47.652
X35.32Y47.67
X35.325Y47.688
X35.35Y47.78
X35.355Y47.798
X35.361Y47.815
X35.367Y47.832
X35.401Y47.922
X35.408Y47.939
X35.415Y47.955
X35.423Y47.972
X35.466Y48.058
X35.474Y48.074
X35.483Y48.09
X35.492Y48.106
X35.543Y48.187
X35.553Y48.202
X35.563Y48.217
X35.574Y48.232
X35.633Y48.308
X35.644Y48.322
X35.656Y48.336
X35.668Y48.35
X35.733Y48.419
X35.746Y48.433
X35.759Y48.445
X35.772Y48.458
X35.845Y48.521
X35.859Y48.533
X35.873Y48.544
X35.887Y48.555
X35.931Y48.587
X11.311
X11.311Y8.186
X34.447Y8.186
X29.935Y9.683
X29.918Y9.689
X29.829Y9.723
X29.812Y9.73
X29.795Y9.737
X29.778Y9.744
X29.693Y9.787
X29.677Y9.796
X29.661Y9.805
X29.645Y9.814
X29.564Y9.865
X29.548Y9.875
X29.533Y9.885
X29.518Y9.896
X29.443Y9.954
X29.428Y9.966
X29.414Y9.977
X29.401Y9.989
X29.331Y10.055
X29.318Y10.068
X29.305Y10.081
X29.293Y10.094
X29.229Y10.166
X29.218Y10.18
X29.206Y10.194
X29.195Y10.209
X29.139Y10.287
X29.129Y10.302
X29.119Y10.317
X29.109Y10.332
X29.061Y10.415
X29.052Y10.431
X29.044Y10.447
X29.036Y10.464
X28.996Y10.551
X28.989Y10.568
X28.982Y10.585
X28.975Y10.602
X28.944Y10.692
X28.939Y10.71
X28.933Y10.727
X28.929Y10.745
X28.907Y10.838
X28.903Y10.856
X28.899Y10.874
X28.896Y10.892
X28.883Y10.987
X28.881Y11.005
X28.879Y11.023
X28.878Y11.041
X28.874Y11.137
X28.874Y11.155
X28.874Y11.173
X28.874Y11.192
X28.88Y11.287
X28.881Y11.305
X28.883Y11.324
X28.885Y11.342
X28.9Y11.436
X28.903Y11.454
X28.907Y11.472
X28.911Y11.49
X28.935Y11.583
X28.939Y11.6
X28.945Y11.618
X29.694Y14.005
X29.699Y14.022
X29.732Y14.111
X29.738Y14.128
X29.745Y14.145
X29.752Y14.161
X29.793Y14.247
X29.801Y14.263
X29.81Y14.279
X29.818Y14.294
X29.867Y14.376
X29.877Y14.391
X29.887Y14.406
X29.897Y14.421
X29.953Y14.497
X29.964Y14.511
X29.976Y14.525
X29.987Y14.539
X30.051Y14.609
X30.063Y14.623
X30.076Y14.636
X30.088Y14.648
X30.158Y14.712
X30.172Y14.724
X30.186Y14.736
X30.2Y14.747
X30.275Y14.804
X30.29Y14.815
X30.305Y14.825
X30.32Y14.835
X30.401Y14.884
X30.416Y14.893
X30.432Y14.902
X30.448Y14.911
X30.533Y14.952
X30.549Y14.96
X30.566Y14.967
X30.583Y14.974
X30.671Y15.007
X30.688Y15.013
X30.705Y15.019
X30.723Y15.024
X30.754Y15.032
X30.899Y16.063
X30.902Y16.081
X30.919Y16.174
X30.923Y16.192
X30.927Y16.21
X30.932Y16.227
X30.958Y16.319
X30.963Y16.335
X30.925Y16.383
X30.914Y16.398
X30.903Y16.413
X30.849Y16.496
X30.839Y16.512
X30.829Y16.528
X30.82Y16.544
X30.774Y16.632
X30.766Y16.649
X30.758Y16.666
X30.75Y16.683
X30.714Y16.775
X30.707Y16.792
X30.701Y16.81
X30.695Y16.828
X30.668Y16.923
X30.663Y16.941
X30.659Y16.959
X30.655Y16.978
X30.637Y17.075
X30.634Y17.093
X30.632Y17.112
X30.63Y17.131
X30.622Y17.229
X30.621Y17.248
X30.62Y17.267
X30.62Y17.285
X30.622Y17.384
X30.623Y17.403
X30.624Y17.422
X30.625Y17.44
X30.637Y17.539
X30.64Y17.557
X30.643Y17.576
X31.25Y21.015
X31.253Y21.033
X31.274Y21.128
X31.279Y21.146
X31.283Y21.164
X31.289Y21.181
X31.319Y21.274
X31.325Y21.291
X31.332Y21.308
X31.339Y21.326
X31.378Y21.415
X31.386Y21.431
X31.394Y21.448
X31.403Y21.464
X31.451Y21.549
X31.46Y21.565
X31.47Y21.58
X31.48Y21.596
X31.536Y21.675
X31.547Y21.69
X31.558Y21.705
X31.57Y21.719
X31.634Y21.793
X31.646Y21.806
X31.659Y21.82
X31.672Y21.833
X31.742Y21.9
X31.756Y21.912
X31.77Y21.925
X31.784Y21.936
X31.861Y21.996
X31.876Y22.007
X31.891Y22.018
X31.906Y22.028
X31.976Y22.072
X31.994Y22.111
X32.003Y22.128
X32.011Y22.144
X32.061Y22.228
X32.07Y22.244
X32.08Y22.259
X32.09Y22.275
X32.148Y22.353
X32.159Y22.368
X32.17Y22.382
X32.182Y22.397
X32.198Y22.415
X32.199Y22.436
X32.199Y22.455
X32.201Y22.473
X32.211Y22.57
X32.213Y22.588
X32.216Y22.606
X32.692Y25.64
X32.696Y25.658
X32.715Y25.753
X32.719Y25.771
X32.724Y25.789
X32.728Y25.807
X32.757Y25.9
X32.765Y25.922
X32.229
X32.211Y25.922
X32.116Y25.927
X32.098Y25.928
X32.08Y25.929
X32.062Y25.931
X31.967Y25.945
X31.949Y25.948
X31.932Y25.951
X31.914Y25.954
X31.821Y25.977
X31.804Y25.982
X31.786Y25.987
X31.769Y25.992
X31.679Y26.023
X31.662Y26.03
X31.645Y26.036
X31.628Y26.043
X31.542Y26.083
X31.525Y26.091
X31.509Y26.099
X31.493Y26.108
X31.411Y26.156
X31.395Y26.166
X31.38Y26.175
X31.365Y26.185
X31.288Y26.241
X31.273Y26.252
X31.259Y26.263
X31.245Y26.275
X31.231Y26.287
G0Z2
X29.173Y25.865
G1Z-0.8F75
X29.181Y25.823F150
X29.197Y25.715
X29.201Y25.684
X29.204Y25.654
X29.207Y25.623
X29.212Y25.514
X29.213Y25.484
X29.213Y25.459
X29.213Y24.502
X29.213Y24.471
X29.208Y24.362
X29.206Y24.332
X29.203Y24.301
X29.199Y24.271
X29.196Y24.246
X29.181Y24.145
X29.173Y24.102
X29.166Y24.072
X29.161Y24.048
X29.135Y23.948
X29.123Y23.907
X29.114Y23.878
X29.106Y23.855
X29.071Y23.758
X29.055Y23.718
X29.043Y23.69
X29.003Y23.605
X29.018Y23.573
X29.058Y23.483
X29.073Y23.445
X29.084Y23.418
X29.117Y23.319
X29.126Y23.291
X29.135Y23.263
X29.142Y23.235
X29.167Y23.134
X29.173Y23.105
X29.179Y23.077
X29.184Y23.048
X29.198Y22.945
X29.202Y22.916
X29.205Y22.886
X29.207Y22.857
X29.212Y22.753
X29.213Y22.724
X29.213Y22.701
X29.213Y21.572
X29.213Y21.542
X29.208Y21.435
X29.206Y21.404
X29.203Y21.374
X29.2Y21.344
X29.185Y21.238
X29.18Y21.208
X29.174Y21.179
X29.168Y21.149
X29.142Y21.045
X29.135Y21.016
X29.126Y20.987
X29.117Y20.958
X29.082Y20.856
X29.071Y20.828
X29.06Y20.8
X29.048Y20.772
X29.003Y20.675
X28.99Y20.648
X28.976Y20.621
X28.962Y20.594
X28.907Y20.502
X28.892Y20.476
X28.875Y20.45
X28.858Y20.425
X28.795Y20.338
X28.777Y20.314
X28.759Y20.29
X28.739Y20.267
X28.668Y20.187
X28.648Y20.164
X28.627Y20.143
X28.606Y20.121
X28.527Y20.048
X28.505Y20.028
X28.482Y20.008
X28.458Y19.989
X28.373Y19.924
X28.349Y19.906
X28.324Y19.888
X28.299Y19.872
X28.208Y19.815
X28.182Y19.799
X28.156Y19.784
X28.129Y19.77
X28.033Y19.722
X28.006Y19.709
X27.978Y19.697
X27.95Y19.685
X27.85Y19.647
X27.822Y19.637
X27.793Y19.627
X27.764Y19.618
X27.66Y19.59
X27.631Y19.582
X27.602Y19.576
X27.572Y19.57
X27.466Y19.551
X27.437Y19.546
X27.407Y19.543
X27.377Y19.539
X27.269Y19.531
X27.239Y19.53
X27.209Y19.529
X27.179Y19.528
X27.072Y19.531
X27.041Y19.532
X27.011Y19.534
X26.981Y19.536
X26.875Y19.549
X26.845Y19.553
X26.815Y19.558
X26.785Y19.564
X26.68Y19.586
X26.651Y19.593
X26.622Y19.601
X26.593Y19.609
X26.49Y19.642
X26.462Y19.652
X26.433Y19.663
X26.405Y19.674
X26.307Y19.716
X26.279Y19.729
X26.252Y19.742
X26.225Y19.756
X26.131Y19.808
X26.105Y19.823
X26.079Y19.838
X26.054Y19.855
X25.965Y19.915
X25.941Y19.933
X25.917Y19.951
X25.893Y19.97
X25.81Y20.039
X25.788Y20.058
X25.77Y20.075
X25.055Y20.737
X23.793Y19.758
X23.769Y19.74
X23.681Y19.678
X23.656Y19.661
X23.63Y19.644
X23.604Y19.629
X23.511Y19.575
X23.484Y19.561
X23.457Y19.547
X23.43Y19.534
X23.331Y19.49
X23.303Y19.478
X23.275Y19.467
X23.247Y19.457
X23.144Y19.422
X23.116Y19.413
X23.086Y19.405
X23.057Y19.397
X22.943Y19.371
X22.932Y19.344
X22.889Y19.25
X22.93Y19.18
X22.951Y19.143
X22.965Y19.115
X22.976Y19.093
X23.02Y19
X23.036Y18.961
X23.048Y18.932
X23.056Y18.909
X23.091Y18.812
X23.104Y18.771
X23.112Y18.742
X23.118Y18.718
X23.143Y18.618
X23.152Y18.576
X23.157Y18.546
X23.161Y18.521
X23.176Y18.419
X23.181Y18.377
X23.183Y18.346
X23.189Y18.237
X23.19Y18.206
X23.19Y18.182
X23.19Y17.199
X23.19Y17.17
X23.185Y17.064
X23.183Y17.035
X23.18Y17.005
X23.177Y16.976
X23.162Y16.871
X23.158Y16.842
X23.152Y16.813
X23.146Y16.784
X23.122Y16.681
X23.114Y16.653
X23.106Y16.624
X23.097Y16.596
X23.063Y16.496
X23.053Y16.468
X23.042Y16.441
X23.031Y16.413
X22.987Y16.317
X22.974Y16.288
X23.02Y16.191
X23.036Y16.151
X23.048Y16.123
X23.056Y16.1
X23.091Y16.003
X23.104Y15.962
X23.112Y15.932
X23.118Y15.909
X23.143Y15.809
X23.152Y15.767
X23.157Y15.736
X23.161Y15.712
X23.176Y15.61
X23.181Y15.567
X23.183Y15.537
X23.189Y15.428
X23.19Y15.397
X23.19Y15.373
X23.19Y14.415
X23.19Y14.384
X23.184Y14.275
X23.182Y14.245
X23.18Y14.214
X23.176Y14.184
X23.173Y14.159
X23.157Y14.058
X23.15Y14.015
X23.143Y13.985
X23.137Y13.961
X23.112Y13.862
X23.1Y13.82
X23.091Y13.791
X23.083Y13.768
X23.048Y13.671
X23.032Y13.631
X23.02Y13.603
X23.009Y13.581
X22.965Y13.488
X22.945Y13.45
X22.93Y13.423
X22.918Y13.402
X22.865Y13.313
X22.841Y13.277
X22.824Y13.252
X22.809Y13.232
X22.748Y13.15
X22.721Y13.116
X22.701Y13.093
X22.685Y13.074
X22.615Y12.998
X22.585Y12.967
X22.563Y12.946
X22.483Y12.873
X22.459Y12.852
X22.436Y12.833
X22.412Y12.814
X22.392Y12.799
X22.309Y12.738
X22.274Y12.713
X22.248Y12.697
X22.227Y12.684
X22.139Y12.631
X22.101Y12.611
X22.074Y12.597
X22.052Y12.586
X21.958Y12.542
X21.919Y12.525
X21.89Y12.514
X21.867Y12.505
X21.77Y12.471
X21.729Y12.458
X21.7Y12.449
X21.676Y12.443
X21.576Y12.418
X21.534Y12.41
X21.504Y12.404
X21.48Y12.4
X21.378Y12.385
X21.335Y12.381
X21.304Y12.378
X21.28Y12.377
X21.177Y12.372
X21.14Y12.371
X16.512Y12.371
X16.481Y12.372
X16.457Y12.373
X16.354Y12.378
X16.311Y12.382
X16.281Y12.385
X16.256Y12.389
X16.154Y12.404
X16.112Y12.412
X16.082Y12.418
X16.058Y12.424
X15.958Y12.449
X15.917Y12.461
X15.888Y12.471
X15.865Y12.479
X15.768Y12.514
X15.728Y12.53
X15.7Y12.542
X15.677Y12.552
X15.584Y12.597
X15.546Y12.616
X15.52Y12.631
X15.498Y12.644
X15.41Y12.697
X15.374Y12.72
X15.349Y12.738
X15.329Y12.752
X15.246Y12.814
X15.213Y12.841
X15.189Y12.86
X15.171Y12.877
X15.095Y12.946
X15.064Y12.976
X15.043Y12.998
X15.026Y13.016
X14.957Y13.093
X14.93Y13.126
X14.91Y13.15
X14.896Y13.169
X14.834Y13.252
X14.81Y13.287
X14.794Y13.313
X14.781Y13.334
X14.728Y13.423
X14.707Y13.46
X14.693Y13.488
X14.683Y13.51
X14.639Y13.603
X14.622Y13.642
X14.611Y13.671
X14.602Y13.694
X14.568Y13.791
X14.555Y13.832
X14.546Y13.862
X14.54Y13.885
X14.515Y13.985
X14.506Y14.027
X14.501Y14.058
X14.497Y14.082
X14.482Y14.184
X14.477Y14.226
X14.475Y14.257
X14.473Y14.282
X14.469Y14.384
X14.468Y14.421
X14.468Y15.379
X14.469Y15.408
X14.473Y15.514
X14.475Y15.543
X14.478Y15.573
X14.481Y15.602
X14.496Y15.707
X14.501Y15.736
X14.506Y15.765
X14.512Y15.794
X14.537Y15.897
X14.544Y15.926
X14.552Y15.954
X14.561Y15.983
X14.595Y16.082
X14.605Y16.11
X14.616Y16.138
X14.628Y16.165
X14.671Y16.261
X14.691Y16.302
X14.646Y16.396
X14.634Y16.424
X14.622Y16.452
X14.611Y16.481
X14.602Y16.504
X14.568Y16.601
X14.555Y16.642
X14.546Y16.671
X14.54Y16.695
X14.515Y16.795
X14.506Y16.837
X14.501Y16.867
X14.497Y16.891
X14.482Y16.993
X14.477Y17.036
X14.475Y17.067
X14.473Y17.091
X14.469Y17.194
X14.468Y17.231
X14.468Y18.188
X14.469Y18.219
X14.47Y18.243
X14.475Y18.346
X14.479Y18.389
X14.482Y18.419
X14.485Y18.444
X14.501Y18.546
X14.509Y18.588
X14.515Y18.618
X14.521Y18.642
X14.546Y18.742
X14.558Y18.783
X14.568Y18.812
X14.576Y18.835
X14.611Y18.932
X14.626Y18.972
X14.639Y19
X14.649Y19.022
X14.693Y19.116
X14.713Y19.154
X14.731Y19.185
X14.717Y19.214
X14.656Y19.351
X14.642Y19.384
X14.617Y19.447
X14.604Y19.481
X14.552Y19.624
X14.541Y19.657
X14.521Y19.72
X14.51Y19.754
X14.468Y19.901
X14.46Y19.934
X14.445Y19.995
X14.437Y20.028
X14.405Y20.181
X14.399Y20.213
X14.388Y20.272
X14.383Y20.303
X14.36Y20.462
X14.356Y20.492
X14.35Y20.548
X14.347Y20.578
X14.333Y20.741
X14.331Y20.769
X14.329Y20.822
X14.327Y20.85
X14.323Y21.019
X14.323Y21.096
X14.323Y21.123
X14.328Y21.292
X14.329Y21.32
X14.332Y21.373
X14.334Y21.401
X14.348Y21.565
X14.351Y21.595
X14.357Y21.651
X14.361Y21.681
X14.384Y21.84
X14.39Y21.871
X14.4Y21.93
X14.406Y21.962
X14.439Y22.115
X14.447Y22.148
X14.462Y22.209
X14.471Y22.242
X14.513Y22.39
X14.523Y22.424
X14.543Y22.486
X14.555Y22.52
X14.607Y22.662
X14.62Y22.696
X14.645Y22.759
X14.66Y22.793
X14.732Y22.953
X14.713Y22.988
X14.693Y23.026
X14.683Y23.048
X14.639Y23.141
X14.622Y23.181
X14.611Y23.209
X14.602Y23.232
X14.568Y23.329
X14.555Y23.37
X14.546Y23.4
X14.54Y23.423
X14.515Y23.523
X14.506Y23.565
X14.501Y23.596
X14.497Y23.62
X14.482Y23.722
X14.477Y23.765
X14.475Y23.795
X14.473Y23.82
X14.469Y23.923
X14.468Y23.959
X14.468Y24.917
X14.469Y24.948
X14.47Y24.972
X14.475Y25.075
X14.479Y25.118
X14.482Y25.148
X14.485Y25.173
X14.501Y25.275
X14.509Y25.317
X14.515Y25.347
X14.521Y25.371
X14.546Y25.47
X14.558Y25.512
X14.568Y25.541
X14.576Y25.564
X14.611Y25.661
X14.625Y25.697
X14.613Y25.729
X14.534Y25.958
X14.524Y25.99
X14.516Y26.017
X14.49Y26.108
X14.481Y26.141
X14.474Y26.168
X14.417Y26.418
X14.411Y26.448
X14.392Y26.555
X14.387Y26.585
X14.384Y26.609
X14.348Y26.898
X14.344Y26.93
X14.336Y27.031
X14.323Y27.37
X14.323Y27.483
X14.336Y27.808
X14.338Y27.841
X14.347Y27.942
X14.384Y28.233
X14.388Y28.263
X14.392Y28.288
X14.411Y28.39
X14.418Y28.426
X14.475Y28.674
X14.484Y28.708
X14.491Y28.735
X14.518Y28.827
X14.528Y28.861
X14.537Y28.887
X14.606Y29.086
X14.574Y29.178
X14.564Y29.207
X14.555Y29.236
X14.546Y29.266
X14.54Y29.289
X14.515Y29.389
X14.506Y29.431
X14.501Y29.462
X14.497Y29.486
X14.482Y29.588
X14.477Y29.63
X14.475Y29.661
X14.473Y29.686
X14.469Y29.789
X14.468Y29.825
X14.468Y30.853
X14.469Y30.884
X14.47Y30.909
X14.475Y31.015
X14.479Y31.059
X14.483Y31.091
X14.486Y31.116
X14.503Y31.22
X14.511Y31.264
X14.518Y31.294
X14.524Y31.319
X14.551Y31.421
X14.563Y31.464
X14.573Y31.494
X14.582Y31.517
X14.619Y31.617
X14.635Y31.658
X14.648Y31.686
X14.681Y31.753
X14.639Y31.842
X14.622Y31.882
X14.611Y31.91
X14.602Y31.933
X14.568Y32.03
X14.555Y32.071
X14.546Y32.101
X14.54Y32.124
X14.515Y32.224
X14.506Y32.266
X14.501Y32.297
X14.497Y32.321
X14.482Y32.423
X14.477Y32.466
X14.475Y32.496
X14.473Y32.521
X14.469Y32.624
X14.468Y32.66
X14.468Y33.618
X14.469Y33.649
X14.47Y33.673
X14.475Y33.776
X14.479Y33.819
X14.482Y33.849
X14.485Y33.874
X14.501Y33.975
X14.506Y34.002
X14.501Y34.028
X14.497Y34.052
X14.482Y34.154
X14.477Y34.197
X14.475Y34.227
X14.473Y34.252
X14.469Y34.355
X14.468Y34.392
X14.468Y37.854
X14.469Y37.885
X14.47Y37.909
X14.475Y38.012
X14.479Y38.055
X14.482Y38.085
X14.485Y38.11
X14.501Y38.211
X14.509Y38.254
X14.515Y38.284
X14.521Y38.308
X14.546Y38.407
X14.558Y38.449
X14.568Y38.478
X14.576Y38.501
X14.611Y38.598
X14.627Y38.638
X14.639Y38.666
X14.649Y38.688
X14.693Y38.781
X14.713Y38.819
X14.728Y38.846
X14.769Y38.916
X14.714Y39.012
X14.694Y39.049
X14.681Y39.076
X14.637Y39.172
X14.625Y39.2
X14.613Y39.227
X14.603Y39.255
X14.568Y39.355
X14.558Y39.383
X14.55Y39.412
X14.542Y39.441
X14.517Y39.544
X14.51Y39.573
X14.504Y39.602
X14.499Y39.631
X14.484Y39.736
X14.48Y39.766
X14.477Y39.796
X14.475Y39.825
X14.469Y39.931
X14.468Y39.961
X14.468Y39.985
X14.468Y40.797
X14.469Y40.827
X14.473Y40.933
X14.475Y40.963
X14.478Y40.993
X14.481Y41.023
X14.496Y41.128
X14.501Y41.158
X14.507Y41.187
X14.513Y41.216
X14.538Y41.32
X14.546Y41.349
X14.554Y41.378
X14.563Y41.406
X14.598Y41.507
X14.608Y41.535
X14.619Y41.563
X14.631Y41.59
X14.675Y41.687
X14.688Y41.714
X14.702Y41.741
X14.716Y41.767
X14.769Y41.859
X14.785Y41.885
X14.801Y41.91
X14.817Y41.935
X14.879Y42.022
X14.897Y42.046
X14.916Y42.069
X14.935Y42.093
X15.005Y42.173
X15.025Y42.195
X15.045Y42.217
X15.066Y42.238
X15.144Y42.311
X15.166Y42.331
X15.189Y42.351
X15.212Y42.37
X15.296Y42.436
X15.32Y42.454
X15.344Y42.471
X15.369Y42.488
X15.459Y42.545
X15.484Y42.561
X15.51Y42.576
X15.536Y42.59
X15.631Y42.638
X15.658Y42.652
X15.685Y42.664
X15.713Y42.676
X15.812Y42.715
X15.84Y42.725
X15.863Y42.733
X20.491Y44.295
X20.52Y44.304
X20.544Y44.311
X20.645Y44.339
X20.688Y44.35
X20.718Y44.356
X20.743Y44.361
X20.846Y44.379
X20.889Y44.385
X20.92Y44.388
X20.945Y44.39
X21.049Y44.398
X21.093Y44.4
X21.124Y44.4
X21.149Y44.4
X21.254Y44.397
X21.297Y44.394
X21.329Y44.391
X21.353Y44.389
X21.457Y44.375
X21.5Y44.368
X21.531Y44.363
X21.555Y44.357
X21.657Y44.334
X21.7Y44.323
X21.729Y44.314
X21.753Y44.306
X21.852Y44.272
X21.893Y44.257
X21.922Y44.245
X21.945Y44.235
X22.04Y44.192
X22.08Y44.172
X22.107Y44.158
X22.129Y44.146
X22.219Y44.093
X22.256Y44.07
X22.282Y44.052
X22.303Y44.038
X22.388Y43.977
X22.422Y43.95
X22.446Y43.93
X22.465Y43.914
X22.544Y43.844
X22.575Y43.814
X22.597Y43.792
X22.614Y43.774
X22.685Y43.697
X22.714Y43.664
X22.734Y43.64
X22.749Y43.62
X22.812Y43.536
X22.837Y43.501
X22.854Y43.475
X22.867Y43.453
X22.922Y43.364
X22.943Y43.326
X22.958Y43.298
X22.969Y43.276
X23.014Y43.181
X23.031Y43.141
X23.043Y43.112
X23.052Y43.089
X23.087Y42.991
X23.101Y42.949
X23.109Y42.919
X23.116Y42.895
X23.141Y42.793
X23.151Y42.751
X23.156Y42.72
X23.16Y42.695
X23.176Y42.592
X23.181Y42.548
X23.183Y42.517
X23.185Y42.492
X23.19Y42.388
X23.19Y42.35
X23.19Y41.387
X23.19Y41.356
X23.189Y41.331
X23.183Y41.228
X23.18Y41.185
X23.176Y41.154
X23.173Y41.129
X23.157Y41.027
X23.149Y40.984
X23.142Y40.954
X23.137Y40.93
X23.111Y40.83
X23.099Y40.788
X23.089Y40.759
X23.081Y40.736
X23.046Y40.638
X23.03Y40.598
X23.018Y40.57
X23.007Y40.548
X22.962Y40.454
X22.942Y40.416
X22.927Y40.389
X22.919Y40.375
X22.94Y40.338
X22.961Y40.299
X22.972Y40.277
X23.016Y40.183
X23.033Y40.143
X23.045Y40.115
X23.054Y40.091
X23.089Y39.993
X23.102Y39.952
X23.11Y39.922
X23.117Y39.898
X23.142Y39.797
X23.151Y39.755
X23.157Y39.724
X23.161Y39.7
X23.176Y39.597
X23.181Y39.554
X23.183Y39.523
X23.185Y39.498
X23.19Y39.394
X23.19Y39.357
X23.19Y38.393
X23.19Y38.362
X23.189Y38.337
X23.183Y38.232
X23.179Y38.189
X23.176Y38.158
X23.171Y38.124
X23.178Y38.073
X23.181Y38.043
X23.183Y38.012
X23.189Y37.903
X23.19Y37.872
X23.19Y37.848
Y36.712
X23.355Y36.766
X23.383Y36.775
X23.436Y36.79
X23.465Y36.798
X23.631Y36.842
X23.66Y36.849
X23.712Y36.861
X23.741Y36.867
X23.911Y36.902
X23.939Y36.907
X23.992Y36.916
X24.02Y36.92
X24.194Y36.945
X24.222Y36.948
X24.274Y36.954
X24.303Y36.957
X24.479Y36.972
X24.508Y36.974
X24.588Y36.978
X24.767Y36.983
X24.795Y36.983
X24.876Y36.983
X25.054Y36.978
X25.083Y36.976
X25.163Y36.971
X25.34Y36.956
X25.368Y36.953
X25.421Y36.947
X25.449Y36.944
X25.622Y36.919
X25.651Y36.914
X25.704Y36.905
X25.732Y36.9
X25.902Y36.865
X25.93Y36.859
X25.983Y36.847
X26.012Y36.84
X26.178Y36.796
X26.206Y36.788
X26.259Y36.772
X26.287Y36.763
X26.449Y36.71
X26.478Y36.7
X26.531Y36.681
X26.559Y36.67
X26.715Y36.608
X26.744Y36.595
X26.797Y36.572
X26.826Y36.559
X26.976Y36.488
X27.005Y36.474
X27.058Y36.447
X27.086Y36.432
X27.231Y36.352
X27.26Y36.335
X27.312Y36.303
X27.34Y36.286
X27.478Y36.197
X27.507Y36.178
X27.559Y36.142
X27.587Y36.122
X27.717Y36.025
X27.745Y36.003
X27.796Y35.961
X27.823Y35.938
X27.945Y35.833
X27.971Y35.81
X28.019Y35.766
X28.044Y35.741
X28.152Y35.634
X28.177Y35.608
X28.223Y35.559
X28.247Y35.532
X28.346Y35.418
X28.37Y35.39
X28.412Y35.337
X28.435Y35.308
X28.535Y35.173
X28.595Y35.087
X28.696Y34.93
X28.749Y34.839
X28.829Y34.691
X28.845Y34.659
X28.875Y34.598
X28.891Y34.565
X28.952Y34.428
X28.966Y34.395
X28.991Y34.333
X29.004Y34.3
X29.056Y34.157
X29.068Y34.124
X29.087Y34.063
X29.098Y34.03
X29.14Y33.882
X29.149Y33.85
X29.164Y33.789
X29.172Y33.756
X29.205Y33.604
X29.211Y33.572
X29.222Y33.513
X29.227Y33.481
X29.25Y33.324
X29.254Y33.293
X29.261Y33.237
X29.264Y33.206
X29.278Y33.044
X29.28Y33.015
X29.283Y32.961
X29.285Y32.931
X29.289Y32.765
X29.29Y32.688
X29.289Y32.661
X29.285Y32.49
X29.284Y32.462
X29.279Y32.384
X29.265Y32.218
X29.263Y32.188
X29.256Y32.133
X29.253Y32.103
X29.23Y31.944
X29.225Y31.912
X29.214Y31.853
X29.208Y31.822
X29.176Y31.668
X29.168Y31.634
X29.153Y31.573
X29.145Y31.54
X29.103Y31.391
X29.092Y31.357
X29.072Y31.294
X29.06Y31.259
X29.002Y31.1
X28.962Y31.001
X28.886Y30.83
X28.837Y30.733
X28.748Y30.569
X28.693Y30.476
X28.591Y30.318
X28.528Y30.229
X28.558Y30.201
X28.63Y30.132
X28.658Y30.103
X28.678Y30.081
X28.747Y30.001
X28.766Y29.978
X28.784Y29.955
X28.802Y29.931
X28.863Y29.846
X28.879Y29.821
X28.895Y29.796
X28.911Y29.771
X28.963Y29.68
X28.978Y29.654
X28.991Y29.628
X29.004Y29.602
X29.048Y29.506
X29.06Y29.479
X29.071Y29.451
X29.081Y29.424
X29.116Y29.324
X29.125Y29.296
X29.133Y29.268
X29.141Y29.239
X29.166Y29.137
X29.172Y29.108
X29.178Y29.079
X29.183Y29.05
X29.198Y28.946
X29.202Y28.917
X29.205Y28.887
X29.207Y28.858
X29.212Y28.753
X29.213Y28.723
X29.213Y28.7
X29.213Y27.641
X29.213Y27.611
X29.208Y27.506
X29.206Y27.476
X29.204Y27.446
X29.2Y27.417
X29.185Y27.312
X29.181Y27.282
X29.175Y27.253
X29.169Y27.224
X29.144Y27.121
X29.137Y27.092
X29.129Y27.064
X29.12Y27.035
X29.085Y26.935
X29.075Y26.907
X29.064Y26.879
X29.053Y26.852
X29.009Y26.756
X28.996Y26.729
X28.983Y26.702
X28.969Y26.676
X28.916Y26.584
X28.897Y26.553
X28.954Y26.458
X28.974Y26.42
X28.988Y26.393
X28.999Y26.371
X29.043Y26.277
X29.06Y26.238
X29.071Y26.209
X29.079Y26.186
X29.114Y26.089
X29.127Y26.048
X29.135Y26.019
X29.142Y25.995
X29.166Y25.895
X29.173Y25.865
X28.684Y25.761
X28.687Y25.743
X28.701Y25.648
X28.704Y25.629
X28.706Y25.611
X28.708Y25.593
X28.713Y25.496
X28.713Y25.477
X28.713Y25.459
Y24.508
X28.713Y24.49
X28.709Y24.393
X28.708Y24.375
X28.706Y24.356
X28.704Y24.338
X28.69Y24.242
X28.687Y24.224
X28.684Y24.206
X28.68Y24.188
X28.657Y24.094
X28.652Y24.076
X28.647Y24.058
X28.641Y24.041
X28.609Y23.949
X28.602Y23.932
X28.595Y23.915
X28.588Y23.898
X28.547Y23.81
X28.539Y23.794
X28.53Y23.778
X28.522Y23.761
X28.472Y23.678
X28.462Y23.663
X28.452Y23.647
X28.442Y23.632
X28.422Y23.604
X28.466Y23.541
X28.475Y23.526
X28.484Y23.512
X28.53Y23.431
X28.538Y23.416
X28.547Y23.4
X28.554Y23.384
X28.592Y23.3
X28.599Y23.284
X28.606Y23.268
X28.612Y23.251
X28.642Y23.164
X28.648Y23.147
X28.653Y23.13
X28.657Y23.113
X28.679Y23.024
X28.683Y23.006
X28.686Y22.989
X28.689Y22.972
X28.703Y22.88
X28.705Y22.863
X28.707Y22.846
X28.708Y22.828
X28.713Y22.736
X28.713Y22.718
X28.713Y22.701
Y21.578
X28.713Y21.56
X28.709Y21.465
X28.708Y21.447
X28.706Y21.429
X28.704Y21.411
X28.691Y21.316
X28.688Y21.298
X28.685Y21.281
X28.681Y21.263
X28.658Y21.17
X28.654Y21.153
X28.649Y21.135
X28.643Y21.118
X28.612Y21.028
X28.606Y21.011
X28.599Y20.994
X28.592Y20.977
X28.552Y20.891
X28.544Y20.874
X28.536Y20.858
X28.528Y20.842
X28.479Y20.76
X28.47Y20.744
X28.46Y20.729
X28.45Y20.714
X28.394Y20.637
X28.384Y20.622
X28.372Y20.608
X28.361Y20.594
X28.298Y20.523
X28.286Y20.509
X28.273Y20.496
X28.26Y20.483
X28.191Y20.418
X28.177Y20.406
X28.164Y20.394
X28.15Y20.382
X28.074Y20.324
X28.06Y20.314
X28.045Y20.303
X28.03Y20.293
X27.949Y20.242
X27.933Y20.233
X27.918Y20.224
X27.902Y20.215
X27.816Y20.173
X27.8Y20.165
X27.784Y20.158
X27.767Y20.151
X27.678Y20.116
X27.661Y20.11
X27.644Y20.104
X27.626Y20.099
X27.534Y20.074
X27.517Y20.069
X27.499Y20.065
X27.482Y20.061
X27.388Y20.045
X27.37Y20.042
X27.352Y20.04
X27.334Y20.038
X27.239Y20.03
X27.221Y20.029
X27.203Y20.029
X27.184Y20.028
X27.089Y20.03
X27.071Y20.031
X27.053Y20.032
X27.035Y20.034
X26.94Y20.045
X26.922Y20.047
X26.904Y20.05
X26.887Y20.053
X26.793Y20.073
X26.776Y20.078
X26.758Y20.082
X26.741Y20.087
X26.65Y20.116
X26.633Y20.122
X26.616Y20.128
X26.599Y20.135
X26.511Y20.172
X26.495Y20.18
X26.478Y20.188
X26.462Y20.196
X26.379Y20.242
X26.363Y20.251
X26.348Y20.26
X26.332Y20.27
X26.254Y20.324
X26.239Y20.334
X26.224Y20.345
X26.21Y20.356
X26.137Y20.417
X26.123Y20.429
X26.11Y20.441
X25.084Y21.392
X23.492Y20.157
X23.477Y20.146
X23.399Y20.091
X23.384Y20.08
X23.369Y20.07
X23.353Y20.061
X23.27Y20.014
X23.254Y20.005
X23.238Y19.997
X23.221Y19.989
X23.134Y19.95
X23.117Y19.942
X23.1Y19.936
X23.083Y19.929
X22.993Y19.899
X22.975Y19.893
X22.958Y19.888
X22.94Y19.884
X22.847Y19.862
X22.829Y19.858
X22.811Y19.855
X22.793Y19.852
X22.698Y19.84
X22.68Y19.838
X22.662Y19.836
X22.644Y19.835
X22.581Y19.833
X22.566Y19.789
X22.513Y19.643
X22.481Y19.561
X22.412Y19.407
X22.372Y19.327
X22.305Y19.203
X22.326Y19.179
X22.338Y19.165
X22.35Y19.151
X22.408Y19.073
X22.419Y19.058
X22.429Y19.043
X22.439Y19.028
X22.489Y18.945
X22.498Y18.929
X22.507Y18.913
X22.516Y18.896
X22.557Y18.809
X22.565Y18.792
X22.572Y18.775
X22.579Y18.758
X22.612Y18.667
X22.618Y18.649
X22.623Y18.632
X22.629Y18.614
X22.652Y18.52
X22.657Y18.502
X22.66Y18.484
X22.664Y18.466
X22.678Y18.37
X22.681Y18.352
X22.683Y18.334
X22.684Y18.315
X22.689Y18.219
X22.69Y18.2
X22.69Y18.182
Y17.205
X22.69Y17.187
X22.686Y17.094
X22.685Y17.076
X22.683Y17.058
X22.681Y17.041
X22.668Y16.948
X22.666Y16.93
X22.662Y16.913
X22.659Y16.895
X22.637Y16.804
X22.633Y16.787
X22.628Y16.77
X22.623Y16.753
X22.592Y16.665
X22.586Y16.648
X22.58Y16.631
X22.573Y16.615
X22.535Y16.529
X22.527Y16.513
X22.519Y16.497
X22.511Y16.482
X22.464Y16.4
X22.455Y16.385
X22.446Y16.37
X22.436Y16.355
X22.389Y16.289
X22.419Y16.249
X22.429Y16.234
X22.439Y16.218
X22.489Y16.135
X22.498Y16.119
X22.507Y16.103
X22.516Y16.087
X22.557Y15.999
X22.565Y15.983
X22.572Y15.966
X22.579Y15.949
X22.612Y15.858
X22.618Y15.84
X22.623Y15.823
X22.629Y15.805
X22.652Y15.711
X22.657Y15.693
X22.66Y15.675
X22.664Y15.657
X22.678Y15.561
X22.681Y15.543
X22.683Y15.525
X22.684Y15.506
X22.689Y15.409
X22.69Y15.391
X22.69Y15.373
Y14.421
X22.69Y14.403
X22.685Y14.306
X22.684Y14.288
X22.683Y14.269
X22.681Y14.251
X22.667Y14.155
X22.664Y14.137
X22.66Y14.119
X22.657Y14.101
X22.633Y14.007
X22.629Y13.989
X22.623Y13.971
X22.618Y13.954
X22.585Y13.862
X22.579Y13.845
X22.572Y13.828
X22.565Y13.811
X22.524Y13.724
X22.516Y13.707
X22.507Y13.691
X22.498Y13.674
X22.449Y13.591
X22.439Y13.576
X22.429Y13.56
X22.419Y13.545
X22.361Y13.467
X22.35Y13.452
X22.338Y13.438
X22.326Y13.424
X22.262Y13.352
X22.249Y13.338
X22.236Y13.325
X22.223Y13.312
X22.151Y13.247
X22.138Y13.235
X22.123Y13.223
X22.109Y13.212
X22.031Y13.154
X22.016Y13.143
X22.001Y13.133
X21.986Y13.122
X21.903Y13.072
X21.887Y13.063
X21.871Y13.054
X21.854Y13.046
X21.767Y13.004
X21.75Y12.997
X21.733Y12.989
X21.716Y12.982
X21.625Y12.95
X21.608Y12.944
X21.59Y12.938
X21.572Y12.933
X21.478Y12.909
X21.461Y12.905
X21.443Y12.901
X21.424Y12.898
X21.329Y12.883
X21.31Y12.881
X21.292Y12.879
X21.274Y12.877
X21.177Y12.872
X21.159Y12.872
X21.14Y12.871
X16.518
X16.5Y12.872
X16.403Y12.876
X16.384Y12.877
X16.366Y12.879
X16.348Y12.881
X16.252Y12.895
X16.234Y12.898
X16.216Y12.901
X16.198Y12.905
X16.104Y12.928
X16.086Y12.933
X16.068Y12.938
X16.051Y12.944
X15.959Y12.976
X15.942Y12.982
X15.925Y12.989
X15.908Y12.997
X15.82Y13.038
X15.804Y13.046
X15.787Y13.054
X15.771Y13.063
X15.688Y13.113
X15.672Y13.122
X15.657Y13.133
X15.642Y13.143
X15.564Y13.2
X15.549Y13.212
X15.535Y13.223
X15.521Y13.235
X15.449Y13.3
X15.435Y13.312
X15.422Y13.325
X15.409Y13.338
X15.344Y13.41
X15.332Y13.424
X15.32Y13.438
X15.308Y13.452
X15.25Y13.53
X15.24Y13.545
X15.229Y13.56
X15.219Y13.576
X15.169Y13.659
X15.16Y13.674
X15.151Y13.691
X15.143Y13.707
X15.101Y13.794
X15.093Y13.811
X15.086Y13.828
X15.079Y13.845
X15.046Y13.936
X15.04Y13.954
X15.035Y13.971
X15.03Y13.989
X15.006Y14.083
X15.002Y14.101
X14.998Y14.119
X14.994Y14.137
X14.98Y14.233
X14.978Y14.251
X14.976Y14.269
X14.974Y14.288
X14.969Y14.384
X14.968Y14.403
X14.968Y14.421
Y15.373
X14.968Y15.39
X14.973Y15.484
X14.974Y15.502
X14.975Y15.52
X14.977Y15.537
X14.99Y15.63
X14.993Y15.648
X14.996Y15.665
X14.999Y15.683
X15.021Y15.774
X15.026Y15.791
X15.03Y15.808
X15.036Y15.825
X15.066Y15.914
X15.072Y15.931
X15.078Y15.947
X15.085Y15.964
X15.124Y16.049
X15.131Y16.065
X15.139Y16.081
X15.148Y16.097
X15.194Y16.178
X15.203Y16.193
X15.213Y16.208
X15.222Y16.223
X15.278Y16.302
X15.24Y16.355
X15.229Y16.37
X15.219Y16.385
X15.169Y16.468
X15.16Y16.484
X15.151Y16.5
X15.143Y16.517
X15.101Y16.604
X15.093Y16.621
X15.086Y16.638
X15.079Y16.655
X15.046Y16.746
X15.04Y16.764
X15.035Y16.781
X15.03Y16.799
X15.006Y16.893
X15.002Y16.911
X14.998Y16.929
X14.994Y16.947
X14.98Y17.043
X14.978Y17.061
X14.976Y17.079
X14.974Y17.097
X14.969Y17.194
X14.968Y17.213
X14.968Y17.231
Y18.182
X14.968Y18.2
X14.973Y18.297
X14.974Y18.315
X14.976Y18.334
X14.978Y18.352
X14.992Y18.448
X14.994Y18.466
X14.998Y18.484
X15.002Y18.502
X15.025Y18.596
X15.03Y18.614
X15.035Y18.632
X15.04Y18.649
X15.073Y18.741
X15.079Y18.758
X15.086Y18.775
X15.093Y18.792
X15.135Y18.88
X15.143Y18.896
X15.151Y18.913
X15.16Y18.929
X15.21Y19.012
X15.219Y19.028
X15.229Y19.043
X15.24Y19.058
X15.297Y19.136
X15.312Y19.155
X15.298Y19.179
X15.218Y19.327
X15.18Y19.406
X15.116Y19.547
X15.105Y19.572
X15.084Y19.626
X15.074Y19.652
X15.025Y19.786
X15.016Y19.811
X14.999Y19.865
X14.991Y19.89
X14.952Y20.03
X14.945Y20.054
X14.932Y20.107
X14.926Y20.132
X14.896Y20.277
X14.891Y20.301
X14.882Y20.352
X14.878Y20.375
X14.856Y20.526
X14.853Y20.549
X14.848Y20.597
X14.845Y20.62
X14.832Y20.776
X14.831Y20.797
X14.828Y20.843
X14.827Y20.864
X14.823Y21.026
X14.823Y21.089
X14.823Y21.109
X14.827Y21.271
X14.828Y21.293
X14.831Y21.338
X14.832Y21.359
X14.845Y21.515
X14.848Y21.538
X14.853Y21.586
X14.856Y21.609
X14.878Y21.76
X14.882Y21.783
X14.891Y21.834
X14.896Y21.858
X14.926Y22.003
X14.932Y22.028
X14.945Y22.081
X14.952Y22.105
X14.991Y22.245
X14.999Y22.27
X15.016Y22.324
X15.025Y22.349
X15.074Y22.483
X15.084Y22.509
X15.105Y22.563
X15.116Y22.588
X15.18Y22.73
X15.218Y22.808
X15.298Y22.956
X15.314Y22.983
X15.297Y23.005
X15.24Y23.083
X15.229Y23.098
X15.219Y23.114
X15.169Y23.197
X15.16Y23.213
X15.151Y23.229
X15.143Y23.245
X15.101Y23.333
X15.093Y23.349
X15.086Y23.366
X15.079Y23.383
X15.046Y23.475
X15.04Y23.492
X15.035Y23.509
X15.03Y23.527
X15.006Y23.621
X15.002Y23.639
X14.998Y23.657
X14.994Y23.675
X14.98Y23.771
X14.978Y23.789
X14.976Y23.807
X14.974Y23.826
X14.969Y23.923
X14.968Y23.941
X14.968Y23.959
Y24.911
X14.968Y24.929
X14.973Y25.026
X14.974Y25.044
X14.976Y25.063
X14.978Y25.081
X14.992Y25.177
X14.994Y25.195
X14.998Y25.213
X15.002Y25.231
X15.025Y25.325
X15.03Y25.343
X15.035Y25.361
X15.04Y25.378
X15.073Y25.47
X15.079Y25.487
X15.086Y25.504
X15.093Y25.521
X15.135Y25.609
X15.143Y25.625
X15.151Y25.641
X15.16Y25.658
X15.175Y25.684
X15.153Y25.73
X15.14Y25.758
X15.097Y25.864
X15.086Y25.893
X15.009Y26.115
X15.002Y26.134
X14.996Y26.154
X14.972Y26.239
X14.967Y26.259
X14.962Y26.279
X14.906Y26.523
X14.902Y26.541
X14.885Y26.636
X14.882Y26.654
X14.88Y26.672
X14.844Y26.955
X14.836Y27.056
X14.823Y27.375
X14.823Y27.468
X14.836Y27.783
X14.844Y27.885
X14.879Y28.164
X14.882Y28.182
X14.898Y28.278
X14.902Y28.296
X14.906Y28.314
X14.961Y28.556
X14.966Y28.576
X14.971Y28.596
X14.996Y28.682
X15.002Y28.702
X15.009Y28.722
X15.091Y28.956
X15.102Y28.985
X15.15Y29.097
X15.143Y29.111
X15.101Y29.198
X15.093Y29.215
X15.086Y29.232
X15.079Y29.249
X15.046Y29.34
X15.04Y29.358
X15.035Y29.375
X15.03Y29.393
X15.006Y29.487
X15.002Y29.505
X14.998Y29.523
X14.994Y29.541
X14.98Y29.637
X14.978Y29.655
X14.976Y29.673
X14.974Y29.692
X14.969Y29.789
X14.968Y29.807
X14.968Y29.825
Y30.846
X14.968Y30.865
X14.973Y30.965
X14.974Y30.984
X14.976Y31.003
X14.978Y31.021
X14.993Y31.12
X14.996Y31.139
X15Y31.157
X15.004Y31.176
X15.028Y31.272
X15.033Y31.29
X15.039Y31.309
X15.044Y31.327
X15.079Y31.42
X15.085Y31.438
X15.093Y31.455
X15.1Y31.473
X15.144Y31.562
X15.152Y31.579
X15.161Y31.596
X15.171Y31.612
X15.223Y31.697
X15.233Y31.713
X15.244Y31.729
X15.262Y31.754
X15.24Y31.784
X15.229Y31.799
X15.219Y31.815
X15.169Y31.898
X15.16Y31.914
X15.151Y31.93
X15.143Y31.946
X15.101Y32.034
X15.093Y32.05
X15.086Y32.067
X15.079Y32.084
X15.046Y32.175
X15.04Y32.193
X15.035Y32.21
X15.03Y32.228
X15.006Y32.322
X15.002Y32.34
X14.998Y32.358
X14.994Y32.376
X14.98Y32.472
X14.978Y32.49
X14.976Y32.508
X14.974Y32.527
X14.969Y32.624
X14.968Y32.642
X14.968Y32.66
Y33.612
X14.968Y33.63
X14.973Y33.727
X14.974Y33.745
X14.976Y33.764
X14.978Y33.782
X14.992Y33.878
X14.994Y33.896
X14.998Y33.914
X15.002Y33.932
X15.019Y34.002
X15.002Y34.071
X14.998Y34.089
X14.994Y34.107
X14.98Y34.203
X14.978Y34.221
X14.976Y34.24
X14.974Y34.258
X14.969Y34.355
X14.968Y34.373
X14.968Y34.392
Y37.848
X14.968Y37.866
X14.973Y37.963
X14.974Y37.981
X14.976Y38
X14.978Y38.018
X14.992Y38.114
X14.994Y38.132
X14.998Y38.15
X15.002Y38.168
X15.025Y38.262
X15.03Y38.28
X15.035Y38.298
X15.04Y38.315
X15.073Y38.407
X15.079Y38.424
X15.086Y38.441
X15.093Y38.458
X15.135Y38.546
X15.143Y38.562
X15.151Y38.578
X15.16Y38.595
X15.21Y38.678
X15.219Y38.693
X15.229Y38.709
X15.24Y38.724
X15.297Y38.802
X15.308Y38.817
X15.32Y38.831
X15.332Y38.845
X15.396Y38.916
X15.374Y38.94
X15.312Y39.011
X15.301Y39.025
X15.29Y39.039
X15.235Y39.116
X15.225Y39.131
X15.215Y39.145
X15.206Y39.161
X15.158Y39.242
X15.15Y39.258
X15.141Y39.273
X15.133Y39.289
X15.094Y39.375
X15.086Y39.391
X15.08Y39.408
X15.073Y39.424
X15.042Y39.513
X15.036Y39.53
X15.031Y39.547
X15.026Y39.565
X15.004Y39.656
X15Y39.674
X14.996Y39.691
X14.993Y39.709
X14.979Y39.802
X14.977Y39.82
X14.975Y39.837
X14.974Y39.855
X14.969Y39.949
X14.968Y39.967
X14.968Y39.985
Y40.791
X14.968Y40.809
X14.973Y40.903
X14.974Y40.921
X14.975Y40.939
X14.977Y40.957
X14.99Y41.05
X14.993Y41.068
X14.996Y41.086
X15Y41.103
X15.022Y41.195
X15.027Y41.213
X15.032Y41.23
X15.037Y41.247
X15.068Y41.337
X15.074Y41.354
X15.08Y41.37
X15.087Y41.387
X15.127Y41.473
X15.134Y41.489
X15.143Y41.505
X15.151Y41.521
X15.198Y41.603
X15.208Y41.618
X15.217Y41.633
X15.227Y41.648
X15.282Y41.725
X15.293Y41.74
X15.304Y41.754
X15.315Y41.768
X15.377Y41.839
X15.389Y41.853
X15.401Y41.866
X15.414Y41.879
X15.483Y41.944
X15.496Y41.956
X15.509Y41.968
X15.523Y41.979
X15.598Y42.037
X15.612Y42.048
X15.627Y42.059
X15.641Y42.069
X15.721Y42.12
X15.736Y42.129
X15.752Y42.138
X15.768Y42.147
X15.852Y42.19
X15.868Y42.198
X15.884Y42.205
X15.901Y42.212
X15.989Y42.247
X16.006Y42.253
X16.023Y42.259
X20.645Y43.819
X20.662Y43.825
X20.757Y43.852
X20.775Y43.857
X20.793Y43.861
X20.812Y43.865
X20.909Y43.883
X20.927Y43.886
X20.946Y43.888
X20.964Y43.89
X21.062Y43.898
X21.081Y43.899
X21.1Y43.9
X21.119Y43.9
X21.217Y43.898
X21.236Y43.897
X21.254Y43.896
X21.273Y43.895
X21.371Y43.883
X21.389Y43.88
X21.408Y43.877
X21.426Y43.874
X21.522Y43.852
X21.541Y43.848
X21.559Y43.843
X21.577Y43.838
X21.67Y43.806
X21.688Y43.8
X21.705Y43.794
X21.723Y43.787
X21.813Y43.746
X21.829Y43.739
X21.846Y43.73
X21.863Y43.721
X21.948Y43.672
X21.964Y43.663
X21.98Y43.653
X21.996Y43.643
X22.076Y43.585
X22.091Y43.574
X22.106Y43.563
X22.12Y43.551
X22.194Y43.486
X22.208Y43.473
X22.222Y43.461
X22.235Y43.447
X22.302Y43.375
X22.315Y43.361
X22.327Y43.347
X22.339Y43.333
X22.399Y43.254
X22.41Y43.239
X22.42Y43.224
X22.431Y43.208
X22.482Y43.125
X22.492Y43.108
X22.501Y43.092
X22.51Y43.076
X22.553Y42.987
X22.561Y42.97
X22.568Y42.953
X22.575Y42.936
X22.609Y42.843
X22.615Y42.825
X22.621Y42.808
X22.627Y42.79
X22.651Y42.694
X22.655Y42.676
X22.659Y42.658
X22.663Y42.639
X22.678Y42.542
X22.68Y42.523
X22.682Y42.505
X22.684Y42.486
X22.689Y42.388
X22.69Y42.369
X22.69Y42.35
Y41.393
X22.69Y41.374
X22.685Y41.277
X22.684Y41.258
X22.683Y41.24
X22.681Y41.222
X22.666Y41.125
X22.663Y41.107
X22.66Y41.089
X22.656Y41.071
X22.633Y40.976
X22.628Y40.958
X22.623Y40.94
X22.617Y40.923
X22.584Y40.831
X22.578Y40.814
X22.571Y40.796
X22.563Y40.779
X22.522Y40.691
X22.514Y40.675
X22.505Y40.658
X22.496Y40.642
X22.446Y40.558
X22.436Y40.543
X22.426Y40.527
X22.415Y40.512
X22.357Y40.434
X22.346Y40.419
X22.334Y40.405
X22.322Y40.391
X22.309Y40.375
X22.32Y40.363
X22.332Y40.349
X22.343Y40.334
X22.402Y40.256
X22.413Y40.241
X22.424Y40.226
X22.434Y40.21
X22.485Y40.127
X22.495Y40.111
X22.504Y40.094
X22.512Y40.078
X22.555Y39.99
X22.562Y39.973
X22.57Y39.956
X22.577Y39.939
X22.61Y39.847
X22.616Y39.829
X22.622Y39.811
X22.627Y39.794
X22.652Y39.699
X22.656Y39.681
X22.66Y39.663
X22.663Y39.644
X22.678Y39.548
X22.68Y39.529
X22.683Y39.511
X22.684Y39.492
X22.689Y39.394
X22.69Y39.376
X22.69Y39.357
Y38.4
X22.69Y38.381
X22.685Y38.282
X22.684Y38.263
X22.682Y38.245
X22.68Y38.226
X22.665Y38.124
X22.678Y38.036
X22.681Y38.018
X22.683Y38
X22.684Y37.981
X22.689Y37.885
X22.69Y37.866
X22.69Y37.848
Y35.94
X22.788Y35.994
X22.809Y36.005
X22.856Y36.029
X22.878Y36.04
X23.021Y36.108
X23.043Y36.117
X23.089Y36.137
X23.111Y36.146
X23.26Y36.206
X23.281Y36.214
X23.327Y36.23
X23.349Y36.238
X23.504Y36.289
X23.525Y36.295
X23.571Y36.309
X23.592Y36.315
X23.752Y36.357
X23.773Y36.362
X23.818Y36.372
X23.839Y36.377
X24.003Y36.41
X24.024Y36.414
X24.069Y36.422
X24.091Y36.425
X24.258Y36.449
X24.279Y36.452
X24.324Y36.457
X24.345Y36.459
X24.515Y36.473
X24.536Y36.475
X24.581Y36.477
X24.602Y36.478
X24.774Y36.483
X24.795Y36.483
X24.84
X24.862Y36.483
X25.033Y36.478
X25.055Y36.477
X25.1Y36.475
X25.121Y36.473
X25.29Y36.459
X25.312Y36.457
X25.357Y36.451
X25.378Y36.449
X25.545Y36.425
X25.566Y36.422
X25.611Y36.414
X25.633Y36.41
X25.796Y36.377
X25.817Y36.372
X25.863Y36.362
X25.884Y36.356
X26.043Y36.314
X26.064Y36.308
X26.11Y36.295
X26.131Y36.288
X26.285Y36.237
X26.307Y36.23
X26.353Y36.213
X26.374Y36.205
X26.523Y36.146
X26.545Y36.137
X26.591Y36.117
X26.612Y36.107
X26.756Y36.04
X26.777Y36.029
X26.823Y36.005
X26.844Y35.994
X26.981Y35.918
X27.003Y35.906
X27.049Y35.878
X27.07Y35.865
X27.2Y35.781
X27.222Y35.767
X27.267Y35.736
X27.288Y35.721
X27.411Y35.629
X27.432Y35.613
X27.476Y35.577
X27.497Y35.56
X27.612Y35.461
X27.632Y35.443
X27.673Y35.405
X27.692Y35.387
X27.794Y35.285
X27.812Y35.266
X27.852Y35.224
X27.87Y35.204
X27.963Y35.097
X27.981Y35.076
X28.018Y35.03
X28.035Y35.009
X28.127Y34.885
X28.177Y34.813
X28.267Y34.672
X28.311Y34.597
X28.385Y34.462
X28.397Y34.437
X28.423Y34.385
X28.435Y34.36
X28.493Y34.231
X28.503Y34.206
X28.525Y34.153
X28.535Y34.128
X28.584Y33.994
X28.592Y33.969
X28.61Y33.916
X28.617Y33.891
X28.657Y33.752
X28.664Y33.727
X28.677Y33.675
X28.683Y33.65
X28.714Y33.506
X28.719Y33.482
X28.728Y33.431
X28.732Y33.407
X28.755Y33.258
X28.758Y33.235
X28.764Y33.185
X28.766Y33.162
X28.78Y33.008
X28.781Y32.986
X28.784Y32.939
X28.785Y32.917
X28.789Y32.758
X28.79Y32.694
X28.789Y32.674
X28.785Y32.509
X28.782Y32.445
X28.781Y32.424
X28.768Y32.266
X28.766Y32.244
X28.76Y32.196
X28.757Y32.174
X28.736Y32.022
X28.732Y31.998
X28.723Y31.947
X28.719Y31.924
X28.688Y31.778
X28.683Y31.753
X28.67Y31.7
X28.663Y31.675
X28.624Y31.535
X28.616Y31.51
X28.599Y31.455
X28.59Y31.429
X28.537Y31.282
X28.504Y31.201
X28.435Y31.047
X28.396Y30.967
X28.316Y30.819
X28.27Y30.743
X28.179Y30.601
X28.128Y30.529
X28.035Y30.405
X28.018Y30.384
X27.981Y30.339
X27.964Y30.318
X27.869Y30.21
X27.851Y30.191
X27.813Y30.15
X27.783Y30.12
X27.802Y30.112
X27.818Y30.105
X27.834Y30.097
X27.917Y30.054
X27.932Y30.045
X27.948Y30.037
X27.963Y30.027
X28.041Y29.977
X28.056Y29.967
X28.071Y29.957
X28.085Y29.946
X28.158Y29.888
X28.172Y29.877
X28.185Y29.865
X28.198Y29.853
X28.266Y29.789
X28.278Y29.776
X28.291Y29.764
X28.303Y29.751
X28.364Y29.68
X28.375Y29.666
X28.386Y29.652
X28.397Y29.638
X28.451Y29.562
X28.461Y29.548
X28.471Y29.533
X28.48Y29.518
X28.527Y29.437
X28.535Y29.421
X28.543Y29.406
X28.551Y29.39
X28.59Y29.305
X28.597Y29.289
X28.604Y29.272
X28.61Y29.256
X28.641Y29.167
X28.646Y29.151
X28.652Y29.134
X28.656Y29.117
X28.678Y29.026
X28.682Y29.009
X28.686Y28.991
X28.689Y28.974
X28.702Y28.881
X28.705Y28.864
X28.707Y28.846
X28.708Y28.828
X28.713Y28.735
X28.713Y28.717
X28.713Y28.7
Y27.647
X28.713Y27.629
X28.709Y27.535
X28.708Y27.518
X28.706Y27.5
X28.705Y27.482
X28.691Y27.389
X28.689Y27.371
X28.685Y27.354
X28.682Y27.336
X28.66Y27.245
X28.655Y27.227
X28.651Y27.21
X28.645Y27.193
X28.615Y27.104
X28.609Y27.088
X28.602Y27.071
X28.596Y27.054
X28.557Y26.969
X28.549Y26.953
X28.541Y26.937
X28.533Y26.921
X28.486Y26.839
X28.477Y26.824
X28.467Y26.809
X28.457Y26.794
X28.403Y26.717
X28.393Y26.703
X28.382Y26.689
X28.37Y26.675
X28.309Y26.604
X28.297Y26.59
X28.285Y26.577
X28.261Y26.553
X28.272Y26.542
X28.338Y26.47
X28.35Y26.456
X28.362Y26.442
X28.373Y26.428
X28.431Y26.35
X28.442Y26.335
X28.452Y26.32
X28.462Y26.305
X28.512Y26.222
X28.522Y26.206
X28.53Y26.19
X28.539Y26.173
X28.581Y26.086
X28.588Y26.069
X28.595Y26.052
X28.602Y26.035
