(Created with grbl post processor 2023/10/21 15:50)
G21
(G-code generated with BlenderCAM and NC library)
G17G90
(Tool: D = 6.0 mm  type VCARVE flutes 2)
S12000M03
G00 Z2.0

G0X0Y0Z2
X40.99Y-1.001
G1Z-2.499F75
X3F150
X2.999Y-1
G0Z2
Y57.8
G1Z-2.499F75
X3Y57.801F150
X40.99
G0Z2
(Tool: D = 6.0 mm  type VCARVE flutes 2)
S12000M03
G00 Z2.0

X9.628Y50.269
X9.811Y50.087
G1Z-0.05
X10.511Y49.387Z-0.75
X10.561Y49.337Z-0.775F300
Z-0.8F150
X38.654F300
X36.417Y48.011
X36.4Y48
X36.382Y47.988
X36.367Y47.977
X36.351Y47.966
X36.336Y47.955
X36.322Y47.943
X36.307Y47.93
X36.292Y47.917
X36.278Y47.903
X36.264Y47.89
X36.25Y47.875
X36.236Y47.861
X36.223Y47.846
X36.211Y47.831
X36.198Y47.815
X36.187Y47.799
X36.175Y47.783
X36.164Y47.767
X36.153Y47.75
X36.143Y47.733
X36.133Y47.716
X36.124Y47.699
X36.115Y47.681
X36.106Y47.663
X36.098Y47.645
X36.09Y47.627
X36.083Y47.608
X36.076Y47.59
X36.07Y47.571
X36.064Y47.552
X36.059Y47.533
X36.054Y47.514
X36.05Y47.494
X36.046Y47.475
X36.042Y47.455
X36.039Y47.436
X36.037Y47.416
X36.035Y47.397
X36.033Y47.377
X36.032Y47.357
X36.032Y47.337
X36.032Y47.317
X36.032Y47.298
X36.033Y47.278
X36.035Y47.258
X36.037Y47.238
X36.039Y47.219
X36.042Y47.199
X36.045Y47.18
X36.049Y47.16
X36.054Y47.141
X36.058Y47.122
X36.064Y47.103
X36.07Y47.084
X36.076Y47.065
X36.082Y47.046
X36.09Y47.028
X36.095Y47.015
X29.897Y44.236
X29.88Y44.228
X29.862Y44.219
X29.845Y44.21
X29.828Y44.201
X29.811Y44.191
X29.795Y44.181
X29.778Y44.17
X29.762Y44.159
X29.747Y44.147
X29.731Y44.136
X29.716Y44.123
X29.701Y44.111
X29.687Y44.098
X29.672Y44.085
X29.658Y44.071
X29.645Y44.057
X29.632Y44.043
X29.619Y44.028
X29.606Y44.013
X29.594Y43.998
X29.582Y43.982
X29.571Y43.967
X29.56Y43.951
X29.549Y43.934
X29.539Y43.918
X29.529Y43.901
X29.52Y43.884
X29.511Y43.867
X29.502Y43.849
X29.494Y43.831
X29.487Y43.814
X29.479Y43.795
X29.472Y43.777
X29.466Y43.759
X29.46Y43.74
X29.455Y43.722
X29.45Y43.703
X29.445Y43.684
X29.441Y43.665
X29.437Y43.646
X29.434Y43.626
X29.432Y43.607
X29.429Y43.588
X29.428Y43.568
X29.426Y43.549
X29.426Y43.53
X29.425Y43.51
X29.425Y43.491
X29.426Y43.471
X29.427Y43.452
X29.429Y43.432
X29.431Y43.413
X29.433Y43.394
X29.436Y43.374
X29.44Y43.355
X29.444Y43.336
X29.448Y43.317
X29.453Y43.298
X29.458Y43.28
X29.464Y43.261
X29.668Y42.627
X30.16Y41.091
X30.374Y40.418
X30.38Y40.4
X30.386Y40.381
X30.393Y40.363
X30.401Y40.345
X30.409Y40.327
X30.417Y40.31
X30.426Y40.292
X30.435Y40.275
X30.445Y40.258
X30.455Y40.241
X30.465Y40.224
X30.476Y40.208
X30.488Y40.192
X30.499Y40.176
X30.511Y40.161
X30.524Y40.146
X30.536Y40.131
X30.55Y40.116
X30.563Y40.102
X30.577Y40.088
X30.591Y40.075
X30.606Y40.062
X30.62Y40.049
X30.635Y40.037
X30.651Y40.024
X30.667Y40.013
X30.683Y40.002
X30.699Y39.991
X30.715Y39.98
X30.732Y39.97
X30.749Y39.96
X30.766Y39.951
X30.784Y39.942
X30.802Y39.934
X30.819Y39.926
X30.837Y39.918
X30.856Y39.911
X30.874Y39.905
X30.893Y39.898
X30.911Y39.893
X30.93Y39.887
X30.949Y39.883
X30.968Y39.878
X30.988Y39.874
X31.007Y39.871
X31.026Y39.868
X31.046Y39.866
X31.065Y39.864
X31.085Y39.862
X31.104Y39.861
X31.124Y39.861
X31.143Y39.861
X31.163Y39.861
X31.182Y39.862
X31.202Y39.863
X31.221Y39.865
X31.241Y39.867
X31.26Y39.87
X31.28Y39.873
X31.299Y39.877
X31.318Y39.881
X31.337Y39.886
X32.093Y40.082
X32.06Y40.023
X32.038Y39.982
X32.017Y39.941
X31.996Y39.899
X31.975Y39.857
X31.953Y39.811
X31.933Y39.765
X31.912Y39.718
X31.893Y39.672
X31.874Y39.625
X31.856Y39.578
X31.839Y39.53
X31.822Y39.483
X31.806Y39.435
X31.791Y39.387
X31.777Y39.339
X31.763Y39.291
X31.75Y39.242
X31.737Y39.194
X31.725Y39.145
X31.714Y39.096
X31.704Y39.047
X31.694Y38.998
X31.685Y38.948
X31.677Y38.899
X31.669Y38.849
X31.662Y38.8
X31.656Y38.75
X31.65Y38.7
X31.645Y38.65
X31.641Y38.6
X31.637Y38.55
X31.634Y38.5
X31.632Y38.449
X31.63Y38.399
X31.629Y38.349
X31.629Y38.298
X31.629Y38.248
X31.63Y38.197
X31.632Y38.147
X31.634Y38.096
X31.637Y38.046
X31.641Y37.995
X31.645Y37.945
X31.65Y37.894
X31.656Y37.844
X31.662Y37.793
X31.669Y37.743
X31.676Y37.693
X31.684Y37.642
X31.693Y37.592
X31.703Y37.542
X31.713Y37.492
X31.724Y37.441
X31.735Y37.391
X31.747Y37.341
X31.76Y37.291
X31.773Y37.242
X31.787Y37.192
X31.802Y37.142
X31.817Y37.093
X31.833Y37.043
X31.849Y36.994
X31.866Y36.945
X31.884Y36.896
X31.902Y36.847
X31.921Y36.798
X31.941Y36.749
X31.96Y36.703
X31.982Y36.654
X32.003Y36.606
X32.022Y36.566
X31.99Y36.558
X31.971Y36.552
X31.952Y36.547
X31.933Y36.54
X31.915Y36.533
X31.897Y36.526
X31.878Y36.519
X31.861Y36.51
X31.843Y36.502
X31.825Y36.493
X31.808Y36.484
X31.791Y36.474
X31.774Y36.463
X31.758Y36.453
X31.741Y36.442
X31.725Y36.43
X31.71Y36.418
X31.694Y36.406
X31.679Y36.393
X31.664Y36.38
X31.65Y36.367
X31.636Y36.353
X31.622Y36.339
X31.608Y36.325
X31.595Y36.31
X31.583Y36.295
X31.57Y36.28
X31.558Y36.264
X31.547Y36.248
X31.536Y36.232
X31.525Y36.216
X31.514Y36.199
X31.504Y36.182
X31.495Y36.165
X31.486Y36.147
X31.477Y36.13
X31.469Y36.112
X31.461Y36.094
X31.454Y36.076
X31.447Y36.057
X31.44Y36.038
X31.434Y36.02
X31.429Y36.001
X31.424Y35.982
X31.419Y35.963
X31.415Y35.943
X31.411Y35.924
X31.408Y35.905
X31.406Y35.885
X31.403Y35.866
X31.402Y35.846
X31.4Y35.826
X31.4Y35.807
X31.399Y35.787
X31.4Y35.767
X31.4Y35.748
X31.401Y35.728
X31.403Y35.708
X31.405Y35.689
X31.408Y35.669
X31.804Y32.977
X31.807Y32.957
X31.811Y32.938
X31.815Y32.919
X31.819Y32.9
X31.824Y32.881
X31.83Y32.862
X31.836Y32.843
X31.842Y32.824
X31.849Y32.806
X31.856Y32.788
X31.864Y32.77
X31.872Y32.752
X31.881Y32.734
X31.89Y32.717
X31.899Y32.699
X31.909Y32.682
X31.92Y32.666
X31.93Y32.649
X31.942Y32.633
X31.953Y32.617
X31.965Y32.601
X31.977Y32.586
X31.99Y32.571
X32.003Y32.556
X32.016Y32.542
X32.03Y32.528
X32.044Y32.514
X32.059Y32.5
X32.073Y32.487
X32.088Y32.475
X32.104Y32.463
X32.119Y32.451
X32.135Y32.439
X32.152Y32.428
X32.168Y32.417
X32.185Y32.407
X32.202Y32.397
X32.219Y32.388
X32.237Y32.379
X32.254Y32.37
X32.272Y32.362
X32.29Y32.354
X32.308Y32.347
X32.327Y32.34
X32.346Y32.334
X32.364Y32.328
X32.383Y32.322
X32.402Y32.317
X32.421Y32.313
X32.441Y32.309
X32.46Y32.305
X32.479Y32.302
X32.499Y32.299
X32.518Y32.297
X32.538Y32.295
X32.558Y32.294
X32.577Y32.294
X32.597Y32.293
X33.721Y32.295
X31.512Y27.826
X31.504Y27.809
X31.496Y27.791
X31.488Y27.773
X31.481Y27.755
X31.474Y27.736
X31.468Y27.718
X31.462Y27.699
X31.457Y27.68
X31.452Y27.661
X31.448Y27.642
X31.444Y27.623
X31.44Y27.604
X31.437Y27.584
X31.435Y27.565
X31.433Y27.546
X31.431Y27.526
X31.43Y27.507
X31.429Y27.487
X31.429Y27.467
X31.43Y27.448
X31.431Y27.428
X31.432Y27.409
X31.434Y27.389
X31.436Y27.37
X31.439Y27.35
X31.442Y27.331
X31.446Y27.312
X31.45Y27.293
X31.454Y27.274
X31.459Y27.255
X31.465Y27.236
X31.471Y27.218
X31.477Y27.199
X31.484Y27.181
X31.492Y27.163
X31.499Y27.145
X31.508Y27.127
X31.516Y27.109
X31.525Y27.092
X31.535Y27.075
X31.545Y27.058
X31.555Y27.041
X31.566Y27.025
X31.577Y27.009
X31.588Y26.993
X31.6Y26.978
X31.613Y26.962
X31.625Y26.948
X31.638Y26.933
X31.652Y26.919
X31.665Y26.905
X31.679Y26.891
X31.694Y26.878
X31.708Y26.865
X31.723Y26.852
X31.739Y26.84
X31.754Y26.828
X31.77Y26.817
X31.786Y26.806
X31.803Y26.795
X31.819Y26.785
X31.836Y26.775
X31.853Y26.766
X31.871Y26.757
X31.888Y26.748
X31.906Y26.74
X31.924Y26.732
X31.942Y26.725
X31.961Y26.718
X31.979Y26.712
X31.998Y26.706
X32.017Y26.701
X32.036Y26.696
X32.055Y26.691
X32.074Y26.687
X32.093Y26.684
X32.112Y26.681
X32.132Y26.678
X32.151Y26.676
X32.171Y26.674
X32.19Y26.673
X32.21Y26.672
X32.229Y26.672
X34.237
X34.255Y26.595
X34.271Y26.531
X34.287Y26.468
X34.303Y26.405
X34.32Y26.343
X34.337Y26.281
X34.365Y26.187
X34.333Y26.192
X34.314Y26.194
X34.294Y26.196
X34.274Y26.198
X34.255Y26.199
X34.235Y26.199
X34.215Y26.199
X34.196Y26.199
X34.176Y26.198
X34.156Y26.196
X34.137Y26.194
X34.117Y26.192
X34.097Y26.189
X34.078Y26.186
X34.059Y26.182
X34.04Y26.178
X34.02Y26.173
X34.001Y26.168
X33.983Y26.162
X33.964Y26.156
X33.945Y26.149
X33.927Y26.142
X33.909Y26.134
X33.891Y26.127
X33.873Y26.118
X33.855Y26.109
X33.838Y26.1
X33.821Y26.09
X33.804Y26.08
X33.787Y26.07
X33.771Y26.059
X33.755Y26.047
X33.739Y26.035
X33.723Y26.023
X33.708Y26.011
X33.693Y25.998
X33.679Y25.985
X33.664Y25.971
X33.65Y25.957
X33.637Y25.943
X33.624Y25.928
X33.611Y25.913
X33.598Y25.898
X33.586Y25.882
X33.574Y25.867
X33.563Y25.85
X33.552Y25.834
X33.542Y25.817
X33.532Y25.8
X33.522Y25.783
X33.513Y25.766
X33.504Y25.748
X33.495Y25.73
X33.488Y25.712
X33.48Y25.694
X33.473Y25.676
X33.466Y25.657
X33.46Y25.638
X33.455Y25.62
X33.449Y25.601
X33.445Y25.581
X33.44Y25.562
X33.437Y25.543
X33.433Y25.523
X32.957Y22.49
X32.954Y22.47
X32.951Y22.451
X32.949Y22.431
X32.948Y22.412
X32.947Y22.392
X32.947Y22.372
X32.947Y22.353
X32.947Y22.333
X32.949Y22.313
X32.95Y22.294
X32.952Y22.274
X32.955Y22.254
X32.958Y22.235
X32.961Y22.216
X32.965Y22.196
X32.969Y22.177
X32.974Y22.158
X32.98Y22.139
X32.989Y22.108
X32.977Y22.101
X32.96Y22.091
X32.943Y22.081
X32.927Y22.07
X32.91Y22.058
X32.895Y22.047
X32.879Y22.035
X32.864Y22.022
X32.849Y22.01
X32.834Y21.997
X32.82Y21.983
X32.806Y21.969
X32.792Y21.955
X32.779Y21.94
X32.766Y21.926
X32.753Y21.91
X32.741Y21.895
X32.729Y21.879
X32.718Y21.863
X32.707Y21.847
X32.696Y21.83
X32.686Y21.813
X32.676Y21.796
X32.667Y21.779
X32.658Y21.762
X32.649Y21.744
X32.641Y21.726
X32.633Y21.708
X32.626Y21.689
X32.62Y21.671
X32.613Y21.652
X32.607Y21.633
X32.602Y21.614
X32.597Y21.595
X32.593Y21.576
X32.589Y21.557
X32.585Y21.537
X32.583Y21.522
X32.568Y21.518
X32.549Y21.513
X32.53Y21.507
X32.512Y21.501
X32.493Y21.494
X32.475Y21.487
X32.456Y21.479
X32.439Y21.471
X32.421Y21.462
X32.403Y21.453
X32.386Y21.444
X32.369Y21.434
X32.352Y21.424
X32.335Y21.413
X32.319Y21.402
X32.303Y21.391
X32.287Y21.379
X32.272Y21.367
X32.257Y21.354
X32.242Y21.341
X32.227Y21.328
X32.213Y21.314
X32.199Y21.3
X32.186Y21.286
X32.173Y21.271
X32.16Y21.256
X32.148Y21.241
X32.136Y21.225
X32.124Y21.209
X32.113Y21.193
X32.102Y21.176
X32.092Y21.16
X32.082Y21.143
X32.072Y21.125
X32.063Y21.108
X32.054Y21.09
X32.046Y21.072
X32.038Y21.054
X32.031Y21.036
X32.024Y21.018
X32.017Y20.999
X32.011Y20.98
X32.006Y20.961
X32.001Y20.942
X31.996Y20.923
X31.992Y20.904
X31.988Y20.885
X31.382Y17.445
X31.378Y17.426
X31.376Y17.407
X31.374Y17.387
X31.372Y17.368
X31.371Y17.349
X31.37Y17.329
X31.369Y17.31
X31.37Y17.29
X31.37Y17.271
X31.371Y17.251
X31.373Y17.232
X31.375Y17.212
X31.378Y17.193
X31.381Y17.174
X31.384Y17.154
X31.388Y17.135
X31.392Y17.116
X31.397Y17.097
X31.403Y17.079
X31.408Y17.06
X31.415Y17.041
X31.421Y17.023
X31.428Y17.005
X31.436Y16.987
X31.444Y16.969
X31.452Y16.952
X31.461Y16.934
X31.471Y16.917
X31.48Y16.9
X31.49Y16.883
X31.501Y16.867
X31.512Y16.851
X31.523Y16.835
X31.535Y16.819
X31.547Y16.804
X31.559Y16.789
X31.572Y16.774
X31.585Y16.76
X31.599Y16.746
X31.613Y16.732
X31.627Y16.719
X31.641Y16.706
X31.656Y16.693
X31.671Y16.681
X31.687Y16.669
X31.702Y16.657
X31.718Y16.646
X31.735Y16.635
X31.751Y16.625
X31.768Y16.615
X31.785Y16.605
X31.802Y16.596
X31.819Y16.587
X31.837Y16.579
X31.855Y16.571
X31.873Y16.563
X31.891Y16.556
X31.91Y16.55
X31.928Y16.544
X31.947Y16.538
X31.966Y16.533
X31.985Y16.528
X32.007Y16.523
X31.985Y16.509
X31.969Y16.497
X31.953Y16.486
X31.937Y16.474
X31.922Y16.461
X31.907Y16.449
X31.893Y16.435
X31.878Y16.422
X31.864Y16.408
X31.851Y16.394
X31.837Y16.38
X31.824Y16.365
X31.812Y16.35
X31.8Y16.334
X31.788Y16.319
X31.777Y16.303
X31.766Y16.286
X31.755Y16.27
X31.745Y16.253
X31.735Y16.236
X31.726Y16.219
X31.717Y16.201
X31.708Y16.183
X31.7Y16.166
X31.693Y16.147
X31.686Y16.129
X31.679Y16.111
X31.673Y16.092
X31.667Y16.073
X31.661Y16.054
X31.657Y16.035
X31.652Y16.016
X31.648Y15.997
X31.645Y15.978
X31.642Y15.958
X31.414Y14.345
X31.158Y14.341
X31.139Y14.34
X31.119Y14.339
X31.1Y14.337
X31.08Y14.335
X31.061Y14.333
X31.041Y14.33
X31.022Y14.326
X31.003Y14.322
X30.984Y14.318
X30.965Y14.313
X30.946Y14.308
X30.927Y14.302
X30.909Y14.296
X30.89Y14.289
X30.872Y14.282
X30.854Y14.274
X30.836Y14.266
X30.818Y14.258
X30.801Y14.249
X30.784Y14.24
X30.767Y14.23
X30.75Y14.22
X30.734Y14.209
X30.717Y14.198
X30.701Y14.187
X30.686Y14.175
X30.67Y14.163
X30.655Y14.151
X30.64Y14.138
X30.626Y14.125
X30.612Y14.111
X30.598Y14.097
X30.585Y14.083
X30.571Y14.068
X30.559Y14.054
X30.546Y14.038
X30.534Y14.023
X30.523Y14.007
X30.512Y13.991
X30.501Y13.975
X30.49Y13.958
X30.48Y13.941
X30.471Y13.924
X30.462Y13.907
X30.453Y13.889
X30.444Y13.872
X30.437Y13.854
X30.429Y13.836
X30.422Y13.817
X30.416Y13.799
X30.409Y13.78
X29.66Y11.393
X29.655Y11.374
X29.649Y11.355
X29.645Y11.336
X29.64Y11.317
X29.637Y11.298
X29.633Y11.278
X29.631Y11.259
X29.628Y11.239
X29.626Y11.219
X29.625Y11.2
X29.624Y11.18
X29.624Y11.16
X29.624Y11.14
X29.624Y11.121
X29.625Y11.101
X29.627Y11.081
X29.629Y11.062
X29.631Y11.042
X29.634Y11.023
X29.638Y11.003
X29.642Y10.984
X29.646Y10.965
X29.651Y10.945
X29.657Y10.926
X29.662Y10.908
X29.669Y10.889
X29.675Y10.87
X29.683Y10.852
X29.69Y10.834
X29.698Y10.816
X29.707Y10.798
X29.716Y10.78
X29.725Y10.763
X29.735Y10.746
X29.746Y10.729
X29.756Y10.713
X29.767Y10.696
X29.779Y10.68
X29.791Y10.664
X29.803Y10.649
X29.816Y10.634
X29.829Y10.619
X29.842Y10.604
X29.856Y10.59
X29.87Y10.576
X29.884Y10.563
X29.899Y10.55
X29.914Y10.537
X29.929Y10.525
X29.945Y10.513
X29.961Y10.501
X29.977Y10.49
X29.994Y10.479
X30.011Y10.469
X30.028Y10.459
X30.045Y10.449
X30.062Y10.44
X30.08Y10.431
X30.098Y10.423
X30.116Y10.415
X30.135Y10.408
X30.153Y10.401
X30.172Y10.394
X39.089Y7.436
X10.561Y7.436
X10.561Y49.337
G0Z2
X16.054Y41.443
G1Z-0.8F150
X16.038Y41.431F300
X16.023Y41.419
X16.008Y41.407
X15.993Y41.394
X15.978Y41.381
X15.964Y41.368
X15.95Y41.354
X15.937Y41.34
X15.923Y41.326
X15.91Y41.311
X15.898Y41.296
X15.886Y41.281
X15.874Y41.265
X15.863Y41.249
X15.852Y41.233
X15.841Y41.217
X15.831Y41.2
X15.821Y41.183
X15.812Y41.166
X15.803Y41.149
X15.794Y41.131
X15.786Y41.113
X15.778Y41.095
X15.771Y41.077
X15.764Y41.059
X15.758Y41.04
X15.752Y41.022
X15.747Y41.003
X15.742Y40.984
X15.737Y40.965
X15.733Y40.946
X15.73Y40.927
X15.727Y40.908
X15.724Y40.888
X15.722Y40.869
X15.72Y40.849
X15.719Y40.83
X15.718Y40.81
X15.718Y40.791
Y39.985
X15.718Y39.966
X15.719Y39.946
X15.72Y39.927
X15.722Y39.907
X15.724Y39.888
X15.727Y39.869
X15.73Y39.85
X15.733Y39.83
X15.737Y39.811
X15.742Y39.792
X15.747Y39.774
X15.752Y39.755
X15.758Y39.736
X15.764Y39.718
X15.771Y39.7
X15.778Y39.682
X15.785Y39.664
X15.794Y39.646
X15.802Y39.628
X15.811Y39.611
X15.82Y39.594
X15.83Y39.577
X15.84Y39.561
X15.851Y39.544
X15.861Y39.528
X15.873Y39.512
X15.884Y39.497
X15.897Y39.481
X15.909Y39.466
X15.922Y39.452
X15.935Y39.437
X15.948Y39.423
X15.962Y39.41
X15.976Y39.396
X15.991Y39.383
X16.006Y39.371
X16.021Y39.359
X16.036Y39.347
X16.052Y39.335
X16.068Y39.324
X16.084Y39.313
X16.1Y39.303
X16.117Y39.293
X16.134Y39.283
X16.151Y39.274
X16.169Y39.265
X16.186Y39.257
X16.204Y39.249
X16.222Y39.242
X16.24Y39.235
X16.259Y39.228
X17.951Y38.648
X16.518
X16.498Y38.647
X16.479Y38.647
X16.459Y38.646
X16.44Y38.644
X16.42Y38.642
X16.401Y38.639
X16.381Y38.636
X16.362Y38.632
X16.343Y38.628
X16.324Y38.624
X16.305Y38.619
X16.286Y38.613
X16.267Y38.607
X16.249Y38.601
X16.23Y38.594
X16.212Y38.587
X16.194Y38.579
X16.176Y38.571
X16.158Y38.562
X16.141Y38.553
X16.124Y38.544
X16.107Y38.534
X16.09Y38.524
X16.074Y38.513
X16.057Y38.502
X16.042Y38.49
X16.026Y38.478
X16.011Y38.466
X15.996Y38.453
X15.981Y38.44
X15.966Y38.427
X15.952Y38.413
X15.939Y38.399
X15.925Y38.385
X15.912Y38.37
X15.9Y38.355
X15.887Y38.34
X15.876Y38.324
X15.864Y38.308
X15.853Y38.292
X15.842Y38.276
X15.832Y38.259
X15.822Y38.242
X15.813Y38.225
X15.803Y38.207
X15.795Y38.19
X15.787Y38.172
X15.779Y38.154
X15.772Y38.136
X15.765Y38.117
X15.758Y38.099
X15.753Y38.08
X15.747Y38.061
X15.742Y38.042
X15.738Y38.023
X15.733Y38.004
X15.73Y37.984
X15.727Y37.965
X15.724Y37.946
X15.722Y37.926
X15.72Y37.907
X15.719Y37.887
X15.718Y37.867
X15.718Y37.848
Y34.392
X15.718Y34.372
X15.719Y34.352
X15.72Y34.333
X15.722Y34.313
X15.724Y34.294
X15.727Y34.274
X15.73Y34.255
X15.733Y34.235
X15.738Y34.216
X15.742Y34.197
X15.747Y34.178
X15.753Y34.159
X15.758Y34.141
X15.765Y34.122
X15.772Y34.104
X15.779Y34.085
X15.787Y34.067
X15.795Y34.049
X15.803Y34.032
X15.813Y34.014
X15.82Y34.002
X15.813Y33.989
X15.803Y33.971
X15.795Y33.954
X15.787Y33.936
X15.779Y33.918
X15.772Y33.9
X15.765Y33.881
X15.758Y33.863
X15.753Y33.844
X15.747Y33.825
X15.742Y33.806
X15.738Y33.787
X15.733Y33.768
X15.73Y33.748
X15.727Y33.729
X15.724Y33.71
X15.722Y33.69
X15.72Y33.671
X15.719Y33.651
X15.718Y33.631
X15.718Y33.612
Y32.66
X15.718Y32.641
X15.719Y32.621
X15.72Y32.601
X15.722Y32.582
X15.724Y32.562
X15.727Y32.543
X15.73Y32.524
X15.733Y32.504
X15.738Y32.485
X15.742Y32.466
X15.747Y32.447
X15.753Y32.428
X15.758Y32.409
X15.765Y32.391
X15.772Y32.372
X15.779Y32.354
X15.787Y32.336
X15.795Y32.318
X15.803Y32.301
X15.813Y32.283
X15.822Y32.266
X15.832Y32.249
X15.842Y32.232
X15.853Y32.216
X15.864Y32.2
X15.876Y32.184
X15.887Y32.168
X15.9Y32.153
X15.912Y32.138
X15.925Y32.123
X15.939Y32.109
X15.952Y32.095
X15.966Y32.081
X15.981Y32.068
X15.996Y32.055
X16.011Y32.042
X16.026Y32.03
X16.042Y32.018
X16.057Y32.006
X16.074Y31.995
X16.09Y31.984
X16.107Y31.974
X16.124Y31.964
X16.141Y31.955
X16.158Y31.946
X16.176Y31.937
X16.194Y31.929
X16.212Y31.921
X16.23Y31.914
X16.249Y31.907
X16.267Y31.901
X16.286Y31.895
X16.305Y31.889
X16.324Y31.884
X16.343Y31.88
X16.362Y31.876
X16.381Y31.872
X16.401Y31.869
X16.42Y31.866
X16.44Y31.864
X16.459Y31.863
X16.479Y31.861
X16.498Y31.861
X16.518Y31.86
X17.55
Y31.783
X17.352Y31.786
X17.224Y31.786
X17.143Y31.784
X17.065Y31.782
X17.007Y31.78
X16.951Y31.777
X16.895Y31.773
X16.839Y31.767
X16.783Y31.76
X16.746Y31.755
X16.708Y31.749
X16.67Y31.742
X16.633Y31.735
X16.595Y31.726
X16.558Y31.717
X16.521Y31.707
X16.485Y31.696
X16.449Y31.685
X16.413Y31.673
X16.379Y31.66
X16.329Y31.64
X16.281Y31.62
X16.236Y31.599
X16.192Y31.578
X16.154Y31.559
X16.137Y31.55
X16.12Y31.54
X16.103Y31.53
X16.086Y31.52
X16.07Y31.509
X16.054Y31.498
X16.038Y31.486
X16.023Y31.475
X16.007Y31.462
X15.993Y31.45
X15.978Y31.437
X15.964Y31.423
X15.95Y31.41
X15.936Y31.396
X15.923Y31.381
X15.91Y31.367
X15.898Y31.352
X15.886Y31.336
X15.874Y31.321
X15.862Y31.305
X15.851Y31.289
X15.841Y31.272
X15.831Y31.256
X15.821Y31.239
X15.811Y31.222
X15.803Y31.204
X15.794Y31.187
X15.786Y31.169
X15.778Y31.151
X15.771Y31.133
X15.764Y31.114
X15.758Y31.096
X15.752Y31.077
X15.747Y31.059
X15.742Y31.04
X15.737Y31.021
X15.733Y31.002
X15.73Y30.982
X15.727Y30.963
X15.724Y30.944
X15.722Y30.924
X15.72Y30.905
X15.719Y30.885
X15.718Y30.866
X15.718Y30.846
Y29.825
X15.718Y29.806
X15.719Y29.786
X15.72Y29.766
X15.722Y29.747
X15.724Y29.727
X15.727Y29.708
X15.73Y29.689
X15.733Y29.669
X15.738Y29.65
X15.742Y29.631
X15.747Y29.612
X15.753Y29.593
X15.758Y29.574
X15.765Y29.556
X15.772Y29.537
X15.779Y29.519
X15.787Y29.501
X15.795Y29.483
X15.803Y29.466
X15.813Y29.448
X15.822Y29.431
X15.832Y29.414
X15.842Y29.397
X15.853Y29.381
X15.864Y29.365
X15.876Y29.349
X15.887Y29.333
X15.9Y29.318
X15.912Y29.303
X15.925Y29.288
X15.939Y29.274
X15.952Y29.26
X15.966Y29.246
X15.981Y29.233
X15.996Y29.22
X16.011Y29.207
X16.026Y29.195
X16.049Y29.177
X16.026Y29.142
X15.993Y29.091
X15.961Y29.039
X15.931Y28.986
X15.902Y28.933
X15.874Y28.879
X15.848Y28.824
X15.823Y28.768
X15.8Y28.712
X15.777Y28.655
X15.756Y28.598
X15.737Y28.54
X15.718Y28.482
X15.701Y28.423
X15.684Y28.363
X15.669Y28.303
X15.656Y28.243
X15.643Y28.182
X15.631Y28.121
X15.621Y28.059
X15.611Y27.997
X15.603Y27.934
X15.596Y27.871
X15.589Y27.807
X15.584Y27.743
X15.58Y27.679
X15.576Y27.614
X15.574Y27.548
X15.573Y27.482
X15.572Y27.416
X15.573Y27.349
X15.575Y27.282
X15.577Y27.215
X15.581Y27.149
X15.585Y27.084
X15.591Y27.019
X15.597Y26.954
X15.605Y26.89
X15.614Y26.827
X15.624Y26.764
X15.635Y26.701
X15.647Y26.639
X15.66Y26.577
X15.674Y26.516
X15.69Y26.456
X15.706Y26.396
X15.724Y26.336
X15.743Y26.277
X15.763Y26.219
X15.785Y26.161
X15.807Y26.104
X15.831Y26.047
X15.857Y25.991
X15.883Y25.936
X15.911Y25.882
X15.94Y25.828
X15.971Y25.775
X16.003Y25.723
X16.036Y25.671
X16.071Y25.621
X16.094Y25.589
X16.074Y25.576
X16.057Y25.565
X16.042Y25.553
X16.026Y25.541
X16.011Y25.529
X15.996Y25.517
X15.981Y25.504
X15.966Y25.49
X15.952Y25.476
X15.939Y25.462
X15.925Y25.448
X15.912Y25.433
X15.9Y25.418
X15.887Y25.403
X15.876Y25.387
X15.864Y25.371
X15.853Y25.355
X15.842Y25.339
X15.832Y25.322
X15.822Y25.305
X15.813Y25.288
X15.803Y25.27
X15.795Y25.253
X15.787Y25.235
X15.779Y25.217
X15.772Y25.199
X15.765Y25.18
X15.758Y25.162
X15.753Y25.143
X15.747Y25.124
X15.742Y25.105
X15.738Y25.086
X15.733Y25.067
X15.73Y25.048
X15.727Y25.028
X15.724Y25.009
X15.722Y24.989
X15.72Y24.97
X15.719Y24.95
X15.718Y24.93
X15.718Y24.911
Y23.959
X15.718Y23.94
X15.719Y23.92
X15.72Y23.901
X15.722Y23.881
X15.724Y23.861
X15.727Y23.842
X15.73Y23.823
X15.733Y23.803
X15.738Y23.784
X15.742Y23.765
X15.747Y23.746
X15.753Y23.727
X15.758Y23.708
X15.765Y23.69
X15.772Y23.671
X15.779Y23.653
X15.787Y23.635
X15.795Y23.617
X15.803Y23.6
X15.813Y23.582
X15.822Y23.565
X15.832Y23.548
X15.842Y23.531
X15.853Y23.515
X15.864Y23.499
X15.876Y23.483
X15.887Y23.467
X15.9Y23.452
X15.912Y23.437
X15.925Y23.422
X15.939Y23.408
X15.952Y23.394
X15.966Y23.38
X15.981Y23.367
X15.996Y23.354
X16.011Y23.341
X16.026Y23.329
X16.042Y23.317
X16.057Y23.305
X16.074Y23.294
X16.09Y23.284
X16.107Y23.273
X16.124Y23.263
X16.141Y23.254
X16.158Y23.245
X16.176Y23.236
X16.194Y23.228
X16.212Y23.22
X16.23Y23.213
X16.249Y23.206
X16.267Y23.2
X16.286Y23.194
X16.305Y23.188
X16.324Y23.183
X16.343Y23.179
X16.362Y23.175
X16.381Y23.171
X16.4Y23.168
X16.357Y23.125
X16.331Y23.097
X16.306Y23.07
X16.28Y23.042
X16.255Y23.014
X16.231Y22.985
X16.207Y22.956
X16.183Y22.927
X16.16Y22.898
X16.137Y22.868
X16.114Y22.838
X16.092Y22.807
X16.071Y22.777
X16.05Y22.746
X16.029Y22.714
X16.009Y22.683
X15.989Y22.651
X15.969Y22.619
X15.951Y22.587
X15.932Y22.554
X15.914Y22.521
X15.897Y22.488
X15.88Y22.454
X15.863Y22.421
X15.847Y22.387
X15.831Y22.353
X15.816Y22.319
X15.801Y22.284
X15.787Y22.25
X15.773Y22.215
X15.76Y22.18
X15.747Y22.144
X15.735Y22.109
X15.723Y22.073
X15.712Y22.038
X15.701Y22.002
X15.69Y21.966
X15.68Y21.929
X15.671Y21.893
X15.662Y21.856
X15.653Y21.82
X15.645Y21.783
X15.637Y21.746
X15.63Y21.709
X15.623Y21.672
X15.617Y21.635
X15.611Y21.597
X15.606Y21.56
X15.601Y21.522
X15.596Y21.485
X15.592Y21.447
X15.588Y21.409
X15.585Y21.371
X15.582Y21.333
X15.579Y21.295
X15.577Y21.256
X15.575Y21.218
X15.573Y21.141
X15.572Y21.064
X15.573Y20.986
X15.576Y20.909
X15.577Y20.87
X15.58Y20.832
X15.582Y20.794
X15.585Y20.755
X15.589Y20.717
X15.593Y20.679
X15.597Y20.641
X15.602Y20.604
X15.607Y20.566
X15.613Y20.528
X15.619Y20.491
X15.625Y20.454
X15.632Y20.416
X15.639Y20.379
X15.647Y20.342
X15.655Y20.305
X15.664Y20.269
X15.673Y20.232
X15.683Y20.196
X15.693Y20.159
X15.704Y20.123
X15.715Y20.087
X15.726Y20.052
X15.738Y20.016
X15.751Y19.981
X15.764Y19.945
X15.777Y19.91
X15.791Y19.875
X15.806Y19.841
X15.82Y19.806
X15.836Y19.772
X15.852Y19.738
X15.868Y19.704
X15.885Y19.671
X15.902Y19.637
X15.919Y19.604
X15.938Y19.571
X15.956Y19.539
X15.975Y19.507
X15.995Y19.474
X16.015Y19.443
X16.035Y19.411
X16.056Y19.38
X16.077Y19.349
X16.099Y19.319
X16.121Y19.288
X16.144Y19.258
X16.167Y19.229
X16.19Y19.199
X16.214Y19.17
X16.238Y19.142
X16.262Y19.113
X16.287Y19.085
X16.313Y19.057
X16.338Y19.03
X16.365Y19.003
X16.395Y18.972
X16.381Y18.97
X16.362Y18.966
X16.343Y18.962
X16.324Y18.958
X16.305Y18.953
X16.286Y18.947
X16.267Y18.941
X16.249Y18.935
X16.23Y18.928
X16.212Y18.921
X16.194Y18.913
X16.176Y18.905
X16.158Y18.896
X16.141Y18.887
X16.124Y18.878
X16.107Y18.868
X16.09Y18.858
X16.074Y18.847
X16.057Y18.836
X16.042Y18.824
X16.026Y18.813
X16.011Y18.8
X15.996Y18.788
X15.981Y18.775
X15.966Y18.761
X15.952Y18.748
X15.939Y18.733
X15.925Y18.719
X15.912Y18.704
X15.9Y18.689
X15.887Y18.674
X15.876Y18.658
X15.864Y18.643
X15.853Y18.626
X15.842Y18.61
X15.832Y18.593
X15.822Y18.576
X15.813Y18.559
X15.803Y18.542
X15.795Y18.524
X15.787Y18.506
X15.779Y18.488
X15.772Y18.47
X15.765Y18.451
X15.758Y18.433
X15.753Y18.414
X15.747Y18.395
X15.742Y18.376
X15.738Y18.357
X15.733Y18.338
X15.73Y18.319
X15.727Y18.299
X15.724Y18.28
X15.722Y18.26
X15.72Y18.241
X15.719Y18.221
X15.718Y18.201
X15.718Y18.182
Y17.231
X15.718Y17.211
X15.719Y17.192
X15.72Y17.172
X15.722Y17.153
X15.724Y17.133
X15.727Y17.114
X15.73Y17.094
X15.733Y17.075
X15.738Y17.056
X15.742Y17.037
X15.747Y17.018
X15.753Y16.999
X15.758Y16.98
X15.765Y16.961
X15.772Y16.943
X15.779Y16.925
X15.787Y16.907
X15.795Y16.889
X15.803Y16.871
X15.813Y16.854
X15.822Y16.837
X15.832Y16.82
X15.842Y16.803
X15.853Y16.787
X15.864Y16.77
X15.876Y16.754
X15.887Y16.739
X15.9Y16.723
X15.912Y16.708
X15.925Y16.694
X15.939Y16.679
X15.952Y16.665
X15.966Y16.652
X15.981Y16.638
X15.996Y16.625
X16.011Y16.613
X16.026Y16.6
X16.042Y16.588
X16.057Y16.577
X16.074Y16.566
X16.09Y16.555
X16.107Y16.545
X16.124Y16.535
X16.141Y16.525
X16.158Y16.516
X16.176Y16.508
X16.194Y16.5
X16.212Y16.492
X16.23Y16.485
X16.249Y16.478
X16.267Y16.471
X16.286Y16.465
X16.305Y16.46
X16.324Y16.455
X16.343Y16.45
X16.362Y16.446
X16.381Y16.443
X16.401Y16.44
X16.42Y16.437
X16.44Y16.435
X16.459Y16.433
X16.479Y16.432
X16.498Y16.431
X16.518Y16.431
X16.747
X16.116Y16.064
X16.099Y16.054
X16.083Y16.044
X16.067Y16.033
X16.051Y16.022
X16.035Y16.01
X16.02Y15.999
X16.005Y15.986
X15.99Y15.974
X15.976Y15.961
X15.961Y15.947
X15.948Y15.934
X15.934Y15.92
X15.921Y15.905
X15.908Y15.891
X15.896Y15.876
X15.884Y15.86
X15.872Y15.845
X15.861Y15.829
X15.85Y15.813
X15.84Y15.797
X15.83Y15.78
X15.82Y15.763
X15.811Y15.746
X15.802Y15.729
X15.793Y15.711
X15.785Y15.694
X15.778Y15.676
X15.771Y15.658
X15.764Y15.639
X15.758Y15.621
X15.752Y15.602
X15.746Y15.584
X15.742Y15.565
X15.737Y15.546
X15.733Y15.527
X15.73Y15.508
X15.727Y15.489
X15.724Y15.47
X15.722Y15.45
X15.72Y15.431
X15.719Y15.412
X15.718Y15.392
X15.718Y15.373
Y14.421
X15.718Y14.402
X15.719Y14.382
X15.72Y14.362
X15.722Y14.343
X15.724Y14.323
X15.727Y14.304
X15.73Y14.285
X15.733Y14.265
X15.738Y14.246
X15.742Y14.227
X15.747Y14.208
X15.753Y14.189
X15.758Y14.17
X15.765Y14.152
X15.772Y14.133
X15.779Y14.115
X15.787Y14.097
X15.795Y14.079
X15.803Y14.062
X15.813Y14.044
X15.822Y14.027
X15.832Y14.01
X15.842Y13.993
X15.853Y13.977
X15.864Y13.961
X15.876Y13.945
X15.887Y13.929
X15.9Y13.914
X15.912Y13.899
X15.925Y13.884
X15.939Y13.87
X15.952Y13.856
X15.966Y13.842
X15.981Y13.829
X15.996Y13.816
X16.011Y13.803
X16.026Y13.791
X16.042Y13.779
X16.057Y13.767
X16.074Y13.756
X16.09Y13.745
X16.107Y13.735
X16.124Y13.725
X16.141Y13.716
X16.158Y13.707
X16.176Y13.698
X16.194Y13.69
X16.212Y13.682
X16.23Y13.675
X16.249Y13.668
X16.267Y13.662
X16.286Y13.656
X16.305Y13.65
X16.324Y13.645
X16.343Y13.641
X16.362Y13.637
X16.381Y13.633
X16.401Y13.63
X16.42Y13.627
X16.44Y13.625
X16.459Y13.623
X16.479Y13.622
X16.498Y13.622
X16.518Y13.621
X21.14
X21.16Y13.622
X21.179Y13.622
X21.199Y13.623
X21.219Y13.625
X21.238Y13.627
X21.258Y13.63
X21.277Y13.633
X21.296Y13.637
X21.315Y13.641
X21.335Y13.645
X21.354Y13.65
X21.372Y13.656
X21.391Y13.662
X21.41Y13.668
X21.428Y13.675
X21.446Y13.682
X21.464Y13.69
X21.482Y13.698
X21.5Y13.707
X21.517Y13.716
X21.534Y13.725
X21.551Y13.735
X21.568Y13.745
X21.585Y13.756
X21.601Y13.767
X21.617Y13.779
X21.632Y13.791
X21.648Y13.803
X21.663Y13.816
X21.677Y13.829
X21.692Y13.842
X21.706Y13.856
X21.72Y13.87
X21.733Y13.884
X21.746Y13.899
X21.759Y13.914
X21.771Y13.929
X21.783Y13.945
X21.794Y13.961
X21.805Y13.977
X21.816Y13.993
X21.826Y14.01
X21.836Y14.027
X21.846Y14.044
X21.855Y14.062
X21.863Y14.079
X21.872Y14.097
X21.879Y14.115
X21.887Y14.133
X21.893Y14.152
X21.9Y14.17
X21.906Y14.189
X21.911Y14.208
X21.916Y14.227
X21.921Y14.246
X21.925Y14.265
X21.928Y14.285
X21.932Y14.304
X21.934Y14.323
X21.936Y14.343
X21.938Y14.362
X21.939Y14.382
X21.94Y14.402
X21.94Y14.421
Y15.373
X21.94Y15.392
X21.939Y15.412
X21.938Y15.432
X21.936Y15.451
X21.934Y15.471
X21.932Y15.49
X21.928Y15.509
X21.925Y15.529
X21.921Y15.548
X21.916Y15.567
X21.911Y15.586
X21.906Y15.605
X21.9Y15.624
X21.893Y15.642
X21.887Y15.661
X21.879Y15.679
X21.872Y15.697
X21.863Y15.715
X21.855Y15.732
X21.846Y15.75
X21.836Y15.767
X21.826Y15.784
X21.816Y15.801
X21.805Y15.817
X21.794Y15.833
X21.783Y15.849
X21.771Y15.865
X21.759Y15.88
X21.746Y15.895
X21.733Y15.91
X21.72Y15.924
X21.706Y15.938
X21.692Y15.952
X21.677Y15.965
X21.663Y15.978
X21.648Y15.991
X21.632Y16.003
X21.617Y16.015
X21.601Y16.027
X21.585Y16.038
X21.568Y16.049
X21.551Y16.059
X21.534Y16.069
X21.517Y16.078
X21.5Y16.087
X21.482Y16.096
X21.464Y16.104
X21.446Y16.112
X21.428Y16.119
X21.41Y16.126
X21.391Y16.132
X21.372Y16.138
X21.354Y16.144
X21.335Y16.149
X21.315Y16.153
X21.296Y16.157
X21.277Y16.161
X21.258Y16.164
X21.238Y16.167
X21.219Y16.169
X21.199Y16.171
X21.179Y16.172
X21.16Y16.172
X21.14Y16.173
X20.957
X21.543Y16.514
X21.56Y16.524
X21.576Y16.534
X21.592Y16.545
X21.608Y16.556
X21.624Y16.568
X21.639Y16.58
X21.654Y16.592
X21.669Y16.605
X21.683Y16.618
X21.697Y16.631
X21.711Y16.645
X21.724Y16.659
X21.741Y16.677
Y16.162
X21.742Y16.143
X21.742Y16.123
X21.744Y16.103
X21.745Y16.084
X21.747Y16.064
X21.75Y16.045
X21.753Y16.026
X21.757Y16.006
X21.761Y15.987
X21.765Y15.968
X21.77Y15.949
X21.776Y15.93
X21.782Y15.911
X21.788Y15.893
X21.795Y15.874
X21.802Y15.856
X21.81Y15.838
X21.818Y15.82
X21.827Y15.803
X21.836Y15.785
X21.845Y15.768
X21.855Y15.751
X21.865Y15.734
X21.876Y15.718
X21.887Y15.702
X21.899Y15.686
X21.911Y15.67
X21.923Y15.655
X21.936Y15.64
X21.949Y15.625
X21.962Y15.611
X21.976Y15.597
X21.99Y15.583
X22.004Y15.57
X22.019Y15.557
X22.034Y15.544
X22.049Y15.532
X22.065Y15.52
X22.081Y15.508
X22.097Y15.497
X22.113Y15.486
X22.13Y15.476
X22.147Y15.466
X22.164Y15.457
X22.182Y15.448
X22.199Y15.439
X22.217Y15.431
X22.235Y15.423
X22.253Y15.416
X22.272Y15.409
X22.29Y15.403
X22.309Y15.397
X22.328Y15.391
X22.347Y15.386
X22.366Y15.382
X22.385Y15.378
X22.405Y15.374
X22.424Y15.371
X22.443Y15.368
X22.463Y15.366
X22.483Y15.364
X22.502Y15.363
X22.522Y15.363
X22.541Y15.362
X25.571
Y14.811
X25.571Y14.792
X25.572Y14.772
X25.573Y14.753
X25.575Y14.733
X25.577Y14.714
X25.58Y14.694
X25.583Y14.675
X25.586Y14.655
X25.59Y14.636
X25.595Y14.617
X25.6Y14.598
X25.605Y14.579
X25.611Y14.561
X25.618Y14.542
X25.624Y14.524
X25.632Y14.505
X25.64Y14.487
X25.648Y14.469
X25.656Y14.452
X25.665Y14.434
X25.675Y14.417
X25.685Y14.4
X25.695Y14.383
X25.706Y14.367
X25.717Y14.351
X25.728Y14.335
X25.74Y14.319
X25.752Y14.304
X25.765Y14.289
X25.778Y14.274
X25.791Y14.26
X25.805Y14.246
X25.819Y14.232
X25.834Y14.219
X25.848Y14.206
X25.863Y14.193
X25.879Y14.181
X25.894Y14.169
X25.91Y14.157
X25.926Y14.146
X25.943Y14.136
X25.96Y14.125
X25.977Y14.115
X25.994Y14.106
X26.011Y14.097
X26.029Y14.088
X26.047Y14.08
X26.065Y14.072
X26.083Y14.065
X26.101Y14.058
X26.12Y14.052
X26.139Y14.046
X26.158Y14.04
X26.177Y14.035
X26.196Y14.031
X26.215Y14.027
X26.234Y14.023
X26.253Y14.02
X26.273Y14.017
X26.292Y14.015
X26.312Y14.014
X26.332Y14.012
X26.351Y14.012
X26.371Y14.011
X27.163
X27.183Y14.012
X27.203Y14.012
X27.222Y14.014
X27.242Y14.015
X27.261Y14.017
X27.281Y14.02
X27.3Y14.023
X27.32Y14.027
X27.339Y14.031
X27.358Y14.035
X27.377Y14.04
X27.396Y14.046
X27.414Y14.052
X27.433Y14.058
X27.451Y14.065
X27.47Y14.072
X27.488Y14.08
X27.505Y14.088
X27.523Y14.097
X27.541Y14.106
X27.558Y14.115
X27.575Y14.125
X27.591Y14.136
X27.608Y14.146
X27.624Y14.157
X27.64Y14.169
X27.656Y14.181
X27.671Y14.193
X27.686Y14.206
X27.701Y14.219
X27.715Y14.232
X27.729Y14.246
X27.743Y14.26
X27.756Y14.274
X27.769Y14.289
X27.782Y14.304
X27.794Y14.319
X27.806Y14.335
X27.818Y14.351
X27.829Y14.367
X27.839Y14.383
X27.85Y14.4
X27.86Y14.417
X27.869Y14.434
X27.878Y14.452
X27.887Y14.469
X27.895Y14.487
X27.903Y14.505
X27.91Y14.524
X27.917Y14.542
X27.923Y14.561
X27.929Y14.579
X27.934Y14.598
X27.939Y14.617
X27.944Y14.636
X27.948Y14.655
X27.952Y14.675
X27.955Y14.694
X27.957Y14.714
X27.96Y14.733
X27.961Y14.753
X27.962Y14.772
X27.963Y14.792
X27.963Y14.811
Y18.515
X27.963Y18.535
X27.962Y18.554
X27.961Y18.574
X27.96Y18.594
X27.957Y18.613
X27.955Y18.633
X27.952Y18.652
X27.948Y18.671
X27.944Y18.69
X27.939Y18.71
X27.934Y18.729
X27.929Y18.747
X27.923Y18.766
X27.929Y18.784
X27.934Y18.803
X27.939Y18.822
X27.944Y18.841
X27.948Y18.86
X27.952Y18.879
X27.955Y18.899
X27.957Y18.918
X27.96Y18.938
X27.961Y18.957
X27.962Y18.977
X27.963Y18.996
X27.963Y19.016
Y19.967
X27.963Y19.987
X27.962Y20.007
X27.961Y20.026
X27.96Y20.046
X27.957Y20.065
X27.955Y20.085
X27.952Y20.104
X27.948Y20.123
X27.944Y20.143
X27.939Y20.162
X27.934Y20.181
X27.929Y20.2
X27.923Y20.218
X27.917Y20.237
X27.91Y20.255
X27.903Y20.273
X27.895Y20.292
X27.887Y20.309
X27.878Y20.327
X27.869Y20.344
X27.86Y20.362
X27.85Y20.379
X27.839Y20.395
X27.829Y20.412
X27.818Y20.428
X27.806Y20.444
X27.794Y20.46
X27.782Y20.475
X27.769Y20.49
X27.756Y20.505
X27.743Y20.519
X27.729Y20.533
X27.715Y20.547
X27.701Y20.56
X27.686Y20.573
X27.671Y20.586
X27.656Y20.598
X27.64Y20.61
X27.624Y20.621
X27.608Y20.632
X27.591Y20.643
X27.575Y20.654
X27.558Y20.663
X27.541Y20.673
X27.523Y20.682
X27.505Y20.691
X27.488Y20.699
X27.47Y20.706
X27.451Y20.714
X27.433Y20.721
X27.414Y20.727
X27.396Y20.733
X27.377Y20.738
X27.358Y20.743
X27.339Y20.748
X27.32Y20.752
X27.3Y20.756
X27.281Y20.759
X27.261Y20.761
X27.242Y20.763
X27.222Y20.765
X27.203Y20.766
X27.183Y20.767
X27.163Y20.767
X24.011Y20.768
X24.008Y20.802
X24.007Y20.833
X24.007Y20.865
X24.008Y20.895
X24.011Y20.93
X24.035Y20.93
X27.163
X27.183Y20.93
X27.203Y20.931
X27.222Y20.932
X27.242Y20.934
X27.261Y20.936
X27.281Y20.939
X27.3Y20.942
X27.32Y20.945
X27.339Y20.949
X27.358Y20.954
X27.377Y20.959
X27.396Y20.964
X27.414Y20.97
X27.433Y20.977
X27.451Y20.984
X27.47Y20.991
X27.488Y20.999
X27.505Y21.007
X27.523Y21.015
X27.541Y21.024
X27.558Y21.034
X27.575Y21.044
X27.591Y21.054
X27.608Y21.065
X27.624Y21.076
X27.64Y21.087
X27.656Y21.099
X27.671Y21.112
X27.686Y21.124
X27.701Y21.137
X27.715Y21.151
X27.729Y21.164
X27.743Y21.178
X27.756Y21.193
X27.769Y21.207
X27.782Y21.223
X27.794Y21.238
X27.806Y21.253
X27.818Y21.269
X27.829Y21.286
X27.839Y21.302
X27.85Y21.319
X27.86Y21.336
X27.869Y21.353
X27.878Y21.37
X27.887Y21.388
X27.895Y21.406
X27.903Y21.424
X27.91Y21.442
X27.917Y21.461
X27.923Y21.479
X27.929Y21.498
X27.934Y21.517
X27.939Y21.536
X27.944Y21.555
X27.948Y21.574
X27.952Y21.593
X27.955Y21.613
X27.957Y21.632
X27.96Y21.652
X27.961Y21.671
X27.962Y21.691
X27.963Y21.71
X27.963Y21.73
Y22.681
X27.963Y22.701
X27.962Y22.721
X27.961Y22.74
X27.96Y22.76
X27.957Y22.779
X27.955Y22.799
X27.952Y22.818
X27.948Y22.837
X27.944Y22.857
X27.939Y22.876
X27.934Y22.895
X27.929Y22.914
X27.923Y22.932
X27.917Y22.951
X27.91Y22.969
X27.903Y22.988
X27.895Y23.006
X27.887Y23.023
X27.878Y23.041
X27.869Y23.059
X27.86Y23.076
X27.85Y23.093
X27.835Y23.116
X27.85Y23.139
X27.86Y23.156
X27.869Y23.173
X27.878Y23.19
X27.887Y23.208
X27.895Y23.226
X27.903Y23.244
X27.91Y23.262
X27.917Y23.281
X27.923Y23.299
X27.929Y23.318
X27.934Y23.337
X27.939Y23.356
X27.944Y23.375
X27.948Y23.394
X27.952Y23.413
X27.955Y23.433
X27.957Y23.452
X27.96Y23.472
X27.961Y23.491
X27.962Y23.511
X27.963Y23.53
X27.963Y23.55
Y24.501
X27.963Y24.521
X27.962Y24.541
X27.961Y24.56
X27.96Y24.58
X27.957Y24.599
X27.955Y24.619
X27.952Y24.638
X27.948Y24.658
X27.944Y24.677
X27.939Y24.696
X27.934Y24.715
X27.929Y24.734
X27.923Y24.752
X27.917Y24.771
X27.91Y24.789
X27.903Y24.808
X27.895Y24.826
X27.887Y24.844
X27.878Y24.861
X27.869Y24.879
X27.86Y24.896
X27.85Y24.913
X27.839Y24.929
X27.829Y24.946
X27.818Y24.962
X27.806Y24.978
X27.794Y24.994
X27.782Y25.009
X27.769Y25.024
X27.756Y25.039
X27.743Y25.053
X27.729Y25.067
X27.715Y25.081
X27.701Y25.094
X27.686Y25.107
X27.671Y25.12
X27.656Y25.132
X27.64Y25.144
X27.624Y25.156
X27.608Y25.167
X27.591Y25.177
X27.575Y25.188
X27.558Y25.198
X27.541Y25.207
X27.523Y25.216
X27.505Y25.225
X27.488Y25.233
X27.47Y25.241
X27.451Y25.248
X27.433Y25.255
X27.414Y25.261
X27.396Y25.267
X27.377Y25.273
X27.358Y25.278
X27.339Y25.282
X27.32Y25.286
X27.3Y25.29
X27.281Y25.293
X27.261Y25.295
X27.242Y25.298
X27.222Y25.299
X27.203Y25.301
X27.183Y25.301
X27.163Y25.301
X26.98
X27.566Y25.643
X27.583Y25.654
X27.6Y25.664
X27.617Y25.675
X27.633Y25.687
X27.649Y25.699
X27.664Y25.711
X27.68Y25.723
X27.695Y25.736
X27.709Y25.75
X27.724Y25.764
X27.738Y25.778
X27.751Y25.792
X27.765Y25.807
X27.778Y25.822
X27.79Y25.837
X27.802Y25.853
X27.814Y25.869
X27.825Y25.885
X27.836Y25.902
X27.847Y25.919
X27.857Y25.936
X27.867Y25.953
X27.876Y25.971
X27.885Y25.989
X27.893Y26.007
X27.901Y26.025
X27.909Y26.043
X27.916Y26.062
X27.922Y26.081
X27.928Y26.1
X27.934Y26.119
X27.939Y26.138
X27.944Y26.157
X27.948Y26.177
X27.951Y26.196
X27.955Y26.216
X27.957Y26.235
X27.96Y26.255
X27.961Y26.275
X27.962Y26.295
X27.963Y26.315
X27.963Y26.334
Y27.311
X27.963Y27.331
X27.962Y27.35
X27.961Y27.37
X27.96Y27.39
X27.957Y27.409
X27.955Y27.429
X27.952Y27.448
X27.948Y27.467
X27.944Y27.486
X27.939Y27.506
X27.934Y27.525
X27.929Y27.543
X27.923Y27.562
X27.917Y27.581
X27.91Y27.599
X27.903Y27.617
X27.895Y27.635
X27.887Y27.653
X27.878Y27.671
X27.869Y27.688
X27.86Y27.706
X27.85Y27.722
X27.839Y27.739
X27.829Y27.756
X27.818Y27.772
X27.806Y27.788
X27.794Y27.803
X27.782Y27.819
X27.769Y27.834
X27.756Y27.848
X27.743Y27.863
X27.729Y27.877
X27.715Y27.891
X27.701Y27.904
X27.686Y27.917
X27.671Y27.93
X27.656Y27.942
X27.64Y27.954
X27.624Y27.965
X27.608Y27.976
X27.591Y27.987
X27.575Y27.997
X27.558Y28.007
X27.541Y28.017
X27.523Y28.026
X27.505Y28.034
X27.488Y28.043
X27.47Y28.05
X27.451Y28.058
X27.433Y28.064
X27.414Y28.071
X27.396Y28.077
X27.377Y28.082
X27.358Y28.087
X27.339Y28.092
X27.32Y28.096
X27.3Y28.099
X27.281Y28.103
X27.261Y28.105
X27.242Y28.107
X27.222Y28.109
X27.203Y28.11
X27.183Y28.111
X27.163Y28.111
X24.134
Y29.359
X27.163
X27.183Y29.359
X27.203Y29.36
X27.222Y29.361
X27.242Y29.362
X27.261Y29.365
X27.281Y29.367
X27.3Y29.37
X27.32Y29.374
X27.339Y29.378
X27.358Y29.383
X27.377Y29.388
X27.396Y29.393
X27.414Y29.399
X27.433Y29.405
X27.451Y29.412
X27.47Y29.42
X27.488Y29.427
X27.505Y29.435
X27.523Y29.444
X27.541Y29.453
X27.558Y29.463
X27.575Y29.472
X27.591Y29.483
X27.608Y29.493
X27.624Y29.505
X27.64Y29.516
X27.656Y29.528
X27.671Y29.54
X27.686Y29.553
X27.701Y29.566
X27.715Y29.579
X27.729Y29.593
X27.743Y29.607
X27.756Y29.621
X27.769Y29.636
X27.782Y29.651
X27.794Y29.666
X27.806Y29.682
X27.818Y29.698
X27.829Y29.714
X27.839Y29.731
X27.85Y29.747
X27.86Y29.764
X27.869Y29.782
X27.878Y29.799
X27.887Y29.817
X27.895Y29.834
X27.903Y29.852
X27.91Y29.871
X27.917Y29.889
X27.923Y29.908
X27.929Y29.926
X27.934Y29.945
X27.939Y29.964
X27.944Y29.983
X27.948Y30.003
X27.952Y30.022
X27.955Y30.041
X27.957Y30.061
X27.96Y30.08
X27.961Y30.1
X27.962Y30.119
X27.963Y30.139
X27.963Y30.159
Y31.11
X27.963Y31.13
X27.962Y31.149
X27.961Y31.169
X27.96Y31.188
X27.957Y31.208
X27.955Y31.227
X27.952Y31.247
X27.948Y31.266
X27.944Y31.285
X27.939Y31.304
X27.934Y31.323
X27.929Y31.342
X27.923Y31.361
X27.917Y31.38
X27.91Y31.398
X27.903Y31.416
X27.895Y31.434
X27.887Y31.452
X27.878Y31.47
X27.869Y31.487
X27.86Y31.504
X27.85Y31.521
X27.839Y31.538
X27.829Y31.554
X27.818Y31.571
X27.806Y31.587
X27.794Y31.602
X27.782Y31.618
X27.769Y31.633
X27.756Y31.647
X27.743Y31.662
X27.729Y31.676
X27.715Y31.689
X27.701Y31.703
X27.686Y31.716
X27.671Y31.728
X27.656Y31.741
X27.64Y31.753
X27.624Y31.764
X27.608Y31.775
X27.591Y31.786
X27.575Y31.796
X27.558Y31.806
X27.541Y31.816
X27.523Y31.825
X27.505Y31.833
X27.488Y31.841
X27.47Y31.849
X27.451Y31.856
X27.433Y31.863
X27.414Y31.87
X27.396Y31.876
X27.377Y31.881
X27.358Y31.886
X27.339Y31.891
X27.32Y31.895
X27.3Y31.898
X27.281Y31.901
X27.261Y31.904
X27.242Y31.906
X27.222Y31.908
X27.203Y31.909
X27.183Y31.91
X27.163Y31.91
X25.488
X27.425Y32.58
X27.444Y32.586
X27.462Y32.594
X27.48Y32.601
X27.498Y32.609
X27.516Y32.618
X27.534Y32.627
X27.551Y32.636
X27.569Y32.646
X27.586Y32.656
X27.602Y32.667
X27.619Y32.678
X27.635Y32.689
X27.651Y32.701
X27.666Y32.713
X27.681Y32.726
X27.696Y32.739
X27.711Y32.752
X27.725Y32.766
X27.739Y32.78
X27.753Y32.795
X27.766Y32.809
X27.779Y32.825
X27.791Y32.84
X27.803Y32.856
X27.815Y32.872
X27.826Y32.888
X27.837Y32.904
X27.848Y32.921
X27.858Y32.938
X27.867Y32.956
X27.877Y32.973
X27.885Y32.991
X27.894Y33.009
X27.902Y33.027
X27.909Y33.045
X27.916Y33.064
X27.922Y33.083
X27.928Y33.102
X27.934Y33.121
X27.939Y33.14
X27.944Y33.159
X27.948Y33.178
X27.951Y33.198
X27.955Y33.217
X27.957Y33.237
X27.96Y33.257
X27.961Y33.276
X27.962Y33.296
X27.963Y33.316
X27.963Y33.336
Y34.388
X27.963Y34.408
X27.962Y34.428
X27.961Y34.447
X27.96Y34.467
X27.957Y34.487
X27.955Y34.506
X27.952Y34.525
X27.948Y34.545
X27.944Y34.564
X27.939Y34.583
X27.934Y34.602
X27.929Y34.621
X27.923Y34.64
X27.917Y34.658
X27.91Y34.677
X27.902Y34.695
X27.895Y34.713
X27.886Y34.731
X27.878Y34.749
X27.869Y34.766
X27.859Y34.783
X27.849Y34.8
X27.839Y34.817
X27.828Y34.834
X27.817Y34.85
X27.805Y34.866
X27.794Y34.881
X27.781Y34.897
X27.769Y34.912
X27.756Y34.926
X27.742Y34.941
X27.728Y34.955
X27.714Y34.969
X27.7Y34.982
X27.685Y34.995
X27.67Y35.008
X27.655Y35.02
X27.639Y35.032
X27.623Y35.043
X27.607Y35.054
X27.59Y35.065
X27.574Y35.075
X27.557Y35.085
X27.539Y35.095
X27.522Y35.104
X27.504Y35.112
X27.486Y35.12
X27.468Y35.128
X27.45Y35.135
X27.429Y35.143
X27.451Y35.151
X27.469Y35.159
X27.487Y35.166
X27.505Y35.175
X27.523Y35.183
X27.54Y35.192
X27.558Y35.202
X27.575Y35.212
X27.591Y35.222
X27.608Y35.233
X27.624Y35.244
X27.64Y35.255
X27.656Y35.267
X27.671Y35.279
X27.686Y35.292
X27.701Y35.305
X27.715Y35.318
X27.729Y35.332
X27.743Y35.346
X27.756Y35.361
X27.769Y35.375
X27.782Y35.39
X27.794Y35.406
X27.806Y35.421
X27.817Y35.437
X27.829Y35.453
X27.839Y35.47
X27.85Y35.487
X27.859Y35.504
X27.869Y35.521
X27.878Y35.538
X27.887Y35.556
X27.895Y35.574
X27.903Y35.592
X27.91Y35.61
X27.917Y35.628
X27.923Y35.647
X27.929Y35.666
X27.934Y35.685
X27.939Y35.704
X27.944Y35.723
X27.948Y35.742
X27.952Y35.761
X27.955Y35.781
X27.957Y35.8
X27.96Y35.82
X27.961Y35.839
X27.962Y35.859
X27.963Y35.878
X27.963Y35.898
Y36.906
X27.963Y36.926
X27.962Y36.945
X27.961Y36.965
X27.96Y36.985
X27.957Y37.004
X27.955Y37.024
X27.952Y37.043
X27.948Y37.062
X27.944Y37.081
X27.939Y37.1
X27.934Y37.119
X27.929Y37.138
X27.923Y37.157
X27.917Y37.176
X27.91Y37.194
X27.903Y37.212
X27.895Y37.23
X27.887Y37.248
X27.878Y37.266
X27.869Y37.283
X27.86Y37.3
X27.85Y37.317
X27.839Y37.334
X27.829Y37.35
X27.818Y37.367
X27.806Y37.383
X27.794Y37.398
X27.782Y37.414
X27.769Y37.429
X27.756Y37.443
X27.743Y37.458
X27.729Y37.472
X27.715Y37.485
X27.701Y37.499
X27.686Y37.512
X27.671Y37.524
X27.656Y37.537
X27.64Y37.549
X27.624Y37.56
X27.608Y37.571
X27.592Y37.582
X27.575Y37.592
X27.558Y37.602
X27.541Y37.612
X27.512Y37.626
X27.536Y37.638
X27.553Y37.647
X27.57Y37.657
X27.587Y37.667
X27.604Y37.678
X27.62Y37.689
X27.636Y37.701
X27.652Y37.712
X27.668Y37.725
X27.683Y37.737
X27.698Y37.75
X27.712Y37.764
X27.726Y37.777
X27.74Y37.792
X27.754Y37.806
X27.767Y37.821
X27.78Y37.836
X27.792Y37.851
X27.804Y37.867
X27.816Y37.883
X27.827Y37.899
X27.838Y37.916
X27.848Y37.932
X27.858Y37.949
X27.868Y37.967
X27.877Y37.984
X27.886Y38.002
X27.894Y38.02
X27.902Y38.038
X27.909Y38.056
X27.916Y38.075
X27.923Y38.093
X27.929Y38.112
X27.934Y38.131
X27.939Y38.15
X27.944Y38.17
X27.948Y38.189
X27.952Y38.208
X27.955Y38.228
X27.957Y38.247
X27.96Y38.267
X27.961Y38.287
X27.962Y38.306
X27.963Y38.326
X27.963Y38.346
Y39.284
X27.963Y39.304
X27.962Y39.323
X27.961Y39.343
X27.96Y39.362
X27.958Y39.382
X27.955Y39.401
X27.952Y39.42
X27.948Y39.44
X27.944Y39.459
X27.94Y39.478
X27.935Y39.497
X27.929Y39.515
X27.924Y39.534
X27.917Y39.552
X27.91Y39.571
X27.903Y39.589
X27.896Y39.607
X27.887Y39.625
X27.879Y39.642
X27.87Y39.659
X27.861Y39.677
X27.851Y39.694
X27.841Y39.71
X27.83Y39.727
X27.819Y39.743
X27.808Y39.759
X27.796Y39.774
X27.784Y39.789
X27.771Y39.804
X27.758Y39.819
X27.745Y39.833
X27.732Y39.848
X27.718Y39.861
X27.704Y39.875
X27.689Y39.888
X27.674Y39.9
X27.659Y39.912
X27.643Y39.924
X27.628Y39.936
X27.612Y39.947
X27.595Y39.958
X27.579Y39.968
X27.562Y39.978
X27.545Y39.988
X27.519Y40.001
X27.545Y40.014
X27.562Y40.024
X27.579Y40.034
X27.595Y40.044
X27.612Y40.055
X27.628Y40.066
X27.643Y40.077
X27.659Y40.089
X27.674Y40.101
X27.689Y40.114
X27.703Y40.127
X27.718Y40.14
X27.732Y40.154
X27.745Y40.168
X27.758Y40.183
X27.771Y40.197
X27.784Y40.212
X27.796Y40.228
X27.808Y40.243
X27.819Y40.259
X27.83Y40.275
X27.841Y40.292
X27.851Y40.308
X27.861Y40.325
X27.87Y40.342
X27.879Y40.36
X27.887Y40.377
X27.896Y40.395
X27.903Y40.413
X27.91Y40.431
X27.917Y40.449
X27.924Y40.468
X27.929Y40.486
X27.935Y40.505
X27.94Y40.524
X27.944Y40.543
X27.948Y40.562
X27.952Y40.581
X27.955Y40.601
X27.958Y40.62
X27.96Y40.639
X27.961Y40.659
X27.962Y40.678
X27.963Y40.698
X27.963Y40.717
Y41.726
X27.963Y41.746
X27.962Y41.765
X27.961Y41.785
X27.96Y41.805
X27.957Y41.824
X27.955Y41.844
X27.952Y41.863
X27.948Y41.883
X27.944Y41.902
X27.939Y41.921
X27.934Y41.94
X27.929Y41.959
X27.923Y41.978
X27.916Y41.996
X27.91Y42.015
X27.902Y42.033
X27.894Y42.051
X27.886Y42.069
X27.878Y42.087
X27.868Y42.104
X27.859Y42.121
X27.849Y42.138
X27.839Y42.155
X27.828Y42.172
X27.817Y42.188
X27.805Y42.204
X27.793Y42.22
X27.781Y42.235
X27.768Y42.25
X27.755Y42.265
X27.742Y42.279
X27.728Y42.293
X27.714Y42.307
X27.699Y42.32
X27.684Y42.333
X27.669Y42.346
X27.654Y42.358
X27.638Y42.37
X27.622Y42.381
X27.606Y42.393
X27.589Y42.403
X27.573Y42.414
X27.556Y42.423
X27.538Y42.433
X27.521Y42.442
X27.503Y42.45
X27.485Y42.459
X27.467Y42.466
X27.449Y42.474
X27.43Y42.48
X27.412Y42.487
X27.393Y42.493
X27.374Y42.498
X27.355Y42.503
X27.336Y42.507
X27.316Y42.511
X27.297Y42.515
X27.277Y42.518
X27.258Y42.521
X27.238Y42.523
X27.219Y42.524
X27.199Y42.525
X27.179Y42.526
X27.16Y42.526
X27.14Y42.526
X27.12Y42.525
X27.101Y42.524
X27.081Y42.522
X27.062Y42.52
X27.042Y42.517
X27.023Y42.514
X27.003Y42.51
X26.984Y42.506
X26.965Y42.501
X26.946Y42.496
X22.324Y41.19
X22.305Y41.184
X22.286Y41.178
X22.268Y41.172
X22.25Y41.165
X22.232Y41.157
X22.214Y41.149
X22.196Y41.141
X22.178Y41.133
X22.161Y41.124
X22.144Y41.114
X22.127Y41.104
X22.111Y41.094
X22.094Y41.083
X22.078Y41.072
X22.062Y41.06
X22.047Y41.048
X22.032Y41.036
X22.017Y41.024
X22.002Y41.011
X21.988Y40.997
X21.974Y40.984
X21.96Y40.969
X21.947Y40.955
X21.934Y40.94
X21.921Y40.925
X21.909Y40.91
X21.898Y40.895
X21.886Y40.879
X21.875Y40.863
X21.864Y40.846
X21.854Y40.829
X21.844Y40.813
X21.835Y40.795
X21.826Y40.778
X21.818Y40.76
X21.809Y40.743
X21.802Y40.725
X21.795Y40.706
X21.788Y40.688
X21.781Y40.67
X21.776Y40.651
X21.77Y40.632
X21.765Y40.613
X21.761Y40.594
X21.757Y40.575
X21.753Y40.556
X21.75Y40.537
X21.747Y40.517
X21.745Y40.498
X21.744Y40.478
X21.742Y40.459
X21.742Y40.439
X21.741Y40.42
Y39.885
X21.723Y39.905
X21.71Y39.919
X21.696Y39.932
X21.682Y39.946
X21.667Y39.959
X21.653Y39.971
X21.638Y39.984
X21.622Y39.996
X21.607Y40.007
X21.591Y40.018
X21.574Y40.029
X21.558Y40.039
X21.541Y40.049
X21.524Y40.059
X21.507Y40.068
X21.49Y40.077
X21.472Y40.085
X21.454Y40.093
X21.436Y40.1
X21.418Y40.107
X21.4Y40.114
X21.381Y40.12
X21.363Y40.126
X20.51Y40.373
X21.367Y40.626
X21.385Y40.631
X21.404Y40.638
X21.423Y40.644
X21.441Y40.652
X21.459Y40.659
X21.477Y40.667
X21.495Y40.676
X21.513Y40.685
X21.53Y40.694
X21.547Y40.704
X21.564Y40.714
X21.581Y40.725
X21.597Y40.736
X21.613Y40.748
X21.629Y40.759
X21.644Y40.772
X21.66Y40.784
X21.674Y40.797
X21.689Y40.811
X21.703Y40.824
X21.717Y40.839
X21.731Y40.853
X21.744Y40.868
X21.757Y40.883
X21.769Y40.898
X21.781Y40.914
X21.793Y40.93
X21.804Y40.946
X21.815Y40.963
X21.825Y40.979
X21.835Y40.996
X21.845Y41.014
X21.854Y41.031
X21.862Y41.049
X21.871Y41.067
X21.879Y41.085
X21.886Y41.103
X21.893Y41.122
X21.899Y41.14
X21.905Y41.159
X21.911Y41.178
X21.916Y41.197
X21.92Y41.216
X21.925Y41.236
X21.928Y41.255
X21.931Y41.275
X21.934Y41.294
X21.936Y41.314
X21.938Y41.334
X21.939Y41.353
X21.94Y41.373
X21.94Y41.393
Y42.35
X21.94Y42.37
X21.939Y42.39
X21.938Y42.409
X21.936Y42.429
X21.934Y42.449
X21.931Y42.468
X21.928Y42.488
X21.925Y42.507
X21.921Y42.526
X21.916Y42.545
X21.911Y42.564
X21.905Y42.583
X21.9Y42.602
X21.893Y42.621
X21.886Y42.639
X21.879Y42.658
X21.871Y42.676
X21.863Y42.693
X21.854Y42.711
X21.845Y42.729
X21.836Y42.746
X21.826Y42.763
X21.815Y42.78
X21.804Y42.796
X21.793Y42.812
X21.782Y42.828
X21.77Y42.844
X21.757Y42.859
X21.745Y42.874
X21.732Y42.889
X21.718Y42.903
X21.704Y42.918
X21.69Y42.931
X21.676Y42.945
X21.661Y42.958
X21.646Y42.97
X21.63Y42.983
X21.615Y42.994
X21.599Y43.006
X21.582Y43.017
X21.566Y43.028
X21.549Y43.038
X21.532Y43.048
X21.515Y43.057
X21.497Y43.066
X21.479Y43.075
X21.462Y43.083
X21.443Y43.091
X21.425Y43.098
X21.407Y43.105
X21.388Y43.111
X21.369Y43.117
X21.35Y43.122
X21.331Y43.127
X21.312Y43.132
X21.293Y43.136
X21.273Y43.139
X21.254Y43.142
X21.234Y43.145
X21.215Y43.147
X21.195Y43.148
X21.175Y43.15
X21.156Y43.15
X21.136Y43.15
X21.116Y43.15
X21.097Y43.149
X21.077Y43.148
X21.057Y43.146
X21.038Y43.144
X21.018Y43.141
X20.999Y43.138
X20.979Y43.134
X20.96Y43.13
X20.941Y43.125
X20.922Y43.12
X20.903Y43.114
X20.884Y43.108
X16.262Y41.549
X16.244Y41.542
X16.226Y41.535
X16.208Y41.528
X16.19Y41.52
X16.172Y41.512
X16.154Y41.503
X16.137Y41.494
X16.12Y41.485
X16.103Y41.475
X16.087Y41.464
X16.07Y41.454
X16.054Y41.443
G0Z2
X17.95Y38.648
G1Z-0.797F150
X17.968Y38.644Z-0.796F300
X18.012Y38.638Z-0.789
X18.068Y38.627Z-0.779
X18.112Y38.622Z-0.772
X18.168Y38.611Z-0.763
X18.212Y38.605Z-0.755
X18.268Y38.594Z-0.746
X18.312Y38.588Z-0.739
X18.368Y38.577Z-0.729
X18.412Y38.572Z-0.722
X18.468Y38.561Z-0.712
X18.505Y38.556Z-0.707
X18.555Y38.547Z-0.698
X18.568Y38.544Z-0.696
X18.605Y38.539Z-0.69
X18.668Y38.527Z-0.679
X18.698Y38.524Z-0.674
X18.768Y38.511Z-0.663
X18.798Y38.507Z-0.657
X18.829Y38.501Z-0.653
X18.879Y38.493Z-0.645
X18.898Y38.491Z-0.641
X18.929Y38.485Z-0.636
X18.99Y38.474Z-0.626
X18.998Y38.473Z-0.625
X19.09Y38.458Z-0.609
X19.098Y38.457Z-0.608
X19.19Y38.441Z-0.593
X19.198Y38.44Z-0.591
X19.29Y38.424Z-0.576
X19.298Y38.423Z-0.575
X19.39Y38.407Z-0.559
X19.398Y38.407Z-0.558
X19.49Y38.391Z-0.543
X19.498Y38.39Z-0.541
X19.59Y38.374Z-0.526
X19.598Y38.373Z-0.525
X19.69Y38.357Z-0.509
X19.698Y38.357Z-0.508
X19.79Y38.341Z-0.493
X19.798Y38.34Z-0.491
X19.89Y38.324Z-0.476
X19.898Y38.323Z-0.474
X19.99Y38.307Z-0.459
X19.998Y38.307Z-0.458
X20.09Y38.291Z-0.442
X20.098Y38.29Z-0.441
X20.19Y38.274Z-0.426
X20.198Y38.274Z-0.424
X20.29Y38.257Z-0.409
X20.298Y38.257Z-0.408
X20.39Y38.241Z-0.392
X20.398Y38.24Z-0.391
X20.49Y38.224Z-0.376
X20.498Y38.224Z-0.374
X20.59Y38.207Z-0.359
X20.598Y38.207Z-0.358
X20.69Y38.19Z-0.342
X20.698Y38.19Z-0.341
X20.79Y38.174Z-0.326
X20.798Y38.174Z-0.324
X20.89Y38.157Z-0.309
X20.898Y38.157Z-0.308
X20.99Y38.14Z-0.292
X20.998Y38.14Z-0.291
X21.09Y38.124Z-0.275
X21.816Z-0.73F150
X21.835Y37.985Z-0.706F300
X21.841Y37.885Z-0.7
X21.84Y37.798
X21.841Y37.785Z-0.7
X21.84Y37.707Z-0.7
X21.84Y37.698Z-0.699
X21.841Y37.657Z-0.7
X21.84Y37.607Z-0.7
X21.84Y37.598Z-0.699
X21.842Y37.529
X21.84Y37.498
X21.842Y37.429
X21.84Y37.398
X21.842Y37.329
X21.84Y37.298
X21.842Y37.229
X21.84Y37.198
X21.842Y37.098Z-0.702
X21.852Y36.998Z-0.711
X21.868Y36.898Z-0.727
X21.892Y36.798Z-0.751
X21.923Y36.698Z-0.782
X21.94Y36.651Z-0.791
Z-0.8F150
X21.962Y36.628F300
X21.984Y36.605
X21.962Y36.582
X21.94Y36.559
Y36.651
X21.984Y36.605Z-0.787
X22.434Z-0.581
X22.536Y36.596Z-0.562
X22.634Y36.579Z-0.553
X22.731Y36.553Z-0.552
X22.774Y36.537Z-0.554
X22.826Y36.523Z-0.556
X22.87Y36.507Z-0.557
X22.922Y36.493Z-0.559
X22.965Y36.477Z-0.561
X23.017Y36.462Z-0.563
X23.06Y36.446Z-0.565
X23.113Y36.432Z-0.567
X23.156Y36.416Z-0.568
X23.208Y36.402Z-0.57
X23.251Y36.386Z-0.572
X23.303Y36.372Z-0.574
X23.347Y36.356Z-0.575
X23.399Y36.342Z-0.577
X23.442Y36.326Z-0.579
X23.494Y36.312Z-0.581
X23.537Y36.296Z-0.582
X23.59Y36.282Z-0.584
X23.633Y36.266Z-0.586
X23.685Y36.251Z-0.588
X23.728Y36.236Z-0.59
X23.781Y36.221Z-0.591
X23.824Y36.205Z-0.593
X23.876Y36.191Z-0.595
X23.919Y36.175Z-0.597
X23.971Y36.161Z-0.599
X24.015Y36.145Z-0.6
X24.067Y36.131Z-0.602
X24.11Y36.115Z-0.604
X24.162Y36.101Z-0.606
X24.205Y36.085Z-0.607
X24.258Y36.071Z-0.609
X24.301Y36.055Z-0.611
X24.353Y36.04Z-0.613
X24.396Y36.025Z-0.614
X24.448Y36.01Z-0.616
X24.492Y35.995Z-0.618
X24.544Y35.98Z-0.62
X24.587Y35.964Z-0.622
X24.638Y35.95Z-0.624
X24.683Y35.934Z-0.625
X24.731Y35.921Z-0.627
X24.778Y35.904Z-0.629
X24.827Y35.891Z-0.631
X24.873Y35.874Z-0.632
X24.922Y35.861Z-0.634
X24.969Y35.844Z-0.636
X25.017Y35.831Z-0.638
X25.064Y35.814Z-0.639
X25.113Y35.8Z-0.641
X25.165Y35.782Z-0.643
X25.208Y35.77Z-0.645
X25.26Y35.752Z-0.647
X25.304Y35.74Z-0.648
X25.356Y35.722Z-0.65
X25.399Y35.71Z-0.652
X25.451Y35.692Z-0.654
X25.495Y35.68Z-0.655
X25.546Y35.661Z-0.657
X25.59Y35.65Z-0.659
X25.642Y35.631Z-0.661
X25.685Y35.619Z-0.663
X25.737Y35.601Z-0.665
X25.781Y35.589Z-0.666
X25.833Y35.571Z-0.668
X25.876Y35.559Z-0.67
X25.928Y35.541Z-0.672
X25.972Y35.529Z-0.673
X26.023Y35.511Z-0.675
X26.067Y35.499Z-0.677
X26.119Y35.481Z-0.679
X26.162Y35.469Z-0.68
X26.214Y35.45Z-0.682
X26.258Y35.439Z-0.684
X26.31Y35.42Z-0.686
X26.353Y35.409Z-0.688
X26.405Y35.39Z-0.689
X26.449Y35.378Z-0.691
X26.501Y35.36Z-0.693
X26.544Y35.348Z-0.695
X26.596Y35.33Z-0.697
X26.64Y35.318Z-0.698
X26.691Y35.3Z-0.7
X26.735Y35.288Z-0.702
X26.787Y35.27Z-0.704
X26.83Y35.258Z-0.705
X26.882Y35.24Z-0.707
X26.926Y35.228Z-0.709
X26.978Y35.209Z-0.711
X27.074Y35.183Z-0.718
X27.173Y35.163Z-0.733
X27.275Y35.15Z-0.754
X27.379Y35.143Z-0.783
X27.429Z-0.783
G0Z2
X27.512Y37.626
G1Z-0.732F150
X27.268Z-0.725F300
X27.256Y37.625Z-0.723
X27.166Y37.625Z-0.704
X27.154Y37.624Z-0.702
X27.063Y37.624Z-0.684
X27.052Y37.624Z-0.681
X26.961Y37.624Z-0.663
X26.949Y37.623Z-0.66
X26.859Y37.623Z-0.642
X26.847Y37.622Z-0.64
X26.757Y37.622Z-0.621
X26.745Y37.621Z-0.619
X26.655Y37.621Z-0.601
X26.643Y37.62Z-0.598
X26.553Y37.62Z-0.58
X26.541Y37.62Z-0.577
X26.451Y37.62Z-0.559
X26.439Y37.619Z-0.557
X26.348Y37.619Z-0.538
X26.337Y37.618Z-0.536
X26.246Y37.618Z-0.517
X26.235Y37.617Z-0.515
X26.144Y37.617Z-0.497
X26.132Y37.616Z-0.494
X26.042Y37.617Z-0.476
X26.03Y37.615Z-0.473
X25.94Y37.616Z-0.455
X25.928Y37.615Z-0.453
X25.838Y37.615Z-0.434
X25.826Y37.614Z-0.432
X25.736Y37.614Z-0.414
X25.724Y37.613Z-0.411
X25.634Y37.613Z-0.393
X25.622Y37.612Z-0.39
X25.552Y37.613Z-0.377
X25.531Y37.614Z-0.371
X25.482Y37.61Z-0.361
X25.456Y37.611Z-0.357
X23.747Y37.598Z-0.01
G0Z2
X22.305Y38.799
G1Z-0.8F150
X22.278Y38.79F300
X22.26Y38.784
X22.241Y38.776
X22.223Y38.769
X22.205Y38.761
X22.187Y38.752
X22.17Y38.743
X22.152Y38.734
X22.135Y38.724
X22.118Y38.714
X22.102Y38.703
X22.085Y38.692
X22.069Y38.68
X22.053Y38.669
X22.038Y38.656
X22.023Y38.644
X22.008Y38.631
X21.993Y38.617
X21.979Y38.604
X21.965Y38.59
X21.951Y38.575
X21.94Y38.563
Y39.036
X21.959Y39.015
X21.973Y39.001
X21.986Y38.987
X22.001Y38.974
X22.015Y38.961
X22.03Y38.948
X22.045Y38.936
X22.061Y38.924
X22.076Y38.913
X22.092Y38.901
X22.109Y38.891
X22.125Y38.88
X22.142Y38.87
X22.159Y38.861
X22.176Y38.852
X22.194Y38.843
X22.211Y38.835
X22.229Y38.827
X22.247Y38.82
X22.265Y38.813
X22.284Y38.806
X22.305Y38.799
G0Z2
X21.94Y38.564
G1Z-0.795F150
X21.934Y38.55Z-0.794F300
X21.901Y38.45Z-0.761
X21.816Y38.124Z-0.73
G0Z2
X21.94Y36.559
G1Z-0.791F150
X21.918Y36.498Z-0.777F300
X21.888Y36.398Z-0.747
X21.865Y36.298Z-0.725
X21.85Y36.198Z-0.709
X21.844Y36.127Z-0.703
X21.84Y36.056Z-0.699
X21.841Y35.981
X21.84Y35.956
X21.841Y35.881
X21.84Y35.856
X21.841Y35.781
X21.84Y35.756
X21.841Y35.681
X21.84Y35.656
X21.841Y35.596Z-0.7
X21.84Y35.556Z-0.699
X21.842Y35.511
X21.84Y35.456
X21.842Y35.411
X21.84Y35.356
X21.842Y35.311
X21.84Y35.256
X21.842Y35.211
X21.84Y35.156
X21.842Y35.111
X21.84Y35.056
X21.844Y34.956Z-0.703
X21.855Y34.856Z-0.714
X21.873Y34.756Z-0.732
X21.898Y34.656Z-0.758
X21.931Y34.556Z-0.79
X21.94Y34.532Z-0.791
Y34.533Z-0.8F150
X21.961Y34.51F300
X21.975Y34.496
X21.989Y34.482
X22.003Y34.469
X22.018Y34.456
X22.033Y34.443
X22.048Y34.431
X22.064Y34.419
X22.079Y34.408
X22.096Y34.396
X22.112Y34.386
X22.129Y34.375
X22.146Y34.366
X22.163Y34.356
X22.18Y34.347
X22.198Y34.338
X22.215Y34.33
X22.233Y34.322
X22.252Y34.315
X22.27Y34.308
X22.288Y34.302
X22.673Y34.174
Y33.599
X22.293Y33.475
X22.274Y33.468
X22.256Y33.461
X22.238Y33.454
X22.219Y33.446
X22.202Y33.438
X22.184Y33.43
X22.166Y33.421
X22.149Y33.411
X22.132Y33.401
X22.115Y33.391
X22.099Y33.38
X22.082Y33.369
X22.066Y33.358
X22.051Y33.346
X22.035Y33.334
X22.02Y33.321
X22.005Y33.308
X21.991Y33.295
X21.977Y33.281
X21.963Y33.267
X21.95Y33.253
X21.94Y33.242
Y33.612
X21.94Y33.631
X21.939Y33.651
X21.938Y33.671
X21.936Y33.69
X21.934Y33.71
X21.932Y33.729
X21.928Y33.748
X21.925Y33.768
X21.921Y33.787
X21.916Y33.806
X21.911Y33.825
X21.906Y33.844
X21.9Y33.863
X21.893Y33.881
X21.887Y33.9
X21.879Y33.918
X21.872Y33.936
X21.863Y33.954
X21.855Y33.971
X21.846Y33.989
X21.836Y34.006
X21.826Y34.023
X21.816Y34.04
X21.804Y34.059
X21.816Y34.078
X21.826Y34.094
X21.836Y34.111
X21.846Y34.129
X21.855Y34.146
X21.863Y34.164
X21.872Y34.182
X21.879Y34.2
X21.887Y34.218
X21.893Y34.236
X21.9Y34.255
X21.906Y34.274
X21.911Y34.292
X21.916Y34.311
X21.921Y34.33
X21.925Y34.35
X21.928Y34.369
X21.932Y34.388
X21.934Y34.408
X21.936Y34.427
X21.938Y34.447
X21.939Y34.466
X21.94Y34.486
X21.94Y34.533
G0Z2
X22.673Y33.599
G1Z-0.773F150
X22.717Y33.568Z-0.756F300
X22.743Y33.547Z-0.729
X22.855Y33.468Z-0.618
X22.867Y33.459Z-0.606
X23.404Y33.068Z-0.068
G0Z2
X21.94Y33.243
G1Z-0.794F150
X21.911Y33.162Z-0.771F300
X21.883Y33.062Z-0.742
X21.862Y32.962Z-0.721
X21.848Y32.862Z-0.707
X21.841Y32.762Z-0.7
X21.841Y32.372Z-0.7
X21.841Y32.364Z-0.7
X21.841Y32.322Z-0.7
X21.841Y32.272Z-0.7
X21.841Y32.187Z-0.7
X21.841Y32.182
X21.841Y32.087
X21.841Y32.082
X21.841Y31.987
X21.841Y31.982
X21.841Y31.887
X21.841Y31.882
X21.841Y31.787
X21.841Y31.782
X21.841Y31.682Z-0.7
X21.848Y31.582Z-0.708
X21.863Y31.482Z-0.722
X21.876Y31.424Z-0.735
X21.866Y31.382Z-0.726
X21.85Y31.282Z-0.71
X21.842Y31.182Z-0.701
X21.841Y31.12Z-0.7
X21.841Y31.096Z-0.7
X21.841Y31.06Z-0.7
X21.84Y31.024Z-0.701
X21.839Y31Z-0.702
X21.839Y30.96Z-0.702
X21.837Y30.929Z-0.704
X21.835Y30.881Z-0.706
X21.835Y30.86Z-0.706
X21.833Y30.833Z-0.708
X21.83Y30.786Z-0.711
X21.829Y30.76Z-0.712
X21.824Y30.714Z-0.716
X21.822Y30.69Z-0.718
X21.82Y30.66Z-0.72
X21.815Y30.618Z-0.726
X21.81Y30.56Z-0.731
X21.804Y30.522Z-0.737
X21.798Y30.473Z-0.743
X21.796Y30.46Z-0.744
X21.79Y30.424Z-0.751
X21.783Y30.375Z-0.758
X21.781Y30.36Z-0.76
X21.774Y30.325Z-0.767
X21.765Y30.275Z-0.776
X21.762Y30.26Z-0.779
X21.754Y30.225Z-0.787
X21.743Y30.174Z-0.798
X21.741Y30.164Z-0.799
Y30.167Z-0.8
Y28.859
X21.714Y28.915
X21.686Y28.967
X21.658Y29.019
X21.628Y29.069
X21.596Y29.119
X21.564Y29.168
X21.53Y29.216
X21.494Y29.263
X21.458Y29.309
X21.434Y29.336
X21.419Y29.354
X21.396Y29.381
X21.38Y29.398
X21.356Y29.424
X21.339Y29.44
X21.314Y29.466
X21.298Y29.482
X21.272Y29.506
X21.237Y29.538
X21.268Y29.563
X21.308Y29.597
X21.347Y29.632
X21.366Y29.65
X21.395Y29.678
X21.421Y29.704
X21.456Y29.742
X21.49Y29.78
X21.523Y29.82
X21.555Y29.861
X21.585Y29.902
X21.615Y29.944
X21.643Y29.988
X21.669Y30.032
X21.695Y30.076
X21.719Y30.121
X21.741Y30.167
G0Z2
X21.741Y28.86
G1Z-0.796F150
X21.749Y28.824Z-0.792F300
X21.756Y28.795Z-0.785
X21.762Y28.766Z-0.779
X21.773Y28.708Z-0.767
X21.776Y28.695Z-0.764
X21.784Y28.65Z-0.757
X21.794Y28.595Z-0.746
X21.804Y28.535Z-0.737
X21.811Y28.495Z-0.73
X21.813Y28.477Z-0.728
X21.821Y28.42Z-0.72
X21.825Y28.395Z-0.716
X21.828Y28.362Z-0.713
X21.836Y28.305Z-0.705
X21.837Y28.295Z-0.704
X21.841Y28.247Z-0.699
X21.848Y28.195Z-0.693
X21.848Y28.189Z-0.693
X21.853Y28.131Z-0.688
X21.857Y28.095Z-0.684
X21.858Y28.073Z-0.683
X21.862Y28.014Z-0.679
X21.864Y27.995Z-0.677
X21.866Y27.956Z-0.675
X21.87Y27.897Z-0.673
X21.876Y27.838Z-0.673
X21.884Y27.778Z-0.677
X21.895Y27.719Z-0.684
X21.908Y27.658Z-0.694
X21.916Y27.628Z-0.701
X21.909Y27.597Z-0.693
X21.897Y27.535Z-0.681
X21.888Y27.473Z-0.672
X21.882Y27.409Z-0.666
X21.877Y27.346Z-0.664
X21.876Y27.284Z-0.665
X21.876Y27.261Z-0.665
X21.874Y27.221Z-0.667
X21.873Y27.161Z-0.668
X21.869Y27.099Z-0.672
X21.868Y27.061Z-0.673
X21.866Y27.038Z-0.675
X21.862Y26.977Z-0.679
X21.862Y26.961Z-0.679
X21.857Y26.917Z-0.683
X21.855Y26.886Z-0.685
X21.853Y26.857Z-0.688
X21.849Y26.81Z-0.691
X21.848Y26.797Z-0.693
X21.841Y26.737Z-0.699
X21.839Y26.71Z-0.701
X21.835Y26.678Z-0.706
X21.828Y26.619Z-0.713
X21.828Y26.61Z-0.713
X21.82Y26.56Z-0.721
X21.814Y26.51Z-0.727
X21.812Y26.5Z-0.729
X21.803Y26.441Z-0.738
X21.799Y26.41Z-0.742
X21.793Y26.382Z-0.748
X21.783Y26.323Z-0.758
X21.775Y26.262Z-0.772
X21.768Y26.2Z-0.789
X21.765Y26.168Z-0.795
Z-0.8F150
X21.77Y26.146F300
X21.776Y26.128
X21.782Y26.109
X21.788Y26.09
X21.795Y26.072
X21.802Y26.054
X21.81Y26.036
X21.818Y26.018
X21.827Y26
X21.836Y25.983
X21.845Y25.966
X21.855Y25.949
X21.865Y25.932
X21.876Y25.915
X21.887Y25.899
X21.899Y25.883
X21.911Y25.868
X21.923Y25.852
X21.936Y25.837
X21.949Y25.823
X21.962Y25.808
X21.976Y25.794
X21.99Y25.78
X22.004Y25.767
X22.019Y25.754
X22.034Y25.741
X22.049Y25.729
X22.065Y25.717
X22.081Y25.706
X22.097Y25.695
X22.113Y25.684
X22.13Y25.674
X22.147Y25.664
X22.164Y25.654
X22.182Y25.645
X22.199Y25.637
X22.217Y25.628
X22.235Y25.621
X22.253Y25.613
X22.272Y25.607
X22.29Y25.6
X22.309Y25.594
X22.328Y25.589
X22.347Y25.584
X22.366Y25.579
X22.385Y25.575
X22.405Y25.572
X22.424Y25.568
X22.443Y25.566
X22.463Y25.564
X22.483Y25.562
X22.502Y25.561
X22.522Y25.56
X22.541Y25.56
X22.77
X22.139Y25.193
X22.123Y25.183
X22.106Y25.173
X22.09Y25.162
X22.074Y25.151
X22.058Y25.139
X22.043Y25.127
X22.028Y25.115
X22.013Y25.102
X21.999Y25.089
X21.985Y25.076
X21.971Y25.062
X21.957Y25.048
X21.944Y25.034
X21.933Y25.02
X21.928Y25.048
X21.925Y25.067
X21.921Y25.086
X21.916Y25.105
X21.911Y25.124
X21.906Y25.143
X21.9Y25.162
X21.893Y25.18
X21.887Y25.199
X21.879Y25.217
X21.872Y25.235
X21.863Y25.253
X21.855Y25.27
X21.846Y25.288
X21.836Y25.305
X21.826Y25.322
X21.816Y25.339
X21.805Y25.355
X21.794Y25.371
X21.783Y25.387
X21.771Y25.403
X21.759Y25.418
X21.746Y25.433
X21.733Y25.448
X21.72Y25.462
X21.706Y25.476
X21.692Y25.49
X21.677Y25.504
X21.663Y25.517
X21.648Y25.529
X21.632Y25.541
X21.617Y25.553
X21.601Y25.565
X21.585Y25.576
X21.568Y25.587
X21.551Y25.597
X21.534Y25.607
X21.517Y25.616
X21.5Y25.625
X21.482Y25.634
X21.464Y25.642
X21.447Y25.649
X21.483Y25.694
X21.497Y25.712
X21.52Y25.742
X21.533Y25.76
X21.567Y25.81
X21.6Y25.86
X21.632Y25.911
X21.662Y25.963
X21.691Y26.015
X21.718Y26.069
X21.744Y26.123
X21.765Y26.168
G0Z2
X21.447Y25.649
G1Z-0.789F150
X21.421Y25.643Z-0.783F300
X21.352Y25.624Z-0.743
X21.286Y25.605Z-0.709
X21.225Y25.585Z-0.679
X21.166Y25.564Z-0.653
X21.111Y25.542Z-0.631
X21.09Y25.534Z-0.623
X21.055Y25.522Z-0.611
X21.001Y25.503Z-0.591
X20.99Y25.498Z-0.587
X20.946Y25.485Z-0.574
X20.89Y25.466Z-0.555
X20.84Y25.452Z-0.54
X20.79Y25.437Z-0.525
X20.735Y25.423Z-0.511
X20.69Y25.41Z-0.499
X20.683Y25.409Z-0.498
X20.631Y25.398Z-0.486
X20.59Y25.387Z-0.476
X20.58Y25.386Z-0.474
X20.529Y25.376Z-0.464
X20.49Y25.367Z-0.456
X20.478Y25.365Z-0.454
X20.427Y25.357Z-0.446
X20.39Y25.35Z-0.438
X20.377Y25.348Z-0.437
X20.326Y25.341Z-0.43
X20.29Y25.335Z-0.424
X20.275Y25.334Z-0.423
X20.225Y25.328Z-0.417
X20.19Y25.323Z-0.412
X20.174Y25.322Z-0.411
X20.123Y25.318Z-0.407
X20.09Y25.314Z-0.402
X20.072Y25.313Z-0.402
X20.021Y25.31Z-0.399
X19.99Y25.307Z-0.395
X19.97Y25.307Z-0.396
X19.918Y25.305Z-0.393
X19.89Y25.302Z-0.391
X19.867Y25.303Z-0.392
X19.814Y25.302Z-0.39
X19.79Y25.3Z-0.388
X19.762Y25.301Z-0.39
G0Z2
X19.196Y25.484
G1Z-0.573F150
X19.29Y25.425Z-0.513F300
X19.39Y25.374Z-0.463
X19.49Y25.337Z-0.426
X19.59Y25.312Z-0.401
X19.69Y25.3Z-0.389
X19.762Y25.301Z-0.39
G0Z2
X19.246Y25.691
G1Z-0.486F150
X19.236Y25.657Z-0.497F300
X19.224Y25.614Z-0.514
X19.213Y25.57Z-0.533
X19.203Y25.524Z-0.554
X19.196Y25.484Z-0.573
G0Z2
X19.246Y25.691
G1Z-0.486F150
X19.755Y25.691Z0F300
X19.762Y25.301Z-0.39F150
G0Z2
X19.446Y26.693
G1Z-0.308
X19.44Y26.67Z-0.306F300
X19.43Y26.628Z-0.305
X19.424Y26.585Z-0.308
X19.421Y26.56Z-0.311
X19.419Y26.542Z-0.313
X19.416Y26.514Z-0.316
X19.414Y26.5Z-0.318
X19.411Y26.476Z-0.321
X19.408Y26.458Z-0.323
X19.407Y26.447Z-0.325
X19.403Y26.416Z-0.329
X19.401Y26.399Z-0.331
X19.397Y26.375Z-0.335
X19.396Y26.363Z-0.336
X19.393Y26.345Z-0.339
X19.391Y26.334Z-0.341
X19.39Y26.326Z-0.342
X19.387Y26.307Z-0.345
X19.385Y26.293Z-0.347
X19.381Y26.268Z-0.351
X19.378Y26.253Z-0.353
X19.374Y26.228Z-0.358
X19.372Y26.213Z-0.36
X19.367Y26.186Z-0.365
X19.364Y26.173Z-0.367
X19.36Y26.145Z-0.373
X19.357Y26.133Z-0.375
X19.351Y26.103Z-0.381
X19.349Y26.094Z-0.383
X19.343Y26.062Z-0.389
X19.341Y26.054Z-0.391
X19.339Y26.042Z-0.394
X19.333Y26.015Z-0.399
X19.33Y26.001Z-0.402
X19.324Y25.975Z-0.408
X19.316Y25.943Z-0.416
X19.298Y25.87Z-0.434
X19.289Y25.837Z-0.443
X19.277Y25.793Z-0.455
X19.266Y25.755Z-0.466
X19.246Y25.691Z-0.486
G0Z2
X19.254Y26.73
G1Z-0.113F150
X19.446Y26.693Z-0.308
G0Z2
X19.895Y27.856
G1Z-0.49
X19.896Y27.845Z-0.497F300
X19.898Y27.83Z-0.504
X19.899Y27.809Z-0.513
X19.899Y27.782Z-0.523
X19.899Y27.766Z-0.528
X19.899Y27.748Z-0.533
X19.898Y27.73Z-0.538
X19.897Y27.699Z-0.546
X19.895Y27.676Z-0.551
X19.894Y27.652Z-0.556
X19.89Y27.613Z-0.563
X19.886Y27.571Z-0.569
X19.877Y27.499Z-0.577
X19.875Y27.48Z-0.578
X19.868Y27.428Z-0.582
X19.86Y27.381Z-0.584
X19.854Y27.347Z-0.585
X19.846Y27.31Z-0.584
X19.842Y27.29Z-0.584
X19.836Y27.268Z-0.582
X19.83Y27.243Z-0.58
X19.824Y27.227Z-0.578
X19.819Y27.21Z-0.576
X19.814Y27.198Z-0.573
X19.808Y27.185Z-0.57
X19.803Y27.175Z-0.567
X19.797Y27.166Z-0.563
X19.79Y27.156Z-0.558
X19.782Y27.147Z-0.552
X19.775Y27.138Z-0.547
X19.766Y27.129Z-0.54
X19.755Y27.117Z-0.531
X19.741Y27.103Z-0.52
X19.725Y27.087Z-0.507
X19.681Y27.047Z-0.471
X19.665Y27.033Z-0.459
X19.65Y27.018Z-0.447
X19.636Y27.003Z-0.435
X19.622Y26.989Z-0.424
X19.608Y26.974Z-0.414
X19.595Y26.959Z-0.404
X19.583Y26.944Z-0.395
X19.571Y26.93Z-0.386
X19.56Y26.915Z-0.378
X19.549Y26.901Z-0.37
X19.539Y26.886Z-0.363
X19.53Y26.872Z-0.357
X19.521Y26.859Z-0.35
X19.513Y26.845Z-0.345
X19.505Y26.832Z-0.34
X19.492Y26.807Z-0.331
X19.48Y26.783Z-0.325
X19.471Y26.761Z-0.319
X19.463Y26.742Z-0.315
X19.457Y26.726Z-0.312
X19.45Y26.706Z-0.31
X19.446Y26.693Z-0.308
G0Z2
X19.903Y27.873
G1Z-0.473F150
X19.895Y27.856Z-0.49
G0Z2
X19.819Y27.984
G1Z-0.356
X19.842Y27.944Z-0.4
X19.862Y27.911Z-0.435
X19.881Y27.88Z-0.467
X19.895Y27.856Z-0.49
G0Z2
X18.503Y29.337
G1Z-0.602
X18.486Y29.293Z-0.586F300
X18.474Y29.258Z-0.573
X18.459Y29.216Z-0.559
X18.443Y29.168Z-0.542
X18.432Y29.132Z-0.531
X18.409Y29.055Z-0.508
X18.391Y28.993Z-0.491
X18.375Y28.929Z-0.474
X18.364Y28.885Z-0.463
X18.354Y28.842Z-0.453
X18.344Y28.799Z-0.443
X18.335Y28.756Z-0.434
X18.327Y28.715Z-0.426
X18.323Y28.697Z-0.422
X18.319Y28.674Z-0.418
X18.312Y28.636Z-0.411
X18.308Y28.614Z-0.407
X18.302Y28.581Z-0.401
X18.301Y28.572Z-0.4
X18.296Y28.548Z-0.396
X18.294Y28.53Z-0.393
X18.289Y28.504Z-0.389
X18.287Y28.487Z-0.386
X18.282Y28.456Z-0.381
X18.281Y28.445Z-0.379
X18.276Y28.412Z-0.375
X18.274Y28.402Z-0.373
X18.266Y28.358Z-0.369
X18.256Y28.316Z-0.368
X18.244Y28.273Z-0.369
X18.229Y28.23Z-0.374
X18.211Y28.187Z-0.382
X18.19Y28.144Z-0.393
X18.166Y28.101Z-0.408
X18.139Y28.058Z-0.426
X18.117Y28.026Z-0.442
X18.105Y28.01Z-0.45
X18.094Y27.996Z-0.458
X18.081Y27.98Z-0.467
X18.066Y27.962Z-0.479
X18.049Y27.942Z-0.492
X18.03Y27.921Z-0.507
X18.008Y27.899Z-0.523
X17.985Y27.875Z-0.542
X17.959Y27.851Z-0.563F150
X17.923Y27.819Z-0.592
X17.9Y27.798Z-0.61
X17.889Y27.786Z-0.619F300
X17.876Y27.773Z-0.629
X17.866Y27.761Z-0.637
X17.858Y27.75Z-0.643
X17.853Y27.742Z-0.645
X17.849Y27.732Z-0.648
X17.843Y27.716Z-0.651
X17.839Y27.704Z-0.652
X17.834Y27.689Z-0.654
X17.83Y27.675Z-0.655
X17.826Y27.659Z-0.657
X17.821Y27.639Z-0.658
X17.816Y27.616Z-0.658
X17.81Y27.59Z-0.658
X17.805Y27.562Z-0.658
X17.802Y27.541Z-0.658
X17.796Y27.509Z-0.656
X17.792Y27.481Z-0.655
X17.787Y27.434Z-0.652
X17.781Y27.382Z-0.647
X17.777Y27.343Z-0.643
X17.774Y27.308Z-0.639
X17.771Y27.274Z-0.634
X17.768Y27.242Z-0.629
X17.766Y27.212Z-0.623
X17.764Y27.183Z-0.617
X17.763Y27.157Z-0.611
X17.762Y27.127Z-0.603
X17.761Y27.108Z-0.598
X17.76Y27.083Z-0.59
X17.76Y27.068Z-0.584
X17.759Y27.042Z-0.575
X17.76Y27.02Z-0.566
X17.76Y27.003Z-0.557
X17.76Y26.991Z-0.551
X17.736Y26.939Z-0.498
X17.76Y26.991Z-0.551F150
X17.785Y26.949Z-0.508F300
X17.817Y26.894Z-0.447
G0Z2
X16.094Y25.589
G1Z-0.787F150
X16.149Y25.578Z-0.762F300
X16.224Y25.562Z-0.714
X16.293Y25.544Z-0.671
X16.359Y25.526Z-0.635
X16.42Y25.507Z-0.603
X16.478Y25.486Z-0.576
X16.533Y25.465Z-0.554
X16.568Y25.45Z-0.539
X16.587Y25.444Z-0.533
X16.64Y25.425Z-0.514
X16.668Y25.414Z-0.502
X16.693Y25.407Z-0.495
X16.745Y25.389Z-0.478
X16.768Y25.38Z-0.469
X16.797Y25.373Z-0.462
X16.848Y25.358Z-0.446
X16.868Y25.35Z-0.439
X16.899Y25.343Z-0.432
X16.949Y25.33Z-0.418
X16.968Y25.324Z-0.412
X16.999Y25.318Z-0.406
X17.049Y25.306Z-0.394
X17.068Y25.3Z-0.389
X17.099Y25.295Z-0.384
X17.148Y25.285Z-0.373
X17.168Y25.279Z-0.368
X17.198Y25.276Z-0.364
X17.247Y25.267Z-0.356
X17.268Y25.262Z-0.351
X17.296Y25.259Z-0.348
X17.345Y25.252Z-0.341
X17.368Y25.247Z-0.336
X17.394Y25.246Z-0.335
X17.443Y25.24Z-0.329
X17.468Y25.236Z-0.325
X17.492Y25.235Z-0.324
X17.542Y25.231Z-0.32
X17.568Y25.227Z-0.316
X17.591Y25.227Z-0.316
X17.641Y25.224Z-0.313
X17.668Y25.221Z-0.31
X17.691Y25.222Z-0.311
X17.741Y25.22Z-0.309
X17.768Y25.217Z-0.306
X17.792Y25.219Z-0.308
X17.843Y25.218Z-0.307
X17.868Y25.216Z-0.305
X17.888Y25.218Z-0.307
X17.927Y25.219Z-0.307
X17.965Y25.218Z-0.306
X17.968Y25.217Z-0.306
X18.003Y25.22Z-0.309
X18.041Y25.221Z-0.31
X18.068Y25.221Z-0.309
X18.079Y25.222Z-0.311
X18.116Y25.225Z-0.314
X18.153Y25.227Z-0.315
X18.168Y25.226Z-0.315
X18.19Y25.23Z-0.318
X18.227Y25.233Z-0.322
X18.264Y25.235Z-0.324
X18.268Y25.235Z-0.324
X18.301Y25.24Z-0.329
X18.337Y25.245Z-0.333
X18.368Y25.247Z-0.336
X18.374Y25.248Z-0.337
X18.411Y25.255Z-0.343
X18.447Y25.26Z-0.348
X18.468Y25.262Z-0.35
X18.484Y25.266Z-0.354
X18.521Y25.273Z-0.361
X18.558Y25.279Z-0.368
X18.568Y25.28Z-0.369
X18.595Y25.287Z-0.376
X18.632Y25.296Z-0.384
X18.668Y25.303Z-0.391
X18.707Y25.314Z-0.403
X18.746Y25.324Z-0.412
X18.768Y25.328Z-0.417
X18.784Y25.334Z-0.423
X18.861Y25.358Z-0.446
X18.879Y25.363Z-0.451
X18.901Y25.371Z-0.459
X18.929Y25.38Z-0.469
X18.94Y25.384Z-0.473
X18.981Y25.398Z-0.486
X18.99Y25.4Z-0.489
X19.021Y25.413Z-0.502
X19.062Y25.429Z-0.518
X19.09Y25.439Z-0.528
X19.104Y25.445Z-0.534
X19.145Y25.463Z-0.552
X19.19Y25.482Z-0.571
X19.196Y25.484Z-0.573
G0Z2
X21.933Y25.021
G1Z-0.76F150
X21.886Y24.861Z-0.745F300
X21.864Y24.761Z-0.723
X21.849Y24.661Z-0.708
X21.841Y24.561Z-0.7
X21.84Y24.461Z-0.7
X21.841Y24.451
X21.841Y24.385Z-0.7
X21.842Y24.351Z-0.699
X21.84Y24.309
X21.842Y24.251
X21.84Y24.209
X21.842Y24.151
X21.84Y24.109
X21.841Y24.076Z-0.7
X21.84Y24.009Z-0.7
X21.841Y24
X21.84Y23.9Z-0.7
X21.833Y23.8Z-0.708
X21.818Y23.7Z-0.723
X21.796Y23.6Z-0.745
X21.749Y23.44Z-0.761
Z-0.8F150
X21.753Y23.413F300
X21.757Y23.394
X21.761Y23.375
X21.765Y23.356
X21.77Y23.337
X21.776Y23.318
X21.782Y23.299
X21.788Y23.281
X21.795Y23.262
X21.802Y23.244
X21.81Y23.226
X21.818Y23.208
X21.827Y23.19
X21.836Y23.173
X21.845Y23.156
X21.855Y23.139
X21.865Y23.122
X21.876Y23.106
X21.887Y23.089
X21.899Y23.074
X21.911Y23.058
X21.923Y23.043
X21.936Y23.028
X21.949Y23.013
X21.962Y22.998
X21.976Y22.984
X21.99Y22.971
X22.004Y22.957
X22.019Y22.944
X22.034Y22.932
X22.049Y22.919
X22.065Y22.908
X22.081Y22.896
X22.097Y22.885
X22.113Y22.874
X22.13Y22.864
X22.147Y22.854
X22.164Y22.845
X22.182Y22.836
X22.199Y22.827
X22.217Y22.819
X22.235Y22.811
X22.253Y22.804
X22.272Y22.797
X22.292Y22.79
X22.268Y22.764
X22.246Y22.74
X22.225Y22.715
X22.204Y22.69
X22.184Y22.665
X22.164Y22.64
X22.144Y22.614
X22.124Y22.588
X22.105Y22.562
X22.087Y22.536
X22.068Y22.509
X22.05Y22.482
X22.033Y22.455
X22.016Y22.428
X21.999Y22.401
X21.982Y22.373
X21.966Y22.345
X21.951Y22.317
X21.935Y22.289
X21.92Y22.26
X21.891Y22.203
X21.864Y22.145
X21.85Y22.114
X21.835Y22.157
X21.822Y22.192
X21.808Y22.227
X21.794Y22.261
X21.78Y22.296
X21.765Y22.33
X21.75Y22.364
X21.734Y22.398
X21.718Y22.432
X21.701Y22.465
X21.684Y22.499
X21.667Y22.532
X21.648Y22.564
X21.63Y22.597
X21.611Y22.629
X21.592Y22.661
X21.572Y22.693
X21.551Y22.724
X21.531Y22.755
X21.51Y22.786
X21.488Y22.817
X21.466Y22.847
X21.444Y22.877
X21.421Y22.907
X21.397Y22.936
X21.374Y22.965
X21.35Y22.994
X21.325Y23.022
X21.3Y23.05
X21.275Y23.078
X21.249Y23.105
X21.223Y23.133
X21.195Y23.161
X21.219Y23.163
X21.238Y23.165
X21.258Y23.168
X21.277Y23.171
X21.296Y23.175
X21.315Y23.179
X21.335Y23.183
X21.354Y23.188
X21.372Y23.194
X21.391Y23.2
X21.41Y23.206
X21.428Y23.213
X21.446Y23.22
X21.464Y23.228
X21.482Y23.236
X21.5Y23.245
X21.517Y23.254
X21.534Y23.263
X21.551Y23.273
X21.568Y23.284
X21.585Y23.294
X21.601Y23.305
X21.617Y23.317
X21.632Y23.329
X21.648Y23.341
X21.663Y23.354
X21.677Y23.367
X21.692Y23.38
X21.706Y23.394
X21.72Y23.408
X21.733Y23.422
X21.749Y23.44
G0Z2
X21.195Y23.161
G1Z-0.796F150
X21.184Y23.165Z-0.795F300
X21.146Y23.18Z-0.779
X21.109Y23.195Z-0.764
X21.09Y23.203Z-0.756
X21.072Y23.21Z-0.749
X21.033Y23.224Z-0.735
X20.99Y23.242Z-0.717
X20.957Y23.253Z-0.706
X20.919Y23.267Z-0.692
X20.89Y23.278Z-0.681
X20.881Y23.281Z-0.678
X20.843Y23.293Z-0.666
X20.806Y23.306Z-0.653
X20.79Y23.312Z-0.647
X20.769Y23.318Z-0.641
X20.731Y23.33Z-0.629
X20.69Y23.344Z-0.615
X20.658Y23.353Z-0.606
X20.621Y23.364Z-0.594
X20.59Y23.375Z-0.584
X20.548Y23.386Z-0.573
X20.512Y23.396Z-0.563
X20.49Y23.403Z-0.556
X20.476Y23.406Z-0.552
X20.439Y23.416Z-0.543
X20.404Y23.426Z-0.533
X20.39Y23.43Z-0.529
X20.368Y23.435Z-0.524
X20.332Y23.443Z-0.516
X20.296Y23.453Z-0.506
X20.29Y23.455Z-0.504
X20.26Y23.461Z-0.498
X20.225Y23.469Z-0.49
X20.19Y23.478Z-0.481
X20.154Y23.484Z-0.475
X20.118Y23.492Z-0.467
X20.09Y23.499Z-0.46
X20.083Y23.5Z-0.459
X20.048Y23.506Z-0.453
X20.013Y23.513Z-0.446
X19.99Y23.519Z-0.44
X19.977Y23.52Z-0.439
X19.942Y23.526Z-0.433
X19.907Y23.533Z-0.426
X19.89Y23.537Z-0.422
X19.872Y23.539Z-0.42
X19.836Y23.544Z-0.415
X19.802Y23.55Z-0.409
X19.79Y23.553Z-0.406
X19.766Y23.555Z-0.404
X19.731Y23.56Z-0.399
X19.696Y23.566Z-0.393
X19.69Y23.567Z-0.392
X19.661Y23.57Z-0.389
X19.626Y23.574Z-0.385
X19.59Y23.58Z-0.379
X19.556Y23.583Z-0.376
X19.52Y23.587Z-0.372
X19.49Y23.592Z-0.367
X19.486Y23.592Z-0.367
X19.45Y23.594Z-0.365
X19.415Y23.598Z-0.361
X19.39Y23.601Z-0.357
X19.38Y23.602Z-0.357
X19.345Y23.604Z-0.355
X19.309Y23.607Z-0.352
X19.29Y23.61Z-0.349
X19.274Y23.61Z-0.349
X19.239Y23.611Z-0.347
X19.204Y23.615Z-0.344
X19.19Y23.616Z-0.342
X19.168Y23.616Z-0.343
X19.133Y23.618Z-0.341
X19.097Y23.621Z-0.338
X19.09Y23.622Z-0.337
X19.062Y23.621Z-0.338
X19.026Y23.622Z-0.337
X18.99Y23.625Z-0.334
X18.955Y23.624Z-0.334
X18.919Y23.625Z-0.334
X18.89Y23.627Z-0.331
X18.884Y23.627Z-0.332
X18.848Y23.626Z-0.333
X18.829Y23.626Z-0.333
X18.812Y23.626Z-0.332
X18.779Y23.627Z-0.332
X18.776Y23.627Z-0.332
X18.74Y23.626Z-0.333
X18.729Y23.626Z-0.333
X18.704Y23.626Z-0.333
X18.668Y23.627Z-0.332
X18.633Y23.624Z-0.334
X18.597Y23.624Z-0.335
X18.568Y23.624Z-0.335
X18.562Y23.624Z-0.335
X18.526Y23.621Z-0.338
X18.49Y23.62Z-0.339
X18.468Y23.62Z-0.339
X18.455Y23.619Z-0.34
X18.42Y23.616Z-0.343
X18.384Y23.615Z-0.344
X18.368Y23.615Z-0.344
X18.349Y23.612Z-0.347
X18.313Y23.609Z-0.35
X18.278Y23.607Z-0.351
X18.268Y23.608Z-0.351
X18.243Y23.604Z-0.355
X18.207Y23.601Z-0.358
X18.172Y23.599Z-0.36
X18.168Y23.599Z-0.36
X18.137Y23.594Z-0.365
X18.102Y23.591Z-0.368
X18.068Y23.588Z-0.37
X18.031Y23.583Z-0.376
X17.996Y23.579Z-0.38
X17.968Y23.577Z-0.382
X17.961Y23.575Z-0.384
X17.926Y23.57Z-0.389
X17.891Y23.565Z-0.394
X17.868Y23.563Z-0.395
X17.855Y23.561Z-0.398
X17.82Y23.555Z-0.404
X17.785Y23.55Z-0.409
X17.768Y23.548Z-0.41
X17.75Y23.544Z-0.414
X17.715Y23.538Z-0.421
X17.679Y23.533Z-0.426
X17.668Y23.532Z-0.427
X17.644Y23.526Z-0.433
X17.609Y23.52Z-0.439
X17.573Y23.514Z-0.445
X17.568Y23.513Z-0.446
X17.538Y23.506Z-0.453
X17.503Y23.499Z-0.46
X17.468Y23.493Z-0.466
X17.432Y23.484Z-0.475
X17.396Y23.477Z-0.482
X17.368Y23.472Z-0.487
X17.36Y23.469Z-0.489
X17.325Y23.46Z-0.498
X17.289Y23.452Z-0.507
X17.268Y23.448Z-0.511
X17.253Y23.444Z-0.515
X17.218Y23.434Z-0.524
X17.181Y23.426Z-0.533
X17.168Y23.423Z-0.536
X17.146Y23.416Z-0.543
X17.11Y23.406Z-0.553
X17.068Y23.396Z-0.563
X17.037Y23.386Z-0.573
X17Y23.375Z-0.584
X16.968Y23.366Z-0.592
X16.927Y23.353Z-0.606
X16.89Y23.342Z-0.617
X16.868Y23.336Z-0.623
X16.853Y23.33Z-0.629
X16.816Y23.317Z-0.641
X16.778Y23.305Z-0.653
X16.768Y23.302Z-0.656
X16.741Y23.292Z-0.667
X16.703Y23.279Z-0.68
X16.668Y23.267Z-0.691
X16.627Y23.251Z-0.707
X16.588Y23.237Z-0.722
X16.568Y23.23Z-0.728
X16.55Y23.223Z-0.736
X16.511Y23.207Z-0.751
X16.479Y23.195Z-0.765
X16.44Y23.182Z-0.781
X16.401Y23.168Z-0.799
X16.4Y23.168Z-0.799
G0Z2
X18.093Y21.345
G1Z-0.8F150
X18.11Y21.36F300
X18.129Y21.375
X18.151Y21.391
X18.175Y21.406
X18.202Y21.422
X18.232Y21.437
X18.248Y21.444
X18.265Y21.452
X18.283Y21.459
X18.301Y21.466
X18.32Y21.473
X18.34Y21.479
X18.361Y21.486
X18.382Y21.492
X18.404Y21.498
X18.427Y21.504
X18.451Y21.509
X18.475Y21.514
X18.501Y21.519
X18.527Y21.523
X18.553Y21.527
X18.581Y21.53
X18.609Y21.533
X18.638Y21.536
X18.668Y21.538
X18.698Y21.54
X18.73Y21.541
X18.761Y21.542
X18.794Y21.542
X18.826Y21.542
X18.858Y21.541
X18.89Y21.54
X18.92Y21.538
X18.95Y21.536
X18.979Y21.533
X19.007Y21.53
X19.035Y21.527
X19.061Y21.523
X19.087Y21.519
X19.113Y21.514
X19.137Y21.509
X19.161Y21.504
X19.184Y21.498
X19.206Y21.492
X19.227Y21.486
X19.248Y21.479
X19.268Y21.473
X19.287Y21.466
X19.305Y21.459
X19.323Y21.452
X19.34Y21.444
X19.356Y21.437
X19.386Y21.422
X19.413Y21.406
X19.437Y21.391
X19.459Y21.375
X19.478Y21.36
X19.495Y21.345
X19.511Y21.33
X19.524Y21.315
X19.536Y21.3
X19.547Y21.286
X19.556Y21.271
X19.565Y21.255
X19.572Y21.239
X19.579Y21.222
X19.586Y21.204
X19.591Y21.184
X19.596Y21.162
X19.6Y21.138
X19.603Y21.112
X19.604Y21.083
X19.604Y21.052
X19.603Y21.022
X19.6Y20.995
X19.596Y20.971
X19.591Y20.949
X19.586Y20.929
X19.579Y20.911
X19.572Y20.894
X19.565Y20.878
X19.556Y20.863
X19.547Y20.849
X19.537Y20.834
X19.525Y20.82
X19.512Y20.806
X19.497Y20.791
X19.48Y20.776
X19.46Y20.761
X19.438Y20.746
X19.413Y20.73
X19.386Y20.715
X19.371Y20.707
X19.355Y20.699
X19.339Y20.692
X19.321Y20.685
X19.303Y20.677
X19.284Y20.67
X19.264Y20.663
X19.244Y20.657
X19.222Y20.65
X19.2Y20.644
X19.177Y20.638
X19.153Y20.632
X19.128Y20.627
X19.103Y20.622
X19.076Y20.617
X19.049Y20.612
X19.021Y20.608
X18.992Y20.605
X18.963Y20.602
X18.932Y20.599
X18.901Y20.597
X18.869Y20.595
X18.836Y20.594
X18.803Y20.593
X18.769Y20.593
X18.738Y20.593
X18.708Y20.594
X18.678Y20.595
X18.65Y20.597
X18.621Y20.599
X18.594Y20.602
X18.567Y20.605
X18.541Y20.608
X18.516Y20.612
X18.491Y20.616
X18.467Y20.621
X18.444Y20.626
X18.421Y20.631
X18.399Y20.637
X18.378Y20.643
X18.357Y20.649
X18.338Y20.655
X18.318Y20.662
X18.3Y20.669
X18.282Y20.676
X18.265Y20.683
X18.249Y20.69
X18.218Y20.705
X18.19Y20.72
X18.165Y20.736
X18.142Y20.752
X18.122Y20.768
X18.103Y20.783
X18.087Y20.799
X18.072Y20.814
X18.059Y20.83
X18.047Y20.845
X18.037Y20.861
X18.027Y20.877
X18.019Y20.893
X18.012Y20.91
X18.005Y20.927
X17.999Y20.946
X17.994Y20.967
X17.99Y20.989
X17.986Y21.013
X17.984Y21.039
X17.984Y21.068
X17.984Y21.098
X17.987Y21.125
X17.99Y21.15
X17.994Y21.173
X17.999Y21.194
X18.005Y21.213
X18.012Y21.231
X18.019Y21.247
X18.027Y21.263
X18.036Y21.278
X18.046Y21.293
X18.058Y21.308
X18.07Y21.323
X18.085Y21.337
X18.093Y21.345
G0Z2
X16.395Y18.972
G1Z-0.796F150
X16.404Y18.97Z-0.795F300
X16.443Y18.956Z-0.777
X16.481Y18.943Z-0.761
X16.514Y18.93Z-0.748
X16.552Y18.915Z-0.733
X16.568Y18.908Z-0.726
X16.59Y18.901Z-0.718
X16.629Y18.887Z-0.704
X16.668Y18.871Z-0.689
X16.704Y18.86Z-0.677
X16.741Y18.847Z-0.664
X16.768Y18.836Z-0.654
X16.778Y18.834Z-0.651
X16.815Y18.822Z-0.639
X16.852Y18.81Z-0.627
X16.868Y18.804Z-0.621
X16.888Y18.798Z-0.616
X16.925Y18.787Z-0.605
X16.961Y18.775Z-0.593
X16.968Y18.773Z-0.59
X16.997Y18.765Z-0.583
X17.034Y18.755Z-0.572
X17.068Y18.744Z-0.562
X17.105Y18.735Z-0.552
X17.141Y18.725Z-0.543
X17.168Y18.717Z-0.534
X17.177Y18.715Z-0.533
X17.213Y18.707Z-0.524
X17.248Y18.697Z-0.515
X17.268Y18.692Z-0.509
X17.283Y18.689Z-0.506
X17.319Y18.681Z-0.498
X17.354Y18.672Z-0.49
X17.368Y18.668Z-0.486
X17.39Y18.664Z-0.482
X17.425Y18.657Z-0.474
X17.46Y18.649Z-0.466
X17.468Y18.646Z-0.464
X17.495Y18.642Z-0.46
X17.53Y18.635Z-0.453
X17.568Y18.626Z-0.444
X17.601Y18.621Z-0.439
X17.636Y18.615Z-0.433
X17.668Y18.608Z-0.425
X17.706Y18.603Z-0.42
X17.74Y18.597Z-0.414
X17.768Y18.591Z-0.408
X17.775Y18.59Z-0.408
X17.81Y18.586Z-0.403
X17.845Y18.58Z-0.398
X17.868Y18.576Z-0.393
X17.88Y18.575Z-0.392
X17.915Y18.571Z-0.388
X17.949Y18.565Z-0.383
X17.968Y18.562Z-0.379
X17.984Y18.561Z-0.379
X18.019Y18.557Z-0.375
X18.053Y18.552Z-0.37
X18.068Y18.55Z-0.367
X18.088Y18.549Z-0.366
X18.123Y18.546Z-0.363
X18.157Y18.541Z-0.359
X18.168Y18.539Z-0.357
X18.192Y18.538Z-0.356
X18.227Y18.536Z-0.353
X18.261Y18.531Z-0.349
X18.268Y18.53Z-0.348
X18.296Y18.53Z-0.347
X18.331Y18.527Z-0.345
X18.368Y18.523Z-0.341
X18.4Y18.523Z-0.34
X18.435Y18.521Z-0.338
X18.468Y18.517Z-0.335
X18.504Y18.518Z-0.335
X18.538Y18.516Z-0.334
X18.568Y18.513Z-0.331
X18.573Y18.514Z-0.331
X18.607Y18.514Z-0.331
X18.642Y18.513Z-0.33
X18.668Y18.511Z-0.328
X18.676Y18.511Z-0.329
X18.711Y18.512Z-0.33
X18.745Y18.511Z-0.329
X18.768Y18.51Z-0.328
X18.781Y18.511Z-0.329
X18.818Y18.512Z-0.329
X18.829Y18.512Z-0.33
X18.855Y18.512Z-0.33
X18.879Y18.512Z-0.329
X18.892Y18.513Z-0.33
X18.929Y18.514Z-0.331
X18.966Y18.514Z-0.332
X18.99Y18.514Z-0.331
X19.003Y18.515Z-0.333
X19.039Y18.517Z-0.335
X19.076Y18.518Z-0.336
X19.09Y18.517Z-0.335
X19.112Y18.52Z-0.338
X19.149Y18.522Z-0.34
X19.185Y18.523Z-0.341
X19.19Y18.523Z-0.34
X19.221Y18.526Z-0.344
X19.257Y18.529Z-0.347
X19.29Y18.53Z-0.347
X19.294Y18.53Z-0.348
X19.33Y18.534Z-0.352
X19.366Y18.537Z-0.355
X19.39Y18.538Z-0.355
X19.402Y18.54Z-0.357
X19.438Y18.544Z-0.361
X19.474Y18.547Z-0.364
X19.49Y18.547Z-0.365
X19.509Y18.551Z-0.368
X19.545Y18.555Z-0.373
X19.581Y18.558Z-0.376
X19.59Y18.559Z-0.376
X19.617Y18.563Z-0.381
X19.652Y18.568Z-0.386
X19.69Y18.572Z-0.389
X19.724Y18.578Z-0.395
X19.759Y18.583Z-0.401
X19.79Y18.586Z-0.404
X19.795Y18.587Z-0.405
X19.831Y18.594Z-0.411
X19.866Y18.599Z-0.417
X19.89Y18.602Z-0.42
X19.902Y18.605Z-0.422
X19.937Y18.612Z-0.429
X19.973Y18.618Z-0.435
X19.99Y18.62Z-0.437
X20.009Y18.624Z-0.442
X20.044Y18.632Z-0.449
X20.08Y18.638Z-0.455
X20.09Y18.639Z-0.457
X20.116Y18.646Z-0.463
X20.152Y18.653Z-0.471
X20.19Y18.66Z-0.478
X20.223Y18.669Z-0.487
X20.259Y18.677Z-0.495
X20.29Y18.683Z-0.501
X20.295Y18.685Z-0.502
X20.331Y18.694Z-0.512
X20.367Y18.703Z-0.521
X20.39Y18.708Z-0.526
X20.403Y18.712Z-0.53
X20.439Y18.722Z-0.54
X20.476Y18.731Z-0.549
X20.49Y18.735Z-0.552
X20.512Y18.742Z-0.559
X20.549Y18.752Z-0.57
X20.59Y18.763Z-0.581
X20.622Y18.774Z-0.591
X20.659Y18.785Z-0.602
X20.69Y18.793Z-0.611
X20.733Y18.808Z-0.626
X20.77Y18.82Z-0.638
X20.79Y18.826Z-0.643
X20.808Y18.832Z-0.65
X20.845Y18.846Z-0.663
X20.89Y18.86Z-0.678
X20.921Y18.872Z-0.69
X20.959Y18.886Z-0.704
X20.99Y18.897Z-0.714
X21.036Y18.915Z-0.733
X21.075Y18.93Z-0.748
X21.09Y18.935Z-0.753
X21.107Y18.943Z-0.76
X21.145Y18.958Z-0.776
X21.183Y18.973Z-0.791
X21.201Y18.98Z-0.795
Z-0.8F150
X21.232Y19.011F300
X21.258Y19.038
X21.284Y19.066
X21.309Y19.094
X21.334Y19.122
X21.359Y19.15
X21.383Y19.179
X21.407Y19.208
X21.43Y19.238
X21.453Y19.268
X21.475Y19.298
X21.498Y19.328
X21.519Y19.359
X21.541Y19.39
X21.561Y19.421
X21.582Y19.453
X21.602Y19.485
X21.621Y19.517
X21.64Y19.549
X21.659Y19.582
X21.677Y19.615
X21.695Y19.648
X21.712Y19.682
X21.728Y19.715
X21.744Y19.749
X21.766Y19.796
X21.781Y19.752
X21.804Y19.692
X21.829Y19.632
X21.854Y19.573
X21.881Y19.515
X21.91Y19.457
X21.925Y19.428
X21.94Y19.4
X21.955Y19.372
X21.971Y19.344
X21.988Y19.316
X22.004Y19.288
X22.021Y19.261
X22.039Y19.233
X22.056Y19.206
X22.074Y19.18
X22.093Y19.153
X22.112Y19.127
X22.131Y19.101
X22.15Y19.075
X22.17Y19.049
X22.191Y19.024
X22.211Y18.999
X22.232Y18.974
X22.254Y18.949
X22.286Y18.913
X22.315Y18.883
X22.336Y18.861
X22.357Y18.839
X22.379Y18.818
X22.401Y18.797
X22.424Y18.776
X22.447Y18.756
X22.47Y18.735
X22.493Y18.716
X22.517Y18.696
X22.541Y18.677
X22.566Y18.658
X22.59Y18.64
X22.615Y18.622
X22.641Y18.604
X22.666Y18.587
X22.692Y18.57
X22.718Y18.553
X22.744Y18.537
X22.771Y18.521
X22.798Y18.506
X22.825Y18.491
X22.852Y18.476
X22.879Y18.462
X22.907Y18.449
X22.935Y18.435
X22.963Y18.423
X22.991Y18.41
X23.019Y18.398
X23.048Y18.387
X23.076Y18.376
X23.105Y18.365
X23.134Y18.355
X23.163Y18.345
X23.192Y18.335
X23.221Y18.326
X23.25Y18.318
X23.28Y18.309
X23.338Y18.294
X23.398Y18.28
X23.457Y18.268
X23.517Y18.257
X23.577Y18.247
X23.637Y18.239
X23.698Y18.232
X23.759Y18.227
X23.819Y18.222
X23.881Y18.219
X23.942Y18.217
X24.004Y18.216
X25.571Y18.216
Y17.914
X22.541
X22.522Y17.913
X22.502Y17.913
X22.483Y17.912
X22.463Y17.91
X22.443Y17.908
X22.424Y17.905
X22.405Y17.902
X22.385Y17.898
X22.366Y17.894
X22.347Y17.89
X22.328Y17.885
X22.309Y17.879
X22.29Y17.873
X22.272Y17.867
X22.253Y17.86
X22.235Y17.853
X22.217Y17.845
X22.199Y17.837
X22.182Y17.828
X22.164Y17.819
X22.147Y17.81
X22.13Y17.8
X22.113Y17.79
X22.097Y17.779
X22.081Y17.768
X22.065Y17.756
X22.049Y17.744
X22.034Y17.732
X22.019Y17.719
X22.004Y17.706
X21.99Y17.693
X21.976Y17.679
X21.962Y17.665
X21.94Y17.641
Y18.182
X21.94Y18.201
X21.939Y18.221
X21.938Y18.241
X21.936Y18.26
X21.934Y18.28
X21.932Y18.299
X21.928Y18.319
X21.925Y18.338
X21.921Y18.357
X21.916Y18.376
X21.911Y18.395
X21.906Y18.414
X21.9Y18.433
X21.893Y18.451
X21.887Y18.47
X21.879Y18.488
X21.872Y18.506
X21.863Y18.524
X21.855Y18.542
X21.846Y18.559
X21.836Y18.576
X21.826Y18.593
X21.816Y18.61
X21.805Y18.626
X21.794Y18.643
X21.783Y18.658
X21.771Y18.674
X21.759Y18.689
X21.746Y18.704
X21.733Y18.719
X21.72Y18.733
X21.706Y18.748
X21.692Y18.761
X21.677Y18.775
X21.663Y18.788
X21.648Y18.8
X21.632Y18.813
X21.617Y18.824
X21.601Y18.836
X21.585Y18.847
X21.568Y18.858
X21.551Y18.868
X21.534Y18.878
X21.517Y18.887
X21.5Y18.896
X21.482Y18.905
X21.464Y18.913
X21.446Y18.921
X21.428Y18.928
X21.41Y18.935
X21.391Y18.941
X21.372Y18.947
X21.354Y18.953
X21.335Y18.958
X21.315Y18.962
X21.296Y18.966
X21.277Y18.97
X21.258Y18.973
X21.238Y18.976
X21.219Y18.978
X21.201Y18.98
G0Z2
X21.94Y17.643
G1Z-0.799F150
X21.909Y17.555Z-0.769F300
X21.881Y17.455Z-0.741
X21.861Y17.355Z-0.72
X21.847Y17.255Z-0.706
X21.835Y17.064
X21.821Y16.964Z-0.72
X21.8Y16.864Z-0.741
X21.772Y16.764Z-0.769
X21.746Y16.688Z-0.795
X21.741Y16.677Z-0.796
G0Z2
X20.957Y16.173
G1Z-0.794F150
X20.89Y16.154Z-0.781F300
X20.885Y16.153Z-0.78
X20.79Y16.127Z-0.754
X20.785Y16.126Z-0.753
X20.69Y16.1Z-0.727
X20.685Y16.099Z-0.726
X20.59Y16.073Z-0.7
X20.585Y16.072Z-0.699
X20.49Y16.046Z-0.673
X20.485Y16.045Z-0.672
X20.39Y16.019Z-0.646
X20.385Y16.018Z-0.645
X20.29Y15.992Z-0.619
X20.285Y15.991Z-0.618
X20.19Y15.965Z-0.592
X20.185Y15.964Z-0.591
X20.09Y15.938Z-0.565
X20.085Y15.937Z-0.564
X19.99Y15.911Z-0.538
X19.985Y15.91Z-0.537
X19.89Y15.884Z-0.511
X19.885Y15.883Z-0.51
X19.815Y15.864Z-0.491
X19.79Y15.856Z-0.483
X19.765Y15.851Z-0.477
X19.715Y15.837Z-0.464
X19.69Y15.829Z-0.456
X19.644Y15.82Z-0.444
X19.618Y15.811Z-0.438
X18.045Y15.386Z-0.013
G0Z2
X19.664Y17.218
G1Z-0.013F150
X18.066Y16.787Z-0.444F300
X18.064Y16.786Z-0.444
X17.968Y16.761Z-0.47
X17.965Y16.76Z-0.471
X17.868Y16.734Z-0.497
X17.865Y16.733Z-0.498
X16.767Y16.436Z-0.794
X16.747Y16.431Z-0.795
G0Z2
X21.85Y22.114
G1Z-0.797F150
X21.849Y22.104Z-0.796F300
X21.847Y22.057Z-0.779
X21.845Y22.002Z-0.76
X21.842Y21.935Z-0.739
X21.839Y21.863Z-0.717
X21.837Y21.804Z-0.701
X21.834Y21.74Z-0.685
X21.832Y21.675Z-0.67
X21.829Y21.601Z-0.654
X21.827Y21.55Z-0.644
X21.825Y21.488Z-0.633
X21.822Y21.419Z-0.623
X21.82Y21.363Z-0.616
X21.818Y21.301Z-0.609
X21.815Y21.237Z-0.603
X21.813Y21.165Z-0.597
X21.811Y21.115Z-0.595
X21.809Y21.053Z-0.592
X21.807Y20.981Z-0.591
X21.805Y20.928Z-0.591
X21.804Y20.908Z-0.591
X21.803Y20.865Z-0.592
X21.801Y20.799Z-0.594
X21.799Y20.727Z-0.598
X21.797Y20.676Z-0.602
X21.795Y20.613Z-0.608
X21.793Y20.547Z-0.616
X21.791Y20.475Z-0.625
X21.789Y20.424Z-0.633
X21.787Y20.366Z-0.643
X21.785Y20.293Z-0.657
X21.783Y20.233Z-0.67
X21.78Y20.169Z-0.685
X21.778Y20.104Z-0.702
X21.775Y20.031Z-0.722
X21.773Y19.973Z-0.74
X21.77Y19.906Z-0.761
X21.767Y19.836Z-0.785
X21.766Y19.796Z-0.799
G0Z2
X24.011Y20.768
G1Z-0.798F150
X24Y20.757Z-0.788F300
X23.977Y20.732Z-0.762
X23.956Y20.71Z-0.738
X23.937Y20.689Z-0.715
X23.919Y20.67Z-0.693
X23.895Y20.645Z-0.663
X23.876Y20.625Z-0.638
X23.836Y20.583Z-0.583
G0Z2
X23.836Y21.115
G1Z-0.582F150
X23.86Y21.09Z-0.616
X23.882Y21.067Z-0.646
X23.903Y21.044Z-0.673
X23.919Y21.027Z-0.693
X23.936Y21.008Z-0.715
X23.956Y20.988Z-0.738
X23.977Y20.965Z-0.762
X24Y20.941Z-0.788
X24.011Y20.93Z-0.798
G0Z2
X25.571Y17.914
G1Z-0.799
X25.621Y17.864Z-0.749F300
X26.321Y17.164Z-0.05
G0Z2
Y16.112
G1Z-0.05F150
X25.745Y15.537Z-0.625
X25.721Y15.514Z-0.648
X25.672Y15.461Z-0.699
X25.621Y15.414Z-0.748
X25.572Y15.361Z-0.799
X25.571Y15.361Z-0.799F300
G0Z2
X27.923Y18.766
G1Z-0.417F150
X27.113Z-0.25F300
X26.817
X26.813Y18.766Z-0.249
X26.721Y18.765
X26.713Y18.766
X26.621Y18.765
X26.613Y18.766Z-0.249
X26.521Y18.765Z-0.249
X26.513Y18.766
X26.421Y18.765
X26.413Y18.766
X26.313Y18.765Z-0.251
X26.213Y18.743Z-0.272
X26.113Y18.702Z-0.314
X26.013Y18.64Z-0.375
X25.913Y18.559Z-0.456F150
X25.821Y18.465Z-0.55
X25.813Y18.459Z-0.556
X25.721Y18.365Z-0.65
X25.713Y18.359Z-0.656
X25.621Y18.265Z-0.75
X25.613Y18.259Z-0.757
X25.571Y18.216Z-0.784F300
G0Z2
X27.835Y23.116
G1Z-0.509F150
X27.162Z-0.434F300
X27.136Y23.116Z-0.433
X27.113Y23.117Z-0.432
X27.098Y23.116Z-0.433
X27.073Y23.116Z-0.434
X27.044Y23.116Z-0.434
X27.013Y23.117Z-0.433
X26.977Y23.116Z-0.434
X26.938Y23.116Z-0.434
X26.913Y23.117Z-0.432
X26.896Y23.116Z-0.434
X26.851Y23.116Z-0.434
X26.813Y23.117Z-0.433
X26.804Y23.116Z-0.433
X26.754Y23.115Z-0.434
X26.713Y23.117Z-0.433
X26.701Y23.116Z-0.433
X26.646Y23.115Z-0.434
X26.613Y23.117Z-0.432
X26.589Y23.116Z-0.434
X26.529Y23.116Z-0.434
X26.513Y23.117Z-0.433
X26.468Y23.115Z-0.433
X26.413Y23.117Z-0.433
X26.405Y23.116Z-0.433
X26.34Y23.115Z-0.434
X26.313Y23.117Z-0.432
X26.274Y23.115Z-0.433
X26.213Y23.117Z-0.433
X26.207Y23.116Z-0.433
X26.138Y23.115Z-0.434
X26.113Y23.117Z-0.432
X26.068Y23.115Z-0.433
X26.013Y23.117Z-0.433
X25.997Y23.116Z-0.434
X25.926Y23.116Z-0.434
X25.913Y23.117Z-0.433
X25.853Y23.115Z-0.433
X25.813Y23.117Z-0.432
X25.781Y23.115Z-0.433
X25.713Y23.117Z-0.433
X25.707Y23.116Z-0.434
X25.634Y23.115Z-0.434
X25.613Y23.117Z-0.433
X25.561Y23.115Z-0.433
X25.513Y23.117Z-0.432
X25.487Y23.115Z-0.433
X25.413Y23.116Z-0.433
X25.342Y23.115Z-0.433
X25.313Y23.117Z-0.432
X25.269Y23.115Z-0.433
X25.213Y23.117Z-0.433
X25.198Y23.116Z-0.434
X25.127Y23.116Z-0.434
X25.113Y23.117Z-0.433
X25.057Y23.115Z-0.433
X25.013Y23.117Z-0.432
X24.988Y23.115Z-0.434
X24.921Y23.116Z-0.433
X24.913Y23.117Z-0.433
X24.852Y23.115Z-0.433
X24.802Y23.116Z-0.433
X24.79Y23.116Z-0.434
X24.752Y23.116Z-0.434
X24.727Y23.115Z-0.433
X24.691Y23.117Z-0.432
X24.665Y23.116Z-0.434
X24.606Y23.116Z-0.434
X24.591Y23.117Z-0.433
X24.549Y23.115Z-0.433
X24.494Y23.117Z-0.433
X24.491Y23.117Z-0.433
X24.441Y23.115Z-0.433
X24.391Y23.117Z-0.433
X24.344Y23.115Z-0.434
X24.299Y23.117Z-0.433
X24.291Y23.117Z-0.433
X24.257Y23.116Z-0.434
X24.218Y23.116Z-0.434
X24.191Y23.117Z-0.432
X24.183Y23.117Z-0.433
X24.151Y23.116Z-0.434
X24.122Y23.116Z-0.434
X24.091Y23.117Z-0.432
X24.076Y23.116Z-0.433
X24.059Y23.116Z-0.434
X24.033Y23.116Z-0.434
X24.017Y23.116Z-0.434
X23.991Y23.117Z-0.433
X23.962Y23.116Z-0.434
X23.934Y23.115Z-0.435
X23.907Y23.115Z-0.434
X23.891Y23.116Z-0.434
X23.879Y23.115Z-0.435
X23.852Y23.113Z-0.436
X23.825Y23.112Z-0.437
X23.791Y23.113Z-0.437
X23.771Y23.111Z-0.439
X23.744Y23.109Z-0.441
X23.717Y23.108Z-0.442
X23.691Y23.107Z-0.442
X23.664Y23.105Z-0.445
X23.638Y23.103Z-0.447
X23.611Y23.101Z-0.449
X23.591Y23.1Z-0.449
X23.558Y23.096Z-0.453
X23.532Y23.094Z-0.456
X23.505Y23.092Z-0.458
X23.491Y23.091Z-0.458
X23.479Y23.089Z-0.46
X23.453Y23.086Z-0.464
X23.427Y23.083Z-0.467
X23.4Y23.08Z-0.469
X23.391Y23.08Z-0.47
X23.374Y23.077Z-0.473
X23.348Y23.072Z-0.477
X23.322Y23.069Z-0.481
X23.291Y23.065Z-0.484
X23.269Y23.061Z-0.489
X23.243Y23.056Z-0.493
X23.216Y23.052Z-0.498
X23.191Y23.049Z-0.501
X23.163Y23.042Z-0.507
X23.137Y23.037Z-0.513
X23.11Y23.032Z-0.517
X23.091Y23.029Z-0.52
X23.057Y23.02Z-0.529
X23.03Y23.014Z-0.535
X22.991Y23.007Z-0.543
X22.976Y23.002Z-0.547
X22.949Y22.995Z-0.555
X22.922Y22.988Z-0.561
X22.891Y22.981Z-0.568
X22.867Y22.974Z-0.576
X22.839Y22.966Z-0.584
X22.811Y22.958Z-0.592
X22.791Y22.953Z-0.597
X22.756Y22.941Z-0.609
X22.728Y22.932Z-0.617
X22.691Y22.922Z-0.628
X22.671Y22.914Z-0.635
X22.643Y22.904Z-0.645
X22.615Y22.895Z-0.655
X22.591Y22.887Z-0.662
X22.557Y22.874Z-0.676
X22.528Y22.863Z-0.687
X22.499Y22.853Z-0.698
X22.469Y22.842Z-0.711
X22.438Y22.832Z-0.725
X22.406Y22.822Z-0.74
X22.374Y22.813Z-0.756
X22.34Y22.803Z-0.773
X22.306Y22.794Z-0.791
X22.292Y22.79Z-0.795
G0Z2
X25.687Y26.346
G1Z-0.013F150
X24.089Y25.916Z-0.444F300
X24.087Y25.915Z-0.444
X23.991Y25.889Z-0.47
X23.989Y25.888Z-0.471
X23.891Y25.862Z-0.497
X23.889Y25.861Z-0.498
X22.79Y25.565Z-0.794
X22.77Y25.56Z-0.795
G0Z2
X24.134Y28.112
G1Z-0.786F150
X24.117Y28.095Z-0.782F300
X24.091Y28.067Z-0.756
X24.017Y27.995Z-0.682
X23.991Y27.967Z-0.655
X23.891Y27.871Z-0.56
X23.791Y27.791Z-0.48
X23.691Y27.727Z-0.415
X23.591Y27.679Z-0.367
X23.491Y27.646Z-0.334
X23.391Y27.629Z-0.317
X23.291Y27.628Z-0.316
X23.284Y27.629Z-0.316
X23.191Y27.628
X23.184Y27.629
X23.091Y27.628
X23.084Y27.629Z-0.316
X22.991Y27.628
X22.984Y27.629
X22.891Y27.628
X22.888Y27.628Z-0.317
X22.591
X21.916Z-0.701
G0Z2
X23.384Y30.109
G1Z-0.05F150
X24.084Y29.409Z-0.75
X24.134Y29.359Z-0.775F300
G0Z2
X25.491Y31.911
G1Z-0.799F150
X25.487Y31.91Z-0.799F300
X25.413Y31.897Z-0.786
X25.387Y31.894Z-0.782
X25.313Y31.88Z-0.769
X25.287Y31.877Z-0.765
X25.213Y31.863Z-0.753
X25.187Y31.86Z-0.748
X25.113Y31.846Z-0.736
X25.092Y31.844Z-0.732
X25.042Y31.835Z-0.724
X25.013Y31.83Z-0.719
X24.992Y31.827Z-0.716
X24.952Y31.82Z-0.709
X24.902Y31.812Z-0.701
X24.897Y31.811Z-0.7
X24.852Y31.803Z-0.693
X24.797Y31.794Z-0.683
X24.791Y31.793Z-0.682
X24.697Y31.777Z-0.666
X24.691Y31.776Z-0.665
X24.597Y31.76Z-0.649
X24.591Y31.759Z-0.649
X24.497Y31.744Z-0.633
X24.491Y31.742Z-0.632
X24.397Y31.727Z-0.616
X24.391Y31.725Z-0.615
X24.297Y31.71Z-0.599
X24.291Y31.709Z-0.598
X24.197Y31.693Z-0.582
X24.191Y31.692Z-0.581
X24.097Y31.676Z-0.565
X24.091Y31.675Z-0.565
X23.997Y31.66Z-0.549
X23.991Y31.658Z-0.548
X23.897Y31.643Z-0.532
X23.891Y31.641Z-0.531
X23.797Y31.626Z-0.515
X23.791Y31.625Z-0.514
X23.697Y31.609Z-0.498
X23.691Y31.608Z-0.497
X23.597Y31.592Z-0.481
X23.591Y31.591Z-0.48
X23.497Y31.576Z-0.465
X23.491Y31.574Z-0.464
X23.397Y31.559Z-0.448
X23.391Y31.557Z-0.447
X23.297Y31.542Z-0.431
X23.291Y31.541Z-0.43
X23.197Y31.525Z-0.414
X23.191Y31.524Z-0.413
X23.097Y31.508Z-0.397
X23.091Y31.507Z-0.396
X22.997Y31.492Z-0.381
X22.991Y31.49Z-0.38
X22.897Y31.475Z-0.364
X22.891Y31.473Z-0.363
X22.797Y31.458Z-0.347
X22.791Y31.456Z-0.346
X22.697Y31.441Z-0.33
X22.691Y31.44Z-0.329
X22.591Y31.424Z-0.313
X21.876Z-0.735F150
G0Z2
X19.895Y31.299
G1Z-0.437
X19.896Y31.298Z-0.437F300
X19.895Y31.299Z-0.437F150
X19.898Y31.297Z-0.433F300
X19.89Y31.301Z-0.443F150
X19.916Y31.271Z-0.405F300
X19.936Y31.251Z-0.377
X19.954Y31.236Z-0.353
X20.015Y31.184Z-0.273
X20.09Y31.123Z-0.176
G0Z2
X19.745Y31.442
G1Z-0.601F150
X19.698Y31.395Z-0.551F300
X19.66Y31.359Z-0.51
X19.596Y31.3Z-0.437
X19.575Y31.28Z-0.41
X19.544Y31.247Z-0.366
X19.527Y31.231Z-0.342
X19.517Y31.222Z-0.329
X19.487Y31.197Z-0.29
G0Z2
X19.745Y31.442
G1Z-0.601F150
X19.781Y31.405Z-0.564F300
X19.826Y31.361Z-0.516
X19.863Y31.326Z-0.475
X19.89Y31.301Z-0.443
G0Z2
X19.744Y32.057
G1Z-0.601F150
X19.745Y32.046Z-0.602F300
X19.745Y32.019Z-0.602
X19.745Y31.993Z-0.602
X19.744Y31.963Z-0.601
X19.745Y31.94Z-0.602
X19.745Y31.914Z-0.602
X19.745Y31.888Z-0.602
X19.744Y31.863Z-0.601
X19.745Y31.838Z-0.602
X19.745Y31.814Z-0.602
X19.745Y31.79Z-0.602
X19.744Y31.763Z-0.601
X19.745Y31.745Z-0.602
X19.745Y31.723Z-0.602
X19.745Y31.702
X19.745Y31.682Z-0.602
X19.744Y31.663Z-0.601
X19.745Y31.627Z-0.602
X19.745Y31.595Z-0.602
X19.744Y31.563Z-0.601
X19.745Y31.537Z-0.602
X19.745Y31.507Z-0.602
X19.745Y31.442Z-0.601
G0Z2
X18.747Y30.654
G1Z-0.003F150
X18.751Y30.628Z-0.014F300
X18.747Y30.622Z-0.016
X18.75Y30.599Z-0.026
X18.747Y30.591Z-0.029
X18.75Y30.571Z-0.037
X18.748Y30.56Z-0.042
X18.75Y30.542Z-0.049
X18.748Y30.53Z-0.054
X18.75Y30.514Z-0.062
X18.749Y30.501Z-0.067
X18.75Y30.485Z-0.074
X18.749Y30.472Z-0.08
X18.751Y30.456Z-0.087
X18.75Y30.443Z-0.093
X18.751Y30.427Z-0.101
X18.75Y30.414Z-0.107
X18.752Y30.398Z-0.115
X18.751Y30.386Z-0.12
X18.752Y30.368Z-0.129
X18.752Y30.357Z-0.135
X18.753Y30.338Z-0.144
X18.752Y30.328Z-0.149
X18.753Y30.307Z-0.16
X18.753Y30.299Z-0.165
X18.754Y30.276Z-0.177
X18.754Y30.269Z-0.181
X18.754Y30.244Z-0.195
X18.754Y30.238Z-0.198
X18.754Y30.211Z-0.213
X18.754Y30.173Z-0.236F150
X18.754Y30.139Z-0.257
X18.754Y30.107Z-0.277
X18.754Y30.07Z-0.301
X18.753Y30.032Z-0.327
X18.753Y30.022Z-0.334
X18.752Y29.992Z-0.355
X18.751Y29.977Z-0.365
X18.751Y29.949Z-0.385
X18.75Y29.929Z-0.4
X18.749Y29.905Z-0.417
X18.747Y29.877Z-0.438
X18.747Y29.859Z-0.452
X18.744Y29.809Z-0.49
X18.741Y29.757Z-0.531
X18.736Y29.69Z-0.585
X18.733Y29.642Z-0.624
X18.73Y29.607Z-0.653
X18.724Y29.603Z-0.654F300
X18.697Y29.586Z-0.656
X18.685Y29.578Z-0.657
X18.66Y29.563Z-0.66
X18.646Y29.554Z-0.662
X18.623Y29.54Z-0.665
X18.606Y29.529Z-0.668
X18.586Y29.517Z-0.672
X18.559Y29.5Z-0.678
X18.546Y29.459Z-0.657
X18.53Y29.411Z-0.634
X18.514Y29.365Z-0.614
X18.503Y29.337Z-0.602
G0Z2
X18.73Y29.607
G1Z-0.653F150
X18.75Y29.606Z-0.642F300
X18.777Y29.605Z-0.626
X18.793Y29.605Z-0.617
X18.834Y29.604Z-0.594
X18.882Y29.602Z-0.568
X18.914Y29.602Z-0.551
X18.932Y29.601Z-0.542
X18.953Y29.6Z-0.532
X18.98Y29.599Z-0.519
X19.027Y29.598Z-0.497
X19.071Y29.596Z-0.477
X19.098Y29.596Z-0.466
X19.115Y29.595Z-0.459
X19.132Y29.595Z-0.452
X19.158Y29.593Z-0.442
X19.199Y29.592Z-0.426
X19.24Y29.591Z-0.412
X19.264Y29.59Z-0.404
X19.28Y29.589Z-0.399
X19.296Y29.589Z-0.395
X19.32Y29.588Z-0.388
X19.359Y29.586Z-0.377
X19.397Y29.585Z-0.367
X19.421Y29.584Z-0.362
X19.436Y29.583Z-0.359
X19.451Y29.583Z-0.356
X19.474Y29.582Z-0.351
X19.482Y29.582Z-0.35
X19.512Y29.581Z-0.344
X19.542Y29.58Z-0.339
X19.549Y29.58Z-0.338
X19.572Y29.579Z-0.335
X19.587Y29.578Z-0.333
X19.602Y29.578Z-0.331
X19.625Y29.577Z-0.329
X19.632Y29.577Z-0.328
X19.662Y29.576Z-0.325
X19.693Y29.576Z-0.323
X19.7Y29.575Z-0.322
X19.723Y29.575Z-0.32
X19.738Y29.574Z-0.32
X19.753Y29.574Z-0.319
X19.777Y29.573Z-0.318
X19.783Y29.573Z-0.318
X19.814Y29.572Z-0.317
X19.82Y29.572Z-0.317
X19.845Y29.572Z-0.317
X19.869Y29.571Z-0.317
X19.875Y29.571Z-0.317
X19.901Y29.571Z-0.318
X19.918Y29.57Z-0.318
X19.942Y29.57Z-0.319
X19.966Y29.569Z-0.32
X19.984Y29.569Z-0.322
X20.004Y29.568Z-0.323
X20.014Y29.568Z-0.324
X20.025Y29.568Z-0.325
X20.045Y29.568Z-0.327
X20.062Y29.567Z-0.329
X20.087Y29.567Z-0.332
X20.11Y29.566Z-0.334
X20.128Y29.566Z-0.337
X20.148Y29.565Z-0.34
X20.158Y29.565Z-0.342
X20.169Y29.565Z-0.344
X20.19Y29.565Z-0.347
X20.206Y29.564Z-0.35
X20.232Y29.564Z-0.355
X20.254Y29.563Z-0.36
X20.274Y29.563Z-0.364
X20.303Y29.562Z-0.37
X20.337Y29.562Z-0.379
X20.352Y29.561Z-0.383
X20.38Y29.561Z-0.39
X20.402Y29.56Z-0.397
X20.423Y29.56Z-0.403
X20.452Y29.559Z-0.412
X20.489Y29.558Z-0.424
X20.504Y29.558Z-0.429
X20.534Y29.557Z-0.439
X20.557Y29.557Z-0.448
X20.58Y29.556Z-0.456
X20.609Y29.555Z-0.467
X20.65Y29.554Z-0.484
X20.664Y29.554Z-0.49
X20.697Y29.553Z-0.504
X20.722Y29.552Z-0.515
X20.746Y29.552Z-0.526
X20.777Y29.551Z-0.54
X20.822Y29.55Z-0.562
X20.836Y29.549Z-0.569
X20.875Y29.548Z-0.589
X20.898Y29.548Z-0.601
X20.929Y29.547Z-0.617
X20.961Y29.546Z-0.635
X21.028Y29.544Z-0.672
X21.073Y29.543Z-0.698F150
X21.097Y29.542Z-0.712
X21.134Y29.541Z-0.735
X21.169Y29.54Z-0.756
X21.199Y29.539Z-0.775
X21.232Y29.538Z-0.796
X21.237Y29.538Z-0.798F300
G0Z2
X20.298Y32.66
G1Z0F150
X20.297Y32.65Z-0.01
X20.296Y32.644Z-0.016
X20.295Y32.636Z-0.024
X20.292Y32.627Z-0.033
X20.288Y32.617Z-0.043
X20.282Y32.605Z-0.055
X20.274Y32.592Z-0.068
X20.264Y32.578Z-0.082
X20.25Y32.562Z-0.097
X20.233Y32.546Z-0.114
X20.211Y32.529Z-0.131
X20.198Y32.519Z-0.141
X20.191Y32.51Z-0.15
X20.176Y32.491Z-0.169
X20.158Y32.471Z-0.189
X20.137Y32.45Z-0.21
X20.113Y32.428Z-0.232
X20.098Y32.415Z-0.244
X20.09Y32.406Z-0.254
X20.069Y32.382Z-0.277
X20.046Y32.359Z-0.301
X20.021Y32.334Z-0.325
X19.998Y32.314Z-0.346
X19.971Y32.284Z-0.375
X19.946Y32.259Z-0.401
X19.919Y32.233Z-0.427
X19.898Y32.213Z-0.447
X19.892Y32.207Z-0.453
X19.867Y32.18Z-0.48
X19.841Y32.154Z-0.506
X19.813Y32.127Z-0.533
X19.795Y32.11Z-0.55
X19.786Y32.1Z-0.56
X19.76Y32.073Z-0.587
X19.745Y32.058Z-0.602
X19.744Y32.057Z-0.601F300
G0Z2
X19.193Y32.61
G1Z-0.05F150
X19.667Y32.136Z-0.523
X19.693Y32.113Z-0.547
X19.738Y32.063Z-0.595
X19.744Y32.057Z-0.601
G0Z2
X18.3Y32.66
G1Z0
X18.3Y32.651Z-0.009
X18.299Y32.645Z-0.015
X18.298Y32.637Z-0.022
X18.295Y32.629Z-0.031
X18.292Y32.619Z-0.041
X18.286Y32.608Z-0.052
X18.279Y32.595Z-0.065
X18.27Y32.582Z-0.078
X18.257Y32.567Z-0.093
X18.241Y32.552Z-0.108
X18.222Y32.535Z-0.125
X18.2Y32.519Z-0.141
X18.186Y32.499Z-0.161
X18.169Y32.48Z-0.18
X18.15Y32.46Z-0.199
X18.129Y32.439Z-0.22
X18.104Y32.418Z-0.242
X18.1Y32.415Z-0.245
X18.084Y32.396Z-0.264
X18.063Y32.374Z-0.286
X18.04Y32.351Z-0.309
X18.015Y32.327Z-0.333
X18Y32.314Z-0.346
X17.991Y32.303Z-0.357
X17.968Y32.279Z-0.381
X17.944Y32.254Z-0.406
X17.918Y32.229Z-0.431
X17.9Y32.213Z-0.447
X17.892Y32.204Z-0.456
X17.868Y32.179Z-0.481
X17.843Y32.153Z-0.507
X17.817Y32.128Z-0.532
X17.8Y32.113Z-0.547
X17.791Y32.102Z-0.558
X17.766Y32.077Z-0.583
X17.741Y32.051Z-0.609
X17.715Y32.026Z-0.634
X17.7Y32.012Z-0.648
X17.689Y32.001Z-0.659
X17.665Y31.976Z-0.684
X17.641Y31.951Z-0.709
X17.616Y31.927Z-0.733
X17.6Y31.912Z-0.748
X17.569Y31.879Z-0.781
X17.55Y31.86Z-0.796
Y31.783Z-0.798F300
X17.554Y31.779Z-0.796
X17.633Y31.697Z-0.717
X17.626Y31.421Z-0.44
X17.623Y31.318Z-0.337
X17.62Y31.189Z-0.209
X17.617Y31.07Z-0.09
X17.615Y31.035Z-0.055
G0Z2
X17.633Y31.697
G1Z-0.717F150
X17.805Y31.524Z-0.543F300
X17.829Y31.499Z-0.518
X17.846Y31.48Z-0.498
X17.87Y31.455Z-0.471
X17.891Y31.433Z-0.446
X17.909Y31.414Z-0.424
X17.932Y31.39Z-0.393
X17.953Y31.367Z-0.363
G0Z2
X17.853Y29.694
G1Z-0.359F150
X17.836Y29.694Z-0.359F300
X17.8Y29.691Z-0.359
X17.793Y29.69Z-0.359
X17.747Y29.687Z-0.361
